DSAA
 100 100
 0.0 400.0
 0.0 400.0
 -94.12187 -0.1689368
 -10.197  -10.302  -10.457  -10.690  -11.005  -11.380  -11.779  -12.152  -12.438  -12.572  -12.488  -12.100  -11.341  -10.212   -8.819   -7.384   -6.183   -5.414   -5.116   -5.199   -5.541   -6.042   -6.660   -7.367   -8.104   -8.758   -9.193   -9.301   -9.060   -8.503   -7.682   -6.687   -5.643   -4.731   -4.114   -3.842   -3.844   -3.986   -4.137   -4.218   -4.208   -4.123   -4.002   -3.893   -3.828   -3.826   -3.886   -3.986   -4.102   -4.227   -4.364   -4.520   -4.677   -4.777   -4.725   -4.433   -3.853   -3.057   -2.192   -1.432   -0.886   -0.551   -0.372   -0.290   -0.260   -0.241   -0.235   -0.231   -0.226   -0.221   -0.218   -0.218   -0.218   -0.220   -0.221   -0.223   -0.218   -0.218   -0.221   -0.230   -0.236   -0.240   -0.245   -0.259   -0.276   -0.306   -0.353   -0.429   -0.548   -0.726   -0.987   -1.324   -1.735   -2.209   -2.760   -3.413   -4.164   -4.934   -5.572   -5.987
 -10.094  -10.184  -10.319  -10.521  -10.791  -11.117  -11.474  -11.808  -12.063  -12.183  -12.099  -11.738  -11.023   -9.950   -8.614   -7.231   -6.056   -5.282   -4.959   -5.006   -5.303   -5.762   -6.340   -7.012   -7.721   -8.364   -8.821   -8.996   -8.857   -8.423   -7.729   -6.831   -5.854   -4.967   -4.317   -3.962   -3.856   -3.898   -3.986   -4.042   -4.033   -3.965   -3.866   -3.778   -3.734   -3.746   -3.812   -3.913   -4.024   -4.141   -4.273   -4.424   -4.582   -4.698   -4.681   -4.439   -3.928   -3.196   -2.374   -1.625   -1.053   -0.680   -0.468   -0.361   -0.310   -0.286   -0.271   -0.260   -0.247   -0.237   -0.228   -0.220   -0.220   -0.219   -0.215   -0.216   -0.217   -0.219   -0.222   -0.227   -0.232   -0.243   -0.252   -0.276   -0.313   -0.375   -0.472   -0.622   -0.836   -1.138   -1.541   -2.043   -2.613   -3.229   -3.900   -4.637   -5.444   -6.243   -6.881   -7.259
  -9.807   -9.878   -9.970  -10.108  -10.292  -10.524  -10.785  -11.034  -11.219  -11.297  -11.210  -10.898  -10.290   -9.365   -8.198   -6.961   -5.875   -5.122   -4.757   -4.731   -4.938   -5.302   -5.785   -6.361   -6.980   -7.567   -8.032   -8.305   -8.347   -8.145   -7.693   -7.024   -6.222   -5.425   -4.753   -4.263   -3.953   -3.791   -3.734   -3.729   -3.728   -3.710   -3.682   -3.666   -3.688   -3.746   -3.827   -3.909   -3.982   -4.060   -4.154   -4.281   -4.426   -4.554   -4.587   -4.446   -4.077   -3.495   -2.789   -2.090   -1.500   -1.066   -0.788   -0.626   -0.540   -0.495   -0.463   -0.434   -0.399   -0.361   -0.336   -0.318   -0.306   -0.301   -0.299   -0.295   -0.292   -0.293   -0.297   -0.305   -0.319   -0.335   -0.363   -0.417   -0.509   -0.667   -0.900   -1.225   -1.655   -2.209   -2.891   -3.679   -4.513   -5.339   -6.147   -6.961   -7.781   -8.545   -9.135   -9.432
  -9.276   -9.314   -9.354   -9.409   -9.484   -9.597   -9.742   -9.888   -9.991  -10.013   -9.920   -9.665   -9.192   -8.475   -7.550   -6.534   -5.606   -4.915   -4.534   -4.432   -4.532   -4.772   -5.121   -5.556   -6.035   -6.514   -6.946   -7.288   -7.506   -7.557   -7.403   -7.042   -6.514   -5.896   -5.253   -4.636   -4.093   -3.682   -3.434   -3.339   -3.347   -3.418   -3.534   -3.687   -3.866   -4.032   -4.147   -4.188   -4.165   -4.125   -4.114   -4.157   -4.255   -4.372   -4.456   -4.431   -4.231   -3.851   -3.327   -2.743   -2.190   -1.730   -1.394   -1.177   -1.050   -0.981   -0.925   -0.865   -0.785   -0.702   -0.632   -0.589   -0.567   -0.557   -0.547   -0.533   -0.521   -0.516   -0.522   -0.543   -0.571   -0.611   -0.678   -0.794   -1.001   -1.335   -1.807   -2.420   -3.158   -4.026   -5.010   -6.058   -7.088   -8.031   -8.870   -9.642  -10.366  -11.012  -11.487  -11.668
  -8.457   -8.451   -8.430   -8.393   -8.358   -8.355   -8.389   -8.435   -8.459   -8.431   -8.332   -8.143   -7.823   -7.343   -6.704   -5.970   -5.260   -4.698   -4.345   -4.201   -4.213   -4.331   -4.527   -4.789   -5.087   -5.403   -5.736   -6.071   -6.392   -6.654   -6.809   -6.818   -6.654   -6.300   -5.744   -5.040   -4.291   -3.635   -3.187   -2.989   -3.004   -3.202   -3.537   -3.971   -4.424   -4.799   -5.000   -4.992   -4.814   -4.565   -4.353   -4.234   -4.214   -4.266   -4.353   -4.411   -4.375   -4.206   -3.903   -3.502   -3.063   -2.655   -2.319   -2.082   -1.941   -1.860   -1.793   -1.697   -1.563   -1.413   -1.290   -1.214   -1.179   -1.163   -1.143   -1.113   -1.085   -1.075   -1.088   -1.132   -1.194   -1.276   -1.402   -1.626   -2.005   -2.588   -3.366   -4.299   -5.344   -6.469   -7.640   -8.798   -9.846  -10.724  -11.436  -12.037  -12.568  -13.027  -13.352  -13.415
  -7.389   -7.337   -7.249   -7.123   -6.982   -6.874   -6.813   -6.784   -6.749   -6.685   -6.595   -6.472   -6.308   -6.072   -5.740   -5.323   -4.882   -4.505   -4.247   -4.115   -4.078   -4.100   -4.161   -4.247   -4.343   -4.461   -4.623   -4.860   -5.185   -5.591   -6.043   -6.471   -6.743   -6.712   -6.297   -5.545   -4.633   -3.775   -3.141   -2.814   -2.809   -3.120   -3.708   -4.484   -5.305   -5.980   -6.345   -6.340   -6.024   -5.552   -5.086   -4.723   -4.490   -4.387   -4.398   -4.474   -4.553   -4.567   -4.479   -4.287   -4.027   -3.743   -3.481   -3.284   -3.172   -3.112   -3.058   -2.955   -2.787   -2.594   -2.432   -2.335   -2.299   -2.286   -2.263   -2.223   -2.185   -2.171   -2.199   -2.273   -2.380   -2.526   -2.738   -3.090   -3.660   -4.485   -5.527   -6.698   -7.928   -9.167  -10.375  -11.476  -12.383  -13.042  -13.496  -13.831  -14.125  -14.387  -14.569  -14.541
  -6.241   -6.135   -5.978   -5.766   -5.536   -5.343   -5.214   -5.133   -5.068   -4.992   -4.914   -4.856   -4.837   -4.838   -4.811   -4.722   -4.576   -4.423   -4.308   -4.241   -4.202   -4.173   -4.136   -4.079   -3.994   -3.903   -3.857   -3.918   -4.153   -4.620   -5.328   -6.164   -6.878   -7.189   -6.951   -6.221   -5.228   -4.239   -3.448   -2.958   -2.844   -3.169   -3.931   -5.022   -6.211   -7.221   -7.826   -7.930   -7.599   -7.009   -6.346   -5.727   -5.215   -4.863   -4.709   -4.735   -4.862   -4.992   -5.059   -5.046   -4.961   -4.830   -4.687   -4.577   -4.531   -4.530   -4.527   -4.464   -4.320   -4.140   -3.988   -3.911   -3.896   -3.902   -3.895   -3.862   -3.829   -3.825   -3.873   -3.981   -4.142   -4.356   -4.657   -5.125   -5.830   -6.801   -7.964   -9.212  -10.469  -11.693  -12.836  -13.805  -14.487  -14.850  -14.973  -15.008  -15.060  -15.151  -15.220  -15.125
  -5.241   -5.085   -4.856   -4.560   -4.256   -4.010   -3.847   -3.750   -3.682   -3.609   -3.547   -3.545   -3.650   -3.858   -4.113   -4.333   -4.478   -4.558   -4.603   -4.627   -4.628   -4.590   -4.506   -4.357   -4.143   -3.884   -3.634   -3.482   -3.553   -3.977   -4.816   -5.932   -6.983   -7.598   -7.573   -6.984   -6.074   -5.100   -4.220   -3.535   -3.183   -3.343   -4.105   -5.356   -6.809   -8.113   -8.989   -9.306   -9.118   -8.587   -7.877   -7.094   -6.328   -5.702   -5.341   -5.268   -5.386   -5.558   -5.698   -5.776   -5.802   -5.786   -5.751   -5.730   -5.759   -5.834   -5.910   -5.931   -5.871   -5.763   -5.680   -5.660   -5.693   -5.735   -5.752   -5.744   -5.732   -5.748   -5.822   -5.962   -6.170   -6.442   -6.813   -7.345   -8.103   -9.085  -10.217  -11.395  -12.566  -13.707  -14.762  -15.592  -16.052  -16.110  -15.896  -15.626  -15.455  -15.403  -15.388  -15.248
  -4.603   -4.399   -4.091   -3.709   -3.348   -3.069   -2.906   -2.828   -2.781   -2.731   -2.692   -2.737   -2.948   -3.331   -3.816   -4.297   -4.693   -4.977   -5.170   -5.283   -5.327   -5.306   -5.208   -5.023   -4.742   -4.377   -3.968   -3.609   -3.460   -3.715   -4.487   -5.651   -6.841   -7.655   -7.883   -7.591   -6.984   -6.241   -5.411   -4.553   -3.865   -3.663   -4.187   -5.387   -6.946   -8.450   -9.561  -10.127  -10.178   -9.839   -9.227   -8.417   -7.515   -6.709   -6.199   -6.045   -6.129   -6.286   -6.408   -6.478   -6.518   -6.540   -6.557   -6.598   -6.692   -6.844   -7.010   -7.133   -7.184   -7.183   -7.191   -7.240   -7.318   -7.384   -7.412   -7.415   -7.425   -7.468   -7.569   -7.740   -7.984   -8.297   -8.703   -9.245   -9.970  -10.872  -11.875  -12.902  -13.930  -14.963  -15.930  -16.640  -16.911  -16.705  -16.196  -15.665  -15.302  -15.127  -15.040  -14.866
  -4.410   -4.154   -3.762   -3.292   -2.870   -2.582   -2.438   -2.398   -2.396   -2.386   -2.391   -2.505   -2.809   -3.330   -3.988   -4.658   -5.230   -5.660   -5.950   -6.123   -6.194   -6.182   -6.084   -5.894   -5.588   -5.166   -4.649   -4.115   -3.729   -3.706   -4.209   -5.164   -6.267   -7.160   -7.654   -7.787   -7.678   -7.360   -6.748   -5.813   -4.791   -4.132   -4.244   -5.200   -6.698   -8.273   -9.532  -10.291  -10.555  -10.427   -9.984   -9.271   -8.400   -7.589   -7.070   -6.908   -6.972   -7.077   -7.123   -7.112   -7.085   -7.070   -7.087   -7.158   -7.304   -7.523   -7.778   -8.005   -8.159   -8.253   -8.329   -8.422   -8.510   -8.555   -8.549   -8.522   -8.525   -8.590   -8.726   -8.935   -9.206   -9.535   -9.926  -10.416  -11.048  -11.815  -12.652  -13.498  -14.362  -15.270  -16.136  -16.741  -16.861  -16.461  -15.740  -15.018  -14.504  -14.214  -14.049  -13.850
  -4.616   -4.319   -3.842   -3.286   -2.809   -2.509   -2.389   -2.387   -2.430   -2.468   -2.547   -2.751   -3.162   -3.787   -4.545   -5.311   -5.975   -6.473   -6.799   -6.977   -7.044   -7.020   -6.915   -6.718   -6.406   -5.954   -5.362   -4.686   -4.077   -3.744   -3.865   -4.447   -5.297   -6.159   -6.885   -7.472   -7.924   -8.113   -7.818   -6.945   -5.715   -4.658   -4.331   -4.943   -6.252   -7.769   -9.048   -9.874  -10.246  -10.260   -9.986   -9.463   -8.785   -8.155   -7.772   -7.676   -7.733   -7.776   -7.730   -7.625   -7.509   -7.428   -7.414   -7.488   -7.671   -7.950   -8.283   -8.595   -8.830   -8.975   -9.069   -9.143   -9.181   -9.143   -9.040   -8.928   -8.889   -8.964   -9.143   -9.391   -9.676   -9.976  -10.291  -10.668  -11.153  -11.752  -12.410  -13.075  -13.769  -14.532  -15.280  -15.775  -15.787  -15.276  -14.453  -13.633  -13.018  -12.619  -12.361  -12.151
  -5.103   -4.779   -4.244   -3.627   -3.108   -2.788   -2.671   -2.681   -2.737   -2.827   -2.993   -3.315   -3.837   -4.535   -5.326   -6.100   -6.759   -7.242   -7.538   -7.669   -7.687   -7.620   -7.484   -7.271   -6.947   -6.471   -5.827   -5.052   -4.266   -3.663   -3.426   -3.619   -4.172   -4.929   -5.799   -6.738   -7.647   -8.270   -8.305   -7.598   -6.350   -5.093   -4.448   -4.725   -5.770   -7.110   -8.284   -9.057   -9.427   -9.507   -9.386   -9.109   -8.740   -8.419   -8.261   -8.264   -8.315   -8.299   -8.190   -8.022   -7.851   -7.722   -7.673   -7.739   -7.932   -8.243   -8.619   -8.977   -9.240   -9.382   -9.431   -9.420   -9.343   -9.170   -8.920   -8.687   -8.582   -8.653   -8.859   -9.126   -9.388   -9.606   -9.792   -9.998  -10.298  -10.713  -11.196  -11.696  -12.232  -12.841  -13.451  -13.839  -13.787  -13.266  -12.464  -11.651  -10.993  -10.504  -10.153   -9.938
  -5.719   -5.403   -4.859   -4.228   -3.688   -3.342   -3.188   -3.161   -3.206   -3.327   -3.587   -4.036   -4.664   -5.407   -6.170   -6.877   -7.449   -7.842   -8.042   -8.078   -8.002   -7.861   -7.672   -7.422   -7.075   -6.584   -5.914   -5.087   -4.205   -3.441   -2.967   -2.893   -3.207   -3.840   -4.726   -5.810   -6.940   -7.815   -8.101   -7.625   -6.537   -5.313   -4.541   -4.571   -5.333   -6.429   -7.424   -8.084   -8.409   -8.522   -8.540   -8.517   -8.488   -8.502   -8.572   -8.663   -8.701   -8.649   -8.526   -8.373   -8.217   -8.084   -8.016   -8.059   -8.225   -8.503   -8.841   -9.158   -9.380   -9.460   -9.410   -9.267   -9.042   -8.718   -8.326   -7.974   -7.794   -7.828   -8.015   -8.253   -8.441   -8.541   -8.566   -8.591   -8.706   -8.957   -9.300   -9.676  -10.086  -10.554  -11.017  -11.300  -11.229  -10.787  -10.114   -9.405   -8.767   -8.224   -7.806   -7.590
  -6.314   -6.031   -5.534   -4.943   -4.409   -4.030   -3.807   -3.709   -3.713   -3.858   -4.204   -4.773   -5.489   -6.250   -6.959   -7.551   -7.987   -8.236   -8.293   -8.194   -7.995   -7.753   -7.488   -7.185   -6.810   -6.313   -5.651   -4.836   -3.955   -3.168   -2.640   -2.472   -2.672   -3.184   -3.959   -4.943   -6.016   -6.917   -7.340   -7.107   -6.305   -5.298   -4.577   -4.477   -5.000   -5.851   -6.671   -7.235   -7.535   -7.681   -7.802   -7.971   -8.201   -8.465   -8.697   -8.832   -8.846   -8.784   -8.711   -8.652   -8.585   -8.500   -8.438   -8.446   -8.540   -8.706   -8.908   -9.090   -9.187   -9.148   -8.972   -8.692   -8.335   -7.907   -7.435   -7.020   -6.777   -6.746   -6.863   -7.007   -7.083   -7.050   -6.933   -6.816   -6.806   -6.952   -7.218   -7.536   -7.872   -8.223   -8.541   -8.714   -8.639   -8.306   -7.808   -7.244   -6.672   -6.131   -5.694   -5.487
  -6.736   -6.508   -6.091   -5.581   -5.078   -4.662   -4.368   -4.192   -4.160   -4.331   -4.760   -5.418   -6.193   -6.951   -7.596   -8.075   -8.372   -8.473   -8.377   -8.129   -7.795   -7.439   -7.087   -6.732   -6.334   -5.846   -5.233   -4.503   -3.728   -3.051   -2.621   -2.517   -2.712   -3.114   -3.668   -4.358   -5.139   -5.860   -6.294   -6.266   -5.788   -5.086   -4.524   -4.400   -4.778   -5.469   -6.182   -6.714   -7.022   -7.183   -7.333   -7.564   -7.894   -8.256   -8.542   -8.665   -8.644   -8.587   -8.598   -8.671   -8.731   -8.727   -8.681   -8.651   -8.657   -8.676   -8.689   -8.678   -8.604   -8.427   -8.128   -7.745   -7.327   -6.888   -6.451   -6.069   -5.821   -5.737   -5.758   -5.787   -5.740   -5.596   -5.389   -5.205   -5.140   -5.241   -5.479   -5.779   -6.071   -6.319   -6.495   -6.542   -6.424   -6.160   -5.790   -5.349   -4.868   -4.382   -3.982   -3.808
  -6.859   -6.688   -6.366   -5.944   -5.492   -5.070   -4.728   -4.514   -4.481   -4.696   -5.183   -5.888   -6.680   -7.416   -8.004   -8.408   -8.610   -8.602   -8.396   -8.036   -7.595   -7.144   -6.719   -6.317   -5.915   -5.468   -4.949   -4.363   -3.770   -3.290   -3.050   -3.098   -3.339   -3.635   -3.911   -4.197   -4.548   -4.945   -5.262   -5.343   -5.119   -4.699   -4.329   -4.269   -4.615   -5.257   -5.955   -6.508   -6.834   -6.980   -7.072   -7.233   -7.507   -7.826   -8.060   -8.119   -8.042   -7.974   -8.037   -8.210   -8.368   -8.425   -8.394   -8.337   -8.276   -8.185   -8.050   -7.881   -7.672   -7.387   -7.012   -6.597   -6.205   -5.872   -5.590   -5.366   -5.221   -5.155   -5.116   -5.042   -4.888   -4.660   -4.406   -4.199   -4.108   -4.169   -4.358   -4.604   -4.822   -4.958   -4.983   -4.887   -4.684   -4.413   -4.096   -3.746   -3.364   -2.977   -2.666   -2.546
  -6.614   -6.480   -6.237   -5.902   -5.516   -5.131   -4.806   -4.612   -4.627   -4.899   -5.425   -6.133   -6.892   -7.588   -8.143   -8.518   -8.695   -8.664   -8.427   -8.034   -7.552   -7.057   -6.597   -6.185   -5.801   -5.426   -5.030   -4.614   -4.224   -3.962   -3.926   -4.117   -4.400   -4.589   -4.591   -4.470   -4.369   -4.382   -4.468   -4.509   -4.398   -4.163   -3.966   -4.017   -4.424   -5.105   -5.848   -6.442   -6.775   -6.868   -6.850   -6.872   -7.008   -7.204   -7.331   -7.297   -7.149   -7.029   -7.063   -7.230   -7.394   -7.450   -7.410   -7.347   -7.277   -7.178   -7.021   -6.818   -6.574   -6.268   -5.895   -5.523   -5.237   -5.088   -5.056   -5.089   -5.148   -5.181   -5.136   -4.973   -4.706   -4.392   -4.091   -3.859   -3.727   -3.702   -3.768   -3.877   -3.955   -3.947   -3.824   -3.599   -3.310   -3.008   -2.722   -2.444   -2.169   -1.910   -1.713   -1.656
  -6.021   -5.904   -5.707   -5.443   -5.133   -4.826   -4.582   -4.475   -4.574   -4.909   -5.447   -6.116   -6.812   -7.459   -7.999   -8.402   -8.630   -8.660   -8.491   -8.162   -7.727   -7.262   -6.821   -6.431   -6.097   -5.804   -5.528   -5.258   -5.035   -4.936   -5.035   -5.306   -5.584   -5.668   -5.457   -5.031   -4.571   -4.226   -4.029   -3.908   -3.774   -3.620   -3.558   -3.746   -4.255   -5.009   -5.799   -6.405   -6.700   -6.703   -6.552   -6.418   -6.398   -6.460   -6.482   -6.376   -6.165   -5.968   -5.899   -5.948   -6.009   -5.996   -5.927   -5.881   -5.878   -5.889   -5.864   -5.783   -5.635   -5.403   -5.107   -4.834   -4.684   -4.728   -4.945   -5.243   -5.514   -5.648   -5.576   -5.294   -4.883   -4.454   -4.099   -3.843   -3.661   -3.523   -3.422   -3.338   -3.245   -3.092   -2.857   -2.556   -2.232   -1.939   -1.701   -1.504   -1.341   -1.204   -1.108   -1.104
  -5.222   -5.095   -4.915   -4.687   -4.454   -4.253   -4.133   -4.151   -4.351   -4.735   -5.254   -5.850   -6.463   -7.051   -7.592   -8.054   -8.389   -8.557   -8.541   -8.358   -8.054   -7.691   -7.323   -6.990   -6.715   -6.490   -6.291   -6.108   -5.965   -5.930   -6.060   -6.313   -6.532   -6.526   -6.198   -5.623   -4.971   -4.401   -3.975   -3.675   -3.464   -3.352   -3.420   -3.750   -4.371   -5.176   -5.957   -6.494   -6.672   -6.516   -6.182   -5.867   -5.689   -5.627   -5.569   -5.427   -5.191   -4.940   -4.755   -4.653   -4.569   -4.468   -4.381   -4.390   -4.523   -4.742   -4.958   -5.104   -5.132   -5.035   -4.856   -4.686   -4.642   -4.803   -5.153   -5.590   -5.952   -6.092   -5.922   -5.481   -4.908   -4.375   -3.978   -3.716   -3.511   -3.297   -3.061   -2.825   -2.593   -2.345   -2.061   -1.757   -1.467   -1.234   -1.070   -0.958   -0.880   -0.835   -0.813   -0.847
  -4.471   -4.315   -4.108   -3.884   -3.704   -3.607   -3.623   -3.765   -4.047   -4.441   -4.901   -5.391   -5.893   -6.411   -6.945   -7.476   -7.944   -8.294   -8.485   -8.512   -8.399   -8.190   -7.938   -7.686   -7.466   -7.272   -7.090   -6.907   -6.748   -6.677   -6.731   -6.878   -6.990   -6.908   -6.557   -5.987   -5.335   -4.726   -4.225   -3.860   -3.644   -3.627   -3.856   -4.354   -5.080   -5.892   -6.579   -6.940   -6.884   -6.469   -5.878   -5.327   -4.949   -4.740   -4.601   -4.436   -4.213   -3.952   -3.713   -3.514   -3.344   -3.203   -3.142   -3.252   -3.565   -4.024   -4.508   -4.890   -5.105   -5.149   -5.077   -4.984   -4.975   -5.127   -5.441   -5.824   -6.104   -6.119   -5.787   -5.187   -4.498   -3.915   -3.526   -3.290   -3.093   -2.858   -2.569   -2.267   -1.982   -1.715   -1.459   -1.217   -1.016   -0.873   -0.789   -0.745   -0.730   -0.736   -0.755   -0.807
  -4.059   -3.858   -3.592   -3.331   -3.167   -3.146   -3.260   -3.490   -3.798   -4.147   -4.498   -4.836   -5.191   -5.602   -6.098   -6.673   -7.265   -7.802   -8.224   -8.498   -8.617   -8.604   -8.498   -8.341   -8.163   -7.968   -7.741   -7.487   -7.236   -7.039   -6.939   -6.919   -6.892   -6.748   -6.433   -5.977   -5.472   -4.997   -4.603   -4.340   -4.263   -4.435   -4.878   -5.565   -6.390   -7.176   -7.708   -7.817   -7.456   -6.714   -5.807   -4.963   -4.334   -3.933   -3.675   -3.467   -3.253   -3.017   -2.784   -2.572   -2.403   -2.297   -2.325   -2.567   -3.057   -3.719   -4.409   -4.971   -5.329   -5.482   -5.496   -5.453   -5.429   -5.483   -5.627   -5.802   -5.863   -5.669   -5.169   -4.464   -3.742   -3.181   -2.834   -2.635   -2.464   -2.247   -1.974   -1.694   -1.438   -1.223   -1.041   -0.897   -0.804   -0.760   -0.746   -0.751   -0.771   -0.802   -0.837   -0.895
  -4.173   -3.929   -3.587   -3.260   -3.075   -3.075   -3.232   -3.474   -3.741   -3.978   -4.160   -4.301   -4.460   -4.720   -5.128   -5.690   -6.357   -7.052   -7.700   -8.230   -8.603   -8.817   -8.886   -8.840   -8.702   -8.480   -8.179   -7.813   -7.422   -7.060   -6.771   -6.556   -6.381   -6.177   -5.915   -5.614   -5.320   -5.078   -4.918   -4.887   -5.045   -5.454   -6.115   -6.965   -7.859   -8.601   -8.981   -8.860   -8.222   -7.198   -6.015   -4.906   -4.027   -3.413   -3.005   -2.717   -2.478   -2.258   -2.049   -1.875   -1.755   -1.733   -1.870   -2.242   -2.860   -3.641   -4.431   -5.075   -5.502   -5.728   -5.816   -5.826   -5.790   -5.739   -5.685   -5.598   -5.396   -4.988   -4.366   -3.630   -2.948   -2.445   -2.139   -1.955   -1.795   -1.611   -1.393   -1.182   -1.007   -0.874   -0.785   -0.743   -0.746   -0.778   -0.817   -0.849   -0.881   -0.922   -0.965   -1.021
  -4.770   -4.500   -4.099   -3.709   -3.484   -3.470   -3.612   -3.804   -3.964   -4.029   -3.998   -3.901   -3.838   -3.900   -4.168   -4.657   -5.330   -6.120   -6.941   -7.704   -8.332   -8.779   -9.040   -9.118   -9.032   -8.790   -8.412   -7.932   -7.398   -6.869   -6.397   -6.007   -5.694   -5.433   -5.213   -5.049   -4.965   -4.974   -5.081   -5.306   -5.692   -6.281   -7.066   -7.977   -8.866   -9.543   -9.805   -9.541   -8.767   -7.627   -6.340   -5.116   -4.097   -3.325   -2.775   -2.386   -2.089   -1.848   -1.652   -1.511   -1.451   -1.513   -1.749   -2.202   -2.866   -3.653   -4.421   -5.038   -5.457   -5.708   -5.860   -5.939   -5.934   -5.828   -5.624   -5.322   -4.902   -4.340   -3.662   -2.956   -2.339   -1.884   -1.591   -1.402   -1.252   -1.102   -0.956   -0.828   -0.739   -0.691   -0.681   -0.714   -0.777   -0.847   -0.904   -0.936   -0.964   -1.002   -1.039   -1.094
  -5.583   -5.323   -4.911   -4.502   -4.260   -4.230   -4.335   -4.446   -4.465   -4.336   -4.073   -3.744   -3.454   -3.323   -3.426   -3.789   -4.392   -5.189   -6.101   -7.026   -7.853   -8.502   -8.934   -9.136   -9.115   -8.882   -8.462   -7.900   -7.254   -6.595   -5.984   -5.464   -5.055   -4.748   -4.554   -4.487   -4.569   -4.789   -5.116   -5.535   -6.046   -6.678   -7.428   -8.250   -9.023   -9.574   -9.740   -9.436   -8.695   -7.658   -6.506   -5.395   -4.415   -3.611   -2.985   -2.506   -2.142   -1.868   -1.667   -1.552   -1.542   -1.664   -1.950   -2.413   -3.026   -3.705   -4.335   -4.821   -5.148   -5.372   -5.557   -5.707   -5.758   -5.647   -5.365   -4.936   -4.390   -3.760   -3.091   -2.456   -1.911   -1.499   -1.218   -1.029   -0.896   -0.795   -0.717   -0.666   -0.649   -0.664   -0.713   -0.784   -0.868   -0.938   -0.974   -0.981   -0.982   -0.998   -1.024   -1.073
  -6.336   -6.116   -5.761   -5.403   -5.193   -5.165   -5.238   -5.273   -5.162   -4.862   -4.414   -3.898   -3.436   -3.146   -3.102   -3.325   -3.813   -4.531   -5.424   -6.387   -7.297   -8.051   -8.585   -8.881   -8.923   -8.726   -8.308   -7.716   -7.016   -6.282   -5.593   -5.004   -4.545   -4.224   -4.049   -4.048   -4.238   -4.596   -5.063   -5.574   -6.097   -6.639   -7.216   -7.811   -8.349   -8.708   -8.779   -8.503   -7.930   -7.173   -6.350   -5.540   -4.774   -4.071   -3.452   -2.936   -2.529   -2.228   -2.029   -1.936   -1.955   -2.095   -2.367   -2.759   -3.234   -3.712   -4.119   -4.400   -4.576   -4.722   -4.898   -5.083   -5.175   -5.080   -4.776   -4.307   -3.738   -3.134   -2.551   -2.025   -1.582   -1.232   -0.982   -0.818   -0.721   -0.673   -0.651   -0.660   -0.695   -0.756   -0.834   -0.921   -0.994   -1.034   -1.024   -0.983   -0.942   -0.928   -0.936   -0.983
  -6.875   -6.722   -6.475   -6.235   -6.101   -6.101   -6.161   -6.146   -5.953   -5.553   -4.995   -4.382   -3.831   -3.454   -3.316   -3.427   -3.784   -4.365   -5.128   -5.983   -6.819   -7.534   -8.061   -8.373   -8.457   -8.304   -7.925   -7.355   -6.655   -5.905   -5.194   -4.587   -4.123   -3.812   -3.668   -3.714   -3.964   -4.388   -4.904   -5.420   -5.884   -6.280   -6.633   -6.954   -7.213   -7.358   -7.332   -7.129   -6.789   -6.385   -5.962   -5.520   -5.037   -4.512   -3.972   -3.467   -3.048   -2.741   -2.549   -2.465   -2.477   -2.581   -2.770   -3.018   -3.286   -3.522   -3.680   -3.746   -3.760   -3.808   -3.938   -4.113   -4.209   -4.127   -3.848   -3.421   -2.930   -2.444   -2.007   -1.632   -1.317   -1.064   -0.876   -0.758   -0.705   -0.695   -0.714   -0.757   -0.822   -0.905   -0.996   -1.079   -1.129   -1.127   -1.069   -0.975   -0.888   -0.842   -0.836   -0.875
  -7.202   -7.127   -7.021   -6.924   -6.897   -6.946   -7.007   -6.975   -6.756   -6.336   -5.761   -5.138   -4.579   -4.188   -4.010   -4.053   -4.296   -4.718   -5.272   -5.898   -6.514   -7.047   -7.449   -7.700   -7.777   -7.658   -7.335   -6.821   -6.165   -5.450   -4.761   -4.171   -3.726   -3.439   -3.323   -3.396   -3.661   -4.084   -4.578   -5.052   -5.438   -5.717   -5.900   -6.012   -6.061   -6.050   -5.985   -5.888   -5.782   -5.691   -5.594   -5.457   -5.220   -4.864   -4.419   -3.949   -3.528   -3.206   -2.993   -2.871   -2.827   -2.841   -2.899   -2.967   -3.024   -3.039   -2.994   -2.903   -2.808   -2.781   -2.861   -2.993   -3.074   -3.010   -2.795   -2.480   -2.142   -1.836   -1.582   -1.374   -1.190   -1.034   -0.915   -0.850   -0.830   -0.845   -0.883   -0.935   -1.002   -1.082   -1.160   -1.213   -1.228   -1.188   -1.095   -0.971   -0.860   -0.797   -0.775   -0.814
  -7.379   -7.386   -7.418   -7.474   -7.555   -7.656   -7.733   -7.705   -7.508   -7.126   -6.600   -6.025   -5.507   -5.136   -4.952   -4.950   -5.106   -5.370   -5.692   -6.034   -6.353   -6.622   -6.830   -6.965   -6.996   -6.893   -6.624   -6.184   -5.608   -4.968   -4.336   -3.784   -3.361   -3.082   -2.965   -3.024   -3.255   -3.621   -4.047   -4.456   -4.784   -5.005   -5.119   -5.151   -5.129   -5.097   -5.092   -5.137   -5.231   -5.354   -5.458   -5.486   -5.389   -5.136   -4.746   -4.289   -3.846   -3.476   -3.196   -2.990   -2.839   -2.734   -2.648   -2.565   -2.466   -2.344   -2.203   -2.058   -1.944   -1.904   -1.956   -2.052   -2.117   -2.092   -1.973   -1.806   -1.642   -1.514   -1.423   -1.345   -1.266   -1.189   -1.134   -1.113   -1.125   -1.158   -1.198   -1.241   -1.279   -1.307   -1.323   -1.318   -1.284   -1.214   -1.111   -0.992   -0.891   -0.834   -0.814   -0.848
  -7.465   -7.538   -7.687   -7.874   -8.051   -8.198   -8.284   -8.265   -8.102   -7.782   -7.336   -6.839   -6.379   -6.030   -5.833   -5.789   -5.858   -5.978   -6.092   -6.166   -6.201   -6.215   -6.228   -6.243   -6.229   -6.140   -5.930   -5.580   -5.115   -4.584   -4.045   -3.544   -3.127   -2.821   -2.653   -2.637   -2.773   -3.035   -3.357   -3.680   -3.960   -4.164   -4.287   -4.345   -4.379   -4.446   -4.589   -4.807   -5.070   -5.321   -5.512   -5.597   -5.538   -5.308   -4.922   -4.444   -3.956   -3.517   -3.140   -2.825   -2.561   -2.347   -2.159   -1.990   -1.829   -1.684   -1.556   -1.452   -1.392   -1.397   -1.461   -1.556   -1.629   -1.657   -1.637   -1.594   -1.559   -1.552   -1.559   -1.558   -1.543   -1.530   -1.543   -1.579   -1.634   -1.690   -1.733   -1.750   -1.724   -1.656   -1.564   -1.454   -1.345   -1.243   -1.149   -1.065   -1.001   -0.972   -0.966   -1.007
  -7.480   -7.594   -7.824   -8.098   -8.336   -8.499   -8.573   -8.543   -8.399   -8.135   -7.769   -7.354   -6.951   -6.622   -6.403   -6.300   -6.275   -6.265   -6.208   -6.083   -5.915   -5.749   -5.630   -5.571   -5.543   -5.491   -5.364   -5.136   -4.821   -4.445   -4.031   -3.604   -3.191   -2.823   -2.543   -2.387   -2.369   -2.473   -2.651   -2.863   -3.076   -3.261   -3.408   -3.534   -3.679   -3.897   -4.213   -4.596   -4.987   -5.319   -5.542   -5.631   -5.559   -5.311   -4.901   -4.393   -3.863   -3.369   -2.925   -2.535   -2.201   -1.924   -1.700   -1.524   -1.390   -1.301   -1.252   -1.237   -1.262   -1.327   -1.430   -1.545   -1.652   -1.737   -1.793   -1.824   -1.848   -1.882   -1.915   -1.938   -1.962   -2.013   -2.110   -2.235   -2.364   -2.464   -2.515   -2.497   -2.386   -2.195   -1.952   -1.709   -1.503   -1.353   -1.259   -1.204   -1.183   -1.190   -1.211   -1.263
  -7.424   -7.561   -7.832   -8.140   -8.387   -8.524   -8.541   -8.456   -8.290   -8.047   -7.744   -7.406   -7.069   -6.769   -6.534   -6.368   -6.245   -6.120   -5.943   -5.700   -5.431   -5.188   -5.018   -4.947   -4.947   -4.973   -4.970   -4.911   -4.794   -4.623   -4.381   -4.065   -3.669   -3.226   -2.799   -2.453   -2.232   -2.133   -2.131   -2.194   -2.304   -2.441   -2.592   -2.767   -3.004   -3.341   -3.777   -4.266   -4.731   -5.102   -5.341   -5.425   -5.334   -5.066   -4.641   -4.126   -3.595   -3.106   -2.671   -2.285   -1.956   -1.689   -1.492   -1.368   -1.311   -1.314   -1.356   -1.424   -1.514   -1.629   -1.761   -1.899   -2.041   -2.171   -2.262   -2.309   -2.326   -2.338   -2.353   -2.376   -2.433   -2.564   -2.770   -3.019   -3.247   -3.410   -3.479   -3.427   -3.236   -2.924   -2.536   -2.151   -1.823   -1.586   -1.453   -1.394   -1.390   -1.416   -1.457   -1.519
  -7.322   -7.464   -7.740   -8.037   -8.245   -8.300   -8.206   -8.011   -7.768   -7.503   -7.233   -6.961   -6.698   -6.447   -6.218   -6.011   -5.812   -5.601   -5.357   -5.075   -4.788   -4.545   -4.394   -4.354   -4.415   -4.543   -4.701   -4.855   -4.985   -5.061   -5.039   -4.869   -4.524   -4.031   -3.470   -2.935   -2.501   -2.185   -1.982   -1.872   -1.850   -1.910   -2.032   -2.217   -2.488   -2.856   -3.309   -3.795   -4.248   -4.609   -4.838   -4.918   -4.827   -4.563   -4.157   -3.677   -3.204   -2.790   -2.448   -2.157   -1.911   -1.725   -1.613   -1.579   -1.623   -1.713   -1.828   -1.944   -2.065   -2.191   -2.323   -2.465   -2.618   -2.755   -2.838   -2.855   -2.818   -2.777   -2.757   -2.781   -2.884   -3.111   -3.447   -3.833   -4.171   -4.403   -4.493   -4.420   -4.176   -3.773   -3.271   -2.752   -2.291   -1.941   -1.716   -1.597   -1.565   -1.584   -1.630   -1.697
  -7.230   -7.363   -7.625   -7.884   -8.015   -7.946   -7.695   -7.339   -6.963   -6.631   -6.356   -6.134   -5.944   -5.759   -5.564   -5.348   -5.114   -4.865   -4.604   -4.337   -4.085   -3.886   -3.774   -3.776   -3.898   -4.132   -4.457   -4.839   -5.233   -5.580   -5.793   -5.797   -5.548   -5.065   -4.435   -3.770   -3.171   -2.676   -2.290   -2.018   -1.870   -1.845   -1.922   -2.080   -2.315   -2.620   -2.973   -3.335   -3.665   -3.935   -4.112   -4.175   -4.093   -3.865   -3.519   -3.124   -2.761   -2.479   -2.284   -2.151   -2.063   -2.012   -2.024   -2.110   -2.250   -2.413   -2.570   -2.702   -2.811   -2.912   -3.017   -3.133   -3.254   -3.357   -3.390   -3.340   -3.237   -3.143   -3.101   -3.144   -3.309   -3.633   -4.088   -4.590   -5.022   -5.311   -5.420   -5.336   -5.059   -4.603   -4.023   -3.394   -2.807   -2.333   -1.999   -1.797   -1.702   -1.692   -1.727   -1.797
  -7.191   -7.317   -7.558   -7.769   -7.810   -7.607   -7.181   -6.633   -6.091   -5.647   -5.333   -5.134   -5.005   -4.887   -4.743   -4.557   -4.333   -4.093   -3.858   -3.636   -3.437   -3.287   -3.206   -3.238   -3.401   -3.712   -4.172   -4.754   -5.390   -5.979   -6.413   -6.597   -6.481   -6.077   -5.469   -4.775   -4.100   -3.500   -2.998   -2.619   -2.384   -2.296   -2.325   -2.431   -2.580   -2.744   -2.899   -3.035   -3.145   -3.237   -3.304   -3.317   -3.244   -3.074   -2.825   -2.560   -2.343   -2.229   -2.219   -2.277   -2.369   -2.486   -2.644   -2.850   -3.077   -3.288   -3.450   -3.561   -3.640   -3.703   -3.762   -3.830   -3.901   -3.946   -3.913   -3.797   -3.639   -3.512   -3.473   -3.550   -3.777   -4.168   -4.689   -5.241   -5.710   -6.007   -6.105   -6.003   -5.706   -5.220   -4.591   -3.890   -3.220   -2.659   -2.242   -1.968   -1.821   -1.776   -1.804   -1.875
  -7.207   -7.332   -7.558   -7.731   -7.698   -7.377   -6.791   -6.057   -5.338   -4.763   -4.385   -4.184   -4.092   -4.030   -3.940   -3.803   -3.625   -3.434   -3.251   -3.083   -2.934   -2.817   -2.762   -2.801   -2.973   -3.320   -3.861   -4.575   -5.385   -6.160   -6.774   -7.122   -7.151   -6.879   -6.375   -5.741   -5.084   -4.473   -3.942   -3.528   -3.260   -3.135   -3.122   -3.158   -3.188   -3.167   -3.080   -2.936   -2.776   -2.640   -2.554   -2.490   -2.418   -2.309   -2.177   -2.063   -2.020   -2.087   -2.267   -2.520   -2.799   -3.083   -3.377   -3.680   -3.960   -4.182   -4.327   -4.408   -4.449   -4.474   -4.499   -4.529   -4.557   -4.549   -4.472   -4.322   -4.149   -4.028   -4.010   -4.116   -4.362   -4.749   -5.234   -5.734   -6.138   -6.368   -6.405   -6.257   -5.931   -5.431   -4.787   -4.070   -3.385   -2.813   -2.382   -2.090   -1.925   -1.877   -1.904   -1.982
  -7.195   -7.321   -7.545   -7.706   -7.631   -7.232   -6.529   -5.650   -4.777   -4.075   -3.623   -3.405   -3.334   -3.316   -3.277   -3.198   -3.086   -2.961   -2.838   -2.722   -2.612   -2.519   -2.476   -2.514   -2.673   -3.006   -3.561   -4.334   -5.238   -6.133   -6.872   -7.350   -7.522   -7.397   -7.031   -6.515   -5.942   -5.391   -4.908   -4.526   -4.268   -4.126   -4.061   -4.011   -3.904   -3.693   -3.367   -2.960   -2.548   -2.202   -1.967   -1.830   -1.752   -1.698   -1.673   -1.703   -1.830   -2.075   -2.429   -2.852   -3.295   -3.720   -4.120   -4.479   -4.775   -4.981   -5.096   -5.146   -5.161   -5.172   -5.187   -5.202   -5.212   -5.191   -5.116   -4.986   -4.847   -4.757   -4.759   -4.861   -5.059   -5.340   -5.674   -5.996   -6.229   -6.313   -6.236   -6.013   -5.650   -5.151   -4.539   -3.881   -3.267   -2.767   -2.398   -2.150   -2.016   -1.985   -2.026   -2.117
  -6.991   -7.124   -7.359   -7.525   -7.447   -7.026   -6.267   -5.302   -4.332   -3.539   -3.031   -2.798   -2.739   -2.750   -2.755   -2.731   -2.689   -2.640   -2.576   -2.504   -2.424   -2.353   -2.321   -2.350   -2.480   -2.770   -3.290   -4.051   -4.983   -5.929   -6.742   -7.315   -7.599   -7.606   -7.375   -6.987   -6.531   -6.083   -5.691   -5.381   -5.155   -5.001   -4.879   -4.733   -4.492   -4.105   -3.580   -2.974   -2.387   -1.917   -1.607   -1.438   -1.365   -1.355   -1.405   -1.542   -1.800   -2.183   -2.674   -3.227   -3.788   -4.315   -4.777   -5.156   -5.433   -5.609   -5.697   -5.730   -5.740   -5.751   -5.775   -5.802   -5.822   -5.817   -5.779   -5.704   -5.623   -5.576   -5.585   -5.645   -5.736   -5.840   -5.933   -5.994   -5.984   -5.870   -5.649   -5.338   -4.942   -4.471   -3.946   -3.415   -2.947   -2.583   -2.328   -2.163   -2.080   -2.085   -2.144   -2.244
  -6.449   -6.580   -6.827   -7.021   -6.975   -6.580   -5.833   -4.864   -3.875   -3.060   -2.535   -2.295   -2.243   -2.267   -2.300   -2.321   -2.339   -2.347   -2.338   -2.305   -2.256   -2.211   -2.188   -2.209   -2.306   -2.547   -3.008   -3.716   -4.613   -5.553   -6.388   -7.012   -7.371   -7.473   -7.353   -7.082   -6.747   -6.418   -6.138   -5.910   -5.722   -5.555   -5.377   -5.142   -4.783   -4.263   -3.604   -2.890   -2.237   -1.749   -1.455   -1.319   -1.282   -1.306   -1.402   -1.601   -1.929   -2.388   -2.951   -3.570   -4.192   -4.769   -5.254   -5.620   -5.863   -6.006   -6.075   -6.101   -6.113   -6.135   -6.172   -6.217   -6.254   -6.279   -6.284   -6.268   -6.244   -6.225   -6.225   -6.226   -6.196   -6.111   -5.960   -5.753   -5.492   -5.180   -4.824   -4.441   -4.039   -3.629   -3.225   -2.856   -2.559   -2.351   -2.221   -2.154   -2.138   -2.177   -2.259   -2.365
  -5.546   -5.660   -5.912   -6.134   -6.145   -5.824   -5.159   -4.267   -3.344   -2.583   -2.092   -1.865   -1.812   -1.830   -1.870   -1.910   -1.954   -1.998   -2.026   -2.031   -2.014   -2.002   -1.997   -2.019   -2.099   -2.301   -2.698   -3.327   -4.134   -5.007   -5.812   -6.437   -6.832   -6.989   -6.945   -6.774   -6.554   -6.348   -6.177   -6.028   -5.878   -5.698   -5.470   -5.158   -4.719   -4.125   -3.411   -2.683   -2.066   -1.649   -1.439   -1.383   -1.410   -1.479   -1.603   -1.820   -2.162   -2.623   -3.182   -3.793   -4.410   -4.981   -5.448   -5.781   -5.982   -6.093   -6.143   -6.162   -6.172   -6.199   -6.244   -6.299   -6.350   -6.397   -6.432   -6.455   -6.463   -6.457   -6.439   -6.387   -6.266   -6.041   -5.711   -5.306   -4.865   -4.416   -3.979   -3.569   -3.195   -2.868   -2.595   -2.381   -2.239   -2.160   -2.140   -2.157   -2.207   -2.290   -2.388   -2.509
  -4.429   -4.514   -4.755   -4.994   -5.069   -4.853   -4.321   -3.574   -2.791   -2.150   -1.735   -1.535   -1.471   -1.470   -1.488   -1.519   -1.565   -1.614   -1.659   -1.695   -1.721   -1.749   -1.780   -1.825   -1.911   -2.092   -2.430   -2.953   -3.631   -4.381   -5.094   -5.673   -6.056   -6.231   -6.233   -6.137   -6.018   -5.923   -5.847   -5.765   -5.642   -5.452   -5.190   -4.835   -4.358   -3.757   -3.073   -2.414   -1.895   -1.592   -1.492   -1.528   -1.624   -1.740   -1.888   -2.098   -2.401   -2.800   -3.282   -3.817   -4.364   -4.871   -5.284   -5.565   -5.723   -5.798   -5.827   -5.833   -5.836   -5.854   -5.895   -5.951   -6.006   -6.060   -6.106   -6.142   -6.158   -6.150   -6.115   -6.033   -5.869   -5.584   -5.179   -4.693   -4.182   -3.688   -3.245   -2.866   -2.562   -2.329   -2.174   -2.080   -2.045   -2.055   -2.106   -2.188   -2.300   -2.426   -2.551   -2.684
  -3.386   -3.434   -3.645   -3.884   -4.006   -3.895   -3.511   -2.939   -2.338   -1.847   -1.528   -1.358   -1.283   -1.254   -1.243   -1.248   -1.275   -1.316   -1.370   -1.432   -1.503   -1.579   -1.656   -1.740   -1.845   -2.020   -2.307   -2.726   -3.257   -3.848   -4.424   -4.908   -5.237   -5.395   -5.418   -5.375   -5.333   -5.322   -5.313   -5.269   -5.159   -4.970   -4.700   -4.344   -3.887   -3.343   -2.761   -2.228   -1.837   -1.644   -1.624   -1.717   -1.860   -2.011   -2.173   -2.366   -2.600   -2.888   -3.236   -3.632   -4.047   -4.442   -4.767   -4.983   -5.095   -5.137   -5.143   -5.131   -5.120   -5.124   -5.156   -5.206   -5.259   -5.307   -5.350   -5.380   -5.384   -5.366   -5.324   -5.241   -5.079   -4.809   -4.421   -3.964   -3.485   -3.041   -2.664   -2.368   -2.158   -2.027   -1.963   -1.951   -1.974   -2.028   -2.116   -2.234   -2.387   -2.551   -2.698   -2.837
  -2.718   -2.722   -2.881   -3.085   -3.219   -3.176   -2.921   -2.517   -2.090   -1.742   -1.510   -1.371   -1.284   -1.223   -1.184   -1.165   -1.175   -1.212   -1.273   -1.360   -1.469   -1.586   -1.709   -1.828   -1.959   -2.140   -2.397   -2.742   -3.153   -3.595   -4.024   -4.384   -4.633   -4.752   -4.774   -4.769   -4.783   -4.818   -4.834   -4.790   -4.682   -4.509   -4.269   -3.960   -3.581   -3.151   -2.712   -2.331   -2.066   -1.949   -1.961   -2.057   -2.202   -2.360   -2.521   -2.678   -2.828   -2.981   -3.150   -3.356   -3.589   -3.827   -4.030   -4.165   -4.226   -4.236   -4.221   -4.194   -4.175   -4.170   -4.195   -4.239   -4.285   -4.327   -4.357   -4.366   -4.352   -4.324   -4.287   -4.222   -4.099   -3.882   -3.577   -3.213   -2.841   -2.507   -2.241   -2.055   -1.944   -1.904   -1.917   -1.954   -2.009   -2.075   -2.165   -2.289   -2.449   -2.623   -2.775   -2.922
  -2.590   -2.555   -2.645   -2.773   -2.868   -2.838   -2.653   -2.367   -2.074   -1.834   -1.660   -1.531   -1.427   -1.344   -1.285   -1.255   -1.261   -1.300   -1.377   -1.482   -1.613   -1.756   -1.903   -2.042   -2.198   -2.392   -2.657   -2.988   -3.352   -3.711   -4.031   -4.284   -4.453   -4.534   -4.563   -4.593   -4.645   -4.690   -4.687   -4.618   -4.503   -4.360   -4.184   -3.966   -3.705   -3.417   -3.138   -2.903   -2.747   -2.676   -2.680   -2.741   -2.843   -2.975   -3.110   -3.216   -3.271   -3.267   -3.235   -3.212   -3.217   -3.253   -3.300   -3.331   -3.334   -3.313   -3.278   -3.243   -3.224   -3.219   -3.243   -3.285   -3.328   -3.365   -3.383   -3.374   -3.344   -3.312   -3.286   -3.249   -3.174   -3.033   -2.828   -2.581   -2.339   -2.133   -1.987   -1.911   -1.898   -1.930   -1.996   -2.067   -2.137   -2.201   -2.273   -2.369   -2.505   -2.658   -2.797   -2.945
  -3.011   -2.939   -2.956   -2.989   -2.992   -2.902   -2.709   -2.464   -2.230   -2.039   -1.887   -1.754   -1.634   -1.538   -1.473   -1.444   -1.457   -1.507   -1.592   -1.707   -1.841   -1.985   -2.129   -2.270   -2.439   -2.669   -2.990   -3.378   -3.784   -4.153   -4.447   -4.654   -4.782   -4.858   -4.916   -4.988   -5.061   -5.094   -5.054   -4.947   -4.825   -4.718   -4.621   -4.507   -4.370   -4.222   -4.091   -3.991   -3.928   -3.887   -3.868   -3.874   -3.923   -4.010   -4.099   -4.145   -4.099   -3.939   -3.696   -3.417   -3.159   -2.953   -2.809   -2.714   -2.644   -2.589   -2.542   -2.502   -2.482   -2.482   -2.507   -2.550   -2.591   -2.628   -2.640   -2.625   -2.594   -2.567   -2.555   -2.548   -2.518   -2.446   -2.332   -2.193   -2.064   -1.969   -1.924   -1.933   -1.990   -2.080   -2.183   -2.280   -2.361   -2.418   -2.467   -2.529   -2.631   -2.755   -2.876   -3.028
  -3.887   -3.791   -3.750   -3.687   -3.563   -3.343   -3.051   -2.749   -2.490   -2.283   -2.115   -1.973   -1.852   -1.762   -1.706   -1.690   -1.711   -1.763   -1.841   -1.944   -2.057   -2.177   -2.291   -2.420   -2.598   -2.878   -3.288   -3.794   -4.324   -4.792   -5.149   -5.382   -5.530   -5.637   -5.744   -5.857   -5.942   -5.956   -5.881   -5.751   -5.631   -5.555   -5.515   -5.484   -5.446   -5.414   -5.403   -5.411   -5.418   -5.409   -5.374   -5.346   -5.355   -5.398   -5.444   -5.430   -5.294   -5.003   -4.573   -4.053   -3.524   -3.060   -2.711   -2.477   -2.331   -2.237   -2.177   -2.132   -2.107   -2.104   -2.124   -2.165   -2.208   -2.245   -2.268   -2.268   -2.252   -2.239   -2.242   -2.254   -2.258   -2.239   -2.190   -2.127   -2.076   -2.054   -2.073   -2.132   -2.230   -2.350   -2.485   -2.610   -2.713   -2.780   -2.826   -2.872   -2.949   -3.059   -3.169   -3.329
  -5.072   -4.978   -4.905   -4.760   -4.499   -4.109   -3.646   -3.196   -2.827   -2.550   -2.345   -2.194   -2.088   -2.025   -1.988   -1.979   -1.999   -2.032   -2.083   -2.144   -2.213   -2.281   -2.356   -2.458   -2.643   -2.972   -3.478   -4.124   -4.812   -5.434   -5.917   -6.240   -6.448   -6.609   -6.762   -6.900   -6.987   -6.986   -6.902   -6.776   -6.667   -6.610   -6.596   -6.607   -6.631   -6.673   -6.738   -6.811   -6.871   -6.889   -6.862   -6.829   -6.823   -6.844   -6.857   -6.801   -6.610   -6.239   -5.682   -4.981   -4.230   -3.547   -3.022   -2.676   -2.472   -2.354   -2.280   -2.228   -2.197   -2.186   -2.200   -2.227   -2.270   -2.317   -2.355   -2.382   -2.396   -2.406   -2.427   -2.457   -2.484   -2.499   -2.489   -2.467   -2.447   -2.445   -2.475   -2.543   -2.650   -2.792   -2.958   -3.133   -3.285   -3.396   -3.461   -3.505   -3.569   -3.670   -3.775   -3.944
  -6.416   -6.327   -6.241   -6.040   -5.656   -5.093   -4.428   -3.787   -3.262   -2.878   -2.618   -2.457   -2.368   -2.325   -2.301   -2.288   -2.287   -2.287   -2.289   -2.296   -2.298   -2.307   -2.332   -2.398   -2.573   -2.932   -3.508   -4.269   -5.108   -5.896   -6.530   -6.969   -7.262   -7.474   -7.655   -7.798   -7.876   -7.870   -7.799   -7.698   -7.612   -7.563   -7.558   -7.581   -7.629   -7.700   -7.791   -7.891   -7.971   -8.005   -8.001   -7.986   -7.992   -8.016   -8.017   -7.945   -7.738   -7.344   -6.736   -5.946   -5.078   -4.281   -3.671   -3.285   -3.072   -2.958   -2.890   -2.841   -2.807   -2.794   -2.804   -2.832   -2.874   -2.932   -2.993   -3.056   -3.116   -3.167   -3.213   -3.260   -3.305   -3.339   -3.342   -3.321   -3.283   -3.247   -3.232   -3.265   -3.357   -3.520   -3.741   -3.997   -4.234   -4.413   -4.508   -4.547   -4.581   -4.648   -4.731   -4.898
  -7.786   -7.698   -7.594   -7.342   -6.863   -6.156   -5.314   -4.484   -3.787   -3.276   -2.943   -2.752   -2.661   -2.617   -2.589   -2.559   -2.526   -2.487   -2.439   -2.388   -2.334   -2.285   -2.256   -2.285   -2.439   -2.798   -3.406   -4.237   -5.187   -6.113   -6.886   -7.447   -7.820   -8.076   -8.263   -8.393   -8.455   -8.453   -8.409   -8.351   -8.297   -8.266   -8.266   -8.293   -8.342   -8.407   -8.484   -8.565   -8.636   -8.676   -8.692   -8.704   -8.735   -8.776   -8.784   -8.715   -8.520   -8.146   -7.559   -6.789   -5.939   -5.171   -4.610   -4.282   -4.126   -4.061   -4.030   -4.003   -3.984   -3.981   -4.006   -4.049   -4.104   -4.178   -4.266   -4.374   -4.493   -4.610   -4.707   -4.784   -4.849   -4.894   -4.898   -4.848   -4.745   -4.611   -4.492   -4.441   -4.503   -4.695   -5.002   -5.373   -5.730   -5.994   -6.122   -6.138   -6.117   -6.120   -6.156   -6.323
  -9.234   -9.126   -8.976   -8.656   -8.084   -7.260   -6.269   -5.266   -4.392   -3.735   -3.303   -3.057   -2.934   -2.872   -2.828   -2.779   -2.719   -2.649   -2.569   -2.482   -2.389   -2.306   -2.246   -2.247   -2.377   -2.720   -3.322   -4.176   -5.186   -6.203   -7.079   -7.739   -8.185   -8.471   -8.655   -8.761   -8.809   -8.819   -8.814   -8.807   -8.806   -8.813   -8.837   -8.875   -8.919   -8.965   -9.006   -9.046   -9.081   -9.107   -9.130   -9.164   -9.217   -9.274   -9.298   -9.249   -9.088   -8.772   -8.275   -7.627   -6.931   -6.332   -5.940   -5.760   -5.725   -5.747   -5.771   -5.781   -5.787   -5.809   -5.857   -5.924   -5.999   -6.086   -6.200   -6.360   -6.561   -6.772   -6.953   -7.092   -7.198   -7.269   -7.282   -7.199   -7.009   -6.734   -6.457   -6.284   -6.301   -6.538   -6.961   -7.492   -8.012   -8.401   -8.596   -8.623   -8.590   -8.589   -8.631   -8.846
 -11.135  -10.976  -10.732  -10.289   -9.586   -8.624   -7.474   -6.279   -5.200   -4.357   -3.783   -3.444   -3.265   -3.179   -3.122   -3.063   -2.992   -2.908   -2.816   -2.720   -2.625   -2.534   -2.473   -2.472   -2.596   -2.918   -3.498   -4.336   -5.356   -6.407   -7.342   -8.069   -8.568   -8.877   -9.051   -9.137   -9.177   -9.207   -9.252   -9.315   -9.393   -9.477   -9.562   -9.640   -9.699   -9.733   -9.741   -9.733   -9.721   -9.716   -9.724   -9.756   -9.814   -9.881   -9.931   -9.926   -9.837   -9.631   -9.298   -8.869   -8.431   -8.098   -7.951   -7.974   -8.092   -8.213   -8.294   -8.334   -8.359   -8.397   -8.452   -8.519   -8.588   -8.670   -8.799   -9.015   -9.320   -9.658   -9.966  -10.213  -10.408  -10.562  -10.634  -10.568  -10.319   -9.925   -9.502   -9.221   -9.217   -9.542  -10.145  -10.916  -11.695  -12.334  -12.750  -12.993  -13.190  -13.433  -13.684  -14.064
 -14.060  -13.847  -13.451  -12.807  -11.898  -10.730   -9.356   -7.899   -6.536   -5.427   -4.645   -4.165   -3.903   -3.773   -3.702   -3.641   -3.569   -3.490   -3.406   -3.324   -3.249   -3.191   -3.162   -3.184   -3.316   -3.621   -4.167   -4.967   -5.948   -6.987   -7.933   -8.691   -9.218   -9.537   -9.703   -9.774   -9.815   -9.870   -9.975  -10.136  -10.342  -10.565  -10.775  -10.944  -11.056  -11.105  -11.095  -11.046  -10.982  -10.928  -10.896  -10.897  -10.935  -11.009  -11.104  -11.191  -11.237  -11.218  -11.130  -10.998  -10.885  -10.869  -10.995  -11.235  -11.507  -11.724  -11.850  -11.908  -11.935  -11.959  -11.982  -12.001  -12.019  -12.068  -12.205  -12.487  -12.914  -13.414  -13.897  -14.322  -14.699  -15.035  -15.274  -15.332  -15.155  -14.787  -14.382  -14.159  -14.298  -14.860  -15.788  -16.947  -18.158  -19.264  -20.192  -21.004  -21.815  -22.639  -23.312  -23.865
 -18.334  -18.106  -17.538  -16.648  -15.470  -14.020  -12.340  -10.529   -8.781   -7.308   -6.237   -5.547   -5.154   -4.951   -4.846   -4.776   -4.703   -4.625   -4.550   -4.494   -4.458   -4.451   -4.478   -4.555   -4.710   -5.000   -5.499   -6.224   -7.135   -8.118   -9.036   -9.788  -10.321  -10.640  -10.793  -10.851  -10.891  -10.978  -11.160  -11.451  -11.838  -12.275  -12.689  -13.021  -13.235  -13.327  -13.315  -13.231  -13.111  -12.995  -12.900  -12.844  -12.844  -12.929  -13.100  -13.336  -13.595  -13.844  -14.069  -14.281  -14.514  -14.816  -15.209  -15.659  -16.077  -16.388  -16.571  -16.662  -16.703  -16.716  -16.700  -16.661  -16.630  -16.667  -16.848  -17.234  -17.818  -18.512  -19.219  -19.896  -20.549  -21.175  -21.706  -22.055  -22.177  -22.136  -22.107  -22.316  -22.929  -23.991  -25.425  -27.090  -28.825  -30.498  -32.063  -33.564  -35.034  -36.360  -37.268  -37.639
 -23.568  -23.411  -22.712  -21.603  -20.166  -18.433  -16.426  -14.234  -12.062  -10.175   -8.750   -7.798   -7.223   -6.905   -6.736   -6.632   -6.537   -6.444   -6.366   -6.324   -6.331   -6.387   -6.495   -6.641   -6.831   -7.107   -7.538   -8.164   -8.968   -9.860  -10.722  -11.450  -11.976  -12.286  -12.419  -12.456  -12.490  -12.608  -12.874  -13.320  -13.930  -14.631  -15.305  -15.848  -16.200  -16.355  -16.346  -16.228  -16.060  -15.883  -15.725  -15.609  -15.576  -15.685  -15.963  -16.392  -16.911  -17.465  -18.018  -18.565  -19.118  -19.704  -20.332  -20.966  -21.531  -21.964  -22.259  -22.450  -22.580  -22.663  -22.706  -22.724  -22.770  -22.918  -23.253  -23.822  -24.603  -25.511  -26.456  -27.405  -28.358  -29.306  -30.194  -30.958  -31.590  -32.168  -32.850  -33.803  -35.120  -36.785  -38.703  -40.750  -42.813  -44.815  -46.731  -48.563  -50.256  -51.617  -52.323  -52.091
 -28.802  -28.791  -28.043  -26.806  -25.197  -23.260  -21.009  -18.520  -16.008  -13.772  -12.032  -10.827  -10.062   -9.610   -9.347   -9.181   -9.036   -8.898   -8.784   -8.732   -8.767   -8.891   -9.091   -9.322   -9.559   -9.827  -10.191  -10.709  -11.390  -12.179  -12.979  -13.682  -14.203  -14.502  -14.610  -14.615  -14.633  -14.772  -15.113  -15.704  -16.525  -17.476  -18.398  -19.142  -19.626  -19.841  -19.842  -19.707  -19.512  -19.306  -19.117  -18.977  -18.946  -19.109  -19.515  -20.143  -20.914  -21.743  -22.575  -23.389  -24.188  -24.992  -25.805  -26.596  -27.312  -27.909  -28.389  -28.784  -29.131  -29.445  -29.733  -30.017  -30.348  -30.794  -31.416  -32.240  -33.233  -34.326  -35.456  -36.603  -37.768  -38.953  -40.133  -41.286  -42.431  -43.641  -45.018  -46.641  -48.520  -50.595  -52.774  -54.965  -57.103  -59.144  -61.064  -62.821  -64.289  -65.225  -65.289  -64.282
 -33.080  -33.235  -32.512  -31.240  -29.570  -27.552  -25.197  -22.581  -19.917  -17.510  -15.598  -14.235  -13.332  -12.761  -12.405  -12.163  -11.947  -11.734  -11.552  -11.453  -11.487  -11.666  -11.958  -12.289  -12.596  -12.882  -13.200  -13.632  -14.216  -14.929  -15.695  -16.399  -16.935  -17.238  -17.329  -17.304  -17.300  -17.442  -17.825  -18.505  -19.456  -20.561  -21.634  -22.503  -23.071  -23.333  -23.356  -23.235  -23.059  -22.880  -22.725  -22.629  -22.662  -22.922  -23.466  -24.267  -25.230  -26.256  -27.273  -28.255  -29.205  -30.143  -31.079  -31.995  -32.861  -33.654  -34.383  -35.077  -35.764  -36.456  -37.156  -37.874  -38.638  -39.487  -40.449  -41.529  -42.695  -43.905  -45.121  -46.343  -47.584  -48.863  -50.189  -51.574  -53.049  -54.662  -56.457  -58.437  -60.556  -62.731  -64.876  -66.924  -68.836  -70.586  -72.136  -73.403  -74.255  -74.492  -73.761  -72.927
 -35.796  -36.077  -35.410  -34.173  -32.532  -30.545  -28.232  -25.670  -23.067  -20.712  -18.822  -17.444  -16.495  -15.861  -15.442  -15.128  -14.837  -14.538  -14.261  -14.086  -14.088  -14.300  -14.678  -15.116  -15.521  -15.862  -16.190  -16.596  -17.150  -17.859  -18.654  -19.417  -20.010  -20.353  -20.458  -20.430  -20.416  -20.550  -20.930  -21.611  -22.566  -23.676  -24.757  -25.638  -26.224  -26.513  -26.574  -26.508  -26.403  -26.310  -26.258  -26.280  -26.446  -26.844  -27.525  -28.455  -29.535  -30.660  -31.759  -32.808  -33.816  -34.807  -35.803  -36.806  -37.810  -38.809  -39.818  -40.859  -41.947  -43.079  -44.242  -45.423  -46.620  -47.838  -49.084  -50.348  -51.612  -52.854  -54.064  -55.255  -56.456  -57.700  -59.021  -60.450  -62.017  -63.740  -65.615  -67.599  -69.624  -71.619  -73.533  -75.339  -77.022  -78.560  -79.921  -81.051  -81.866  -82.160  -81.286  -82.822
 -36.690  -37.022  -36.411  -35.240  -33.685  -31.814  -29.660  -27.306  -24.946  -22.829  -21.130  -19.872  -18.975  -18.350  -17.909  -17.555  -17.208  -16.832  -16.467  -16.211  -16.166  -16.391  -16.840  -17.391  -17.916  -18.364  -18.776  -19.252  -19.882  -20.689  -21.607  -22.502  -23.219  -23.663  -23.846  -23.870  -23.881  -24.012  -24.355  -24.957  -25.798  -26.775  -27.729  -28.516  -29.057  -29.350  -29.458  -29.471  -29.467  -29.495  -29.583  -29.765  -30.097  -30.648  -31.448  -32.456  -33.576  -34.714  -35.808  -36.838  -37.827  -38.806  -39.812  -40.867  -41.983  -43.172  -44.449  -45.824  -47.288  -48.817  -50.373  -51.918  -53.428  -54.889  -56.294  -57.637  -58.909  -60.107  -61.240  -62.333  -63.423  -64.556  -65.779  -67.131  -68.640  -70.319  -72.155  -74.117  -76.158  -78.233  -80.286  -82.262  -84.111  -85.780  -87.247  -88.456  -89.297  -89.482  -88.166  -92.021
 -35.778  -36.077  -35.494  -34.395  -32.954  -31.252  -29.334  -27.292  -25.291  -23.528  -22.122  -21.071  -20.302  -19.747  -19.334  -18.983  -18.619  -18.210  -17.798  -17.492  -17.420  -17.659  -18.179  -18.848  -19.527  -20.144  -20.737  -21.405  -22.240  -23.269  -24.417  -25.533  -26.455  -27.083  -27.423  -27.573  -27.664  -27.814  -28.110  -28.594  -29.255  -30.016  -30.763  -31.389  -31.836  -32.106  -32.244  -32.321  -32.399  -32.524  -32.727  -33.040  -33.508  -34.174  -35.044  -36.067  -37.160  -38.241  -39.263  -40.220  -41.140  -42.070  -43.056  -44.136  -45.336  -46.676  -48.166  -49.796  -51.536  -53.333  -55.130  -56.876  -58.537  -60.095  -61.541  -62.875  -64.097  -65.216  -66.248  -67.225  -68.189  -69.192  -70.287  -71.520  -72.924  -74.516  -76.288  -78.207  -80.225  -82.277  -84.282  -86.182  -87.918  -89.451  -90.731  -91.674  -92.144  -91.836  -89.913  -93.714
 -33.305  -33.493  -32.905  -31.866  -30.542  -29.028  -27.385  -25.699  -24.101  -22.729  -21.648  -20.839  -20.239  -19.797  -19.459  -19.158  -18.831  -18.457  -18.076  -17.800  -17.765  -18.068  -18.691  -19.518  -20.408  -21.289  -22.187  -23.189  -24.372  -25.748  -27.223  -28.640  -29.836  -30.717  -31.286  -31.622  -31.836  -32.035  -32.295  -32.663  -33.138  -33.673  -34.196  -34.637  -34.961  -35.167  -35.284  -35.358  -35.441  -35.576  -35.799  -36.148  -36.654  -37.340  -38.190  -39.153  -40.153  -41.125  -42.036  -42.892  -43.729  -44.601  -45.560  -46.648  -47.896  -49.325  -50.933  -52.694  -54.555  -56.449  -58.311  -60.089  -61.751  -63.282  -64.677  -65.935  -67.062  -68.069  -68.976  -69.816  -70.630  -71.473  -72.398  -73.452  -74.664  -76.045  -77.581  -79.229  -80.939  -82.651  -84.319  -85.917  -87.410  -88.779  -89.948  -90.827  -91.251  -90.925  -89.106  -91.239
 -29.724  -29.752  -29.133  -28.133  -26.913  -25.581  -24.208  -22.866  -21.649  -20.639  -19.860  -19.286  -18.868  -18.565  -18.338  -18.138  -17.922  -17.673  -17.437  -17.317  -17.447  -17.925  -18.752  -19.834  -21.048  -22.321  -23.662  -25.128  -26.765  -28.556  -30.396  -32.128  -33.607  -34.752  -35.560  -36.093  -36.442  -36.697  -36.935  -37.206  -37.523  -37.865  -38.187  -38.452  -38.633  -38.728  -38.751  -38.735  -38.720  -38.754  -38.876  -39.130  -39.543  -40.125  -40.853  -41.673  -42.522  -43.348  -44.130  -44.883  -45.645  -46.468  -47.399  -48.477  -49.726  -51.158  -52.762  -54.499  -56.308  -58.121  -59.876  -61.528  -63.053  -64.437  -65.680  -66.784  -67.756  -68.612  -69.371  -70.064  -70.732  -71.422  -72.184  -73.061  -74.082  -75.256  -76.574  -78.008  -79.515  -81.055  -82.593  -84.102  -85.554  -86.901  -88.087  -89.009  -89.530  -89.369  -87.918  -88.319
 -25.671  -25.532  -24.875  -23.901  -22.770  -21.597  -20.457  -19.407  -18.503  -17.785  -17.254  -16.886  -16.643  -16.497  -16.418  -16.380  -16.360  -16.355  -16.408  -16.613  -17.086  -17.916  -19.110  -20.596  -22.267  -24.040  -25.895  -27.849  -29.914  -32.053  -34.164  -36.114  -37.787  -39.117  -40.100  -40.781  -41.229  -41.523  -41.737  -41.926  -42.115  -42.301  -42.458  -42.561  -42.592  -42.541  -42.419  -42.249  -42.069  -41.923  -41.859  -41.922  -42.141  -42.523  -43.043  -43.658  -44.315  -44.976  -45.627  -46.284  -46.982  -47.759  -48.651  -49.682  -50.865  -52.200  -53.670  -55.233  -56.834  -58.411  -59.918  -61.320  -62.601  -63.757  -64.790  -65.704  -66.509  -67.217  -67.848  -68.426  -68.986  -69.568  -70.215  -70.966  -71.849  -72.879  -74.054  -75.357  -76.760  -78.232  -79.739  -81.248  -82.718  -84.098  -85.324  -86.288  -86.867  -86.815  -85.671  -84.896
 -21.883  -21.619  -20.947  -20.013  -18.972  -17.941  -16.993  -16.166  -15.494  -14.991  -14.655  -14.462  -14.390  -14.417  -14.533  -14.729  -15.002  -15.361  -15.847  -16.531  -17.504  -18.834  -20.521  -22.499  -24.658  -26.897  -29.166  -31.452  -33.751  -36.030  -38.212  -40.203  -41.916  -43.302  -44.353  -45.099  -45.590  -45.892  -46.071  -46.186  -46.268  -46.324  -46.343  -46.304  -46.189  -45.990  -45.714  -45.381  -45.028  -44.698  -44.438  -44.291  -44.289  -44.439  -44.727  -45.117  -45.573  -46.066  -46.590  -47.155  -47.782  -48.498  -49.318  -50.249  -51.291  -52.439  -53.670  -54.949  -56.232  -57.477  -58.651  -59.738  -60.730  -61.629  -62.439  -63.164  -63.813  -64.393  -64.919  -65.411  -65.895  -66.404  -66.973  -67.635  -68.417  -69.331  -70.381  -71.557  -72.843  -74.217  -75.653  -77.122  -78.586  -79.992  -81.264  -82.295  -82.944  -83.007  -82.130  -80.757
 -19.069  -18.753  -18.123  -17.280  -16.366  -15.488  -14.710  -14.062  -13.563  -13.223  -13.043  -13.008  -13.106  -13.326  -13.671  -14.150  -14.775  -15.551  -16.505  -17.683  -19.146  -20.938  -23.053  -25.412  -27.896  -30.392  -32.832  -35.195  -37.480  -39.674  -41.735  -43.603  -45.220  -46.548  -47.574  -48.313  -48.799  -49.083  -49.223  -49.271  -49.265  -49.217  -49.122  -48.964  -48.728  -48.406  -48.005  -47.548  -47.067  -46.603  -46.199  -45.893  -45.714  -45.673  -45.759  -45.954  -46.231  -46.574  -46.976  -47.443  -47.983  -48.604  -49.308  -50.087  -50.935  -51.838  -52.776  -53.723  -54.651  -55.536  -56.362  -57.126  -57.830  -58.478  -59.075  -59.624  -60.130  -60.600  -61.043  -61.475  -61.913  -62.382  -62.909  -63.520  -64.236  -65.067  -66.016  -67.080  -68.248  -69.506  -70.837  -72.220  -73.623  -74.998  -76.272  -77.345  -78.073  -78.266  -77.636  -76.129
 -17.739  -17.462  -16.953  -16.280  -15.560  -14.881  -14.287  -13.804  -13.445  -13.228  -13.160  -13.250  -13.486  -13.871  -14.414  -15.133  -16.037  -17.122  -18.387  -19.858  -21.575  -23.577  -25.854  -28.327  -30.871  -33.369  -35.746  -37.980  -40.079  -42.049  -43.877  -45.531  -46.976  -48.180  -49.127  -49.820  -50.278  -50.537  -50.643  -50.646  -50.579  -50.459  -50.284  -50.044  -49.727  -49.327  -48.856  -48.335  -47.798  -47.277  -46.809  -46.426  -46.148  -45.988  -45.942  -45.997  -46.139  -46.359  -46.649  -47.011  -47.444  -47.944  -48.502  -49.103  -49.737  -50.387  -51.038  -51.672  -52.275  -52.836  -53.357  -53.842  -54.300  -54.736  -55.154  -55.556  -55.945  -56.326  -56.707  -57.099  -57.512  -57.964  -58.474  -59.061  -59.739  -60.517  -61.395  -62.372  -63.438  -64.585  -65.802  -67.072  -68.370  -69.657  -70.871  -71.922  -72.679  -72.967  -72.540  -71.158
 -18.052  -17.899  -17.579  -17.149  -16.693  -16.259  -15.874  -15.541  -15.277  -15.106  -15.059  -15.163  -15.420  -15.840  -16.433  -17.215  -18.187  -19.330  -20.622  -22.075  -23.729  -25.629  -27.776  -30.097  -32.474  -34.786  -36.953  -38.949  -40.786  -42.482  -44.044  -45.461  -46.711  -47.772  -48.625  -49.265  -49.697  -49.946  -50.048  -50.042  -49.958  -49.813  -49.610  -49.342  -49.001  -48.588  -48.114  -47.603  -47.083  -46.582  -46.128  -45.744  -45.446  -45.241  -45.129  -45.104  -45.158  -45.286  -45.482  -45.745  -46.068  -46.440  -46.849  -47.279  -47.717  -48.150  -48.566  -48.952  -49.304  -49.622  -49.915  -50.196  -50.475  -50.757  -51.044  -51.336  -51.636  -51.948  -52.280  -52.639  -53.032  -53.471  -53.970  -54.540  -55.193  -55.935  -56.763  -57.673  -58.657  -59.707  -60.815  -61.967  -63.146  -64.320  -65.438  -66.423  -67.162  -67.500  -67.218  -66.041
 -19.679  -19.708  -19.593  -19.415  -19.223  -19.031  -18.828  -18.597  -18.340  -18.096  -17.921  -17.867  -17.963  -18.222  -18.658  -19.282  -20.082  -21.030  -22.095  -23.281  -24.631  -26.201  -28.008  -29.999  -32.061  -34.077  -35.959  -37.679  -39.243  -40.672  -41.984  -43.180  -44.254  -45.187  -45.965  -46.574  -47.013  -47.293  -47.440  -47.483  -47.447  -47.346  -47.185  -46.959  -46.666  -46.310  -45.903  -45.470  -45.032  -44.612  -44.228  -43.897  -43.630  -43.434  -43.306  -43.247  -43.253  -43.321  -43.450  -43.634  -43.865  -44.130  -44.415  -44.708  -44.998  -45.274  -45.526  -45.747  -45.936  -46.100  -46.251  -46.403  -46.567  -46.749  -46.947  -47.161  -47.394  -47.651  -47.937  -48.262  -48.629  -49.049  -49.529  -50.082  -50.713  -51.428  -52.220  -53.083  -54.005  -54.977  -55.992  -57.041  -58.111  -59.179  -60.204  -61.124  -61.837  -62.207  -62.039  -61.067
 -21.853  -22.057  -22.087  -22.075  -22.053  -22.010  -21.902  -21.684  -21.341  -20.916  -20.487  -20.136  -19.920  -19.865  -19.987  -20.289  -20.760  -21.362  -22.058  -22.848  -23.776  -24.905  -26.268  -27.830  -29.500  -31.163  -32.734  -34.175  -35.487  -36.686  -37.794  -38.817  -39.757  -40.607  -41.354  -41.984  -42.486  -42.862  -43.127  -43.297  -43.388  -43.412  -43.371  -43.262  -43.087  -42.851  -42.568  -42.258  -41.940  -41.628  -41.337  -41.079  -40.864  -40.699  -40.584  -40.521  -40.511  -40.554  -40.647  -40.787  -40.961  -41.158  -41.365  -41.572  -41.770  -41.953  -42.112  -42.241  -42.342  -42.424  -42.498  -42.578  -42.674  -42.791  -42.928  -43.086  -43.266  -43.474  -43.717  -44.002  -44.337  -44.729  -45.188  -45.723  -46.342  -47.044  -47.820  -48.656  -49.536  -50.451  -51.393  -52.360  -53.345  -54.333  -55.293  -56.171  -56.878  -57.288  -57.226  -56.439
 -23.643  -23.950  -24.005  -24.006  -23.998  -23.962  -23.833  -23.538  -23.047  -22.393  -21.670  -20.983  -20.414  -20.000  -19.757  -19.688  -19.776  -19.989  -20.289  -20.671  -21.171  -21.853  -22.756  -23.868  -25.121  -26.418  -27.682  -28.870  -29.976  -31.006  -31.976  -32.894  -33.768  -34.600  -35.380  -36.096  -36.731  -37.278  -37.736  -38.109  -38.402  -38.618  -38.756  -38.814  -38.797  -38.711  -38.570  -38.391  -38.186  -37.971  -37.757  -37.558  -37.388  -37.255  -37.163  -37.115  -37.115  -37.164  -37.260  -37.397  -37.561  -37.738  -37.915  -38.085  -38.242  -38.383  -38.501  -38.590  -38.653  -38.696  -38.732  -38.774  -38.828  -38.901  -38.994  -39.106  -39.241  -39.403  -39.601  -39.843  -40.141  -40.505  -40.949  -41.481  -42.107  -42.822  -43.609  -44.445  -45.306  -46.182  -47.069  -47.971  -48.892  -49.827  -50.751  -51.615  -52.339  -52.803  -52.842  -52.222
 -24.313  -24.600  -24.539  -24.388  -24.226  -24.052  -23.794  -23.364  -22.706  -21.848  -20.880  -19.924  -19.072  -18.367  -17.824  -17.439  -17.202  -17.084  -17.055  -17.105  -17.262  -17.578  -18.094  -18.809  -19.683  -20.648  -21.647  -22.642  -23.616  -24.563  -25.484  -26.386  -27.275  -28.160  -29.036  -29.893  -30.710  -31.468  -32.155  -32.760  -33.275  -33.693  -34.011  -34.229  -34.353  -34.393  -34.362  -34.273  -34.139  -33.976  -33.800  -33.630  -33.484  -33.374  -33.308  -33.290  -33.322  -33.407  -33.542  -33.715  -33.909  -34.104  -34.289  -34.456  -34.604  -34.730  -34.833  -34.907  -34.956  -34.984  -35.003  -35.022  -35.050  -35.091  -35.148  -35.222  -35.315  -35.432  -35.582  -35.778  -36.037  -36.378  -36.820  -37.372  -38.038  -38.802  -39.635  -40.500  -41.365  -42.218  -43.061  -43.911  -44.782  -45.678  -46.585  -47.454  -48.207  -48.729  -48.865  -48.392
 -23.480  -23.617  -23.320  -22.879  -22.425  -21.994  -21.531  -20.937  -20.143  -19.157  -18.067  -16.990  -16.019  -15.187  -14.501  -13.952  -13.530  -13.218  -12.997  -12.857  -12.815  -12.909  -13.169  -13.605  -14.202  -14.928  -15.753  -16.647  -17.590  -18.555  -19.527  -20.500  -21.479  -22.466  -23.463  -24.461  -25.439  -26.373  -27.241  -28.019  -28.690  -29.242  -29.671  -29.982  -30.182  -30.283  -30.300  -30.243  -30.126  -29.968  -29.793  -29.626  -29.491  -29.402  -29.368  -29.392  -29.475  -29.616  -29.810  -30.037  -30.274  -30.501  -30.704  -30.875  -31.017  -31.130  -31.218  -31.281  -31.320  -31.340  -31.349  -31.355  -31.366  -31.386  -31.418  -31.461  -31.516  -31.589  -31.688  -31.834  -32.054  -32.377  -32.830  -33.428  -34.166  -35.016  -35.929  -36.851  -37.742  -38.588  -39.399  -40.202  -41.027  -41.892  -42.785  -43.664  -44.450  -45.026  -45.245  -44.901
 -21.148  -21.051  -20.457  -19.655  -18.836  -18.092  -17.393  -16.651  -15.789  -14.800  -13.760  -12.760  -11.874  -11.117  -10.481   -9.953   -9.522   -9.184   -8.926   -8.746   -8.654   -8.669   -8.817   -9.106   -9.552  -10.155  -10.912  -11.808  -12.812  -13.880  -14.975  -16.075  -17.174  -18.268  -19.356  -20.432  -21.485  -22.490  -23.422  -24.253  -24.963  -25.540  -25.987  -26.307  -26.514  -26.620  -26.635  -26.571  -26.442  -26.271  -26.090  -25.930  -25.815  -25.760  -25.770  -25.845  -25.984  -26.178  -26.417  -26.678  -26.937  -27.171  -27.366  -27.519  -27.631  -27.709  -27.762  -27.797  -27.817  -27.825  -27.826  -27.828  -27.834  -27.847  -27.865  -27.889  -27.914  -27.944  -27.992  -28.085  -28.264  -28.572  -29.046  -29.705  -30.537  -31.496  -32.513  -33.514  -34.450  -35.303  -36.090  -36.852  -37.632  -38.461  -39.338  -40.223  -41.034  -41.657  -41.946  -41.713
 -17.710  -17.374  -16.528  -15.427  -14.303  -13.292  -12.409  -11.585  -10.752   -9.893   -9.057   -8.296   -7.649   -7.105   -6.653   -6.273   -5.957   -5.707   -5.521   -5.397   -5.342   -5.367   -5.490   -5.728   -6.110   -6.667   -7.421   -8.368   -9.471  -10.671  -11.904  -13.134  -14.337  -15.500  -16.620  -17.696  -18.725  -19.691  -20.575  -21.351  -22.005  -22.530  -22.933  -23.225  -23.413  -23.510  -23.522  -23.460  -23.338  -23.183  -23.030  -22.910  -22.846  -22.848  -22.914  -23.037  -23.210  -23.422  -23.657  -23.893  -24.113  -24.297  -24.435  -24.525  -24.570  -24.581  -24.574  -24.558  -24.543  -24.531  -24.524  -24.525  -24.536  -24.556  -24.578  -24.596  -24.603  -24.598  -24.599  -24.642  -24.781  -25.077  -25.577  -26.303  -27.236  -28.314  -29.444  -30.534  -31.522  -32.387  -33.153  -33.870  -34.598  -35.380  -36.228  -37.106  -37.934  -38.594  -38.942  -38.803
 -13.905  -13.423  -12.486  -11.286  -10.059   -8.957   -8.017   -7.208   -6.478   -5.814   -5.229   -4.734   -4.332   -4.008   -3.743   -3.520   -3.339   -3.204   -3.111   -3.061   -3.060   -3.113   -3.236   -3.448   -3.793   -4.317   -5.063   -6.040   -7.210   -8.501   -9.835  -11.152  -12.410  -13.589  -14.686  -15.703  -16.648  -17.513  -18.289  -18.963  -19.529  -19.988  -20.351  -20.627  -20.825  -20.951  -21.007  -20.999  -20.942  -20.863  -20.794  -20.763  -20.783  -20.856  -20.974  -21.120  -21.285  -21.455  -21.617  -21.759  -21.868  -21.939  -21.967  -21.953  -21.902  -21.826  -21.741  -21.662  -21.601  -21.561  -21.543  -21.546  -21.570  -21.606  -21.642  -21.667  -21.667  -21.642  -21.609  -21.616  -21.729  -22.025  -22.562  -23.365  -24.403  -25.597  -26.833  -27.999  -29.025  -29.888  -30.615  -31.270  -31.925  -32.639  -33.439  -34.294  -35.125  -35.810  -36.208  -36.146
 -10.626  -10.131   -9.278   -8.191   -7.065   -6.034   -5.145   -4.403   -3.788   -3.292   -2.899   -2.593   -2.347   -2.150   -1.985   -1.859   -1.763   -1.698   -1.665   -1.659   -1.688   -1.751   -1.857   -2.038   -2.328   -2.792   -3.479   -4.414   -5.567   -6.867   -8.222   -9.553  -10.806  -11.951  -12.985  -13.916  -14.757  -15.511  -16.178  -16.758  -17.257  -17.682  -18.047  -18.357  -18.619  -18.833  -18.996  -19.110  -19.184  -19.240  -19.306  -19.395  -19.513  -19.652  -19.795  -19.927  -20.034  -20.108  -20.139  -20.128  -20.079  -19.996  -19.886  -19.752  -19.601  -19.441  -19.287  -19.152  -19.049  -18.983  -18.956  -18.962  -18.996  -19.047  -19.099  -19.136  -19.142  -19.115  -19.075  -19.079  -19.204  -19.536  -20.143  -21.045  -22.195  -23.492  -24.803  -26.006  -27.024  -27.839  -28.489  -29.046  -29.599  -30.222  -30.948  -31.761  -32.578  -33.276  -33.710  -33.712
  -8.502   -8.069   -7.355   -6.430   -5.435   -4.483   -3.648   -2.964   -2.443   -2.069   -1.809   -1.616   -1.451   -1.295   -1.159   -1.053   -0.983   -0.941   -0.927   -0.935   -0.965   -1.018   -1.097   -1.230   -1.453   -1.817   -2.389   -3.197   -4.232   -5.432   -6.709   -7.972   -9.159  -10.230  -11.183  -12.023  -12.769  -13.433  -14.023  -14.546  -15.018  -15.452  -15.859  -16.247  -16.617  -16.964  -17.279  -17.558  -17.804  -18.029  -18.245  -18.458  -18.663  -18.844  -18.985  -19.068  -19.085  -19.028  -18.903  -18.722  -18.504  -18.269  -18.029  -17.793  -17.567  -17.352  -17.158  -16.995  -16.871  -16.792  -16.762  -16.771  -16.812  -16.873  -16.938  -16.992  -17.017  -17.012  -17.005  -17.054  -17.249  -17.680  -18.409  -19.438  -20.697  -22.063  -23.388  -24.555  -25.494  -26.198  -26.719  -27.145  -27.572  -28.083  -28.723  -29.476  -30.263  -30.958  -31.412  -31.465
  -7.510   -7.139   -6.503   -5.645   -4.683   -3.735   -2.900   -2.244   -1.793   -1.523   -1.369   -1.258   -1.138   -0.996   -0.858   -0.746   -0.667   -0.620   -0.604   -0.609   -0.631   -0.664   -0.717   -0.804   -0.950   -1.205   -1.623   -2.244   -3.074   -4.083   -5.188   -6.303   -7.364   -8.331   -9.191   -9.948  -10.624  -11.229  -11.774  -12.276  -12.750  -13.214  -13.681  -14.156  -14.637  -15.121  -15.591  -16.036  -16.451  -16.833  -17.185  -17.500  -17.767  -17.970  -18.090  -18.115  -18.036  -17.858  -17.592  -17.269  -16.918  -16.570  -16.246  -15.955  -15.698  -15.473  -15.281  -15.125  -15.009  -14.941  -14.919  -14.939  -14.989  -15.062  -15.144  -15.221  -15.281  -15.329  -15.396  -15.546  -15.871  -16.459  -17.351  -18.518  -19.856  -21.223  -22.479  -23.521  -24.301  -24.838  -25.196  -25.472  -25.769  -26.171  -26.725  -27.413  -28.158  -28.833  -29.293  -29.383
  -7.051   -6.721   -6.107   -5.253   -4.270   -3.288   -2.435   -1.803   -1.410   -1.220   -1.147   -1.098   -1.014   -0.892   -0.757   -0.640   -0.551   -0.495   -0.474   -0.470   -0.483   -0.501   -0.536   -0.585   -0.675   -0.832   -1.099   -1.518   -2.114   -2.868   -3.732   -4.639   -5.530   -6.359   -7.113   -7.796   -8.416   -8.981   -9.504  -10.000  -10.483  -10.973  -11.483  -12.019  -12.577  -13.153  -13.731  -14.296  -14.830  -15.324  -15.768  -16.152  -16.460  -16.674  -16.779  -16.762  -16.620  -16.363  -16.017  -15.617  -15.206  -14.820  -14.480  -14.193  -13.960  -13.773  -13.623  -13.509  -13.433  -13.399  -13.407  -13.453  -13.526  -13.623  -13.732  -13.844  -13.957  -14.077  -14.245  -14.533  -15.029  -15.799  -16.858  -18.129  -19.483  -20.769  -21.869  -22.711  -23.282  -23.622  -23.810  -23.947  -24.134  -24.451  -24.935  -25.564  -26.262  -26.906  -27.355  -27.468
  -6.442   -6.147   -5.576   -4.768   -3.825   -2.880   -2.062   -1.474   -1.128   -0.990   -0.959   -0.945   -0.891   -0.798   -0.686   -0.582   -0.498   -0.441   -0.412   -0.407   -0.412   -0.425   -0.448   -0.476   -0.523   -0.609   -0.763   -1.012   -1.390   -1.894   -2.505   -3.174   -3.858   -4.527   -5.160   -5.758   -6.318   -6.845   -7.348   -7.838   -8.324   -8.820   -9.338   -9.881  -10.453  -11.047  -11.655  -12.255  -12.832  -13.366  -13.848  -14.261  -14.589  -14.817  -14.927  -14.910  -14.764  -14.505  -14.163  -13.781  -13.403  -13.063  -12.780  -12.559  -12.396  -12.282  -12.203  -12.161  -12.149  -12.175  -12.236  -12.328  -12.445  -12.580  -12.728  -12.884  -13.051  -13.250  -13.528  -13.959  -14.620  -15.551  -16.726  -18.032  -19.322  -20.457  -21.347  -21.959  -22.310  -22.464  -22.510  -22.544  -22.658  -22.919  -23.353  -23.933  -24.581  -25.183  -25.609  -25.730
  -5.347   -5.097   -4.635   -3.972   -3.191   -2.397   -1.709   -1.202   -0.905   -0.785   -0.762   -0.758   -0.728   -0.665   -0.587   -0.511   -0.447   -0.402   -0.378   -0.375   -0.381   -0.391   -0.406   -0.418   -0.440   -0.483   -0.562   -0.700   -0.913   -1.218   -1.604   -2.052   -2.532   -3.025   -3.523   -4.013   -4.499   -4.976   -5.447   -5.919   -6.399   -6.885   -7.381   -7.886   -8.405   -8.939   -9.485  -10.031  -10.562  -11.064  -11.523  -11.928  -12.260  -12.507  -12.652  -12.682  -12.601  -12.423  -12.177  -11.904  -11.642  -11.419  -11.250  -11.135  -11.069  -11.042  -11.051  -11.090  -11.161  -11.265  -11.396  -11.551  -11.722  -11.904  -12.093  -12.288  -12.502  -12.767  -13.137  -13.681  -14.461  -15.488  -16.701  -17.965  -19.130  -20.077  -20.749  -21.145  -21.312  -21.326  -21.276  -21.254  -21.335  -21.568  -21.967  -22.501  -23.098  -23.652  -24.046  -24.166
  -3.890   -3.697   -3.388   -2.941   -2.404   -1.844   -1.338   -0.954   -0.716   -0.607   -0.580   -0.571   -0.555   -0.521   -0.480   -0.434   -0.393   -0.366   -0.357   -0.363   -0.371   -0.380   -0.389   -0.392   -0.402   -0.419   -0.453   -0.521   -0.635   -0.799   -1.026   -1.299   -1.603   -1.937   -2.292   -2.667   -3.054   -3.462   -3.891   -4.339   -4.804   -5.272   -5.727   -6.163   -6.586   -7.003   -7.424   -7.844   -8.262   -8.668   -9.059   -9.422   -9.746  -10.018  -10.220  -10.342  -10.381  -10.347  -10.266  -10.165  -10.070  -10.002   -9.969   -9.969  -10.002  -10.065  -10.156  -10.276  -10.429  -10.610  -10.814  -11.029  -11.251  -11.473  -11.689  -11.908  -12.148  -12.452  -12.876  -13.481  -14.314  -15.359  -16.535  -17.700  -18.713  -19.479  -19.965  -20.196  -20.237  -20.168  -20.076  -20.042  -20.119  -20.344  -20.718  -21.212  -21.760  -22.267  -22.632  -22.749
  -2.461   -2.334   -2.169   -1.926   -1.622   -1.292   -0.976   -0.722   -0.555   -0.466   -0.438   -0.428   -0.424   -0.411   -0.390   -0.369   -0.352   -0.344   -0.351   -0.366   -0.382   -0.390   -0.394   -0.387   -0.381   -0.384   -0.396   -0.426   -0.479   -0.566   -0.689   -0.839   -1.018   -1.222   -1.452   -1.707   -1.995   -2.320   -2.695   -3.109   -3.552   -3.988   -4.391   -4.749   -5.060   -5.343   -5.611   -5.879   -6.155   -6.439   -6.736   -7.041   -7.349   -7.647   -7.918   -8.150   -8.338   -8.480   -8.588   -8.678   -8.760   -8.851   -8.951   -9.061   -9.184   -9.323   -9.483   -9.668   -9.883  -10.121  -10.371  -10.624  -10.871  -11.105  -11.325  -11.542  -11.781  -12.090  -12.524  -13.138  -13.960  -14.959  -16.051  -17.096  -17.969  -18.592  -18.949  -19.079  -19.053  -18.953  -18.861  -18.842  -18.937  -19.169  -19.531  -19.998  -20.510  -20.984  -21.327  -21.446
  -1.405   -1.326   -1.255   -1.148   -1.006   -0.838   -0.670   -0.525   -0.421   -0.365   -0.348   -0.345   -0.351   -0.350   -0.342   -0.337   -0.332   -0.343   -0.366   -0.394   -0.416   -0.421   -0.412   -0.395   -0.375   -0.362   -0.360   -0.371   -0.396   -0.440   -0.500   -0.578   -0.674   -0.787   -0.921   -1.082   -1.273   -1.518   -1.822   -2.182   -2.577   -2.961   -3.299   -3.572   -3.779   -3.944   -4.082   -4.213   -4.357   -4.526   -4.732   -4.979   -5.268   -5.585   -5.921   -6.261   -6.592   -6.901   -7.184   -7.446   -7.694   -7.932   -8.155   -8.369   -8.574   -8.777   -8.987   -9.214   -9.457   -9.714   -9.970  -10.218  -10.447  -10.657  -10.849  -11.036  -11.250  -11.538  -11.948  -12.527  -13.293  -14.217  -15.210  -16.149  -16.919  -17.453  -17.742  -17.829  -17.784  -17.690  -17.622  -17.631  -17.754  -18.003  -18.370  -18.829  -19.328  -19.790  -20.130  -20.257
  -0.794   -0.741   -0.719   -0.674   -0.611   -0.537   -0.458   -0.386   -0.331   -0.308   -0.301   -0.306   -0.317   -0.324   -0.324   -0.325   -0.335   -0.365   -0.404   -0.438   -0.457   -0.453   -0.429   -0.396   -0.366   -0.348   -0.337   -0.338   -0.348   -0.366   -0.396   -0.435   -0.485   -0.540   -0.611   -0.701   -0.823   -0.988   -1.214   -1.494   -1.808   -2.113   -2.368   -2.562   -2.689   -2.766   -2.813   -2.856   -2.908   -2.995   -3.127   -3.324   -3.586   -3.911   -4.291   -4.709   -5.143   -5.575   -5.991   -6.396   -6.787   -7.159   -7.504   -7.817   -8.100   -8.361   -8.608   -8.851   -9.091   -9.326   -9.542   -9.737   -9.910  -10.063  -10.203  -10.345  -10.522  -10.774  -11.148  -11.678  -12.378  -13.222  -14.127  -14.986  -15.697  -16.194  -16.469  -16.562  -16.540  -16.477  -16.443  -16.485  -16.639  -16.911  -17.294  -17.764  -18.270  -18.739  -19.086  -19.227
  -0.506   -0.463   -0.449   -0.434   -0.405   -0.369   -0.336   -0.302   -0.282   -0.272   -0.272   -0.286   -0.303   -0.313   -0.320   -0.327   -0.349   -0.393   -0.450   -0.494   -0.504   -0.478   -0.436   -0.389   -0.349   -0.328   -0.316   -0.311   -0.314   -0.324   -0.337   -0.358   -0.379   -0.408   -0.444   -0.491   -0.559   -0.662   -0.807   -0.998   -1.215   -1.423   -1.596   -1.718   -1.787   -1.816   -1.821   -1.818   -1.823   -1.864   -1.948   -2.097   -2.324   -2.628   -3.009   -3.449   -3.922   -4.417   -4.916   -5.420   -5.927   -6.420   -6.885   -7.301   -7.667   -7.986   -8.265   -8.509   -8.726   -8.909   -9.059   -9.178   -9.275   -9.360   -9.441   -9.541   -9.685   -9.913  -10.258  -10.751  -11.398  -12.175  -13.014  -13.819  -14.501  -14.996  -15.295  -15.431  -15.459  -15.447  -15.458  -15.539  -15.721  -16.017  -16.420  -16.906  -17.426  -17.907  -18.260  -18.406
  -0.387   -0.347   -0.336   -0.325   -0.307   -0.292   -0.275   -0.260   -0.255   -0.249   -0.257   -0.269   -0.284   -0.298   -0.308   -0.320   -0.355   -0.416   -0.486   -0.532   -0.530   -0.485   -0.422   -0.364   -0.325   -0.304   -0.292   -0.288   -0.293   -0.294   -0.303   -0.315   -0.327   -0.342   -0.357   -0.384   -0.419   -0.475   -0.558   -0.668   -0.790   -0.915   -1.011   -1.078   -1.114   -1.125   -1.117   -1.104   -1.099   -1.119   -1.172   -1.278   -1.455   -1.707   -2.039   -2.437   -2.883   -3.365   -3.883   -4.437   -5.022   -5.617   -6.191   -6.712   -7.167   -7.548   -7.859   -8.109   -8.302   -8.436   -8.522   -8.571   -8.603   -8.633   -8.678   -8.755   -8.890   -9.116   -9.456   -9.930  -10.542  -11.264  -12.042  -12.801  -13.458  -13.962  -14.298  -14.494  -14.590  -14.649  -14.718  -14.844  -15.057  -15.376  -15.796  -16.292  -16.818  -17.299  -17.649  -17.786
  -0.332   -0.294   -0.289   -0.276   -0.265   -0.256   -0.247   -0.238   -0.235   -0.237   -0.241   -0.248   -0.262   -0.273   -0.283   -0.304   -0.344   -0.412   -0.487   -0.533   -0.527   -0.471   -0.396   -0.335   -0.298   -0.278   -0.271   -0.269   -0.268   -0.272   -0.278   -0.285   -0.294   -0.301   -0.314   -0.326   -0.345   -0.373   -0.415   -0.466   -0.528   -0.586   -0.636   -0.669   -0.686   -0.692   -0.687   -0.682   -0.677   -0.689   -0.722   -0.792   -0.910   -1.091   -1.334   -1.640   -2.001   -2.417   -2.893   -3.438   -4.049   -4.704   -5.360   -5.974   -6.513   -6.965   -7.322   -7.591   -7.777   -7.889   -7.940   -7.954   -7.955   -7.967   -8.008   -8.093   -8.246   -8.487   -8.836   -9.299   -9.873  -10.531  -11.237  -11.927  -12.538  -13.032  -13.395  -13.643  -13.813  -13.946  -14.081  -14.259  -14.512  -14.856  -15.292  -15.791  -16.310  -16.780  -17.119  -17.236
  -0.307   -0.270   -0.261   -0.251   -0.244   -0.236   -0.231   -0.227   -0.223   -0.221   -0.226   -0.230   -0.239   -0.245   -0.254   -0.275   -0.315   -0.378   -0.451   -0.494   -0.483   -0.426   -0.360   -0.303   -0.270   -0.254   -0.250   -0.248   -0.251   -0.256   -0.261   -0.267   -0.272   -0.278   -0.284   -0.293   -0.305   -0.318   -0.335   -0.362   -0.388   -0.412   -0.435   -0.450   -0.462   -0.464   -0.466   -0.465   -0.470   -0.476   -0.496   -0.534   -0.602   -0.710   -0.864   -1.065   -1.313   -1.621   -2.005   -2.483   -3.058   -3.708   -4.392   -5.059   -5.666   -6.184   -6.595   -6.900   -7.109   -7.232   -7.291   -7.315   -7.328   -7.359   -7.429   -7.552   -7.737   -8.002   -8.353   -8.787   -9.296   -9.866  -10.467  -11.052  -11.583  -12.031  -12.389  -12.665  -12.887  -13.082  -13.278  -13.512  -13.807  -14.183  -14.635  -15.138  -15.647  -16.100  -16.425  -16.528
  -0.292   -0.258   -0.248   -0.239   -0.233   -0.227   -0.222   -0.219   -0.215   -0.213   -0.211   -0.217   -0.220   -0.221   -0.229   -0.247   -0.277   -0.328   -0.382   -0.415   -0.410   -0.366   -0.316   -0.272   -0.247   -0.235   -0.232   -0.233   -0.237   -0.242   -0.246   -0.251   -0.256   -0.261   -0.266   -0.271   -0.276   -0.284   -0.296   -0.306   -0.318   -0.327   -0.339   -0.348   -0.354   -0.359   -0.362   -0.367   -0.368   -0.376   -0.387   -0.409   -0.443   -0.498   -0.578   -0.689   -0.836   -1.034   -1.304   -1.667   -2.143   -2.717   -3.357   -4.018   -4.644   -5.196   -5.647   -5.994   -6.242   -6.408   -6.510   -6.578   -6.639   -6.725   -6.851   -7.023   -7.253   -7.535   -7.866   -8.242   -8.660   -9.106   -9.567  -10.018  -10.436  -10.802  -11.116  -11.386  -11.625  -11.853  -12.091  -12.363  -12.692  -13.089  -13.551  -14.052  -14.552  -14.994  -15.313  -15.418
  -0.282   -0.248   -0.239   -0.231   -0.225   -0.220   -0.215   -0.212   -0.208   -0.206   -0.204   -0.203   -0.204   -0.208   -0.210   -0.221   -0.242   -0.273   -0.308   -0.330   -0.329   -0.301   -0.270   -0.239   -0.225   -0.222   -0.219   -0.223   -0.226   -0.230   -0.233   -0.237   -0.242   -0.246   -0.251   -0.255   -0.260   -0.264   -0.269   -0.276   -0.281   -0.291   -0.296   -0.302   -0.308   -0.312   -0.315   -0.320   -0.325   -0.330   -0.336   -0.345   -0.364   -0.389   -0.424   -0.477   -0.550   -0.660   -0.825   -1.065   -1.407   -1.848   -2.374   -2.946   -3.520   -4.049   -4.500   -4.867   -5.151   -5.366   -5.526   -5.655   -5.788   -5.946   -6.152   -6.395   -6.671   -6.965   -7.262   -7.559   -7.864   -8.167   -8.471   -8.769   -9.051   -9.308   -9.546   -9.770   -9.989  -10.213  -10.454  -10.733  -11.066  -11.459  -11.908  -12.390  -12.869  -13.296  -13.611  -13.736
  -0.273   -0.240   -0.232   -0.224   -0.218   -0.213   -0.209   -0.205   -0.202   -0.200   -0.198   -0.197   -0.195   -0.194   -0.197   -0.203   -0.214   -0.228   -0.248   -0.260   -0.260   -0.247   -0.231   -0.219   -0.212   -0.208   -0.210   -0.213   -0.216   -0.219   -0.223   -0.226   -0.230   -0.233   -0.237   -0.241   -0.245   -0.249   -0.253   -0.257   -0.262   -0.266   -0.270   -0.274   -0.278   -0.283   -0.287   -0.291   -0.296   -0.300   -0.305   -0.312   -0.322   -0.332   -0.349   -0.368   -0.403   -0.455   -0.539   -0.678   -0.889   -1.180   -1.550   -1.978   -2.431   -2.870   -3.269   -3.611   -3.900   -4.140   -4.346   -4.539   -4.746   -4.994   -5.288   -5.617   -5.948   -6.256   -6.518   -6.736   -6.921   -7.080   -7.228   -7.366   -7.500   -7.637   -7.776   -7.925   -8.093   -8.277   -8.487   -8.734   -9.031   -9.378   -9.775  -10.199  -10.630  -11.021  -11.319  -11.470
  -0.265   -0.234   -0.226   -0.218   -0.212   -0.207   -0.203   -0.200   -0.197   -0.195   -0.193   -0.192   -0.190   -0.189   -0.189   -0.189   -0.197   -0.203   -0.210   -0.219   -0.218   -0.212   -0.207   -0.203   -0.198   -0.201   -0.203   -0.205   -0.208   -0.211   -0.213   -0.216   -0.219   -0.223   -0.226   -0.229   -0.233   -0.236   -0.240   -0.243   -0.247   -0.251   -0.254   -0.259   -0.262   -0.266   -0.270   -0.274   -0.278   -0.281   -0.285   -0.289   -0.293   -0.299   -0.307   -0.318   -0.332   -0.354   -0.396   -0.465   -0.573   -0.739   -0.957   -1.226   -1.528   -1.838   -2.133   -2.408   -2.656   -2.884   -3.105   -3.339   -3.608   -3.936   -4.316   -4.721   -5.109   -5.429   -5.662   -5.810   -5.888   -5.922   -5.925   -5.917   -5.911   -5.924   -5.964   -6.034   -6.134   -6.260   -6.415   -6.602   -6.830   -7.098   -7.407   -7.736   -8.078   -8.399   -8.651   -8.816
  -0.258   -0.228   -0.220   -0.213   -0.207   -0.203   -0.199   -0.195   -0.193   -0.190   -0.189   -0.187   -0.186   -0.185   -0.185   -0.184   -0.185   -0.188   -0.193   -0.195   -0.196   -0.195   -0.191   -0.190   -0.191   -0.193   -0.196   -0.198   -0.201   -0.203   -0.205   -0.208   -0.211   -0.213   -0.216   -0.219   -0.222   -0.225   -0.228   -0.232   -0.235   -0.238   -0.241   -0.245   -0.248   -0.251   -0.255   -0.259   -0.262   -0.266   -0.269   -0.273   -0.276   -0.280   -0.284   -0.289   -0.298   -0.308   -0.326   -0.355   -0.405   -0.484   -0.594   -0.737   -0.903   -1.086   -1.270   -1.447   -1.631   -1.814   -2.012   -2.248   -2.540   -2.905   -3.331   -3.776   -4.184   -4.505   -4.710   -4.805   -4.807   -4.746   -4.640   -4.517   -4.398   -4.313   -4.269   -4.272   -4.316   -4.387   -4.487   -4.613   -4.765   -4.947   -5.155   -5.378   -5.613   -5.837   -6.021   -6.181
  -0.253   -0.223   -0.215   -0.208   -0.203   -0.198   -0.195   -0.191   -0.189   -0.187   -0.185   -0.183   -0.182   -0.181   -0.181   -0.180   -0.180   -0.180   -0.180   -0.181   -0.181   -0.182   -0.184   -0.185   -0.186   -0.188   -0.190   -0.191   -0.193   -0.196   -0.199   -0.201   -0.203   -0.206   -0.208   -0.211   -0.213   -0.216   -0.219   -0.222   -0.225   -0.227   -0.230   -0.233   -0.236   -0.239   -0.242   -0.245   -0.248   -0.251   -0.255   -0.258   -0.262   -0.265   -0.269   -0.272   -0.276   -0.281   -0.289   -0.304   -0.322   -0.356   -0.403   -0.469   -0.543   -0.631   -0.726   -0.829   -0.936   -1.059   -1.212   -1.414   -1.682   -2.022   -2.426   -2.840   -3.215   -3.502   -3.668   -3.724   -3.685   -3.572   -3.412   -3.228   -3.054   -2.916   -2.830   -2.794   -2.802   -2.837   -2.898   -2.978   -3.082   -3.201   -3.339   -3.487   -3.639   -3.783   -3.906   -4.041
  -0.248   -0.219   -0.212   -0.205   -0.199   -0.195   -0.191   -0.188   -0.186   -0.184   -0.182   -0.180   -0.179   -0.178   -0.178   -0.177   -0.177   -0.177   -0.177   -0.178   -0.178   -0.179   -0.180   -0.181   -0.182   -0.183   -0.185   -0.186   -0.188   -0.190   -0.192   -0.194   -0.197   -0.199   -0.201   -0.204   -0.206   -0.208   -0.211   -0.213   -0.216   -0.218   -0.221   -0.224   -0.226   -0.229   -0.232   -0.234   -0.237   -0.240   -0.243   -0.246   -0.249   -0.252   -0.255   -0.258   -0.262   -0.266   -0.269   -0.275   -0.285   -0.299   -0.316   -0.340   -0.373   -0.408   -0.449   -0.497   -0.552   -0.624   -0.724   -0.868   -1.075   -1.340   -1.653   -1.977   -2.267   -2.484   -2.605   -2.631   -2.581   -2.469   -2.307   -2.127   -1.960   -1.825   -1.738   -1.695   -1.685   -1.706   -1.745   -1.807   -1.885   -1.988   -2.107   -2.233   -2.360   -2.476   -2.568   -2.685
  -0.244   -0.215   -0.209   -0.202   -0.197   -0.192   -0.189   -0.186   -0.183   -0.181   -0.180   -0.178   -0.177   -0.176   -0.175   -0.175   -0.175   -0.175   -0.175   -0.175   -0.175   -0.176   -0.177   -0.178   -0.179   -0.180   -0.181   -0.182   -0.184   -0.185   -0.187   -0.189   -0.191   -0.193   -0.195   -0.197   -0.200   -0.202   -0.204   -0.206   -0.209   -0.211   -0.213   -0.216   -0.218   -0.221   -0.223   -0.225   -0.228   -0.231   -0.233   -0.236   -0.238   -0.241   -0.244   -0.247   -0.250   -0.253   -0.256   -0.259   -0.264   -0.269   -0.279   -0.288   -0.300   -0.314   -0.329   -0.350   -0.376   -0.415   -0.469   -0.556   -0.685   -0.860   -1.057   -1.264   -1.449   -1.585   -1.657   -1.669   -1.630   -1.545   -1.428   -1.298   -1.176   -1.080   -1.017   -0.982   -0.976   -0.988   -1.021   -1.076   -1.157   -1.272   -1.408   -1.559   -1.708   -1.839   -1.938   -2.045
  -0.242   -0.213   -0.206   -0.200   -0.195   -0.190   -0.187   -0.184   -0.182   -0.180   -0.178   -0.177   -0.175   -0.174   -0.174   -0.173   -0.173   -0.173   -0.173   -0.173   -0.173   -0.174   -0.175   -0.175   -0.176   -0.177   -0.178   -0.179   -0.181   -0.182   -0.184   -0.185   -0.187   -0.188   -0.190   -0.192   -0.194   -0.196   -0.198   -0.200   -0.203   -0.205   -0.207   -0.209   -0.211   -0.214   -0.216   -0.218   -0.220   -0.223   -0.225   -0.228   -0.230   -0.232   -0.235   -0.238   -0.240   -0.243   -0.246   -0.249   -0.252   -0.255   -0.259   -0.264   -0.268   -0.278   -0.283   -0.294   -0.304   -0.322   -0.352   -0.395   -0.464   -0.551   -0.656   -0.763   -0.859   -0.931   -0.967   -0.975   -0.951   -0.902   -0.837   -0.764   -0.697   -0.644   -0.613   -0.596   -0.593   -0.606   -0.634   -0.686   -0.768   -0.893   -1.052   -1.234   -1.417   -1.580   -1.704   -1.816
  -0.241   -0.212   -0.206   -0.199   -0.194   -0.190   -0.186   -0.184   -0.181   -0.179   -0.177   -0.176   -0.175   -0.174   -0.173   -0.173   -0.172   -0.172   -0.172   -0.172   -0.172   -0.173   -0.173   -0.174   -0.175   -0.176   -0.177   -0.178   -0.179   -0.180   -0.181   -0.183   -0.184   -0.186   -0.187   -0.189   -0.190   -0.192   -0.194   -0.196   -0.198   -0.200   -0.202   -0.204   -0.206   -0.208   -0.210   -0.212   -0.215   -0.217   -0.219   -0.221   -0.223   -0.226   -0.228   -0.230   -0.233   -0.235   -0.238   -0.241   -0.243   -0.246   -0.249   -0.252   -0.255   -0.258   -0.262   -0.267   -0.274   -0.283   -0.296   -0.316   -0.346   -0.382   -0.431   -0.478   -0.516   -0.550   -0.564   -0.568   -0.556   -0.539   -0.513   -0.482   -0.455   -0.434   -0.420   -0.414   -0.416   -0.428   -0.449   -0.492   -0.570   -0.692   -0.849   -1.036   -1.239   -1.432   -1.579   -1.698
  -0.242   -0.213   -0.206   -0.200   -0.195   -0.190   -0.187   -0.184   -0.182   -0.180   -0.178   -0.177   -0.176   -0.175   -0.174   -0.173   -0.173   -0.173   -0.173   -0.173   -0.173   -0.173   -0.174   -0.174   -0.175   -0.175   -0.176   -0.177   -0.178   -0.179   -0.180   -0.182   -0.183   -0.184   -0.186   -0.187   -0.189   -0.190   -0.192   -0.193   -0.195   -0.197   -0.198   -0.200   -0.202   -0.204   -0.206   -0.208   -0.211   -0.213   -0.215   -0.217   -0.219   -0.221   -0.223   -0.225   -0.227   -0.230   -0.232   -0.234   -0.237   -0.239   -0.242   -0.245   -0.248   -0.250   -0.253   -0.256   -0.259   -0.263   -0.271   -0.280   -0.293   -0.306   -0.324   -0.340   -0.357   -0.369   -0.373   -0.376   -0.378   -0.373   -0.366   -0.358   -0.351   -0.343   -0.339   -0.342   -0.344   -0.353   -0.369   -0.400   -0.461   -0.556   -0.693   -0.867   -1.065   -1.262   -1.424   -1.551
  -0.245   -0.214   -0.207   -0.201   -0.195   -0.191   -0.188   -0.185   -0.183   -0.181   -0.179   -0.178   -0.177   -0.176   -0.175   -0.174   -0.174   -0.173   -0.173   -0.173   -0.173   -0.174   -0.174   -0.174   -0.175   -0.175   -0.176   -0.177   -0.178   -0.179   -0.180   -0.181   -0.182   -0.183   -0.184   -0.186   -0.187   -0.188   -0.190   -0.191   -0.193   -0.194   -0.196   -0.198   -0.199   -0.201   -0.203   -0.204   -0.207   -0.209   -0.211   -0.213   -0.215   -0.217   -0.219   -0.221   -0.223   -0.225   -0.227   -0.229   -0.231   -0.234   -0.236   -0.239   -0.241   -0.244   -0.246   -0.249   -0.252   -0.254   -0.257   -0.261   -0.268   -0.275   -0.280   -0.289   -0.295   -0.298   -0.301   -0.304   -0.307   -0.310   -0.308   -0.307   -0.308   -0.309   -0.307   -0.308   -0.311   -0.319   -0.332   -0.353   -0.393   -0.463   -0.567   -0.718   -0.900   -1.095   -1.258   -1.392
  -0.313   -0.238   -0.229   -0.222   -0.217   -0.212   -0.209   -0.206   -0.203   -0.201   -0.199   -0.198   -0.197   -0.196   -0.195   -0.194   -0.194   -0.193   -0.193   -0.193   -0.193   -0.193   -0.193   -0.193   -0.194   -0.194   -0.195   -0.195   -0.196   -0.197   -0.198   -0.199   -0.200   -0.201   -0.202   -0.203   -0.204   -0.206   -0.207   -0.208   -0.210   -0.211   -0.213   -0.214   -0.216   -0.217   -0.219   -0.221   -0.222   -0.224   -0.227   -0.229   -0.230   -0.232   -0.234   -0.236   -0.238   -0.240   -0.242   -0.244   -0.247   -0.249   -0.251   -0.254   -0.256   -0.258   -0.261   -0.264   -0.266   -0.269   -0.272   -0.274   -0.277   -0.279   -0.284   -0.288   -0.297   -0.301   -0.304   -0.307   -0.310   -0.307   -0.307   -0.310   -0.312   -0.315   -0.318   -0.321   -0.323   -0.328   -0.340   -0.354   -0.385   -0.443   -0.532   -0.663   -0.838   -1.026   -1.192   -1.381
