DSAA
 100 100
 0.0 400.0
 0.0 400.0
 -44.55881 -0.5750902
  -0.857   -0.762   -0.809   -0.900   -1.029   -1.178   -1.332   -1.464   -1.547   -1.564   -1.499   -1.356   -1.167   -0.970   -0.804   -0.695   -0.665   -0.718   -0.871   -1.112   -1.392   -1.622   -1.713   -1.647   -1.495   -1.357   -1.308   -1.334   -1.373   -1.375   -1.328   -1.250   -1.177   -1.112   -1.062   -1.017   -0.987   -0.992   -1.057   -1.192   -1.385   -1.597   -1.797   -1.968   -2.087   -2.129   -2.083   -1.989   -1.912   -1.889   -1.906   -1.932   -1.943   -1.935   -1.908   -1.856   -1.764   -1.642   -1.520   -1.439   -1.436   -1.482   -1.509   -1.452   -1.298   -1.097   -0.929   -0.851   -0.864   -0.934   -1.009   -1.072   -1.136   -1.207   -1.261   -1.256   -1.178   -1.070   -0.975   -0.925   -0.924   -0.956   -1.013   -1.065   -1.103   -1.135   -1.192   -1.302   -1.472   -1.690   -1.919   -2.113   -2.216   -2.186   -2.006   -1.722   -1.401   -1.115   -0.921   -0.945
  -0.911   -0.875   -0.939   -1.042   -1.176   -1.331   -1.482   -1.605   -1.678   -1.679   -1.597   -1.437   -1.229   -1.012   -0.828   -0.703   -0.658   -0.699   -0.836   -1.058   -1.317   -1.528   -1.610   -1.550   -1.405   -1.277   -1.225   -1.246   -1.288   -1.307   -1.286   -1.236   -1.175   -1.112   -1.055   -1.005   -0.975   -0.979   -1.038   -1.157   -1.323   -1.503   -1.670   -1.811   -1.914   -1.963   -1.951   -1.911   -1.896   -1.930   -1.988   -2.035   -2.050   -2.034   -1.990   -1.914   -1.792   -1.634   -1.473   -1.359   -1.323   -1.346   -1.360   -1.310   -1.175   -1.002   -0.862   -0.804   -0.826   -0.899   -0.972   -1.029   -1.083   -1.150   -1.203   -1.203   -1.136   -1.039   -0.961   -0.925   -0.933   -0.977   -1.033   -1.087   -1.131   -1.181   -1.260   -1.393   -1.590   -1.836   -2.099   -2.329   -2.459   -2.433   -2.232   -1.901   -1.525   -1.190   -0.960   -0.919
  -1.252   -1.229   -1.305   -1.421   -1.564   -1.715   -1.855   -1.959   -2.005   -1.974   -1.862   -1.676   -1.442   -1.193   -0.976   -0.816   -0.737   -0.746   -0.846   -1.020   -1.228   -1.397   -1.463   -1.416   -1.300   -1.193   -1.144   -1.155   -1.197   -1.242   -1.267   -1.262   -1.225   -1.169   -1.108   -1.060   -1.036   -1.043   -1.094   -1.186   -1.306   -1.431   -1.545   -1.640   -1.717   -1.766   -1.795   -1.829   -1.902   -2.012   -2.122   -2.194   -2.212   -2.183   -2.114   -2.002   -1.841   -1.645   -1.445   -1.295   -1.219   -1.205   -1.199   -1.154   -1.056   -0.936   -0.845   -0.813   -0.846   -0.911   -0.974   -1.021   -1.065   -1.122   -1.175   -1.189   -1.146   -1.081   -1.037   -1.029   -1.058   -1.105   -1.157   -1.204   -1.252   -1.324   -1.436   -1.606   -1.834   -2.117   -2.431   -2.722   -2.904   -2.899   -2.683   -2.306   -1.867   -1.477   -1.207   -1.141
  -1.720   -1.708   -1.790   -1.911   -2.050   -2.190   -2.306   -2.382   -2.397   -2.335   -2.196   -1.984   -1.722   -1.439   -1.179   -0.972   -0.842   -0.797   -0.837   -0.946   -1.084   -1.199   -1.248   -1.219   -1.143   -1.066   -1.024   -1.025   -1.064   -1.129   -1.191   -1.225   -1.216   -1.174   -1.125   -1.095   -1.090   -1.113   -1.160   -1.228   -1.311   -1.397   -1.473   -1.537   -1.587   -1.629   -1.672   -1.738   -1.846   -1.985   -2.112   -2.187   -2.200   -2.156   -2.070   -1.942   -1.778   -1.586   -1.400   -1.251   -1.164   -1.125   -1.094   -1.048   -0.978   -0.905   -0.853   -0.841   -0.870   -0.921   -0.974   -1.012   -1.052   -1.106   -1.164   -1.196   -1.190   -1.171   -1.170   -1.198   -1.242   -1.282   -1.314   -1.339   -1.379   -1.456   -1.589   -1.778   -2.027   -2.340   -2.699   -3.052   -3.297   -3.341   -3.147   -2.769   -2.317   -1.907   -1.622   -1.544
  -2.224   -2.217   -2.294   -2.405   -2.525   -2.639   -2.730   -2.776   -2.765   -2.682   -2.527   -2.303   -2.024   -1.721   -1.426   -1.171   -0.979   -0.866   -0.833   -0.862   -0.925   -0.985   -1.017   -1.005   -0.965   -0.918   -0.885   -0.875   -0.904   -0.968   -1.041   -1.092   -1.104   -1.084   -1.066   -1.066   -1.091   -1.132   -1.182   -1.243   -1.312   -1.390   -1.463   -1.522   -1.565   -1.595   -1.625   -1.670   -1.746   -1.842   -1.930   -1.980   -1.978   -1.929   -1.849   -1.743   -1.619   -1.490   -1.369   -1.269   -1.197   -1.141   -1.082   -1.015   -0.950   -0.898   -0.872   -0.870   -0.891   -0.930   -0.973   -1.015   -1.061   -1.116   -1.175   -1.224   -1.256   -1.287   -1.335   -1.395   -1.442   -1.465   -1.463   -1.457   -1.476   -1.548   -1.679   -1.868   -2.119   -2.446   -2.841   -3.245   -3.553   -3.657   -3.527   -3.208   -2.807   -2.435   -2.173   -2.100
  -2.688   -2.679   -2.739   -2.824   -2.915   -2.998   -3.055   -3.076   -3.052   -2.966   -2.812   -2.595   -2.323   -2.018   -1.708   -1.423   -1.183   -1.008   -0.900   -0.849   -0.839   -0.846   -0.856   -0.852   -0.837   -0.809   -0.782   -0.762   -0.773   -0.818   -0.880   -0.929   -0.950   -0.954   -0.963   -0.989   -1.029   -1.077   -1.131   -1.193   -1.264   -1.347   -1.435   -1.511   -1.568   -1.603   -1.622   -1.632   -1.644   -1.665   -1.685   -1.695   -1.678   -1.641   -1.588   -1.528   -1.469   -1.418   -1.371   -1.324   -1.266   -1.188   -1.092   -0.997   -0.920   -0.876   -0.862   -0.869   -0.894   -0.934   -0.987   -1.043   -1.099   -1.152   -1.204   -1.255   -1.316   -1.389   -1.477   -1.553   -1.594   -1.598   -1.576   -1.555   -1.563   -1.630   -1.754   -1.940   -2.191   -2.530   -2.955   -3.403   -3.764   -3.934   -3.879   -3.647   -3.328   -3.016   -2.792   -2.724
  -3.058   -3.042   -3.078   -3.133   -3.191   -3.239   -3.269   -3.271   -3.241   -3.162   -3.026   -2.833   -2.586   -2.305   -2.006   -1.720   -1.459   -1.243   -1.077   -0.962   -0.889   -0.853   -0.836   -0.831   -0.824   -0.808   -0.781   -0.758   -0.752   -0.776   -0.819   -0.861   -0.886   -0.904   -0.916   -0.930   -0.956   -0.987   -1.027   -1.083   -1.150   -1.231   -1.322   -1.409   -1.486   -1.543   -1.572   -1.569   -1.545   -1.511   -1.483   -1.458   -1.441   -1.422   -1.407   -1.391   -1.379   -1.374   -1.362   -1.331   -1.264   -1.164   -1.043   -0.928   -0.847   -0.811   -0.812   -0.838   -0.879   -0.938   -1.012   -1.090   -1.156   -1.203   -1.243   -1.293   -1.368   -1.465   -1.563   -1.631   -1.659   -1.654   -1.635   -1.634   -1.671   -1.755   -1.890   -2.084   -2.346   -2.706   -3.164   -3.653   -4.069   -4.304   -4.325   -4.171   -3.913   -3.635   -3.417   -3.343
  -3.318   -3.291   -3.306   -3.334   -3.358   -3.378   -3.386   -3.378   -3.346   -3.280   -3.166   -3.001   -2.789   -2.548   -2.286   -2.021   -1.764   -1.532   -1.334   -1.175   -1.060   -0.987   -0.952   -0.944   -0.941   -0.930   -0.909   -0.894   -0.892   -0.914   -0.952   -0.993   -1.020   -1.027   -1.014   -0.985   -0.958   -0.941   -0.947   -0.975   -1.016   -1.070   -1.139   -1.218   -1.302   -1.377   -1.428   -1.442   -1.420   -1.373   -1.325   -1.294   -1.286   -1.295   -1.308   -1.317   -1.319   -1.309   -1.288   -1.240   -1.159   -1.048   -0.926   -0.825   -0.765   -0.751   -0.768   -0.809   -0.869   -0.947   -1.041   -1.138   -1.213   -1.263   -1.302   -1.356   -1.438   -1.532   -1.612   -1.655   -1.662   -1.657   -1.673   -1.726   -1.821   -1.953   -2.120   -2.330   -2.610   -2.991   -3.477   -4.010   -4.481   -4.792   -4.891   -4.800   -4.576   -4.298   -4.058   -3.964
  -3.479   -3.445   -3.443   -3.448   -3.452   -3.453   -3.445   -3.429   -3.398   -3.343   -3.246   -3.108   -2.928   -2.723   -2.501   -2.267   -2.029   -1.795   -1.583   -1.399   -1.260   -1.169   -1.129   -1.121   -1.127   -1.130   -1.133   -1.148   -1.182   -1.232   -1.290   -1.337   -1.357   -1.339   -1.277   -1.186   -1.087   -1.009   -0.963   -0.945   -0.947   -0.958   -0.987   -1.034   -1.099   -1.172   -1.234   -1.269   -1.261   -1.225   -1.176   -1.148   -1.150   -1.179   -1.216   -1.236   -1.232   -1.205   -1.160   -1.098   -1.014   -0.919   -0.835   -0.778   -0.761   -0.773   -0.799   -0.837   -0.892   -0.971   -1.069   -1.173   -1.260   -1.326   -1.385   -1.458   -1.543   -1.625   -1.676   -1.690   -1.686   -1.698   -1.761   -1.879   -2.038   -2.217   -2.410   -2.635   -2.924   -3.318   -3.820   -4.386   -4.911   -5.292   -5.474   -5.452   -5.272   -5.003   -4.751   -4.640
  -3.565   -3.526   -3.515   -3.507   -3.502   -3.492   -3.479   -3.463   -3.433   -3.384   -3.299   -3.176   -3.018   -2.836   -2.638   -2.424   -2.195   -1.963   -1.743   -1.547   -1.396   -1.301   -1.267   -1.273   -1.298   -1.333   -1.383   -1.458   -1.556   -1.667   -1.762   -1.816   -1.819   -1.760   -1.641   -1.486   -1.327   -1.196   -1.104   -1.045   -1.002   -0.972   -0.957   -0.961   -0.991   -1.038   -1.089   -1.122   -1.119   -1.080   -1.027   -0.991   -0.991   -1.026   -1.073   -1.104   -1.104   -1.080   -1.039   -0.989   -0.931   -0.881   -0.856   -0.863   -0.893   -0.920   -0.936   -0.946   -0.968   -1.022   -1.106   -1.201   -1.292   -1.379   -1.469   -1.567   -1.668   -1.748   -1.789   -1.800   -1.813   -1.860   -1.972   -2.135   -2.326   -2.521   -2.716   -2.935   -3.217   -3.609   -4.116   -4.696   -5.253   -5.689   -5.943   -6.003   -5.898   -5.688   -5.473   -5.368
  -3.603   -3.561   -3.545   -3.535   -3.526   -3.517   -3.508   -3.495   -3.471   -3.428   -3.351   -3.236   -3.087   -2.911   -2.713   -2.497   -2.260   -2.018   -1.783   -1.577   -1.423   -1.336   -1.314   -1.343   -1.408   -1.498   -1.618   -1.772   -1.951   -2.126   -2.256   -2.311   -2.282   -2.175   -2.005   -1.803   -1.609   -1.450   -1.331   -1.241   -1.169   -1.108   -1.059   -1.028   -1.018   -1.030   -1.051   -1.062   -1.043   -0.985   -0.907   -0.846   -0.824   -0.850   -0.898   -0.944   -0.972   -0.982   -0.979   -0.969   -0.960   -0.967   -1.006   -1.069   -1.132   -1.165   -1.153   -1.120   -1.100   -1.120   -1.178   -1.257   -1.343   -1.436   -1.544   -1.668   -1.790   -1.892   -1.962   -2.013   -2.073   -2.168   -2.311   -2.485   -2.665   -2.834   -2.997   -3.189   -3.455   -3.834   -4.334   -4.909   -5.475   -5.938   -6.240   -6.371   -6.356   -6.247   -6.116   -6.044
  -3.617   -3.570   -3.556   -3.544   -3.536   -3.533   -3.529   -3.525   -3.509   -3.476   -3.407   -3.301   -3.154   -2.975   -2.763   -2.524   -2.261   -1.992   -1.736   -1.517   -1.360   -1.279   -1.278   -1.345   -1.462   -1.621   -1.820   -2.056   -2.306   -2.526   -2.669   -2.712   -2.646   -2.494   -2.288   -2.066   -1.868   -1.708   -1.577   -1.466   -1.369   -1.287   -1.223   -1.174   -1.142   -1.128   -1.122   -1.106   -1.057   -0.967   -0.854   -0.757   -0.707   -0.712   -0.757   -0.820   -0.883   -0.939   -0.988   -1.029   -1.074   -1.138   -1.224   -1.323   -1.401   -1.424   -1.386   -1.325   -1.287   -1.298   -1.352   -1.420   -1.493   -1.574   -1.681   -1.814   -1.957   -2.094   -2.217   -2.330   -2.447   -2.581   -2.731   -2.885   -3.022   -3.136   -3.253   -3.408   -3.650   -4.009   -4.486   -5.042   -5.594   -6.058   -6.382   -6.561   -6.622   -6.608   -6.564   -6.534
  -3.616   -3.570   -3.554   -3.543   -3.538   -3.537   -3.540   -3.542   -3.534   -3.508   -3.455   -3.362   -3.224   -3.042   -2.816   -2.547   -2.252   -1.948   -1.665   -1.431   -1.268   -1.194   -1.210   -1.313   -1.483   -1.709   -1.979   -2.273   -2.561   -2.794   -2.933   -2.953   -2.858   -2.680   -2.463   -2.253   -2.075   -1.923   -1.780   -1.644   -1.519   -1.422   -1.358   -1.315   -1.286   -1.268   -1.248   -1.212   -1.138   -1.020   -0.880   -0.755   -0.679   -0.666   -0.706   -0.780   -0.868   -0.961   -1.051   -1.136   -1.227   -1.329   -1.445   -1.558   -1.637   -1.653   -1.616   -1.573   -1.572   -1.625   -1.708   -1.785   -1.849   -1.908   -1.998   -2.121   -2.274   -2.440   -2.602   -2.759   -2.908   -3.053   -3.190   -3.309   -3.393   -3.455   -3.524   -3.643   -3.856   -4.180   -4.619   -5.134   -5.656   -6.106   -6.434   -6.637   -6.743   -6.786   -6.798   -6.800
  -3.611   -3.563   -3.546   -3.536   -3.530   -3.530   -3.534   -3.538   -3.538   -3.521   -3.483   -3.410   -3.288   -3.114   -2.883   -2.598   -2.273   -1.941   -1.634   -1.380   -1.208   -1.132   -1.155   -1.277   -1.479   -1.746   -2.055   -2.375   -2.670   -2.898   -3.022   -3.024   -2.916   -2.735   -2.536   -2.358   -2.208   -2.067   -1.910   -1.744   -1.596   -1.493   -1.441   -1.420   -1.414   -1.409   -1.395   -1.352   -1.262   -1.127   -0.968   -0.827   -0.737   -0.709   -0.742   -0.819   -0.921   -1.037   -1.149   -1.265   -1.391   -1.525   -1.665   -1.792   -1.880   -1.914   -1.919   -1.942   -2.029   -2.163   -2.300   -2.399   -2.460   -2.506   -2.577   -2.686   -2.828   -2.990   -3.158   -3.313   -3.455   -3.579   -3.686   -3.763   -3.809   -3.833   -3.869   -3.960   -4.136   -4.411   -4.789   -5.244   -5.717   -6.141   -6.465   -6.677   -6.801   -6.863   -6.892   -6.909
  -3.603   -3.554   -3.537   -3.525   -3.519   -3.518   -3.521   -3.524   -3.524   -3.516   -3.490   -3.438   -3.341   -3.186   -2.967   -2.683   -2.354   -2.010   -1.690   -1.423   -1.237   -1.143   -1.150   -1.252   -1.443   -1.704   -2.010   -2.328   -2.619   -2.843   -2.962   -2.960   -2.854   -2.690   -2.522   -2.384   -2.264   -2.135   -1.971   -1.794   -1.642   -1.552   -1.526   -1.540   -1.565   -1.579   -1.569   -1.518   -1.414   -1.260   -1.086   -0.932   -0.828   -0.790   -0.813   -0.891   -1.001   -1.130   -1.268   -1.420   -1.588   -1.770   -1.955   -2.122   -2.249   -2.333   -2.411   -2.529   -2.708   -2.915   -3.098   -3.217   -3.278   -3.322   -3.382   -3.474   -3.591   -3.722   -3.852   -3.974   -4.078   -4.162   -4.231   -4.277   -4.297   -4.301   -4.320   -4.387   -4.524   -4.743   -5.049   -5.425   -5.833   -6.213   -6.518   -6.730   -6.857   -6.920   -6.948   -6.966
  -3.594   -3.544   -3.529   -3.519   -3.513   -3.509   -3.509   -3.508   -3.509   -3.500   -3.486   -3.449   -3.378   -3.254   -3.065   -2.811   -2.502   -2.173   -1.856   -1.583   -1.379   -1.251   -1.209   -1.255   -1.386   -1.594   -1.864   -2.164   -2.457   -2.691   -2.824   -2.832   -2.736   -2.586   -2.442   -2.333   -2.242   -2.134   -1.992   -1.841   -1.726   -1.677   -1.695   -1.746   -1.795   -1.820   -1.802   -1.727   -1.593   -1.407   -1.207   -1.028   -0.903   -0.849   -0.868   -0.951   -1.080   -1.242   -1.427   -1.642   -1.887   -2.152   -2.416   -2.656   -2.851   -3.006   -3.158   -3.342   -3.570   -3.805   -3.993   -4.111   -4.174   -4.219   -4.276   -4.353   -4.440   -4.529   -4.612   -4.684   -4.740   -4.784   -4.818   -4.842   -4.848   -4.848   -4.858   -4.906   -5.008   -5.174   -5.410   -5.702   -6.027   -6.341   -6.608   -6.807   -6.934   -7.001   -7.029   -7.047
  -3.589   -3.539   -3.525   -3.516   -3.510   -3.507   -3.503   -3.498   -3.495   -3.488   -3.479   -3.456   -3.408   -3.320   -3.175   -2.968   -2.706   -2.415   -2.119   -1.852   -1.626   -1.458   -1.351   -1.315   -1.355   -1.480   -1.693   -1.970   -2.268   -2.527   -2.685   -2.712   -2.623   -2.476   -2.337   -2.239   -2.172   -2.100   -2.014   -1.930   -1.886   -1.906   -1.975   -2.061   -2.125   -2.142   -2.101   -1.990   -1.808   -1.575   -1.328   -1.107   -0.949   -0.875   -0.896   -1.001   -1.176   -1.405   -1.681   -2.001   -2.358   -2.731   -3.095   -3.419   -3.682   -3.892   -4.079   -4.275   -4.488   -4.694   -4.852   -4.951   -5.007   -5.051   -5.107   -5.172   -5.237   -5.291   -5.335   -5.363   -5.379   -5.389   -5.399   -5.411   -5.416   -5.415   -5.422   -5.455   -5.527   -5.651   -5.824   -6.041   -6.278   -6.514   -6.725   -6.899   -7.026   -7.104   -7.145   -7.169
  -3.589   -3.539   -3.522   -3.516   -3.511   -3.507   -3.502   -3.494   -3.490   -3.484   -3.478   -3.464   -3.437   -3.380   -3.283   -3.134   -2.933   -2.694   -2.437   -2.184   -1.952   -1.753   -1.590   -1.472   -1.418   -1.452   -1.597   -1.841   -2.143   -2.425   -2.608   -2.650   -2.565   -2.412   -2.266   -2.170   -2.121   -2.096   -2.078   -2.078   -2.118   -2.205   -2.320   -2.432   -2.502   -2.509   -2.439   -2.291   -2.065   -1.780   -1.472   -1.197   -0.997   -0.904   -0.937   -1.091   -1.347   -1.686   -2.086   -2.534   -3.010   -3.485   -3.927   -4.305   -4.601   -4.825   -5.000   -5.161   -5.319   -5.463   -5.573   -5.641   -5.687   -5.727   -5.777   -5.832   -5.884   -5.920   -5.937   -5.937   -5.926   -5.914   -5.911   -5.917   -5.924   -5.928   -5.932   -5.952   -6.000   -6.089   -6.218   -6.372   -6.533   -6.691   -6.840   -6.982   -7.106   -7.201   -7.264   -7.298
  -3.591   -3.541   -3.527   -3.518   -3.512   -3.508   -3.503   -3.495   -3.491   -3.484   -3.480   -3.475   -3.462   -3.434   -3.376   -3.280   -3.141   -2.961   -2.754   -2.534   -2.316   -2.106   -1.912   -1.739   -1.611   -1.566   -1.641   -1.843   -2.127   -2.413   -2.612   -2.669   -2.593   -2.441   -2.295   -2.201   -2.170   -2.185   -2.225   -2.292   -2.392   -2.522   -2.660   -2.778   -2.848   -2.848   -2.769   -2.603   -2.350   -2.025   -1.666   -1.332   -1.086   -0.978   -1.040   -1.264   -1.629   -2.094   -2.627   -3.195   -3.763   -4.299   -4.769   -5.150   -5.432   -5.628   -5.762   -5.867   -5.961   -6.045   -6.112   -6.157   -6.188   -6.220   -6.261   -6.307   -6.349   -6.377   -6.383   -6.367   -6.340   -6.317   -6.308   -6.313   -6.323   -6.328   -6.329   -6.338   -6.366   -6.429   -6.524   -6.633   -6.735   -6.827   -6.920   -7.027   -7.146   -7.255   -7.340   -7.385
  -3.594   -3.542   -3.529   -3.522   -3.517   -3.512   -3.507   -3.500   -3.495   -3.490   -3.489   -3.487   -3.483   -3.472   -3.442   -3.388   -3.300   -3.177   -3.025   -2.851   -2.669   -2.479   -2.284   -2.089   -1.919   -1.817   -1.830   -1.978   -2.224   -2.492   -2.689   -2.761   -2.706   -2.580   -2.453   -2.375   -2.359   -2.393   -2.463   -2.560   -2.679   -2.812   -2.944   -3.050   -3.112   -3.111   -3.035   -2.878   -2.627   -2.289   -1.899   -1.519   -1.231   -1.116   -1.213   -1.517   -1.989   -2.573   -3.215   -3.869   -4.487   -5.034   -5.483   -5.823   -6.056   -6.202   -6.289   -6.345   -6.390   -6.434   -6.473   -6.503   -6.524   -6.549   -6.579   -6.618   -6.654   -6.674   -6.672   -6.648   -6.613   -6.587   -6.577   -6.584   -6.594   -6.597   -6.591   -6.588   -6.602   -6.644   -6.714   -6.793   -6.854   -6.899   -6.948   -7.023   -7.130   -7.247   -7.343   -7.400
  -3.602   -3.549   -3.535   -3.527   -3.522   -3.519   -3.513   -3.508   -3.503   -3.500   -3.498   -3.497   -3.497   -3.495   -3.482   -3.453   -3.404   -3.329   -3.230   -3.111   -2.976   -2.823   -2.652   -2.466   -2.286   -2.154   -2.122   -2.214   -2.405   -2.635   -2.819   -2.904   -2.885   -2.800   -2.708   -2.655   -2.650   -2.689   -2.757   -2.846   -2.949   -3.057   -3.157   -3.239   -3.284   -3.286   -3.225   -3.088   -2.858   -2.530   -2.132   -1.726   -1.412   -1.289   -1.417   -1.789   -2.347   -3.020   -3.739   -4.441   -5.074   -5.600   -6.001   -6.278   -6.452   -6.548   -6.596   -6.622   -6.641   -6.664   -6.691   -6.713   -6.732   -6.752   -6.775   -6.805   -6.831   -6.843   -6.834   -6.807   -6.772   -6.748   -6.741   -6.748   -6.754   -6.748   -6.732   -6.718   -6.720   -6.749   -6.802   -6.857   -6.894   -6.911   -6.931   -6.980   -7.069   -7.180   -7.279   -7.341
  -3.608   -3.554   -3.541   -3.534   -3.528   -3.524   -3.521   -3.517   -3.513   -3.509   -3.506   -3.505   -3.505   -3.504   -3.499   -3.485   -3.462   -3.424   -3.370   -3.298   -3.209   -3.098   -2.965   -2.809   -2.647   -2.515   -2.457   -2.501   -2.635   -2.814   -2.975   -3.065   -3.079   -3.041   -2.991   -2.961   -2.963   -2.992   -3.040   -3.101   -3.171   -3.242   -3.307   -3.358   -3.388   -3.384   -3.334   -3.218   -3.014   -2.710   -2.318   -1.902   -1.570   -1.441   -1.584   -1.997   -2.612   -3.343   -4.109   -4.841   -5.477   -5.977   -6.328   -6.549   -6.671   -6.728   -6.752   -6.763   -6.773   -6.789   -6.810   -6.828   -6.847   -6.864   -6.882   -6.903   -6.917   -6.920   -6.907   -6.880   -6.853   -6.834   -6.832   -6.836   -6.833   -6.817   -6.790   -6.765   -6.760   -6.781   -6.822   -6.861   -6.882   -6.888   -6.893   -6.926   -6.996   -7.090   -7.178   -7.237
  -3.616   -3.562   -3.546   -3.537   -3.531   -3.531   -3.528   -3.525   -3.519   -3.514   -3.512   -3.510   -3.509   -3.507   -3.504   -3.500   -3.490   -3.475   -3.451   -3.415   -3.362   -3.290   -3.193   -3.078   -2.953   -2.843   -2.781   -2.791   -2.875   -3.003   -3.131   -3.219   -3.254   -3.249   -3.229   -3.216   -3.218   -3.232   -3.257   -3.289   -3.326   -3.366   -3.399   -3.424   -3.436   -3.424   -3.374   -3.266   -3.077   -2.788   -2.408   -1.990   -1.648   -1.508   -1.651   -2.078   -2.723   -3.493   -4.299   -5.059   -5.706   -6.196   -6.517   -6.698   -6.784   -6.817   -6.828   -6.834   -6.841   -6.854   -6.869   -6.884   -6.897   -6.910   -6.921   -6.930   -6.937   -6.935   -6.922   -6.904   -6.884   -6.873   -6.872   -6.875   -6.866   -6.843   -6.810   -6.784   -6.774   -6.789   -6.815   -6.840   -6.854   -6.856   -6.860   -6.885   -6.935   -7.008   -7.077   -7.130
  -3.623   -3.567   -3.550   -3.540   -3.534   -3.532   -3.530   -3.528   -3.522   -3.517   -3.513   -3.512   -3.511   -3.509   -3.507   -3.503   -3.500   -3.495   -3.489   -3.472   -3.443   -3.401   -3.339   -3.265   -3.182   -3.104   -3.053   -3.047   -3.092   -3.179   -3.272   -3.345   -3.385   -3.395   -3.391   -3.385   -3.381   -3.384   -3.393   -3.404   -3.419   -3.434   -3.447   -3.452   -3.445   -3.415   -3.348   -3.225   -3.028   -2.738   -2.361   -1.946   -1.600   -1.451   -1.584   -2.007   -2.664   -3.465   -4.317   -5.124   -5.804   -6.305   -6.616   -6.779   -6.846   -6.865   -6.870   -6.875   -6.882   -6.891   -6.899   -6.904   -6.907   -6.909   -6.912   -6.914   -6.915   -6.912   -6.907   -6.898   -6.888   -6.883   -6.883   -6.885   -6.876   -6.857   -6.831   -6.809   -6.800   -6.806   -6.818   -6.830   -6.837   -6.839   -6.848   -6.868   -6.905   -6.956   -7.005   -7.049
  -3.622   -3.565   -3.550   -3.540   -3.534   -3.529   -3.526   -3.523   -3.520   -3.515   -3.510   -3.510   -3.510   -3.510   -3.505   -3.500   -3.498   -3.497   -3.495   -3.488   -3.473   -3.448   -3.417   -3.377   -3.332   -3.286   -3.252   -3.243   -3.267   -3.319   -3.383   -3.436   -3.469   -3.480   -3.480   -3.473   -3.468   -3.462   -3.461   -3.459   -3.463   -3.463   -3.460   -3.449   -3.417   -3.355   -3.251   -3.090   -2.857   -2.546   -2.162   -1.758   -1.425   -1.276   -1.394   -1.805   -2.466   -3.297   -4.205   -5.076   -5.810   -6.342   -6.665   -6.822   -6.880   -6.890   -6.893   -6.898   -6.905   -6.910   -6.911   -6.905   -6.897   -6.888   -6.883   -6.881   -6.879   -6.880   -6.881   -6.882   -6.881   -6.877   -6.876   -6.876   -6.875   -6.870   -6.863   -6.855   -6.849   -6.849   -6.846   -6.846   -6.843   -6.845   -6.855   -6.873   -6.900   -6.935   -6.971   -7.005
  -3.616   -3.558   -3.543   -3.533   -3.527   -3.525   -3.523   -3.520   -3.517   -3.510   -3.507   -3.506   -3.505   -3.503   -3.498   -3.491   -3.486   -3.483   -3.484   -3.482   -3.474   -3.463   -3.450   -3.433   -3.415   -3.393   -3.375   -3.370   -3.383   -3.414   -3.452   -3.486   -3.510   -3.517   -3.514   -3.506   -3.499   -3.492   -3.485   -3.480   -3.476   -3.467   -3.449   -3.413   -3.349   -3.241   -3.079   -2.854   -2.568   -2.225   -1.842   -1.462   -1.162   -1.032   -1.146   -1.538   -2.192   -3.049   -4.013   -4.954   -5.752   -6.327   -6.672   -6.834   -6.885   -6.890   -6.889   -6.895   -6.904   -6.910   -6.905   -6.894   -6.879   -6.866   -6.860   -6.857   -6.856   -6.858   -6.863   -6.867   -6.867   -6.864   -6.861   -6.859   -6.864   -6.876   -6.889   -6.900   -6.906   -6.905   -6.896   -6.884   -6.874   -6.871   -6.877   -6.890   -6.908   -6.932   -6.958   -6.988
  -3.612   -3.553   -3.537   -3.529   -3.525   -3.522   -3.521   -3.519   -3.515   -3.509   -3.503   -3.500   -3.497   -3.495   -3.488   -3.480   -3.474   -3.471   -3.471   -3.473   -3.471   -3.470   -3.466   -3.460   -3.453   -3.444   -3.435   -3.433   -3.443   -3.460   -3.481   -3.503   -3.517   -3.518   -3.514   -3.507   -3.499   -3.493   -3.488   -3.483   -3.472   -3.451   -3.413   -3.343   -3.230   -3.061   -2.827   -2.533   -2.191   -1.825   -1.462   -1.130   -0.889   -0.798   -0.917   -1.292   -1.929   -2.799   -3.802   -4.799   -5.652   -6.271   -6.640   -6.810   -6.857   -6.858   -6.855   -6.864   -6.876   -6.881   -6.877   -6.864   -6.853   -6.847   -6.847   -6.848   -6.849   -6.849   -6.849   -6.851   -6.851   -6.846   -6.839   -6.835   -6.844   -6.862   -6.890   -6.917   -6.938   -6.944   -6.939   -6.928   -6.915   -6.907   -6.905   -6.908   -6.916   -6.930   -6.951   -6.974
  -3.621   -3.561   -3.548   -3.542   -3.538   -3.536   -3.536   -3.535   -3.531   -3.523   -3.515   -3.508   -3.503   -3.497   -3.490   -3.482   -3.477   -3.479   -3.482   -3.486   -3.490   -3.491   -3.488   -3.483   -3.475   -3.466   -3.458   -3.454   -3.459   -3.468   -3.481   -3.495   -3.501   -3.501   -3.499   -3.494   -3.490   -3.486   -3.483   -3.475   -3.455   -3.415   -3.344   -3.227   -3.050   -2.808   -2.502   -2.149   -1.776   -1.417   -1.100   -0.845   -0.680   -0.641   -0.774   -1.134   -1.750   -2.610   -3.628   -4.656   -5.542   -6.189   -6.577   -6.755   -6.804   -6.801   -6.796   -6.804   -6.816   -6.823   -6.817   -6.811   -6.809   -6.815   -6.827   -6.836   -6.837   -6.831   -6.824   -6.822   -6.820   -6.814   -6.807   -6.799   -6.802   -6.821   -6.851   -6.885   -6.915   -6.935   -6.943   -6.942   -6.936   -6.929   -6.921   -6.914   -6.911   -6.914   -6.924   -6.943
  -3.683   -3.621   -3.609   -3.602   -3.600   -3.596   -3.595   -3.594   -3.591   -3.582   -3.572   -3.561   -3.554   -3.548   -3.541   -3.536   -3.538   -3.541   -3.551   -3.558   -3.564   -3.563   -3.556   -3.543   -3.522   -3.501   -3.481   -3.466   -3.460   -3.463   -3.471   -3.480   -3.485   -3.485   -3.484   -3.482   -3.481   -3.480   -3.476   -3.459   -3.421   -3.349   -3.229   -3.050   -2.801   -2.486   -2.124   -1.744   -1.381   -1.071   -0.831   -0.668   -0.585   -0.600   -0.752   -1.097   -1.688   -2.525   -3.526   -4.549   -5.438   -6.093   -6.490   -6.674   -6.722   -6.716   -6.707   -6.710   -6.718   -6.722   -6.718   -6.717   -6.722   -6.740   -6.761   -6.776   -6.777   -6.768   -6.756   -6.749   -6.748   -6.746   -6.740   -6.730   -6.727   -6.736   -6.757   -6.785   -6.817   -6.848   -6.871   -6.886   -6.894   -6.895   -6.888   -6.876   -6.862   -6.852   -6.853   -6.869
  -3.845   -3.782   -3.767   -3.758   -3.754   -3.749   -3.745   -3.743   -3.739   -3.731   -3.722   -3.712   -3.703   -3.698   -3.695   -3.695   -3.700   -3.708   -3.719   -3.729   -3.734   -3.730   -3.713   -3.680   -3.635   -3.584   -3.536   -3.498   -3.474   -3.467   -3.467   -3.473   -3.477   -3.480   -3.480   -3.480   -3.480   -3.479   -3.465   -3.430   -3.357   -3.237   -3.057   -2.806   -2.486   -2.118   -1.731   -1.363   -1.054   -0.828   -0.691   -0.629   -0.628   -0.694   -0.863   -1.196   -1.753   -2.545   -3.500   -4.478   -5.335   -5.969   -6.358   -6.541   -6.590   -6.581   -6.565   -6.558   -6.558   -6.554   -6.550   -6.550   -6.560   -6.580   -6.601   -6.616   -6.618   -6.608   -6.598   -6.593   -6.595   -6.599   -6.597   -6.588   -6.580   -6.576   -6.582   -6.599   -6.623   -6.653   -6.686   -6.713   -6.735   -6.748   -6.748   -6.738   -6.721   -6.706   -6.701   -6.712
  -4.149   -4.083   -4.065   -4.053   -4.043   -4.035   -4.031   -4.027   -4.024   -4.017   -4.011   -4.004   -3.999   -3.997   -3.995   -3.999   -4.005   -4.015   -4.026   -4.035   -4.036   -4.025   -3.993   -3.929   -3.843   -3.744   -3.645   -3.566   -3.513   -3.487   -3.480   -3.481   -3.485   -3.487   -3.489   -3.488   -3.488   -3.477   -3.448   -3.380   -3.262   -3.080   -2.829   -2.510   -2.142   -1.752   -1.377   -1.058   -0.831   -0.706   -0.678   -0.720   -0.804   -0.925   -1.113   -1.430   -1.938   -2.655   -3.521   -4.411   -5.193   -5.776   -6.135   -6.303   -6.348   -6.338   -6.319   -6.304   -6.292   -6.284   -6.276   -6.275   -6.283   -6.296   -6.310   -6.319   -6.322   -6.316   -6.308   -6.309   -6.318   -6.326   -6.328   -6.321   -6.308   -6.296   -6.290   -6.292   -6.305   -6.330   -6.360   -6.391   -6.421   -6.443   -6.454   -6.451   -6.438   -6.427   -6.423   -6.438
  -4.600   -4.535   -4.513   -4.497   -4.482   -4.473   -4.466   -4.462   -4.462   -4.460   -4.457   -4.454   -4.452   -4.450   -4.449   -4.454   -4.458   -4.467   -4.476   -4.482   -4.481   -4.457   -4.400   -4.297   -4.152   -3.980   -3.809   -3.668   -3.571   -3.519   -3.498   -3.494   -3.496   -3.499   -3.500   -3.498   -3.493   -3.473   -3.422   -3.319   -3.145   -2.894   -2.578   -2.211   -1.824   -1.451   -1.123   -0.874   -0.729   -0.696   -0.765   -0.905   -1.076   -1.259   -1.474   -1.772   -2.212   -2.819   -3.551   -4.307   -4.972   -5.468   -5.773   -5.916   -5.954   -5.944   -5.927   -5.912   -5.897   -5.884   -5.875   -5.871   -5.872   -5.876   -5.880   -5.884   -5.884   -5.880   -5.880   -5.883   -5.892   -5.902   -5.905   -5.900   -5.887   -5.871   -5.859   -5.854   -5.858   -5.875   -5.896   -5.922   -5.951   -5.976   -5.993   -5.999   -5.997   -5.995   -5.998   -6.024
  -5.148   -5.089   -5.066   -5.047   -5.033   -5.022   -5.017   -5.016   -5.018   -5.021   -5.020   -5.017   -5.015   -5.012   -5.012   -5.014   -5.018   -5.024   -5.031   -5.033   -5.023   -4.986   -4.899   -4.745   -4.526   -4.264   -4.003   -3.786   -3.635   -3.549   -3.513   -3.503   -3.501   -3.502   -3.502   -3.500   -3.493   -3.467   -3.395   -3.257   -3.034   -2.729   -2.365   -1.978   -1.607   -1.280   -1.018   -0.838   -0.754   -0.783   -0.921   -1.136   -1.387   -1.635   -1.878   -2.151   -2.510   -2.986   -3.553   -4.143   -4.662   -5.048   -5.283   -5.390   -5.416   -5.410   -5.401   -5.392   -5.382   -5.370   -5.360   -5.354   -5.351   -5.350   -5.347   -5.347   -5.345   -5.343   -5.343   -5.347   -5.353   -5.358   -5.359   -5.354   -5.343   -5.330   -5.320   -5.316   -5.318   -5.327   -5.341   -5.359   -5.378   -5.396   -5.413   -5.423   -5.429   -5.438   -5.451   -5.491
  -5.712   -5.662   -5.640   -5.622   -5.611   -5.603   -5.600   -5.601   -5.605   -5.608   -5.608   -5.605   -5.600   -5.593   -5.591   -5.594   -5.598   -5.603   -5.607   -5.605   -5.588   -5.534   -5.414   -5.207   -4.911   -4.557   -4.202   -3.901   -3.691   -3.570   -3.516   -3.500   -3.496   -3.495   -3.497   -3.496   -3.487   -3.455   -3.373   -3.215   -2.965   -2.631   -2.254   -1.880   -1.554   -1.287   -1.087   -0.957   -0.908   -0.963   -1.131   -1.388   -1.692   -1.986   -2.249   -2.494   -2.769   -3.110   -3.513   -3.932   -4.301   -4.573   -4.732   -4.798   -4.813   -4.811   -4.810   -4.815   -4.816   -4.812   -4.806   -4.800   -4.796   -4.793   -4.791   -4.791   -4.787   -4.784   -4.782   -4.783   -4.782   -4.781   -4.777   -4.770   -4.763   -4.755   -4.752   -4.753   -4.757   -4.766   -4.773   -4.782   -4.790   -4.798   -4.806   -4.815   -4.825   -4.840   -4.860   -4.913
  -6.209   -6.166   -6.146   -6.133   -6.124   -6.120   -6.118   -6.120   -6.123   -6.125   -6.124   -6.118   -6.109   -6.101   -6.098   -6.099   -6.103   -6.109   -6.114   -6.109   -6.086   -6.015   -5.866   -5.612   -5.249   -4.813   -4.373   -3.999   -3.734   -3.582   -3.513   -3.492   -3.488   -3.488   -3.490   -3.492   -3.484   -3.451   -3.368   -3.206   -2.958   -2.638   -2.288   -1.959   -1.686   -1.477   -1.325   -1.227   -1.194   -1.249   -1.410   -1.667   -1.980   -2.288   -2.549   -2.761   -2.962   -3.189   -3.452   -3.725   -3.962   -4.130   -4.222   -4.254   -4.256   -4.254   -4.265   -4.282   -4.297   -4.306   -4.306   -4.303   -4.301   -4.302   -4.302   -4.302   -4.299   -4.295   -4.290   -4.288   -4.282   -4.274   -4.265   -4.256   -4.251   -4.250   -4.252   -4.258   -4.267   -4.274   -4.279   -4.280   -4.277   -4.274   -4.276   -4.281   -4.290   -4.305   -4.327   -4.389
  -6.584   -6.544   -6.526   -6.516   -6.510   -6.506   -6.506   -6.507   -6.509   -6.507   -6.503   -6.493   -6.484   -6.473   -6.468   -6.470   -6.474   -6.483   -6.488   -6.483   -6.454   -6.373   -6.201   -5.911   -5.499   -5.003   -4.499   -4.070   -3.766   -3.590   -3.511   -3.487   -3.487   -3.492   -3.496   -3.497   -3.490   -3.460   -3.384   -3.240   -3.022   -2.749   -2.458   -2.190   -1.973   -1.810   -1.692   -1.618   -1.592   -1.637   -1.771   -1.995   -2.275   -2.557   -2.792   -2.966   -3.107   -3.252   -3.411   -3.574   -3.711   -3.802   -3.840   -3.845   -3.837   -3.837   -3.852   -3.877   -3.903   -3.920   -3.928   -3.928   -3.928   -3.932   -3.935   -3.937   -3.935   -3.931   -3.928   -3.924   -3.918   -3.907   -3.895   -3.885   -3.881   -3.882   -3.887   -3.897   -3.906   -3.913   -3.915   -3.907   -3.898   -3.890   -3.888   -3.890   -3.897   -3.911   -3.931   -3.997
  -6.825   -6.784   -6.769   -6.759   -6.753   -6.750   -6.748   -6.748   -6.746   -6.743   -6.735   -6.724   -6.711   -6.700   -6.693   -6.694   -6.698   -6.709   -6.716   -6.711   -6.680   -6.592   -6.410   -6.096   -5.653   -5.120   -4.578   -4.113   -3.784   -3.595   -3.515   -3.498   -3.502   -3.511   -3.517   -3.519   -3.512   -3.484   -3.419   -3.304   -3.135   -2.929   -2.711   -2.509   -2.340   -2.210   -2.119   -2.064   -2.050   -2.088   -2.193   -2.366   -2.586   -2.813   -3.001   -3.135   -3.232   -3.320   -3.413   -3.504   -3.575   -3.616   -3.623   -3.613   -3.600   -3.596   -3.604   -3.626   -3.650   -3.671   -3.684   -3.688   -3.690   -3.696   -3.700   -3.703   -3.699   -3.699   -3.698   -3.700   -3.698   -3.689   -3.678   -3.666   -3.659   -3.659   -3.666   -3.678   -3.689   -3.693   -3.688   -3.678   -3.665   -3.658   -3.656   -3.660   -3.668   -3.680   -3.698   -3.764
  -6.959   -6.918   -6.901   -6.889   -6.881   -6.878   -6.874   -6.872   -6.868   -6.863   -6.854   -6.841   -6.827   -6.814   -6.806   -6.805   -6.809   -6.819   -6.826   -6.825   -6.794   -6.703   -6.514   -6.190   -5.733   -5.180   -4.618   -4.136   -3.793   -3.598   -3.522   -3.514   -3.528   -3.543   -3.551   -3.549   -3.539   -3.511   -3.459   -3.375   -3.262   -3.128   -2.982   -2.838   -2.708   -2.603   -2.529   -2.494   -2.495   -2.536   -2.618   -2.741   -2.892   -3.050   -3.182   -3.274   -3.339   -3.394   -3.449   -3.502   -3.539   -3.556   -3.553   -3.536   -3.517   -3.503   -3.497   -3.503   -3.516   -3.533   -3.547   -3.553   -3.559   -3.565   -3.569   -3.569   -3.568   -3.569   -3.576   -3.583   -3.585   -3.580   -3.568   -3.555   -3.546   -3.547   -3.557   -3.572   -3.585   -3.588   -3.579   -3.565   -3.551   -3.548   -3.553   -3.562   -3.573   -3.586   -3.602   -3.664
  -7.023   -6.978   -6.960   -6.947   -6.939   -6.934   -6.929   -6.926   -6.922   -6.917   -6.908   -6.895   -6.881   -6.868   -6.857   -6.853   -6.856   -6.863   -6.872   -6.870   -6.840   -6.751   -6.559   -6.232   -5.766   -5.206   -4.636   -4.143   -3.794   -3.598   -3.526   -3.527   -3.551   -3.571   -3.580   -3.574   -3.556   -3.527   -3.484   -3.430   -3.367   -3.295   -3.210   -3.116   -3.016   -2.930   -2.870   -2.848   -2.866   -2.912   -2.979   -3.063   -3.155   -3.245   -3.319   -3.374   -3.414   -3.453   -3.494   -3.532   -3.561   -3.573   -3.571   -3.557   -3.533   -3.507   -3.482   -3.466   -3.463   -3.470   -3.478   -3.485   -3.495   -3.502   -3.506   -3.505   -3.501   -3.503   -3.513   -3.525   -3.530   -3.530   -3.519   -3.504   -3.493   -3.495   -3.511   -3.533   -3.549   -3.555   -3.544   -3.527   -3.513   -3.511   -3.520   -3.537   -3.554   -3.571   -3.586   -3.645
  -7.053   -7.003   -6.984   -6.971   -6.963   -6.958   -6.955   -6.954   -6.951   -6.946   -6.939   -6.928   -6.916   -6.903   -6.891   -6.883   -6.883   -6.888   -6.896   -6.894   -6.865   -6.774   -6.580   -6.252   -5.783   -5.220   -4.644   -4.148   -3.794   -3.597   -3.524   -3.527   -3.555   -3.578   -3.583   -3.571   -3.546   -3.513   -3.478   -3.450   -3.428   -3.405   -3.368   -3.312   -3.240   -3.173   -3.126   -3.113   -3.138   -3.188   -3.250   -3.310   -3.358   -3.394   -3.419   -3.440   -3.461   -3.490   -3.525   -3.560   -3.589   -3.605   -3.610   -3.603   -3.580   -3.546   -3.508   -3.476   -3.457   -3.450   -3.448   -3.453   -3.463   -3.472   -3.476   -3.472   -3.466   -3.465   -3.476   -3.490   -3.500   -3.502   -3.492   -3.479   -3.470   -3.475   -3.494   -3.525   -3.546   -3.553   -3.542   -3.521   -3.506   -3.503   -3.514   -3.535   -3.557   -3.575   -3.593   -3.650
  -7.069   -7.014   -6.992   -6.983   -6.976   -6.973   -6.971   -6.972   -6.973   -6.971   -6.967   -6.961   -6.951   -6.940   -6.927   -6.916   -6.911   -6.914   -6.917   -6.913   -6.882   -6.790   -6.597   -6.266   -5.796   -5.232   -4.655   -4.157   -3.799   -3.596   -3.517   -3.513   -3.535   -3.553   -3.552   -3.534   -3.505   -3.472   -3.447   -3.438   -3.446   -3.458   -3.457   -3.432   -3.389   -3.342   -3.308   -3.302   -3.328   -3.377   -3.435   -3.484   -3.506   -3.506   -3.495   -3.486   -3.488   -3.503   -3.531   -3.560   -3.587   -3.608   -3.621   -3.621   -3.607   -3.577   -3.542   -3.505   -3.474   -3.449   -3.433   -3.429   -3.437   -3.447   -3.453   -3.448   -3.441   -3.441   -3.451   -3.469   -3.484   -3.489   -3.483   -3.471   -3.464   -3.470   -3.491   -3.523   -3.545   -3.552   -3.540   -3.518   -3.497   -3.491   -3.501   -3.520   -3.541   -3.561   -3.580   -3.640
  -7.078   -7.018   -6.999   -6.990   -6.985   -6.983   -6.984   -6.987   -6.990   -6.994   -6.995   -6.995   -6.988   -6.979   -6.966   -6.951   -6.941   -6.935   -6.933   -6.926   -6.895   -6.802   -6.608   -6.276   -5.805   -5.242   -4.667   -4.168   -3.808   -3.599   -3.507   -3.487   -3.495   -3.501   -3.494   -3.476   -3.450   -3.426   -3.412   -3.417   -3.442   -3.472   -3.492   -3.492   -3.474   -3.450   -3.431   -3.431   -3.455   -3.501   -3.554   -3.592   -3.604   -3.584   -3.548   -3.515   -3.496   -3.495   -3.507   -3.524   -3.545   -3.567   -3.586   -3.598   -3.598   -3.585   -3.561   -3.527   -3.489   -3.449   -3.417   -3.400   -3.402   -3.412   -3.418   -3.421   -3.421   -3.430   -3.447   -3.470   -3.487   -3.494   -3.488   -3.479   -3.471   -3.474   -3.490   -3.514   -3.532   -3.534   -3.521   -3.497   -3.475   -3.467   -3.470   -3.484   -3.501   -3.516   -3.534   -3.597
  -7.090   -7.025   -7.006   -6.996   -6.991   -6.991   -6.991   -6.995   -7.000   -7.008   -7.015   -7.018   -7.015   -7.007   -6.991   -6.973   -6.956   -6.944   -6.938   -6.928   -6.894   -6.802   -6.607   -6.275   -5.806   -5.243   -4.670   -4.176   -3.818   -3.603   -3.499   -3.462   -3.452   -3.448   -3.438   -3.427   -3.413   -3.405   -3.402   -3.412   -3.440   -3.472   -3.499   -3.513   -3.514   -3.507   -3.501   -3.508   -3.529   -3.566   -3.611   -3.642   -3.646   -3.616   -3.567   -3.519   -3.484   -3.470   -3.466   -3.472   -3.484   -3.504   -3.527   -3.549   -3.562   -3.565   -3.554   -3.527   -3.488   -3.440   -3.397   -3.371   -3.366   -3.375   -3.387   -3.396   -3.410   -3.435   -3.465   -3.493   -3.510   -3.515   -3.504   -3.490   -3.476   -3.472   -3.480   -3.493   -3.502   -3.500   -3.488   -3.468   -3.449   -3.440   -3.438   -3.445   -3.452   -3.460   -3.472   -3.540
  -7.115   -7.044   -7.020   -7.009   -7.003   -7.001   -7.000   -7.001   -7.004   -7.012   -7.020   -7.026   -7.024   -7.014   -6.997   -6.978   -6.957   -6.944   -6.936   -6.923   -6.888   -6.796   -6.601   -6.268   -5.800   -5.239   -4.670   -4.182   -3.828   -3.610   -3.499   -3.450   -3.429   -3.417   -3.411   -3.411   -3.418   -3.425   -3.431   -3.441   -3.459   -3.482   -3.502   -3.516   -3.523   -3.525   -3.528   -3.536   -3.552   -3.581   -3.613   -3.632   -3.629   -3.596   -3.543   -3.491   -3.455   -3.434   -3.426   -3.427   -3.433   -3.453   -3.478   -3.504   -3.524   -3.534   -3.527   -3.504   -3.468   -3.423   -3.386   -3.361   -3.357   -3.364   -3.375   -3.388   -3.412   -3.448   -3.491   -3.521   -3.535   -3.532   -3.514   -3.491   -3.471   -3.458   -3.457   -3.461   -3.465   -3.465   -3.460   -3.452   -3.443   -3.443   -3.444   -3.445   -3.442   -3.440   -3.448   -3.517
  -7.171   -7.092   -7.065   -7.052   -7.042   -7.036   -7.030   -7.026   -7.023   -7.027   -7.031   -7.035   -7.035   -7.027   -7.012   -6.993   -6.975   -6.963   -6.956   -6.944   -6.908   -6.813   -6.616   -6.283   -5.814   -5.255   -4.691   -4.207   -3.855   -3.634   -3.518   -3.461   -3.435   -3.422   -3.425   -3.442   -3.469   -3.492   -3.507   -3.514   -3.519   -3.525   -3.528   -3.528   -3.527   -3.526   -3.528   -3.535   -3.546   -3.562   -3.575   -3.578   -3.562   -3.528   -3.480   -3.437   -3.411   -3.398   -3.396   -3.397   -3.406   -3.428   -3.455   -3.481   -3.500   -3.503   -3.494   -3.471   -3.445   -3.419   -3.400   -3.391   -3.391   -3.392   -3.390   -3.396   -3.417   -3.456   -3.500   -3.531   -3.541   -3.529   -3.506   -3.480   -3.453   -3.434   -3.426   -3.431   -3.442   -3.458   -3.474   -3.490   -3.508   -3.529   -3.546   -3.552   -3.545   -3.536   -3.542   -3.610
  -7.295   -7.208   -7.177   -7.160   -7.147   -7.136   -7.124   -7.115   -7.106   -7.102   -7.101   -7.101   -7.100   -7.093   -7.081   -7.068   -7.057   -7.052   -7.049   -7.039   -7.003   -6.905   -6.704   -6.368   -5.897   -5.338   -4.774   -4.289   -3.931   -3.702   -3.573   -3.506   -3.474   -3.466   -3.480   -3.517   -3.566   -3.611   -3.640   -3.649   -3.641   -3.623   -3.597   -3.569   -3.545   -3.531   -3.528   -3.534   -3.538   -3.535   -3.526   -3.506   -3.477   -3.440   -3.402   -3.375   -3.366   -3.370   -3.378   -3.385   -3.399   -3.423   -3.451   -3.476   -3.489   -3.486   -3.471   -3.450   -3.438   -3.437   -3.446   -3.456   -3.460   -3.448   -3.427   -3.412   -3.421   -3.453   -3.491   -3.517   -3.521   -3.511   -3.490   -3.464   -3.437   -3.417   -3.412   -3.425   -3.457   -3.504   -3.564   -3.631   -3.704   -3.775   -3.832   -3.863   -3.867   -3.860   -3.861   -3.932
  -7.525   -7.431   -7.399   -7.380   -7.364   -7.350   -7.336   -7.321   -7.307   -7.294   -7.288   -7.285   -7.282   -7.275   -7.267   -7.259   -7.257   -7.259   -7.262   -7.255   -7.218   -7.117   -6.913   -6.574   -6.102   -5.540   -4.967   -4.468   -4.089   -3.835   -3.680   -3.594   -3.553   -3.547   -3.578   -3.643   -3.725   -3.802   -3.855   -3.873   -3.852   -3.801   -3.730   -3.654   -3.594   -3.558   -3.546   -3.547   -3.543   -3.523   -3.488   -3.447   -3.405   -3.369   -3.340   -3.329   -3.340   -3.360   -3.379   -3.391   -3.405   -3.428   -3.455   -3.477   -3.486   -3.483   -3.468   -3.454   -3.459   -3.480   -3.511   -3.534   -3.534   -3.510   -3.467   -3.434   -3.428   -3.446   -3.473   -3.491   -3.492   -3.482   -3.466   -3.448   -3.431   -3.420   -3.428   -3.460   -3.525   -3.621   -3.756   -3.917   -4.095   -4.267   -4.407   -4.492   -4.526   -4.530   -4.530   -4.595
  -7.890   -7.793   -7.761   -7.741   -7.726   -7.712   -7.695   -7.676   -7.658   -7.642   -7.631   -7.624   -7.618   -7.611   -7.605   -7.601   -7.603   -7.611   -7.618   -7.612   -7.576   -7.475   -7.272   -6.932   -6.457   -5.889   -5.300   -4.771   -4.350   -4.049   -3.849   -3.727   -3.667   -3.665   -3.723   -3.831   -3.964   -4.090   -4.177   -4.203   -4.160   -4.060   -3.925   -3.786   -3.676   -3.609   -3.582   -3.578   -3.567   -3.532   -3.479   -3.420   -3.373   -3.338   -3.319   -3.321   -3.347   -3.380   -3.407   -3.420   -3.425   -3.437   -3.455   -3.474   -3.486   -3.487   -3.483   -3.482   -3.497   -3.532   -3.570   -3.597   -3.593   -3.558   -3.506   -3.461   -3.442   -3.447   -3.460   -3.465   -3.459   -3.448   -3.441   -3.435   -3.435   -3.440   -3.466   -3.523   -3.632   -3.804   -4.052   -4.367   -4.719   -5.056   -5.327   -5.505   -5.590   -5.614   -5.617   -5.666
  -8.391   -8.292   -8.261   -8.243   -8.229   -8.215   -8.195   -8.174   -8.153   -8.134   -8.120   -8.111   -8.102   -8.093   -8.086   -8.080   -8.083   -8.090   -8.097   -8.095   -8.061   -7.963   -7.763   -7.426   -6.949   -6.370   -5.755   -5.181   -4.701   -4.333   -4.070   -3.901   -3.816   -3.820   -3.913   -4.082   -4.285   -4.474   -4.599   -4.628   -4.547   -4.375   -4.155   -3.939   -3.770   -3.665   -3.621   -3.610   -3.596   -3.554   -3.489   -3.423   -3.375   -3.348   -3.341   -3.353   -3.385   -3.422   -3.448   -3.455   -3.448   -3.444   -3.451   -3.466   -3.484   -3.497   -3.504   -3.513   -3.531   -3.566   -3.600   -3.624   -3.616   -3.582   -3.534   -3.492   -3.466   -3.460   -3.457   -3.447   -3.432   -3.418   -3.418   -3.426   -3.442   -3.465   -3.510   -3.596   -3.755   -4.024   -4.429   -4.957   -5.545   -6.107   -6.555   -6.853   -7.006   -7.057   -7.065   -7.090
  -9.000   -8.902   -8.873   -8.858   -8.842   -8.822   -8.794   -8.763   -8.731   -8.708   -8.692   -8.681   -8.671   -8.660   -8.649   -8.641   -8.640   -8.642   -8.647   -8.645   -8.613   -8.520   -8.324   -7.989   -7.510   -6.917   -6.270   -5.644   -5.095   -4.649   -4.315   -4.091   -3.979   -3.992   -4.131   -4.373   -4.657   -4.912   -5.074   -5.095   -4.962   -4.705   -4.385   -4.081   -3.846   -3.703   -3.639   -3.621   -3.607   -3.564   -3.498   -3.433   -3.394   -3.381   -3.389   -3.408   -3.438   -3.468   -3.485   -3.482   -3.463   -3.446   -3.443   -3.457   -3.480   -3.501   -3.515   -3.526   -3.542   -3.563   -3.588   -3.603   -3.597   -3.573   -3.542   -3.513   -3.492   -3.476   -3.462   -3.441   -3.421   -3.408   -3.414   -3.433   -3.457   -3.490   -3.544   -3.651   -3.863   -4.244   -4.835   -5.611   -6.473   -7.286   -7.930   -8.358   -8.587   -8.674   -8.689   -8.685
  -9.719   -9.623   -9.597   -9.578   -9.552   -9.510   -9.449   -9.383   -9.324   -9.283   -9.258   -9.245   -9.235   -9.223   -9.209   -9.196   -9.190   -9.188   -9.189   -9.184   -9.152   -9.060   -8.866   -8.532   -8.048   -7.438   -6.759   -6.081   -5.464   -4.946   -4.544   -4.269   -4.134   -4.161   -4.350   -4.664   -5.026   -5.339   -5.528   -5.535   -5.347   -5.002   -4.584   -4.187   -3.883   -3.697   -3.613   -3.591   -3.579   -3.544   -3.486   -3.435   -3.412   -3.421   -3.444   -3.468   -3.486   -3.500   -3.503   -3.491   -3.467   -3.445   -3.437   -3.449   -3.472   -3.494   -3.507   -3.512   -3.517   -3.527   -3.540   -3.547   -3.545   -3.536   -3.524   -3.514   -3.505   -3.491   -3.475   -3.454   -3.438   -3.434   -3.448   -3.468   -3.489   -3.515   -3.562   -3.676   -3.935   -4.428   -5.207   -6.232   -7.362   -8.414   -9.242   -9.794  -10.096  -10.223  -10.249  -10.215
 -10.653  -10.560  -10.538  -10.509  -10.444  -10.332  -10.182  -10.022   -9.887   -9.795   -9.744   -9.721   -9.710   -9.698   -9.683   -9.668   -9.658   -9.653   -9.650   -9.641   -9.607   -9.513   -9.317   -8.979   -8.486   -7.859   -7.149   -6.425   -5.750   -5.172   -4.718   -4.407   -4.263   -4.310   -4.547   -4.923   -5.342   -5.698   -5.899   -5.887   -5.651   -5.234   -4.730   -4.249   -3.878   -3.650   -3.547   -3.524   -3.522   -3.501   -3.461   -3.429   -3.429   -3.458   -3.492   -3.512   -3.515   -3.511   -3.501   -3.488   -3.468   -3.448   -3.438   -3.444   -3.462   -3.478   -3.486   -3.483   -3.478   -3.478   -3.481   -3.486   -3.487   -3.490   -3.496   -3.503   -3.508   -3.503   -3.493   -3.482   -3.478   -3.489   -3.510   -3.529   -3.537   -3.540   -3.564   -3.675   -3.969   -4.558   -5.504   -6.744   -8.098   -9.347  -10.325  -10.979  -11.343  -11.502  -11.540  -11.479
 -12.055  -11.978  -11.963  -11.899  -11.735  -11.459  -11.103  -10.737  -10.431  -10.227  -10.117  -10.069  -10.050  -10.038  -10.024  -10.011  -10.001   -9.995   -9.989   -9.978   -9.939   -9.840   -9.638   -9.291   -8.785   -8.137   -7.400   -6.639   -5.923   -5.304   -4.823   -4.502   -4.370   -4.449   -4.726   -5.142   -5.593   -5.962   -6.158   -6.125   -5.851   -5.382   -4.817   -4.275   -3.850   -3.588   -3.475   -3.458   -3.473   -3.470   -3.448   -3.434   -3.448   -3.484   -3.516   -3.526   -3.516   -3.502   -3.492   -3.485   -3.473   -3.457   -3.444   -3.443   -3.454   -3.466   -3.470   -3.464   -3.454   -3.447   -3.447   -3.453   -3.460   -3.470   -3.482   -3.498   -3.506   -3.507   -3.503   -3.507   -3.525   -3.553   -3.581   -3.592   -3.580   -3.558   -3.560   -3.664   -3.983   -4.646   -5.718   -7.116   -8.632  -10.020  -11.105  -11.830  -12.235  -12.415  -12.459  -12.381
 -14.291  -14.251  -14.227  -14.070  -13.698  -13.105  -12.368  -11.625  -11.015  -10.606  -10.386  -10.292  -10.259  -10.244  -10.233  -10.224  -10.216  -10.212  -10.207  -10.193  -10.150  -10.044   -9.832   -9.472   -8.948   -8.279   -7.515   -6.724   -5.983   -5.350   -4.871   -4.574   -4.483   -4.603   -4.913   -5.344   -5.792   -6.145   -6.316   -6.254   -5.951   -5.453   -4.855   -4.278   -3.823   -3.543   -3.431   -3.428   -3.461   -3.476   -3.465   -3.455   -3.467   -3.494   -3.513   -3.511   -3.498   -3.486   -3.483   -3.482   -3.475   -3.461   -3.446   -3.441   -3.452   -3.468   -3.477   -3.470   -3.456   -3.449   -3.452   -3.464   -3.477   -3.488   -3.497   -3.501   -3.498   -3.493   -3.497   -3.519   -3.559   -3.604   -3.635   -3.638   -3.610   -3.569   -3.558   -3.658   -3.996   -4.710   -5.859   -7.353   -8.963  -10.432  -11.578  -12.341  -12.766  -12.953  -12.996  -12.908
 -17.597  -17.610  -17.523  -17.168  -16.444  -15.359  -14.051  -12.749  -11.683  -10.972  -10.590  -10.426  -10.370  -10.352  -10.344  -10.338  -10.334  -10.332  -10.329  -10.315  -10.268  -10.155   -9.930   -9.552   -9.007   -8.312   -7.521   -6.709   -5.957   -5.336   -4.895   -4.658   -4.633   -4.807   -5.141   -5.562   -5.976   -6.284   -6.412   -6.315   -5.988   -5.475   -4.867   -4.282   -3.819   -3.537   -3.430   -3.436   -3.482   -3.504   -3.495   -3.480   -3.482   -3.494   -3.499   -3.492   -3.481   -3.472   -3.470   -3.470   -3.462   -3.445   -3.429   -3.432   -3.453   -3.482   -3.499   -3.496   -3.480   -3.473   -3.483   -3.502   -3.519   -3.527   -3.521   -3.502   -3.476   -3.460   -3.469   -3.509   -3.568   -3.625   -3.657   -3.654   -3.618   -3.572   -3.561   -3.668   -4.020   -4.758   -5.940   -7.472   -9.117  -10.612  -11.777  -12.549  -12.974  -13.156  -13.194  -13.102
 -21.776  -21.830  -21.588  -20.911  -19.705  -18.006  -16.006  -14.030  -12.415  -11.338  -10.761  -10.514  -10.430  -10.407  -10.400  -10.396  -10.394  -10.391  -10.388  -10.374  -10.326  -10.207   -9.971   -9.574   -9.002   -8.278   -7.464   -6.641   -5.898   -5.314   -4.938   -4.787   -4.844   -5.072   -5.417   -5.808   -6.166   -6.414   -6.491   -6.359   -6.014   -5.498   -4.895   -4.315   -3.855   -3.571   -3.459   -3.461   -3.499   -3.520   -3.512   -3.495   -3.491   -3.497   -3.501   -3.494   -3.481   -3.469   -3.457   -3.446   -3.428   -3.407   -3.394   -3.406   -3.443   -3.486   -3.514   -3.514   -3.499   -3.491   -3.502   -3.525   -3.545   -3.550   -3.532   -3.493   -3.447   -3.421   -3.430   -3.478   -3.546   -3.604   -3.635   -3.631   -3.597   -3.561   -3.562   -3.681   -4.043   -4.784   -5.958   -7.474   -9.101  -10.579  -11.727  -12.483  -12.894  -13.066  -13.097  -13.005
 -26.185  -26.240  -25.754  -24.660  -22.904  -20.562  -17.875  -15.242  -13.095  -11.669  -10.907  -10.583  -10.474  -10.446  -10.437  -10.432  -10.425  -10.418  -10.411  -10.397  -10.352  -10.233   -9.988   -9.574   -8.976   -8.225   -7.391   -6.571   -5.859   -5.333   -5.040   -4.980   -5.115   -5.383   -5.718   -6.063   -6.357   -6.544   -6.574   -6.418   -6.068   -5.559   -4.968   -4.396   -3.935   -3.640   -3.507   -3.480   -3.495   -3.505   -3.498   -3.492   -3.501   -3.519   -3.531   -3.527   -3.503   -3.471   -3.442   -3.416   -3.391   -3.365   -3.353   -3.369   -3.415   -3.468   -3.503   -3.504   -3.487   -3.475   -3.481   -3.504   -3.529   -3.541   -3.525   -3.482   -3.430   -3.393   -3.395   -3.435   -3.494   -3.544   -3.570   -3.567   -3.546   -3.527   -3.549   -3.683   -4.045   -4.763   -5.892   -7.347   -8.908  -10.327  -11.426  -12.147  -12.536  -12.694  -12.721  -12.638
 -30.173  -30.156  -29.373  -27.796  -25.457  -22.505  -19.234  -16.089  -13.556  -11.892  -11.011  -10.639  -10.514  -10.482  -10.473  -10.462  -10.448  -10.434  -10.424  -10.414  -10.378  -10.266  -10.018   -9.586   -8.963   -8.187   -7.346   -6.545   -5.882   -5.432   -5.224   -5.245   -5.431   -5.709   -6.014   -6.297   -6.522   -6.650   -6.645   -6.477   -6.136   -5.644   -5.070   -4.506   -4.044   -3.729   -3.557   -3.486   -3.464   -3.460   -3.462   -3.479   -3.516   -3.556   -3.576   -3.563   -3.521   -3.472   -3.430   -3.401   -3.375   -3.348   -3.334   -3.346   -3.387   -3.437   -3.468   -3.467   -3.444   -3.424   -3.425   -3.450   -3.487   -3.517   -3.522   -3.493   -3.443   -3.400   -3.383   -3.399   -3.432   -3.464   -3.480   -3.481   -3.475   -3.478   -3.520   -3.663   -4.009   -4.676   -5.718   -7.064   -8.512   -9.830  -10.850  -11.519  -11.877  -12.021  -12.045  -11.976
 -33.418  -33.211  -32.029  -29.892  -26.958  -23.470  -19.768  -16.339  -13.661  -11.942  -11.045  -10.671  -10.549  -10.522  -10.517  -10.508  -10.493  -10.480  -10.477  -10.481  -10.465  -10.364  -10.111   -9.655   -8.997   -8.197   -7.356   -6.590   -5.993   -5.624   -5.493   -5.568   -5.775   -6.037   -6.292   -6.504   -6.653   -6.717   -6.673   -6.495   -6.165   -5.697   -5.144   -4.594   -4.130   -3.798   -3.593   -3.482   -3.429   -3.414   -3.429   -3.472   -3.535   -3.587   -3.604   -3.575   -3.519   -3.468   -3.440   -3.430   -3.417   -3.391   -3.369   -3.367   -3.390   -3.424   -3.441   -3.430   -3.399   -3.375   -3.376   -3.407   -3.462   -3.518   -3.549   -3.536   -3.489   -3.434   -3.398   -3.387   -3.394   -3.404   -3.408   -3.410   -3.412   -3.429   -3.482   -3.619   -3.927   -4.510   -5.423   -6.607   -7.890   -9.062   -9.972  -10.567  -10.885  -11.012  -11.034  -10.985
 -35.642  -35.102  -33.393  -30.671  -27.215  -23.308  -19.366  -15.921  -13.370  -11.795  -10.994  -10.668  -10.576  -10.577  -10.605  -10.629  -10.644  -10.662  -10.695  -10.740  -10.755  -10.661  -10.379   -9.861   -9.134   -8.283   -7.433   -6.704   -6.178   -5.888   -5.820   -5.925   -6.129   -6.359   -6.558   -6.699   -6.768   -6.758   -6.661   -6.456   -6.128   -5.678   -5.150   -4.620   -4.163   -3.824   -3.605   -3.474   -3.409   -3.395   -3.427   -3.492   -3.563   -3.609   -3.607   -3.559   -3.504   -3.479   -3.494   -3.523   -3.534   -3.516   -3.484   -3.464   -3.463   -3.473   -3.468   -3.443   -3.406   -3.383   -3.389   -3.427   -3.492   -3.563   -3.605   -3.596   -3.548   -3.485   -3.437   -3.410   -3.400   -3.396   -3.390   -3.385   -3.385   -3.401   -3.444   -3.558   -3.808   -4.280   -5.023   -5.995   -7.056   -8.033   -8.795   -9.296   -9.560   -9.662   -9.679   -9.658
 -36.325  -35.440  -33.252  -30.095  -26.267  -22.096  -18.144  -14.956  -12.768  -11.488  -10.864  -10.635  -10.617  -10.706  -10.838  -10.978  -11.110  -11.238  -11.372  -11.496  -11.545  -11.421  -11.032  -10.356   -9.460   -8.487   -7.586   -6.874   -6.407   -6.182   -6.160   -6.277   -6.465   -6.660   -6.812   -6.893   -6.891   -6.807   -6.645   -6.399   -6.057   -5.619   -5.113   -4.604   -4.161   -3.828   -3.611   -3.489   -3.438   -3.444   -3.492   -3.562   -3.622   -3.643   -3.613   -3.554   -3.516   -3.539   -3.613   -3.694   -3.734   -3.724   -3.687   -3.649   -3.624   -3.608   -3.582   -3.547   -3.512   -3.493   -3.502   -3.535   -3.585   -3.638   -3.664   -3.649   -3.599   -3.541   -3.495   -3.472   -3.460   -3.450   -3.438   -3.423   -3.415   -3.414   -3.437   -3.512   -3.687   -4.029   -4.574   -5.293   -6.084   -6.820   -7.397   -7.772   -7.964   -8.030   -8.034   -8.043
 -35.137  -34.094  -31.713  -28.360  -24.328  -20.108  -16.418  -13.718  -12.022  -11.094  -10.680  -10.593  -10.728  -11.027  -11.424  -11.860  -12.284  -12.675  -13.014  -13.255  -13.303  -13.035  -12.373  -11.345  -10.102   -8.865   -7.824   -7.081   -6.643   -6.462   -6.466   -6.580   -6.744   -6.904   -7.021   -7.061   -7.013   -6.877   -6.663   -6.381   -6.025   -5.595   -5.109   -4.622   -4.194   -3.873   -3.675   -3.580   -3.562   -3.596   -3.656   -3.715   -3.747   -3.733   -3.677   -3.615   -3.606   -3.681   -3.814   -3.941   -4.009   -4.009   -3.968   -3.921   -3.879   -3.846   -3.809   -3.775   -3.746   -3.730   -3.726   -3.729   -3.738   -3.748   -3.745   -3.722   -3.680   -3.639   -3.612   -3.600   -3.595   -3.585   -3.572   -3.550   -3.529   -3.513   -3.510   -3.544   -3.646   -3.852   -4.186   -4.629   -5.121   -5.577   -5.930   -6.153   -6.252   -6.266   -6.249   -6.281
 -32.487  -31.451  -29.110  -25.739  -21.730  -17.781  -14.617  -12.508  -11.288  -10.671  -10.455  -10.562  -10.983  -11.706  -12.645  -13.670  -14.652  -15.502  -16.150  -16.504  -16.442  -15.839  -14.658  -13.008  -11.163   -9.462   -8.152   -7.306   -6.860   -6.696   -6.703   -6.801   -6.932   -7.055   -7.140   -7.159   -7.097   -6.949   -6.727   -6.438   -6.085   -5.669   -5.207   -4.745   -4.339   -4.042   -3.870   -3.811   -3.830   -3.886   -3.944   -3.976   -3.971   -3.923   -3.849   -3.795   -3.816   -3.931   -4.105   -4.262   -4.350   -4.364   -4.332   -4.286   -4.244   -4.208   -4.176   -4.152   -4.131   -4.110   -4.082   -4.043   -4.003   -3.971   -3.945   -3.924   -3.902   -3.884   -3.874   -3.871   -3.871   -3.865   -3.851   -3.827   -3.796   -3.767   -3.748   -3.752   -3.790   -3.874   -4.007   -4.177   -4.360   -4.517   -4.623   -4.666   -4.649   -4.594   -4.543   -4.588
 -29.116  -28.072  -25.840  -22.646  -19.003  -15.645  -13.130  -11.543  -10.658  -10.235  -10.179  -10.544  -11.438  -12.875  -14.697  -16.625  -18.389  -19.809  -20.765  -21.147  -20.830  -19.715  -17.807  -15.304  -12.618  -10.251   -8.540   -7.525   -7.035   -6.868   -6.867   -6.936   -7.025   -7.104   -7.156   -7.166   -7.118   -7.005   -6.823   -6.570   -6.247   -5.860   -5.431   -5.006   -4.639   -4.379   -4.243   -4.218   -4.260   -4.318   -4.357   -4.355   -4.314   -4.241   -4.164   -4.124   -4.165   -4.301   -4.494   -4.669   -4.779   -4.816   -4.806   -4.779   -4.752   -4.729   -4.714   -4.707   -4.698   -4.670   -4.620   -4.552   -4.486   -4.434   -4.408   -4.398   -4.394   -4.392   -4.388   -4.385   -4.384   -4.380   -4.368   -4.343   -4.306   -4.272   -4.249   -4.238   -4.229   -4.209   -4.164   -4.087   -3.979   -3.845   -3.698   -3.543   -3.386   -3.244   -3.144   -3.186
 -25.660  -24.613  -22.631  -19.905  -16.913  -14.238  -12.241  -10.941  -10.162   -9.778   -9.828  -10.521  -12.083  -14.516  -17.471  -20.425  -22.958  -24.841  -25.969  -26.262  -25.620  -23.953  -21.288  -17.870  -14.238  -11.096   -8.913   -7.695   -7.153   -6.978   -6.965   -7.006   -7.052   -7.085   -7.105   -7.110   -7.091   -7.035   -6.923   -6.735   -6.466   -6.128   -5.751   -5.381   -5.073   -4.861   -4.763   -4.760   -4.806   -4.851   -4.859   -4.825   -4.759   -4.676   -4.607   -4.582   -4.638   -4.788   -4.995   -5.191   -5.332   -5.406   -5.435   -5.441   -5.441   -5.443   -5.451   -5.461   -5.461   -5.436   -5.384   -5.317   -5.257   -5.216   -5.204   -5.209   -5.215   -5.214   -5.206   -5.196   -5.192   -5.194   -5.185   -5.158   -5.119   -5.083   -5.062   -5.042   -4.999   -4.897   -4.710   -4.429   -4.077   -3.690   -3.301   -2.943   -2.630   -2.385   -2.225   -2.253
 -23.274  -22.365  -20.808  -18.671  -16.271  -14.005  -12.151  -10.779   -9.835   -9.313   -9.400  -10.462  -12.829  -16.389  -20.473  -24.293  -27.369  -29.525  -30.714  -30.878  -29.907  -27.722  -24.389  -20.169  -15.665  -11.785   -9.161   -7.773   -7.201   -7.033   -7.019   -7.040   -7.053   -7.050   -7.042   -7.041   -7.045   -7.039   -6.992   -6.873   -6.671   -6.400   -6.092   -5.793   -5.551   -5.392   -5.323   -5.326   -5.359   -5.382   -5.367   -5.313   -5.239   -5.164   -5.112   -5.109   -5.188   -5.360   -5.594   -5.833   -6.024   -6.153   -6.230   -6.275   -6.305   -6.328   -6.352   -6.375   -6.386   -6.371   -6.337   -6.296   -6.264   -6.253   -6.259   -6.273   -6.281   -6.275   -6.260   -6.251   -6.254   -6.266   -6.263   -6.237   -6.194   -6.155   -6.130   -6.103   -6.031   -5.870   -5.582   -5.159   -4.632   -4.050   -3.466   -2.924   -2.461   -2.106   -1.884   -1.888
 -23.250  -22.582  -21.375  -19.589  -17.386  -15.056  -12.892  -11.084   -9.715   -8.897   -8.937  -10.345  -13.506  -18.087  -23.049  -27.450  -30.913  -33.329  -34.613  -34.631  -33.243  -30.488  -26.575  -21.741  -16.566  -12.125   -9.202   -7.737   -7.185   -7.047   -7.045   -7.060   -7.056   -7.033   -7.007   -6.996   -7.006   -7.021   -7.011   -6.943   -6.803   -6.602   -6.372   -6.148   -5.967   -5.849   -5.797   -5.793   -5.808   -5.811   -5.782   -5.728   -5.662   -5.608   -5.583   -5.614   -5.732   -5.949   -6.238   -6.544   -6.807   -6.998   -7.124   -7.203   -7.251   -7.287   -7.317   -7.341   -7.356   -7.356   -7.344   -7.333   -7.333   -7.350   -7.372   -7.394   -7.405   -7.400   -7.390   -7.392   -7.413   -7.441   -7.447   -7.421   -7.375   -7.332   -7.302   -7.265   -7.174   -6.976   -6.633   -6.139   -5.523   -4.831   -4.121   -3.451   -2.874   -2.433   -2.160   -2.142
 -25.279  -24.834  -23.750  -21.988  -19.629  -16.911  -14.172  -11.727   -9.793   -8.586   -8.505  -10.153  -13.901  -19.183  -24.667  -29.418  -33.226  -35.956  -37.341  -37.121  -35.212  -31.894  -27.540  -22.311  -16.739  -12.021   -9.020   -7.602   -7.126   -7.041   -7.061   -7.079   -7.070   -7.041   -7.008   -6.990   -6.989   -7.000   -6.994   -6.949   -6.854   -6.714   -6.552   -6.394   -6.263   -6.172   -6.124   -6.109   -6.104   -6.093   -6.062   -6.017   -5.971   -5.943   -5.951   -6.023   -6.195   -6.479   -6.844   -7.230   -7.569   -7.824   -7.990   -8.089   -8.145   -8.180   -8.206   -8.226   -8.238   -8.243   -8.247   -8.256   -8.277   -8.310   -8.344   -8.373   -8.390   -8.396   -8.402   -8.424   -8.465   -8.509   -8.527   -8.508   -8.464   -8.421   -8.388   -8.345   -8.244   -8.038   -7.690   -7.197   -6.576   -5.872   -5.136   -4.426   -3.800   -3.321   -3.021   -2.983
 -27.826  -27.513  -26.394  -24.480  -21.847  -18.708  -15.421  -12.391   -9.950   -8.395   -8.161   -9.862  -13.826  -19.358  -25.011  -29.873  -33.807  -36.623  -37.936  -37.465  -35.239  -31.682  -27.160  -21.773  -16.125  -11.488   -8.662   -7.416   -7.056   -7.030   -7.073   -7.098   -7.092   -7.064   -7.032   -7.010   -6.999   -6.992   -6.976   -6.935   -6.865   -6.769   -6.658   -6.549   -6.454   -6.382   -6.335   -6.308   -6.290   -6.270   -6.240   -6.208   -6.181   -6.175   -6.213   -6.327   -6.554   -6.904   -7.346   -7.809   -8.217   -8.522   -8.719   -8.828   -8.884   -8.911   -8.927   -8.937   -8.944   -8.948   -8.956   -8.972   -8.998   -9.033   -9.069   -9.102   -9.128   -9.146   -9.169   -9.206   -9.261   -9.316   -9.342   -9.331   -9.296   -9.261   -9.234   -9.192   -9.099   -8.913   -8.608   -8.177   -7.637   -7.019   -6.360   -5.707   -5.119   -4.655   -4.360   -4.307
 -29.716  -29.417  -28.176  -26.055  -23.168  -19.731  -16.103  -12.737  -10.022   -8.277   -7.906   -9.451  -13.184  -18.471  -23.946  -28.644  -32.322  -34.830  -35.901  -35.351  -33.241  -29.866  -25.439  -20.148  -14.798  -10.616   -8.202   -7.218   -6.992   -7.021   -7.082   -7.111   -7.107   -7.085   -7.059   -7.036   -7.018   -7.000   -6.975   -6.935   -6.879   -6.812   -6.738   -6.664   -6.597   -6.541   -6.498   -6.467   -6.442   -6.417   -6.391   -6.366   -6.351   -6.362   -6.421   -6.568   -6.835   -7.235   -7.732   -8.249   -8.705   -9.045   -9.261   -9.376   -9.428   -9.448   -9.455   -9.458   -9.458   -9.458   -9.463   -9.473   -9.493   -9.519   -9.551   -9.582   -9.609   -9.634   -9.663   -9.704   -9.759   -9.810   -9.837   -9.834   -9.812   -9.790   -9.773   -9.745   -9.675   -9.535   -9.309   -8.998   -8.615   -8.175   -7.691   -7.187   -6.702   -6.298   -6.027   -5.959
 -30.287  -29.930  -28.566  -26.292  -23.258  -19.694  -15.987  -12.596   -9.899   -8.165   -7.705   -8.920  -12.031  -16.596  -21.526  -25.846  -29.124  -31.228  -32.067  -31.572  -29.744  -26.668  -22.484  -17.602  -12.952   -9.542   -7.698   -7.024   -6.926   -6.999   -7.069   -7.098   -7.096   -7.081   -7.061   -7.042   -7.024   -7.005   -6.981   -6.947   -6.905   -6.860   -6.815   -6.769   -6.727   -6.690   -6.658   -6.629   -6.604   -6.580   -6.556   -6.536   -6.528   -6.546   -6.616   -6.778   -7.064   -7.488   -8.009   -8.554   -9.035   -9.395   -9.623   -9.743   -9.795   -9.813   -9.815   -9.813   -9.809   -9.806   -9.806   -9.807   -9.815   -9.830   -9.851   -9.874   -9.896   -9.917   -9.941   -9.972  -10.011  -10.048  -10.067  -10.065  -10.053  -10.042  -10.036  -10.026   -9.992   -9.921   -9.813   -9.681   -9.536   -9.368   -9.152   -8.866   -8.529   -8.203   -7.958   -7.875
 -29.486  -29.055  -27.626  -25.306  -22.254  -18.745  -15.198  -12.044   -9.584   -8.003   -7.488   -8.287  -10.554  -14.045  -18.046  -21.748  -24.624  -26.456  -27.172  -26.728  -25.092  -22.306  -18.587  -14.495  -10.879   -8.411   -7.183   -6.809   -6.822   -6.924   -6.997   -7.026   -7.027   -7.017   -7.005   -6.994   -6.983   -6.972   -6.957   -6.937   -6.914   -6.891   -6.870   -6.851   -6.833   -6.815   -6.797   -6.780   -6.761   -6.742   -6.724   -6.708   -6.704   -6.723   -6.793   -6.953   -7.240   -7.661   -8.182   -8.729   -9.218   -9.590   -9.831   -9.961  -10.020  -10.041  -10.044  -10.042  -10.036  -10.031  -10.025  -10.020  -10.019  -10.023  -10.033  -10.047  -10.062  -10.074  -10.086  -10.100  -10.117  -10.132  -10.137  -10.132  -10.123  -10.118  -10.121  -10.131  -10.144  -10.168  -10.227  -10.351  -10.545  -10.763  -10.912  -10.911  -10.752  -10.507  -10.281  -10.169
 -27.801  -27.295  -25.852  -23.570  -20.628  -17.338  -14.114  -11.316   -9.158   -7.748   -7.174   -7.557   -8.972  -11.294  -14.115  -16.894  -19.178  -20.696  -21.305  -20.929  -19.545  -17.248  -14.335  -11.340   -8.880   -7.329   -6.650   -6.524   -6.620   -6.736   -6.810   -6.839   -6.846   -6.845   -6.844   -6.846   -6.852   -6.858   -6.861   -6.862   -6.861   -6.862   -6.866   -6.871   -6.875   -6.875   -6.875   -6.874   -6.869   -6.863   -6.855   -6.845   -6.840   -6.856   -6.919   -7.065   -7.332   -7.729   -8.232   -8.769   -9.258   -9.642   -9.902  -10.052  -10.129  -10.163  -10.172  -10.171  -10.165  -10.158  -10.150  -10.143  -10.136  -10.135  -10.139  -10.146  -10.153  -10.159  -10.162  -10.162  -10.162  -10.157  -10.150  -10.138  -10.128  -10.125  -10.137  -10.170  -10.242  -10.395  -10.685  -11.164  -11.820  -12.545  -13.157  -13.506  -13.561  -13.415  -13.209  -13.042
 -25.766  -25.212  -23.817  -21.671  -18.961  -15.994  -13.126  -10.645   -8.709   -7.387   -6.717   -6.740   -7.458   -8.782  -10.479  -12.228  -13.732  -14.773  -15.205  -14.938  -13.957  -12.372  -10.449   -8.581   -7.149   -6.336   -6.065   -6.110   -6.253   -6.376   -6.448   -6.481   -6.496   -6.507   -6.520   -6.541   -6.571   -6.606   -6.639   -6.670   -6.700   -6.732   -6.764   -6.792   -6.815   -6.834   -6.852   -6.872   -6.890   -6.904   -6.911   -6.910   -6.905   -6.912   -6.955   -7.075   -7.305   -7.666   -8.137   -8.656   -9.146   -9.548   -9.837  -10.022  -10.128  -10.183  -10.204  -10.208  -10.204  -10.197  -10.190  -10.183  -10.177  -10.176  -10.179  -10.183  -10.189  -10.194  -10.196  -10.193  -10.185  -10.173  -10.159  -10.147  -10.139  -10.139  -10.159  -10.219  -10.368  -10.682  -11.259  -12.168  -13.369  -14.666  -15.786  -16.525  -16.841  -16.847  -16.698  -16.456
 -23.815  -23.264  -21.985  -20.057  -17.647  -15.013  -12.438  -10.155   -8.309   -6.969   -6.167   -5.900   -6.132   -6.763   -7.635   -8.556   -9.353   -9.904  -10.119   -9.940   -9.360   -8.456   -7.399   -6.425   -5.737   -5.417   -5.397   -5.531   -5.692   -5.811   -5.883   -5.921   -5.945   -5.966   -5.994   -6.038   -6.099   -6.171   -6.247   -6.320   -6.393   -6.463   -6.526   -6.580   -6.623   -6.659   -6.700   -6.745   -6.793   -6.835   -6.863   -6.871   -6.865   -6.856   -6.872   -6.951   -7.133   -7.444   -7.874   -8.368   -8.860   -9.286   -9.616   -9.846   -9.993  -10.076  -10.114  -10.126  -10.125  -10.120  -10.116  -10.116  -10.118  -10.123  -10.132  -10.144  -10.160  -10.176  -10.189  -10.196  -10.195  -10.190  -10.182  -10.176  -10.174  -10.180  -10.209  -10.301  -10.527  -11.004  -11.865  -13.192  -14.899  -16.711  -18.288  -19.400  -20.013  -20.236  -20.203  -19.900
 -22.180  -21.672  -20.540  -18.849  -16.735  -14.392  -12.039   -9.873   -8.037   -6.625   -5.681   -5.195   -5.111   -5.326   -5.702   -6.103   -6.430   -6.624   -6.657   -6.511   -6.194   -5.751   -5.266   -4.855   -4.607   -4.558   -4.655   -4.816   -4.969   -5.081   -5.156   -5.202   -5.230   -5.250   -5.282   -5.340   -5.432   -5.546   -5.672   -5.796   -5.919   -6.033   -6.134   -6.213   -6.275   -6.329   -6.390   -6.463   -6.543   -6.615   -6.666   -6.687   -6.678   -6.650   -6.633   -6.663   -6.791   -7.045   -7.425   -7.889   -8.376   -8.825   -9.194   -9.471   -9.661   -9.774   -9.832   -9.853   -9.857   -9.858   -9.864   -9.876   -9.894   -9.918   -9.949   -9.986  -10.029  -10.075  -10.117  -10.151  -10.175  -10.189  -10.199  -10.205  -10.214  -10.227  -10.268  -10.382  -10.661  -11.247  -12.298  -13.900  -15.942  -18.100  -20.008  -21.437  -22.349  -22.833  -22.970  -22.657
 -20.850  -20.394  -19.397  -17.917  -16.062  -13.978  -11.831   -9.783   -7.974   -6.513   -5.462   -4.821   -4.536   -4.501   -4.594   -4.705   -4.766   -4.752   -4.660   -4.506   -4.309   -4.092   -3.894   -3.755   -3.713   -3.773   -3.899   -4.048   -4.188   -4.302   -4.388   -4.443   -4.462   -4.463   -4.475   -4.527   -4.633   -4.781   -4.949   -5.121   -5.290   -5.448   -5.580   -5.683   -5.758   -5.823   -5.898   -5.991   -6.096   -6.194   -6.269   -6.303   -6.295   -6.251   -6.201   -6.186   -6.258   -6.454   -6.781   -7.206   -7.674   -8.128   -8.521   -8.831   -9.049   -9.185   -9.257   -9.288   -9.300   -9.313   -9.337   -9.372   -9.419   -9.478   -9.551   -9.636   -9.734   -9.836   -9.936  -10.023  -10.093  -10.144  -10.180  -10.205  -10.225  -10.246  -10.289  -10.406  -10.690  -11.287  -12.361  -14.010  -16.133  -18.413  -20.492  -22.147  -23.329  -24.089  -24.439  -24.196
 -19.710  -19.291  -18.401  -17.095  -15.468  -13.636  -11.724   -9.860   -8.164   -6.738   -5.651   -4.921   -4.498   -4.293   -4.200   -4.133   -4.037   -3.897   -3.721   -3.527   -3.337   -3.177   -3.062   -3.008   -3.022   -3.095   -3.208   -3.342   -3.483   -3.620   -3.731   -3.796   -3.798   -3.754   -3.715   -3.730   -3.820   -3.973   -4.161   -4.361   -4.557   -4.737   -4.889   -5.000   -5.079   -5.143   -5.218   -5.315   -5.428   -5.541   -5.632   -5.680   -5.678   -5.625   -5.552   -5.503   -5.529   -5.674   -5.945   -6.321   -6.752   -7.182   -7.565   -7.874   -8.097   -8.236   -8.312   -8.350   -8.374   -8.406   -8.453   -8.522   -8.613   -8.726   -8.864   -9.027   -9.210   -9.403   -9.593   -9.764   -9.903  -10.007  -10.080  -10.128  -10.160  -10.185  -10.224  -10.321  -10.558  -11.064  -11.991  -13.448  -15.383  -17.543  -19.606  -21.359  -22.737  -23.746  -24.320  -24.218
 -18.684  -18.285  -17.475  -16.314  -14.893  -13.315  -11.672  -10.058   -8.561   -7.266   -6.231   -5.470   -4.954   -4.616   -4.376   -4.172   -3.961   -3.724   -3.469   -3.204   -2.957   -2.748   -2.604   -2.526   -2.516   -2.563   -2.651   -2.780   -2.943   -3.121   -3.277   -3.362   -3.342   -3.244   -3.135   -3.085   -3.130   -3.254   -3.429   -3.618   -3.808   -3.982   -4.123   -4.221   -4.285   -4.336   -4.396   -4.477   -4.579   -4.688   -4.780   -4.838   -4.840   -4.787   -4.705   -4.635   -4.629   -4.731   -4.948   -5.261   -5.628   -6.002   -6.340   -6.614   -6.810   -6.932   -7.001   -7.042   -7.080   -7.133   -7.211   -7.321   -7.463   -7.643   -7.864   -8.126   -8.420   -8.733   -9.042   -9.320   -9.547   -9.718   -9.835   -9.906   -9.949   -9.975  -10.002  -10.064  -10.224  -10.578  -11.252  -12.354  -13.887  -15.696  -17.542  -19.236  -20.699  -21.879  -22.645  -22.717
 -17.763  -17.376  -16.626  -15.582  -14.344  -13.004  -11.633  -10.294   -9.042   -7.933   -7.003   -6.265   -5.697   -5.257   -4.896   -4.573   -4.257   -3.932   -3.592   -3.245   -2.909   -2.617   -2.393   -2.251   -2.189   -2.197   -2.264   -2.394   -2.583   -2.810   -3.013   -3.125   -3.102   -2.966   -2.800   -2.687   -2.674   -2.748   -2.878   -3.026   -3.171   -3.298   -3.397   -3.459   -3.494   -3.517   -3.550   -3.602   -3.674   -3.759   -3.836   -3.885   -3.886   -3.834   -3.748   -3.670   -3.643   -3.706   -3.866   -4.107   -4.392   -4.687   -4.952   -5.164   -5.313   -5.404   -5.459   -5.499   -5.547   -5.620   -5.726   -5.872   -6.065   -6.312   -6.614   -6.976   -7.385   -7.821   -8.255   -8.647   -8.969   -9.205   -9.362   -9.454   -9.503   -9.525   -9.536   -9.560   -9.640   -9.840  -10.248  -10.954  -11.994  -13.305  -14.749  -16.205  -17.596  -18.824  -19.703  -19.948
 -16.930  -16.556  -15.853  -14.904  -13.816  -12.678  -11.548  -10.460   -9.443   -8.522   -7.715   -7.025   -6.437   -5.929   -5.470   -5.042   -4.630   -4.223   -3.812   -3.396   -2.994   -2.633   -2.346   -2.153   -2.049   -2.023   -2.069   -2.192   -2.392   -2.642   -2.877   -3.015   -3.008   -2.877   -2.699   -2.557   -2.501   -2.525   -2.597   -2.685   -2.765   -2.827   -2.862   -2.871   -2.867   -2.861   -2.861   -2.878   -2.909   -2.954   -2.998   -3.025   -3.014   -2.959   -2.873   -2.786   -2.738   -2.759   -2.858   -3.022   -3.225   -3.436   -3.623   -3.767   -3.862   -3.918   -3.953   -3.988   -4.040   -4.122   -4.242   -4.409   -4.634   -4.925   -5.284   -5.711   -6.198   -6.725   -7.252   -7.730   -8.118   -8.399   -8.580   -8.684   -8.732   -8.745   -8.737   -8.725   -8.741   -8.820   -9.021   -9.400   -9.997  -10.803  -11.768  -12.842  -13.982  -15.085  -15.944  -16.306
 -16.094  -15.736  -15.075  -14.205  -13.242  -12.269  -11.332  -10.446   -9.619   -8.857   -8.161   -7.524   -6.937   -6.384   -5.855   -5.343   -4.853   -4.383   -3.932   -3.494   -3.081   -2.718   -2.432   -2.235   -2.124   -2.085   -2.118   -2.224   -2.405   -2.637   -2.860   -3.003   -3.023   -2.926   -2.779   -2.652   -2.586   -2.580   -2.610   -2.644   -2.665   -2.664   -2.636   -2.597   -2.554   -2.521   -2.496   -2.479   -2.472   -2.474   -2.479   -2.476   -2.449   -2.388   -2.299   -2.203   -2.128   -2.102   -2.143   -2.244   -2.380   -2.528   -2.656   -2.747   -2.799   -2.823   -2.836   -2.855   -2.895   -2.965   -3.075   -3.237   -3.461   -3.752   -4.113   -4.540   -5.030   -5.565   -6.105   -6.597   -6.994   -7.275   -7.450   -7.549   -7.590   -7.590   -7.562   -7.521   -7.492   -7.499   -7.570   -7.735   -8.019   -8.434   -8.976   -9.647  -10.439  -11.276  -11.975  -12.359
 -15.104  -14.760  -14.148  -13.361  -12.509  -11.673  -10.887  -10.158   -9.477   -8.839   -8.234   -7.653   -7.084   -6.517   -5.950   -5.397   -4.870   -4.385   -3.949   -3.559   -3.218   -2.936   -2.725   -2.591   -2.528   -2.521   -2.565   -2.658   -2.799   -2.971   -3.135   -3.240   -3.255   -3.183   -3.072   -2.972   -2.911   -2.896   -2.903   -2.905   -2.888   -2.843   -2.773   -2.692   -2.620   -2.561   -2.512   -2.467   -2.428   -2.395   -2.372   -2.350   -2.315   -2.256   -2.172   -2.070   -1.971   -1.909   -1.906   -1.970   -2.079   -2.203   -2.305   -2.367   -2.392   -2.390   -2.379   -2.374   -2.383   -2.417   -2.491   -2.620   -2.808   -3.055   -3.351   -3.698   -4.094   -4.529   -4.968   -5.363   -5.674   -5.890   -6.022   -6.094   -6.119   -6.109   -6.066   -6.009   -5.958   -5.930   -5.940   -5.993   -6.100   -6.272   -6.529   -6.898   -7.388   -7.946   -8.442   -8.783
 -13.847  -13.512  -12.967  -12.279  -11.548  -10.840  -10.186   -9.584   -9.018   -8.478   -7.955   -7.437   -6.913   -6.384   -5.849   -5.329   -4.848   -4.434   -4.100   -3.845   -3.663   -3.548   -3.493   -3.497   -3.549   -3.634   -3.739   -3.854   -3.965   -4.062   -4.122   -4.127   -4.064   -3.948   -3.809   -3.688   -3.608   -3.570   -3.554   -3.536   -3.497   -3.424   -3.320   -3.199   -3.080   -2.974   -2.879   -2.792   -2.711   -2.643   -2.596   -2.567   -2.541   -2.503   -2.438   -2.347   -2.245   -2.168   -2.154   -2.217   -2.336   -2.470   -2.577   -2.635   -2.647   -2.629   -2.596   -2.560   -2.534   -2.527   -2.555   -2.637   -2.774   -2.949   -3.149   -3.363   -3.591   -3.828   -4.052   -4.237   -4.362   -4.436   -4.475   -4.497   -4.500   -4.478   -4.432   -4.375   -4.323   -4.296   -4.292   -4.308   -4.341   -4.405   -4.527   -4.745   -5.069   -5.458   -5.814   -6.108
 -12.361  -12.042  -11.586  -11.023  -10.429   -9.858   -9.331   -8.843   -8.383   -7.942   -7.512   -7.090   -6.671   -6.258   -5.859   -5.495   -5.193   -4.977   -4.865   -4.847   -4.909   -5.034   -5.208   -5.423   -5.665   -5.921   -6.162   -6.359   -6.485   -6.520   -6.454   -6.290   -6.048   -5.758   -5.468   -5.217   -5.032   -4.911   -4.837   -4.779   -4.707   -4.598   -4.440   -4.246   -4.034   -3.820   -3.611   -3.417   -3.244   -3.106   -3.010   -2.956   -2.930   -2.909   -2.870   -2.803   -2.718   -2.654   -2.655   -2.738   -2.883   -3.040   -3.158   -3.221   -3.231   -3.208   -3.162   -3.108   -3.057   -3.023   -3.025   -3.078   -3.177   -3.297   -3.410   -3.499   -3.556   -3.573   -3.538   -3.447   -3.321   -3.195   -3.101   -3.048   -3.016   -2.983   -2.941   -2.895   -2.862   -2.857   -2.876   -2.905   -2.939   -2.990   -3.092   -3.288   -3.585   -3.938   -4.254   -4.527
 -10.888  -10.596  -10.250   -9.832   -9.392   -8.971   -8.582   -8.223   -7.892   -7.582   -7.295   -7.035   -6.811   -6.634   -6.511   -6.459   -6.492   -6.620   -6.843   -7.151   -7.522   -7.939   -8.391   -8.871   -9.369   -9.864  -10.311  -10.660  -10.858  -10.869  -10.682  -10.311   -9.797   -9.208   -8.616   -8.090   -7.671   -7.370   -7.166   -7.014   -6.869   -6.683   -6.429   -6.106   -5.730   -5.322   -4.906   -4.505   -4.145   -3.848   -3.624   -3.475   -3.385   -3.329   -3.278   -3.210   -3.134   -3.079   -3.089   -3.179   -3.325   -3.480   -3.596   -3.653   -3.660   -3.633   -3.587   -3.535   -3.484   -3.453   -3.463   -3.521   -3.617   -3.720   -3.797   -3.822   -3.781   -3.652   -3.422   -3.104   -2.746   -2.424   -2.188   -2.043   -1.961   -1.906   -1.859   -1.823   -1.814   -1.842   -1.908   -1.988   -2.071   -2.165   -2.304   -2.540   -2.877   -3.262   -3.595   -3.861
  -9.744   -9.499   -9.270   -9.006   -8.733   -8.479   -8.258   -8.075   -7.927   -7.816   -7.753   -7.754   -7.840   -8.026   -8.323   -8.720   -9.206   -9.765  -10.378  -11.033  -11.715  -12.420  -13.148  -13.904  -14.678  -15.437  -16.121  -16.653  -16.964  -16.999  -16.737  -16.189  -15.406  -14.476  -13.509  -12.608  -11.853  -11.274  -10.853  -10.535  -10.253   -9.938   -9.543   -9.050   -8.466   -7.813   -7.124   -6.442   -5.803   -5.237   -4.768   -4.398   -4.116   -3.903   -3.730   -3.573   -3.429   -3.323   -3.284   -3.321   -3.412   -3.515   -3.588   -3.619   -3.612   -3.579   -3.537   -3.496   -3.463   -3.456   -3.492   -3.578   -3.695   -3.816   -3.909   -3.950   -3.915   -3.770   -3.492   -3.089   -2.622   -2.185   -1.848   -1.624   -1.483   -1.388   -1.320   -1.279   -1.284   -1.349   -1.475   -1.633   -1.791   -1.945   -2.125   -2.382   -2.732   -3.122   -3.455   -3.703
  -9.126   -8.936   -8.823   -8.716   -8.623   -8.566   -8.561   -8.611   -8.716   -8.880   -9.119   -9.461   -9.938  -10.567  -11.342  -12.227  -13.168  -14.122  -15.061  -15.982  -16.892  -17.808  -18.752  -19.734  -20.743  -21.730  -22.619  -23.318  -23.747  -23.850  -23.598  -22.994  -22.080  -20.941  -19.696  -18.480  -17.404  -16.527  -15.850  -15.318  -14.851  -14.370  -13.814  -13.151  -12.377  -11.509  -10.579   -9.626   -8.689   -7.802   -6.990   -6.272   -5.647   -5.111   -4.645   -4.232   -3.871   -3.580   -3.375   -3.256   -3.204   -3.186   -3.168   -3.140   -3.099   -3.053   -3.007   -2.968   -2.947   -2.960   -3.020   -3.125   -3.261   -3.403   -3.533   -3.635   -3.683   -3.638   -3.458   -3.137   -2.723   -2.303   -1.951   -1.690   -1.503   -1.361   -1.255   -1.194   -1.203   -1.305   -1.498   -1.741   -1.976   -2.175   -2.356   -2.572   -2.853   -3.167   -3.439   -3.641
  -9.087   -8.953   -8.951   -8.998   -9.098   -9.267   -9.510   -9.830  -10.219  -10.680  -11.233  -11.916  -12.763  -13.790  -14.968  -16.230  -17.494  -18.699  -19.823  -20.881  -21.907  -22.943  -24.024  -25.164  -26.342  -27.497  -28.536  -29.366  -29.908  -30.108  -29.941  -29.408  -28.544  -27.419  -26.135  -24.820  -23.593  -22.537  -21.669  -20.950  -20.308  -19.667  -18.967  -18.175  -17.279  -16.287  -15.219  -14.097  -12.945  -11.783  -10.633   -9.516   -8.451   -7.451   -6.523   -5.670   -4.907   -4.254   -3.724   -3.316   -3.014   -2.794   -2.630   -2.507   -2.407   -2.330   -2.265   -2.214   -2.187   -2.194   -2.245   -2.337   -2.462   -2.603   -2.755   -2.912   -3.055   -3.150   -3.145   -3.012   -2.768   -2.479   -2.202   -1.965   -1.762   -1.588   -1.450   -1.371   -1.386   -1.517   -1.762   -2.066   -2.352   -2.560   -2.695   -2.810   -2.952   -3.120   -3.272   -3.415
  -9.745   -9.664   -9.760   -9.947  -10.226  -10.605  -11.077  -11.635  -12.261  -12.955  -13.741  -14.659  -15.746  -17.011  -18.410  -19.859  -21.266  -22.568  -23.756  -24.858  -25.930  -27.029  -28.199  -29.455  -30.769  -32.069  -33.259  -34.235  -34.914  -35.240  -35.187  -34.769  -34.031  -33.044  -31.898  -30.692  -29.527  -28.474  -27.557  -26.752  -26.005  -25.257  -24.462  -23.592  -22.639  -21.606  -20.497  -19.317  -18.065  -16.738  -15.342  -13.891  -12.408  -10.925   -9.471   -8.081   -6.792   -5.636   -4.641   -3.818   -3.161   -2.658   -2.289   -2.031   -1.850   -1.724   -1.628   -1.552   -1.501   -1.479   -1.492   -1.546   -1.630   -1.742   -1.878   -2.047   -2.240   -2.434   -2.580   -2.635   -2.590   -2.475   -2.322   -2.155   -1.980   -1.810   -1.668   -1.588   -1.609   -1.752   -2.012   -2.332   -2.611   -2.785   -2.846   -2.843   -2.835   -2.848   -2.878   -2.962
 -11.357  -11.334  -11.498  -11.776  -12.171  -12.679  -13.287  -13.971  -14.713  -15.508  -16.380  -17.369  -18.514  -19.819  -21.238  -22.689  -24.085  -25.372  -26.542  -27.632  -28.704  -29.823  -31.038  -32.366  -33.783  -35.219  -36.575  -37.743  -38.621  -39.133  -39.252  -38.993  -38.415  -37.603  -36.651  -35.644  -34.653  -33.727  -32.878  -32.086  -31.315  -30.524  -29.682  -28.774  -27.796  -26.750  -25.634  -24.439  -23.147  -21.738  -20.200  -18.532  -16.751  -14.893  -13.002  -11.128   -9.331   -7.661   -6.161   -4.862   -3.783   -2.931   -2.303   -1.869   -1.581   -1.389   -1.251   -1.146   -1.067   -1.015   -0.996   -1.005   -1.047   -1.111   -1.208   -1.346   -1.528   -1.742   -1.952   -2.117   -2.214   -2.240   -2.209   -2.129   -2.011   -1.877   -1.760   -1.697   -1.723   -1.855   -2.084   -2.350   -2.570   -2.676   -2.662   -2.574   -2.472   -2.389   -2.349   -2.402
 -13.991  -14.054  -14.247  -14.545  -14.958  -15.482  -16.094  -16.770  -17.486  -18.240  -19.051  -19.958  -20.993  -22.165  -23.437  -24.742  -26.007  -27.185  -28.270  -29.295  -30.316  -31.396  -32.579  -33.886  -35.296  -36.750  -38.165  -39.441  -40.486  -41.230  -41.631  -41.689  -41.444  -40.954  -40.302  -39.567  -38.810  -38.068  -37.345  -36.623  -35.877  -35.079  -34.214  -33.277  -32.272  -31.200  -30.060  -28.836  -27.505  -26.037  -24.410  -22.616  -20.664  -18.584  -16.424  -14.240  -12.089  -10.027   -8.104   -6.368   -4.862   -3.635   -2.703   -2.045   -1.607   -1.320   -1.127   -0.989   -0.892   -0.829   -0.797   -0.788   -0.803   -0.832   -0.889   -0.980   -1.116   -1.294   -1.492   -1.678   -1.827   -1.926   -1.969   -1.959   -1.903   -1.819   -1.743   -1.701   -1.721   -1.812   -1.964   -2.130   -2.251   -2.278   -2.213   -2.102   -1.986   -1.903   -1.862   -1.920
 -17.178  -17.362  -17.566  -17.841  -18.209  -18.666  -19.193  -19.765  -20.366  -20.989  -21.651  -22.384  -23.215  -24.154  -25.181  -26.249  -27.305  -28.312  -29.262  -30.180  -31.104  -32.079  -33.143  -34.308  -35.560  -36.851  -38.118  -39.299  -40.347  -41.231  -41.932  -42.430  -42.708  -42.766  -42.620  -42.315  -41.899  -41.408  -40.856  -40.239  -39.539  -38.750  -37.866  -36.893  -35.841  -34.718  -33.522  -32.242  -30.853  -29.324  -27.635  -25.772  -23.745  -21.581  -19.325  -17.026  -14.730  -12.475  -10.298   -8.246   -6.385   -4.792   -3.524   -2.589   -1.937   -1.501   -1.219   -1.041   -0.932   -0.879   -0.859   -0.858   -0.862   -0.868   -0.886   -0.932   -1.023   -1.156   -1.319   -1.484   -1.631   -1.746   -1.816   -1.842   -1.824   -1.783   -1.736   -1.707   -1.708   -1.742   -1.796   -1.844   -1.856   -1.809   -1.722   -1.634   -1.579   -1.565   -1.579   -1.669
 -20.106  -20.422  -20.650  -20.907  -21.225  -21.607  -22.035  -22.493  -22.962  -23.441  -23.943  -24.492  -25.110  -25.808  -26.579  -27.398  -28.230  -29.051  -29.851  -30.640  -31.436  -32.262  -33.138  -34.072  -35.052  -36.051  -37.035  -37.982  -38.893  -39.781  -40.657  -41.508  -42.291  -42.951  -43.427  -43.691  -43.740  -43.594  -43.276  -42.798  -42.172  -41.402  -40.500  -39.482  -38.367  -37.173  -35.902  -34.552  -33.102  -31.529  -29.813  -27.945  -25.934  -23.808  -21.603  -19.361  -17.107  -14.855  -12.615  -10.415   -8.320   -6.428   -4.829   -3.567   -2.632   -1.980   -1.552   -1.299   -1.177   -1.140   -1.150   -1.167   -1.167   -1.138   -1.103   -1.097   -1.142   -1.245   -1.387   -1.540   -1.680   -1.791   -1.864   -1.895   -1.890   -1.867   -1.834   -1.802   -1.777   -1.749   -1.711   -1.654   -1.572   -1.472   -1.384   -1.352   -1.390   -1.477   -1.575   -1.706
 -22.128  -22.552  -22.819  -23.085  -23.389  -23.730  -24.097  -24.476  -24.853  -25.227  -25.609  -26.018  -26.473  -26.987  -27.561  -28.185  -28.838  -29.506  -30.176  -30.844  -31.512  -32.181  -32.850  -33.518  -34.180  -34.827  -35.465  -36.116  -36.822  -37.628  -38.558  -39.602  -40.716  -41.824  -42.832  -43.649  -44.204  -44.471  -44.450  -44.167  -43.649  -42.924  -42.018  -40.961  -39.784  -38.514  -37.172  -35.763  -34.278  -32.701  -31.016  -29.216  -27.310  -25.321  -23.281  -21.214  -19.128  -17.014  -14.857  -12.661  -10.478   -8.401   -6.537   -4.960   -3.710   -2.786   -2.163   -1.800   -1.637   -1.609   -1.645   -1.674   -1.649   -1.560   -1.444   -1.352   -1.339   -1.410   -1.540   -1.694   -1.842   -1.954   -2.022   -2.043   -2.033   -2.007   -1.973   -1.931   -1.878   -1.799   -1.698   -1.575   -1.439   -1.325   -1.269   -1.316   -1.460   -1.661   -1.851   -2.026
 -22.948  -23.423  -23.733  -24.033  -24.356  -24.700  -25.053  -25.402  -25.737  -26.060  -26.380  -26.712  -27.076  -27.487  -27.952  -28.466  -29.020  -29.600  -30.191  -30.779  -31.352  -31.897  -32.398  -32.840  -33.212  -33.521  -33.797  -34.106  -34.537  -35.174  -36.061  -37.182  -38.472  -39.842  -41.188  -42.400  -43.375  -44.032  -44.337  -44.293  -43.937  -43.301  -42.428  -41.357  -40.137  -38.814  -37.424  -35.989  -34.509  -32.978  -31.383  -29.714  -27.980  -26.196  -24.377  -22.536  -20.666  -18.743  -16.740  -14.647  -12.498  -10.371   -8.365   -6.569   -5.055   -3.870   -3.035   -2.527   -2.290   -2.238   -2.268   -2.284   -2.213   -2.041   -1.813   -1.613   -1.511   -1.523   -1.625   -1.773   -1.919   -2.032   -2.089   -2.097   -2.072   -2.032   -1.991   -1.940   -1.870   -1.768   -1.643   -1.504   -1.379   -1.307   -1.335   -1.492   -1.760   -2.077   -2.357   -2.566
 -22.600  -23.064  -23.404  -23.746  -24.107  -24.478  -24.847  -25.204  -25.542  -25.859  -26.166  -26.479  -26.818  -27.203  -27.641  -28.135  -28.674  -29.243  -29.822  -30.391  -30.928  -31.412  -31.817  -32.117  -32.292  -32.346  -32.320  -32.300  -32.413  -32.786  -33.503  -34.570  -35.912  -37.413  -38.946  -40.389  -41.633  -42.577  -43.157  -43.352  -43.178  -42.668  -41.865  -40.820  -39.597  -38.256  -36.856  -35.431  -33.999  -32.557  -31.094  -29.599  -28.069  -26.506  -24.916  -23.295  -21.627  -19.886  -18.045  -16.092  -14.051  -11.985   -9.973   -8.095   -6.437   -5.074   -4.059   -3.397   -3.045   -2.910   -2.885   -2.852   -2.720   -2.461   -2.129   -1.817   -1.612   -1.540   -1.581   -1.684   -1.801   -1.893   -1.935   -1.926   -1.888   -1.839   -1.791   -1.737   -1.667   -1.573   -1.469   -1.373   -1.320   -1.352   -1.508   -1.802   -2.198   -2.619   -2.970   -3.204
 -21.439  -21.844  -22.194  -22.567  -22.961  -23.363  -23.758  -24.138  -24.496  -24.833  -25.157  -25.487  -25.847  -26.259  -26.735  -27.274  -27.866  -28.487  -29.114  -29.719  -30.276  -30.760  -31.141  -31.385  -31.465  -31.377  -31.158  -30.897  -30.732  -30.815  -31.269  -32.141  -33.388  -34.896  -36.515  -38.094  -39.500  -40.624  -41.388  -41.759  -41.741  -41.354  -40.638  -39.648  -38.453  -37.132  -35.755  -34.375  -33.019  -31.692  -30.381  -29.068  -27.738  -26.380  -24.985  -23.543  -22.036  -20.443  -18.743  -16.929  -15.023  -13.075  -11.150   -9.312   -7.634   -6.193   -5.059   -4.258   -3.762   -3.503   -3.377   -3.263   -3.065   -2.741   -2.333   -1.940   -1.647   -1.485   -1.437   -1.464   -1.522   -1.574   -1.591   -1.570   -1.525   -1.474   -1.425   -1.378   -1.327   -1.269   -1.222   -1.210   -1.270   -1.436   -1.734   -2.154   -2.650   -3.140   -3.525   -3.768
 -20.047  -20.383  -20.725  -21.105  -21.511  -21.925  -22.335  -22.733  -23.110  -23.467  -23.814  -24.173  -24.570  -25.031  -25.568  -26.179  -26.846  -27.543  -28.238  -28.902  -29.505  -30.020  -30.416  -30.657  -30.712  -30.571  -30.263  -29.870  -29.526  -29.386  -29.586  -30.208  -31.254  -32.647  -34.242  -35.867  -37.359  -38.588  -39.465  -39.951  -40.038  -39.746  -39.109  -38.182  -37.038  -35.762  -34.436  -33.124  -31.863  -30.658  -29.495  -28.346  -27.184  -25.990  -24.745  -23.435  -22.046  -20.564  -18.976  -17.280  -15.500  -13.681  -11.870  -10.122   -8.490   -7.046   -5.853   -4.948   -4.320   -3.927   -3.687   -3.496   -3.243   -2.879   -2.435   -1.999   -1.649   -1.417   -1.287   -1.237   -1.227   -1.230   -1.223   -1.195   -1.151   -1.104   -1.062   -1.030   -1.007   -0.996   -1.014   -1.091   -1.260   -1.541   -1.946   -2.451   -3.002   -3.514   -3.906   -4.147
 -18.950  -19.258  -19.582  -19.946  -20.338  -20.741  -21.145  -21.539  -21.917  -22.280  -22.638  -23.012  -23.432  -23.923  -24.497  -25.149  -25.860  -26.599  -27.333  -28.029  -28.659  -29.194  -29.604  -29.854  -29.913  -29.765  -29.438  -29.007  -28.592  -28.336  -28.375  -28.804  -29.650  -30.869  -32.346  -33.917  -35.410  -36.679  -37.620  -38.175  -38.331  -38.102  -37.522  -36.649  -35.558  -34.343  -33.087  -31.858  -30.695  -29.604  -28.563  -27.542  -26.507  -25.432  -24.298  -23.088  -21.793  -20.403  -18.911  -17.317  -15.645  -13.934  -12.226  -10.562   -8.987   -7.563   -6.355   -5.395   -4.691   -4.213   -3.900   -3.653   -3.368   -2.989   -2.537   -2.089   -1.714   -1.444   -1.271   -1.170   -1.120   -1.093   -1.069   -1.038   -0.996   -0.953   -0.918   -0.896   -0.891   -0.911   -0.971   -1.101   -1.324   -1.664   -2.117   -2.657   -3.220   -3.729   -4.117   -4.384
