DSAA
 100 100
 0.0 400.0
 0.0 400.0
 -79.05595 -1.020321
  -1.521   -1.351   -1.435   -1.595   -1.825   -2.090   -2.363   -2.596   -2.744   -2.775   -2.659   -2.407   -2.071   -1.721   -1.426   -1.233   -1.179   -1.274   -1.545   -1.973   -2.471   -2.877   -3.039   -2.923   -2.652   -2.408   -2.321   -2.367   -2.436   -2.441   -2.356   -2.218   -2.088   -1.974   -1.883   -1.804   -1.752   -1.760   -1.876   -2.115   -2.458   -2.834   -3.189   -3.491   -3.702   -3.777   -3.696   -3.529   -3.393   -3.351   -3.381   -3.428   -3.447   -3.434   -3.386   -3.292   -3.130   -2.913   -2.697   -2.554   -2.548   -2.629   -2.677   -2.576   -2.302   -1.947   -1.649   -1.511   -1.534   -1.657   -1.789   -1.901   -2.016   -2.142   -2.238   -2.228   -2.091   -1.898   -1.731   -1.641   -1.639   -1.697   -1.797   -1.889   -1.956   -2.014   -2.116   -2.310   -2.613   -2.999   -3.405   -3.749   -3.932   -3.878   -3.561   -3.056   -2.486   -1.977   -1.634   -1.676
  -1.618   -1.552   -1.665   -1.848   -2.086   -2.361   -2.628   -2.848   -2.978   -2.979   -2.833   -2.549   -2.180   -1.796   -1.469   -1.246   -1.167   -1.241   -1.484   -1.877   -2.336   -2.710   -2.856   -2.749   -2.494   -2.265   -2.173   -2.211   -2.285   -2.319   -2.281   -2.192   -2.084   -1.972   -1.871   -1.782   -1.730   -1.737   -1.841   -2.053   -2.348   -2.666   -2.963   -3.212   -3.396   -3.483   -3.461   -3.390   -3.363   -3.424   -3.527   -3.611   -3.638   -3.609   -3.531   -3.396   -3.179   -2.901   -2.612   -2.412   -2.348   -2.387   -2.414   -2.324   -2.084   -1.777   -1.530   -1.426   -1.466   -1.596   -1.726   -1.825   -1.921   -2.041   -2.135   -2.136   -2.015   -1.844   -1.705   -1.640   -1.655   -1.733   -1.831   -1.928   -2.007   -2.095   -2.235   -2.471   -2.821   -3.257   -3.724   -4.133   -4.362   -4.317   -3.960   -3.373   -2.706   -2.112   -1.703   -1.631
  -2.221   -2.181   -2.314   -2.520   -2.774   -3.043   -3.292   -3.476   -3.557   -3.502   -3.303   -2.973   -2.557   -2.118   -1.731   -1.448   -1.308   -1.322   -1.501   -1.810   -2.180   -2.479   -2.596   -2.513   -2.306   -2.117   -2.029   -2.049   -2.125   -2.204   -2.248   -2.239   -2.173   -2.074   -1.966   -1.881   -1.837   -1.851   -1.940   -2.105   -2.318   -2.540   -2.742   -2.910   -3.046   -3.132   -3.185   -3.246   -3.374   -3.570   -3.765   -3.893   -3.925   -3.873   -3.750   -3.552   -3.266   -2.918   -2.565   -2.297   -2.163   -2.137   -2.126   -2.048   -1.873   -1.661   -1.498   -1.443   -1.502   -1.616   -1.727   -1.812   -1.889   -1.990   -2.084   -2.110   -2.034   -1.919   -1.840   -1.826   -1.877   -1.961   -2.052   -2.135   -2.221   -2.349   -2.549   -2.849   -3.253   -3.757   -4.313   -4.829   -5.152   -5.143   -4.761   -4.091   -3.313   -2.620   -2.142   -2.023
  -3.051   -3.030   -3.176   -3.390   -3.637   -3.886   -4.092   -4.227   -4.253   -4.143   -3.897   -3.520   -3.054   -2.555   -2.092   -1.724   -1.493   -1.415   -1.485   -1.678   -1.923   -2.127   -2.215   -2.162   -2.028   -1.892   -1.816   -1.818   -1.888   -2.003   -2.113   -2.173   -2.157   -2.083   -1.997   -1.942   -1.935   -1.974   -2.057   -2.178   -2.327   -2.479   -2.613   -2.726   -2.815   -2.891   -2.967   -3.084   -3.276   -3.521   -3.746   -3.880   -3.903   -3.824   -3.673   -3.446   -3.154   -2.813   -2.484   -2.220   -2.066   -1.996   -1.942   -1.859   -1.734   -1.605   -1.513   -1.493   -1.543   -1.633   -1.727   -1.796   -1.866   -1.962   -2.065   -2.123   -2.113   -2.077   -2.076   -2.125   -2.203   -2.275   -2.332   -2.375   -2.445   -2.584   -2.819   -3.155   -3.596   -4.152   -4.789   -5.415   -5.850   -5.928   -5.584   -4.912   -4.110   -3.383   -2.878   -2.739
  -3.945   -3.934   -4.071   -4.267   -4.479   -4.683   -4.843   -4.925   -4.905   -4.759   -4.484   -4.087   -3.592   -3.053   -2.529   -2.077   -1.736   -1.537   -1.478   -1.528   -1.641   -1.748   -1.805   -1.784   -1.713   -1.630   -1.569   -1.553   -1.605   -1.718   -1.847   -1.938   -1.959   -1.924   -1.891   -1.891   -1.935   -2.008   -2.096   -2.205   -2.329   -2.466   -2.595   -2.700   -2.776   -2.830   -2.882   -2.964   -3.097   -3.269   -3.424   -3.513   -3.510   -3.422   -3.281   -3.093   -2.873   -2.644   -2.429   -2.252   -2.124   -2.024   -1.919   -1.800   -1.685   -1.594   -1.547   -1.543   -1.582   -1.649   -1.726   -1.801   -1.882   -1.980   -2.085   -2.171   -2.228   -2.284   -2.369   -2.474   -2.558   -2.598   -2.597   -2.585   -2.620   -2.747   -2.979   -3.314   -3.760   -4.338   -5.041   -5.757   -6.303   -6.490   -6.258   -5.691   -4.980   -4.321   -3.857   -3.727
  -4.769   -4.754   -4.860   -5.010   -5.172   -5.319   -5.421   -5.458   -5.414   -5.261   -4.989   -4.605   -4.120   -3.580   -3.032   -2.523   -2.099   -1.788   -1.596   -1.506   -1.488   -1.501   -1.518   -1.512   -1.484   -1.436   -1.387   -1.352   -1.372   -1.450   -1.561   -1.648   -1.684   -1.693   -1.710   -1.754   -1.825   -1.912   -2.006   -2.116   -2.242   -2.390   -2.546   -2.680   -2.782   -2.844   -2.877   -2.896   -2.917   -2.954   -2.990   -3.007   -2.977   -2.911   -2.817   -2.710   -2.607   -2.517   -2.431   -2.349   -2.246   -2.107   -1.938   -1.768   -1.633   -1.553   -1.530   -1.543   -1.586   -1.658   -1.752   -1.851   -1.950   -2.045   -2.137   -2.228   -2.335   -2.465   -2.621   -2.755   -2.829   -2.834   -2.795   -2.759   -2.773   -2.891   -3.113   -3.441   -3.888   -4.490   -5.243   -6.037   -6.677   -6.980   -6.882   -6.471   -5.905   -5.351   -4.954   -4.832
  -5.425   -5.397   -5.461   -5.559   -5.661   -5.746   -5.799   -5.805   -5.750   -5.610   -5.369   -5.026   -4.589   -4.090   -3.560   -3.051   -2.588   -2.204   -1.910   -1.707   -1.578   -1.512   -1.482   -1.474   -1.462   -1.433   -1.386   -1.344   -1.333   -1.377   -1.453   -1.527   -1.573   -1.604   -1.625   -1.651   -1.695   -1.750   -1.823   -1.921   -2.041   -2.184   -2.345   -2.500   -2.637   -2.738   -2.789   -2.785   -2.741   -2.681   -2.631   -2.588   -2.556   -2.524   -2.496   -2.468   -2.447   -2.437   -2.416   -2.362   -2.243   -2.065   -1.851   -1.647   -1.502   -1.439   -1.441   -1.487   -1.559   -1.664   -1.794   -1.934   -2.051   -2.134   -2.204   -2.293   -2.428   -2.599   -2.773   -2.894   -2.944   -2.934   -2.901   -2.899   -2.965   -3.114   -3.354   -3.696   -4.162   -4.802   -5.613   -6.481   -7.219   -7.636   -7.675   -7.400   -6.942   -6.449   -6.061   -5.932
  -5.886   -5.840   -5.866   -5.915   -5.959   -5.993   -6.008   -5.993   -5.937   -5.819   -5.616   -5.325   -4.949   -4.520   -4.055   -3.585   -3.130   -2.718   -2.367   -2.084   -1.881   -1.752   -1.689   -1.674   -1.670   -1.649   -1.614   -1.586   -1.583   -1.621   -1.689   -1.761   -1.810   -1.823   -1.799   -1.748   -1.699   -1.669   -1.681   -1.730   -1.803   -1.899   -2.020   -2.161   -2.311   -2.443   -2.533   -2.559   -2.520   -2.436   -2.351   -2.296   -2.281   -2.298   -2.321   -2.337   -2.340   -2.323   -2.284   -2.200   -2.057   -1.860   -1.643   -1.463   -1.356   -1.332   -1.362   -1.436   -1.542   -1.680   -1.846   -2.019   -2.152   -2.240   -2.309   -2.404   -2.550   -2.718   -2.860   -2.936   -2.948   -2.940   -2.968   -3.061   -3.230   -3.465   -3.761   -4.133   -4.630   -5.306   -6.169   -7.114   -7.950   -8.501   -8.677   -8.516   -8.119   -7.627   -7.199   -7.034
  -6.172   -6.113   -6.108   -6.117   -6.125   -6.125   -6.113   -6.083   -6.028   -5.930   -5.760   -5.513   -5.195   -4.832   -4.437   -4.021   -3.599   -3.185   -2.808   -2.483   -2.235   -2.074   -2.004   -1.989   -1.999   -2.004   -2.010   -2.036   -2.097   -2.186   -2.288   -2.372   -2.408   -2.376   -2.266   -2.104   -1.928   -1.790   -1.708   -1.677   -1.680   -1.701   -1.751   -1.835   -1.950   -2.079   -2.190   -2.251   -2.238   -2.173   -2.087   -2.037   -2.041   -2.092   -2.157   -2.194   -2.185   -2.137   -2.058   -1.947   -1.800   -1.631   -1.481   -1.380   -1.349   -1.371   -1.419   -1.485   -1.583   -1.722   -1.896   -2.080   -2.234   -2.352   -2.457   -2.586   -2.738   -2.883   -2.974   -2.998   -2.990   -3.013   -3.124   -3.334   -3.616   -3.933   -4.277   -4.676   -5.187   -5.886   -6.777   -7.782   -8.712   -9.389   -9.711   -9.673   -9.352   -8.876   -8.429   -8.231
  -6.326   -6.255   -6.236   -6.223   -6.213   -6.196   -6.173   -6.142   -6.091   -6.004   -5.853   -5.634   -5.353   -5.032   -4.681   -4.301   -3.894   -3.483   -3.091   -2.745   -2.476   -2.309   -2.247   -2.258   -2.303   -2.365   -2.454   -2.587   -2.761   -2.958   -3.126   -3.222   -3.227   -3.122   -2.913   -2.636   -2.354   -2.121   -1.958   -1.853   -1.778   -1.725   -1.698   -1.706   -1.758   -1.842   -1.931   -1.991   -1.984   -1.916   -1.823   -1.759   -1.758   -1.822   -1.904   -1.958   -1.960   -1.916   -1.844   -1.754   -1.653   -1.563   -1.519   -1.531   -1.584   -1.633   -1.660   -1.679   -1.718   -1.813   -1.962   -2.130   -2.293   -2.447   -2.606   -2.781   -2.959   -3.101   -3.174   -3.194   -3.217   -3.300   -3.499   -3.788   -4.127   -4.472   -4.818   -5.207   -5.709   -6.403   -7.302   -8.332   -9.319  -10.093  -10.544  -10.651  -10.463  -10.091   -9.710   -9.524
  -6.393   -6.317   -6.289   -6.272   -6.255   -6.238   -6.224   -6.201   -6.159   -6.082   -5.945   -5.742   -5.478   -5.165   -4.813   -4.430   -4.010   -3.580   -3.164   -2.799   -2.525   -2.370   -2.332   -2.383   -2.499   -2.658   -2.870   -3.144   -3.461   -3.772   -4.002   -4.100   -4.049   -3.858   -3.557   -3.199   -2.855   -2.572   -2.362   -2.202   -2.074   -1.966   -1.878   -1.825   -1.807   -1.828   -1.865   -1.885   -1.850   -1.747   -1.609   -1.500   -1.463   -1.507   -1.594   -1.675   -1.725   -1.742   -1.736   -1.719   -1.704   -1.717   -1.784   -1.897   -2.009   -2.067   -2.045   -1.986   -1.952   -1.987   -2.091   -2.232   -2.383   -2.548   -2.741   -2.960   -3.175   -3.356   -3.480   -3.570   -3.678   -3.846   -4.100   -4.409   -4.728   -5.027   -5.318   -5.657   -6.130   -6.803   -7.691   -8.709   -9.714  -10.534  -11.071  -11.303  -11.277  -11.083  -10.850  -10.724
  -6.418   -6.334   -6.309   -6.288   -6.274   -6.269   -6.261   -6.253   -6.225   -6.165   -6.045   -5.856   -5.596   -5.279   -4.903   -4.477   -4.011   -3.534   -3.080   -2.692   -2.412   -2.269   -2.267   -2.386   -2.594   -2.876   -3.230   -3.648   -4.091   -4.481   -4.735   -4.811   -4.694   -4.425   -4.058   -3.666   -3.315   -3.031   -2.798   -2.602   -2.428   -2.284   -2.170   -2.082   -2.025   -2.001   -1.991   -1.963   -1.875   -1.715   -1.515   -1.343   -1.253   -1.263   -1.342   -1.455   -1.567   -1.666   -1.752   -1.826   -1.906   -2.019   -2.172   -2.346   -2.487   -2.527   -2.459   -2.351   -2.283   -2.304   -2.398   -2.520   -2.650   -2.793   -2.982   -3.219   -3.472   -3.715   -3.933   -4.133   -4.341   -4.578   -4.846   -5.118   -5.362   -5.564   -5.771   -6.046   -6.476   -7.112   -7.960   -8.946   -9.925  -10.748  -11.322  -11.640  -11.748  -11.723  -11.646  -11.592
  -6.415   -6.332   -6.306   -6.286   -6.276   -6.276   -6.280   -6.284   -6.270   -6.225   -6.130   -5.965   -5.720   -5.397   -4.996   -4.519   -3.994   -3.457   -2.954   -2.538   -2.249   -2.118   -2.148   -2.329   -2.631   -3.031   -3.511   -4.032   -4.544   -4.957   -5.204   -5.238   -5.071   -4.754   -4.369   -3.997   -3.682   -3.411   -3.159   -2.916   -2.695   -2.523   -2.410   -2.334   -2.281   -2.249   -2.215   -2.151   -2.019   -1.810   -1.561   -1.339   -1.205   -1.183   -1.252   -1.385   -1.540   -1.706   -1.865   -2.016   -2.176   -2.358   -2.563   -2.764   -2.905   -2.934   -2.868   -2.791   -2.790   -2.884   -3.030   -3.166   -3.279   -3.387   -3.545   -3.764   -4.035   -4.329   -4.618   -4.895   -5.160   -5.417   -5.660   -5.869   -6.020   -6.131   -6.253   -6.465   -6.841   -7.416   -8.194   -9.109  -10.034  -10.834  -11.414  -11.774  -11.963  -12.040  -12.062  -12.063
  -6.405   -6.322   -6.291   -6.273   -6.263   -6.264   -6.271   -6.278   -6.277   -6.248   -6.179   -6.050   -5.834   -5.525   -5.115   -4.608   -4.033   -3.444   -2.899   -2.449   -2.143   -2.009   -2.051   -2.265   -2.624   -3.098   -3.646   -4.214   -4.738   -5.142   -5.363   -5.366   -5.173   -4.852   -4.499   -4.184   -3.917   -3.668   -3.389   -3.094   -2.832   -2.650   -2.556   -2.519   -2.509   -2.500   -2.475   -2.398   -2.240   -1.999   -1.718   -1.467   -1.307   -1.257   -1.316   -1.453   -1.634   -1.839   -2.039   -2.244   -2.467   -2.705   -2.954   -3.179   -3.336   -3.396   -3.404   -3.446   -3.599   -3.838   -4.080   -4.257   -4.365   -4.447   -4.572   -4.765   -5.017   -5.306   -5.601   -5.878   -6.130   -6.350   -6.539   -6.677   -6.758   -6.800   -6.865   -7.025   -7.337   -7.826   -8.496   -9.304  -10.144  -10.897  -11.472  -11.848  -12.066  -12.177  -12.229  -12.258
  -6.393   -6.307   -6.276   -6.255   -6.244   -6.243   -6.247   -6.252   -6.253   -6.238   -6.193   -6.100   -5.927   -5.651   -5.263   -4.760   -4.177   -3.566   -2.998   -2.525   -2.194   -2.027   -2.040   -2.222   -2.559   -3.024   -3.566   -4.130   -4.647   -5.045   -5.255   -5.251   -5.064   -4.772   -4.474   -4.229   -4.017   -3.787   -3.497   -3.182   -2.913   -2.755   -2.708   -2.732   -2.776   -2.801   -2.785   -2.694   -2.508   -2.235   -1.927   -1.653   -1.470   -1.400   -1.443   -1.582   -1.776   -2.005   -2.249   -2.519   -2.818   -3.140   -3.470   -3.766   -3.990   -4.139   -4.279   -4.487   -4.805   -5.173   -5.496   -5.708   -5.815   -5.893   -6.001   -6.164   -6.372   -6.604   -6.836   -7.050   -7.235   -7.384   -7.507   -7.588   -7.623   -7.631   -7.665   -7.783   -8.027   -8.415   -8.959   -9.626  -10.349  -11.022  -11.564  -11.941  -12.166  -12.278  -12.326  -12.358
  -6.376   -6.288   -6.262   -6.242   -6.232   -6.226   -6.226   -6.223   -6.224   -6.211   -6.184   -6.120   -5.993   -5.774   -5.439   -4.986   -4.438   -3.855   -3.292   -2.808   -2.446   -2.219   -2.144   -2.227   -2.458   -2.828   -3.307   -3.840   -4.358   -4.775   -5.010   -5.024   -4.854   -4.588   -4.334   -4.140   -3.977   -3.786   -3.534   -3.267   -3.062   -2.976   -3.007   -3.098   -3.185   -3.228   -3.197   -3.065   -2.826   -2.498   -2.142   -1.824   -1.602   -1.506   -1.539   -1.688   -1.917   -2.203   -2.532   -2.912   -3.348   -3.818   -4.287   -4.714   -5.059   -5.333   -5.601   -5.929   -6.333   -6.750   -7.084   -7.295   -7.406   -7.485   -7.586   -7.724   -7.878   -8.034   -8.183   -8.310   -8.410   -8.487   -8.549   -8.590   -8.602   -8.602   -8.620   -8.706   -8.886   -9.181   -9.598  -10.117  -10.693  -11.251  -11.724  -12.078  -12.303  -12.420  -12.471  -12.504
  -6.368   -6.279   -6.254   -6.236   -6.227   -6.222   -6.215   -6.207   -6.201   -6.190   -6.171   -6.133   -6.047   -5.892   -5.633   -5.266   -4.801   -4.284   -3.760   -3.286   -2.885   -2.585   -2.397   -2.334   -2.403   -2.625   -3.003   -3.495   -4.023   -4.483   -4.765   -4.811   -4.653   -4.393   -4.147   -3.973   -3.854   -3.727   -3.574   -3.424   -3.346   -3.381   -3.504   -3.656   -3.771   -3.802   -3.728   -3.530   -3.209   -2.796   -2.354   -1.964   -1.684   -1.553   -1.589   -1.776   -2.088   -2.493   -2.982   -3.551   -4.184   -4.845   -5.492   -6.067   -6.533   -6.905   -7.237   -7.584   -7.963   -8.327   -8.608   -8.783   -8.884   -8.963   -9.060   -9.176   -9.291   -9.387   -9.466   -9.515   -9.544   -9.561   -9.579   -9.600   -9.609   -9.608   -9.620   -9.677   -9.808  -10.025  -10.334  -10.719  -11.139  -11.556  -11.931  -12.240  -12.466  -12.604  -12.677  -12.719
  -6.368   -6.279   -6.251   -6.238   -6.229   -6.222   -6.213   -6.200   -6.192   -6.180   -6.170   -6.146   -6.098   -5.997   -5.824   -5.560   -5.203   -4.781   -4.325   -3.875   -3.464   -3.112   -2.821   -2.612   -2.516   -2.577   -2.833   -3.267   -3.801   -4.303   -4.628   -4.702   -4.552   -4.279   -4.021   -3.849   -3.764   -3.720   -3.687   -3.687   -3.757   -3.911   -4.116   -4.315   -4.438   -4.451   -4.328   -4.064   -3.664   -3.158   -2.611   -2.123   -1.769   -1.604   -1.662   -1.937   -2.390   -2.991   -3.701   -4.495   -5.339   -6.183   -6.969   -7.638   -8.163   -8.561   -8.872   -9.157   -9.436   -9.692   -9.888  -10.009  -10.089  -10.161  -10.249  -10.348  -10.440  -10.503  -10.533  -10.534  -10.515  -10.493  -10.488  -10.497  -10.510  -10.517  -10.526  -10.560  -10.645  -10.804  -11.032  -11.305  -11.592  -11.870  -12.136  -12.387  -12.607  -12.778  -12.888  -12.948
  -6.371   -6.282   -6.257   -6.242   -6.232   -6.224   -6.215   -6.201   -6.194   -6.181   -6.175   -6.165   -6.143   -6.092   -5.989   -5.819   -5.574   -5.253   -4.887   -4.496   -4.109   -3.736   -3.393   -3.086   -2.858   -2.779   -2.912   -3.270   -3.774   -4.281   -4.634   -4.736   -4.601   -4.331   -4.071   -3.906   -3.850   -3.877   -3.947   -4.067   -4.245   -4.474   -4.719   -4.929   -5.053   -5.054   -4.912   -4.619   -4.169   -3.593   -2.956   -2.364   -1.926   -1.736   -1.844   -2.243   -2.889   -3.716   -4.661   -5.668   -6.676   -7.628   -8.461   -9.137   -9.637   -9.984  -10.223  -10.410  -10.575  -10.725  -10.843  -10.922  -10.979  -11.036  -11.107  -11.190  -11.264  -11.314  -11.324  -11.296  -11.248  -11.208  -11.190  -11.199  -11.218  -11.227  -11.230  -11.244  -11.296  -11.406  -11.574  -11.768  -11.949  -12.112  -12.278  -12.467  -12.677  -12.873  -13.022  -13.103
  -6.376   -6.285   -6.261   -6.248   -6.242   -6.230   -6.221   -6.211   -6.201   -6.193   -6.190   -6.186   -6.180   -6.161   -6.108   -6.011   -5.855   -5.637   -5.367   -5.059   -4.736   -4.399   -4.052   -3.705   -3.404   -3.224   -3.246   -3.509   -3.946   -4.421   -4.771   -4.898   -4.802   -4.578   -4.351   -4.214   -4.185   -4.246   -4.370   -4.541   -4.752   -4.990   -5.224   -5.411   -5.521   -5.520   -5.385   -5.107   -4.662   -4.062   -3.370   -2.694   -2.185   -1.980   -2.153   -2.691   -3.529   -4.566   -5.704   -6.864   -7.961   -8.931   -9.727  -10.330  -10.745  -11.004  -11.158  -11.258  -11.337  -11.415  -11.484  -11.537  -11.576  -11.619  -11.673  -11.741  -11.804  -11.842  -11.837  -11.794  -11.733  -11.687  -11.670  -11.682  -11.699  -11.703  -11.693  -11.688  -11.714  -11.788  -11.912  -12.052  -12.160  -12.240  -12.327  -12.460  -12.650  -12.857  -13.029  -13.130
  -6.389   -6.297   -6.272   -6.259   -6.249   -6.242   -6.233   -6.224   -6.215   -6.209   -6.206   -6.204   -6.205   -6.201   -6.178   -6.127   -6.039   -5.907   -5.731   -5.521   -5.280   -5.009   -4.705   -4.375   -4.056   -3.822   -3.765   -3.927   -4.267   -4.674   -5.002   -5.153   -5.118   -4.968   -4.805   -4.709   -4.702   -4.771   -4.891   -5.050   -5.232   -5.423   -5.602   -5.746   -5.827   -5.831   -5.721   -5.478   -5.071   -4.490   -3.783   -3.062   -2.505   -2.287   -2.514   -3.173   -4.165   -5.359   -6.633   -7.879   -9.002   -9.936  -10.648  -11.139  -11.447  -11.618  -11.703  -11.748  -11.783  -11.823  -11.871  -11.911  -11.944  -11.980  -12.020  -12.073  -12.120  -12.140  -12.125  -12.076  -12.014  -11.972  -11.960  -11.973  -11.983  -11.972  -11.944  -11.918  -11.922  -11.974  -12.068  -12.165  -12.231  -12.262  -12.296  -12.385  -12.542  -12.739  -12.914  -13.023
  -6.401   -6.307   -6.282   -6.270   -6.260   -6.253   -6.245   -6.239   -6.233   -6.225   -6.221   -6.219   -6.220   -6.216   -6.208   -6.184   -6.142   -6.076   -5.979   -5.852   -5.695   -5.496   -5.259   -4.984   -4.695   -4.461   -4.360   -4.437   -4.674   -4.993   -5.277   -5.439   -5.463   -5.395   -5.307   -5.253   -5.257   -5.308   -5.393   -5.501   -5.626   -5.752   -5.867   -5.958   -6.010   -6.004   -5.916   -5.710   -5.348   -4.808   -4.113   -3.374   -2.786   -2.557   -2.810   -3.544   -4.635   -5.931   -7.291   -8.589   -9.718  -10.603  -11.227  -11.619  -11.836  -11.937  -11.979  -12.000  -12.016  -12.045  -12.081  -12.115  -12.147  -12.178  -12.210  -12.247  -12.271  -12.277  -12.255  -12.208  -12.157  -12.126  -12.120  -12.129  -12.123  -12.094  -12.046  -12.003  -11.993  -12.031  -12.103  -12.171  -12.211  -12.220  -12.229  -12.288  -12.411  -12.578  -12.735  -12.841
  -6.415   -6.319   -6.292   -6.276   -6.266   -6.264   -6.259   -6.254   -6.244   -6.235   -6.232   -6.228   -6.225   -6.222   -6.217   -6.209   -6.192   -6.166   -6.123   -6.059   -5.964   -5.836   -5.666   -5.461   -5.239   -5.044   -4.933   -4.952   -5.100   -5.327   -5.554   -5.711   -5.772   -5.764   -5.728   -5.705   -5.708   -5.734   -5.778   -5.835   -5.902   -5.972   -6.029   -6.074   -6.097   -6.076   -5.986   -5.796   -5.458   -4.947   -4.272   -3.530   -2.924   -2.675   -2.930   -3.687   -4.831   -6.196   -7.626   -8.975  -10.124  -10.993  -11.562  -11.884  -12.035  -12.095  -12.114  -12.126  -12.138  -12.160  -12.187  -12.214  -12.238  -12.259  -12.279  -12.296  -12.308  -12.303  -12.281  -12.249  -12.214  -12.194  -12.192  -12.197  -12.181  -12.142  -12.083  -12.035  -12.019  -12.045  -12.090  -12.136  -12.160  -12.165  -12.172  -12.216  -12.305  -12.434  -12.558  -12.649
  -6.430   -6.329   -6.298   -6.281   -6.269   -6.267   -6.262   -6.258   -6.249   -6.240   -6.233   -6.230   -6.229   -6.226   -6.222   -6.216   -6.210   -6.203   -6.190   -6.159   -6.109   -6.033   -5.925   -5.793   -5.645   -5.506   -5.417   -5.407   -5.486   -5.639   -5.805   -5.935   -6.006   -6.023   -6.015   -6.005   -5.999   -6.005   -6.019   -6.039   -6.066   -6.092   -6.116   -6.125   -6.112   -6.059   -5.940   -5.722   -5.373   -4.858   -4.189   -3.453   -2.839   -2.575   -2.810   -3.562   -4.726   -6.147   -7.659   -9.092  -10.299  -11.186  -11.739  -12.028  -12.145  -12.180  -12.189  -12.196  -12.210  -12.225  -12.241  -12.250  -12.254  -12.258  -12.263  -12.267  -12.268  -12.263  -12.253  -12.238  -12.222  -12.211  -12.212  -12.214  -12.199  -12.166  -12.119  -12.081  -12.065  -12.074  -12.096  -12.117  -12.130  -12.134  -12.149  -12.185  -12.251  -12.341  -12.430  -12.506
  -6.428   -6.325   -6.298   -6.282   -6.270   -6.262   -6.256   -6.252   -6.245   -6.236   -6.228   -6.227   -6.227   -6.227   -6.218   -6.210   -6.206   -6.204   -6.200   -6.188   -6.163   -6.117   -6.062   -5.991   -5.911   -5.830   -5.769   -5.754   -5.796   -5.888   -6.001   -6.097   -6.154   -6.174   -6.174   -6.162   -6.152   -6.143   -6.140   -6.138   -6.144   -6.144   -6.138   -6.119   -6.063   -5.952   -5.768   -5.482   -5.070   -4.516   -3.836   -3.119   -2.528   -2.264   -2.473   -3.202   -4.374   -5.849   -7.460   -9.005  -10.308  -11.252  -11.824  -12.104  -12.205  -12.225  -12.229  -12.238  -12.251  -12.261  -12.261  -12.251  -12.237  -12.222  -12.211  -12.207  -12.204  -12.206  -12.208  -12.210  -12.208  -12.201  -12.199  -12.200  -12.199  -12.188  -12.176  -12.162  -12.153  -12.152  -12.148  -12.145  -12.141  -12.146  -12.162  -12.194  -12.241  -12.303  -12.368  -12.429
  -6.416   -6.312   -6.285   -6.268   -6.258   -6.253   -6.251   -6.246   -6.239   -6.229   -6.223   -6.219   -6.218   -6.215   -6.207   -6.195   -6.185   -6.181   -6.181   -6.177   -6.164   -6.144   -6.122   -6.091   -6.058   -6.021   -5.989   -5.979   -6.002   -6.056   -6.124   -6.186   -6.227   -6.239   -6.235   -6.221   -6.207   -6.194   -6.183   -6.174   -6.166   -6.152   -6.119   -6.055   -5.941   -5.749   -5.463   -5.064   -4.556   -3.948   -3.269   -2.594   -2.062   -1.831   -2.034   -2.730   -3.890   -5.411   -7.120   -8.789  -10.204  -11.225  -11.838  -12.125  -12.215  -12.223  -12.223  -12.234  -12.249  -12.259  -12.250  -12.230  -12.204  -12.182  -12.170  -12.165  -12.163  -12.168  -12.175  -12.183  -12.184  -12.178  -12.172  -12.169  -12.180  -12.200  -12.223  -12.241  -12.253  -12.250  -12.235  -12.214  -12.197  -12.191  -12.202  -12.225  -12.256  -12.299  -12.346  -12.397
  -6.408   -6.303   -6.276   -6.262   -6.254   -6.249   -6.246   -6.244   -6.236   -6.226   -6.215   -6.209   -6.205   -6.200   -6.188   -6.174   -6.162   -6.159   -6.158   -6.161   -6.159   -6.157   -6.149   -6.138   -6.127   -6.110   -6.094   -6.091   -6.109   -6.138   -6.176   -6.215   -6.239   -6.241   -6.235   -6.222   -6.209   -6.197   -6.189   -6.179   -6.160   -6.123   -6.056   -5.931   -5.731   -5.431   -5.016   -4.495   -3.888   -3.238   -2.593   -2.005   -1.577   -1.416   -1.627   -2.292   -3.422   -4.966   -6.745   -8.515  -10.029  -11.125  -11.781  -12.082  -12.167  -12.168  -12.163  -12.177  -12.199  -12.207  -12.201  -12.178  -12.158  -12.148  -12.148  -12.151  -12.152  -12.152  -12.151  -12.155  -12.155  -12.146  -12.134  -12.127  -12.142  -12.175  -12.224  -12.273  -12.309  -12.320  -12.311  -12.292  -12.268  -12.254  -12.251  -12.256  -12.272  -12.296  -12.331  -12.374
  -6.424   -6.318   -6.294   -6.285   -6.278   -6.274   -6.273   -6.271   -6.265   -6.251   -6.236   -6.223   -6.216   -6.204   -6.191   -6.178   -6.170   -6.172   -6.177   -6.186   -6.191   -6.193   -6.188   -6.181   -6.165   -6.150   -6.135   -6.128   -6.137   -6.154   -6.176   -6.201   -6.212   -6.213   -6.207   -6.199   -6.192   -6.185   -6.180   -6.165   -6.130   -6.060   -5.933   -5.725   -5.410   -4.982   -4.439   -3.813   -3.151   -2.514   -1.952   -1.499   -1.207   -1.138   -1.374   -2.012   -3.106   -4.631   -6.437   -8.261   -9.832  -10.980  -11.669  -11.986  -12.071  -12.066  -12.058  -12.072  -12.094  -12.104  -12.096  -12.084  -12.080  -12.092  -12.113  -12.128  -12.130  -12.120  -12.108  -12.103  -12.101  -12.090  -12.077  -12.063  -12.069  -12.101  -12.155  -12.215  -12.268  -12.304  -12.318  -12.317  -12.306  -12.294  -12.279  -12.268  -12.261  -12.266  -12.284  -12.317
  -6.535   -6.425   -6.404   -6.390   -6.387   -6.380   -6.379   -6.376   -6.371   -6.355   -6.337   -6.318   -6.307   -6.293   -6.282   -6.274   -6.277   -6.284   -6.300   -6.313   -6.323   -6.321   -6.310   -6.285   -6.249   -6.212   -6.176   -6.150   -6.139   -6.145   -6.159   -6.173   -6.182   -6.183   -6.181   -6.178   -6.177   -6.175   -6.166   -6.138   -6.070   -5.942   -5.729   -5.411   -4.970   -4.410   -3.767   -3.094   -2.450   -1.900   -1.474   -1.184   -1.038   -1.064   -1.334   -1.947   -2.996   -4.480   -6.256   -8.071   -9.649  -10.810  -11.515  -11.841  -11.927  -11.916  -11.900  -11.905  -11.920  -11.926  -11.918  -11.916  -11.926  -11.957  -11.995  -12.021  -12.023  -12.008  -11.987  -11.974  -11.972  -11.969  -11.958  -11.941  -11.935  -11.950  -11.988  -12.040  -12.095  -12.149  -12.190  -12.217  -12.233  -12.233  -12.220  -12.198  -12.175  -12.157  -12.158  -12.186
  -6.821   -6.710   -6.683   -6.667   -6.660   -6.651   -6.644   -6.640   -6.633   -6.619   -6.602   -6.586   -6.569   -6.561   -6.556   -6.557   -6.565   -6.580   -6.598   -6.616   -6.625   -6.617   -6.588   -6.530   -6.449   -6.359   -6.273   -6.205   -6.164   -6.151   -6.152   -6.161   -6.169   -6.174   -6.175   -6.173   -6.175   -6.172   -6.148   -6.085   -5.957   -5.744   -5.424   -4.979   -4.411   -3.758   -3.072   -2.419   -1.870   -1.470   -1.226   -1.115   -1.114   -1.232   -1.530   -2.122   -3.109   -4.515   -6.209   -7.945   -9.465  -10.591  -11.281  -11.605  -11.692  -11.675  -11.647  -11.635  -11.634  -11.629  -11.620  -11.620  -11.638  -11.673  -11.712  -11.737  -11.741  -11.724  -11.706  -11.697  -11.701  -11.708  -11.704  -11.690  -11.673  -11.668  -11.678  -11.708  -11.751  -11.804  -11.861  -11.910  -11.949  -11.972  -11.973  -11.954  -11.924  -11.898  -11.889  -11.910
  -7.361   -7.244   -7.212   -7.190   -7.175   -7.159   -7.151   -7.145   -7.139   -7.127   -7.117   -7.104   -7.095   -7.091   -7.088   -7.095   -7.106   -7.123   -7.142   -7.158   -7.161   -7.142   -7.083   -6.971   -6.819   -6.642   -6.467   -6.327   -6.232   -6.187   -6.174   -6.176   -6.183   -6.188   -6.190   -6.188   -6.187   -6.168   -6.117   -5.998   -5.788   -5.464   -5.019   -4.454   -3.800   -3.108   -2.443   -1.878   -1.474   -1.253   -1.202   -1.277   -1.426   -1.641   -1.974   -2.537   -3.438   -4.710   -6.248   -7.827   -9.214  -10.247  -10.884  -11.182  -11.262  -11.245  -11.211  -11.184  -11.164  -11.149  -11.136  -11.134  -11.149  -11.171  -11.195  -11.212  -11.215  -11.205  -11.192  -11.193  -11.209  -11.223  -11.227  -11.215  -11.192  -11.170  -11.159  -11.164  -11.187  -11.229  -11.283  -11.339  -11.391  -11.430  -11.450  -11.446  -11.423  -11.403  -11.396  -11.423
  -8.162   -8.046   -8.008   -7.979   -7.952   -7.935   -7.923   -7.918   -7.916   -7.912   -7.907   -7.902   -7.898   -7.895   -7.894   -7.901   -7.910   -7.926   -7.942   -7.953   -7.949   -7.908   -7.807   -7.624   -7.366   -7.062   -6.757   -6.508   -6.337   -6.244   -6.206   -6.199   -6.204   -6.208   -6.209   -6.206   -6.197   -6.162   -6.072   -5.889   -5.579   -5.136   -4.574   -3.923   -3.237   -2.574   -1.992   -1.551   -1.294   -1.235   -1.359   -1.606   -1.908   -2.233   -2.616   -3.143   -3.924   -5.002   -6.301   -7.642   -8.821   -9.700  -10.243  -10.497  -10.563  -10.546  -10.516  -10.489  -10.462  -10.440  -10.422  -10.416  -10.418  -10.426  -10.433  -10.439  -10.439  -10.433  -10.431  -10.437  -10.454  -10.471  -10.476  -10.467  -10.444  -10.416  -10.394  -10.387  -10.394  -10.422  -10.461  -10.507  -10.558  -10.601  -10.632  -10.643  -10.641  -10.636  -10.641  -10.687
  -9.135   -9.029   -8.988   -8.955   -8.929   -8.910   -8.901   -8.900   -8.904   -8.908   -8.906   -8.902   -8.897   -8.893   -8.891   -8.895   -8.903   -8.914   -8.925   -8.929   -8.912   -8.846   -8.692   -8.419   -8.030   -7.566   -7.103   -6.718   -6.449   -6.298   -6.233   -6.215   -6.212   -6.213   -6.213   -6.210   -6.198   -6.150   -6.024   -5.778   -5.384   -4.842   -4.195   -3.510   -2.852   -2.270   -1.806   -1.487   -1.338   -1.390   -1.633   -2.015   -2.460   -2.901   -3.332   -3.816   -4.453   -5.297   -6.304   -7.350   -8.270   -8.957   -9.374   -9.562   -9.610   -9.599   -9.582   -9.566   -9.549   -9.527   -9.509   -9.500   -9.493   -9.491   -9.487   -9.488   -9.483   -9.479   -9.480   -9.486   -9.497   -9.506   -9.508   -9.499   -9.479   -9.456   -9.439   -9.432   -9.435   -9.451   -9.476   -9.507   -9.541   -9.575   -9.603   -9.621   -9.632   -9.647   -9.672   -9.741
 -10.135  -10.045  -10.007   -9.976   -9.954   -9.942   -9.936   -9.937   -9.944   -9.950   -9.950   -9.944   -9.935   -9.924   -9.920   -9.924   -9.931   -9.940   -9.947   -9.945   -9.915   -9.819   -9.606   -9.238   -8.713   -8.085   -7.455   -6.922   -6.548   -6.333   -6.239   -6.209   -6.203   -6.201   -6.204   -6.202   -6.186   -6.129   -5.985   -5.705   -5.260   -4.668   -4.000   -3.336   -2.757   -2.283   -1.929   -1.698   -1.612   -1.709   -2.006   -2.462   -3.002   -3.525   -3.991   -4.425   -4.913   -5.518   -6.234   -6.977   -7.631   -8.112   -8.397   -8.512   -8.538   -8.535   -8.535   -8.542   -8.545   -8.537   -8.526   -8.516   -8.508   -8.505   -8.500   -8.500   -8.494   -8.488   -8.484   -8.486   -8.485   -8.483   -8.475   -8.463   -8.449   -8.437   -8.432   -8.433   -8.441   -8.455   -8.469   -8.485   -8.499   -8.512   -8.528   -8.542   -8.561   -8.586   -8.622   -8.717
 -11.015  -10.939  -10.904  -10.881  -10.865  -10.858  -10.854  -10.859  -10.864  -10.867  -10.866  -10.854  -10.839  -10.825  -10.819  -10.822  -10.828  -10.839  -10.848  -10.839  -10.798  -10.672  -10.407   -9.957   -9.312   -8.540   -7.758   -7.095   -6.625   -6.355   -6.233   -6.195   -6.188   -6.188   -6.193   -6.195   -6.181   -6.123   -5.975   -5.689   -5.248   -4.680   -4.060   -3.476   -2.992   -2.621   -2.351   -2.177   -2.119   -2.217   -2.501   -2.958   -3.514   -4.059   -4.522   -4.898   -5.255   -5.658   -6.124   -6.609   -7.029   -7.328   -7.491   -7.546   -7.551   -7.547   -7.567   -7.597   -7.625   -7.639   -7.639   -7.633   -7.631   -7.632   -7.632   -7.633   -7.628   -7.620   -7.612   -7.607   -7.598   -7.582   -7.567   -7.551   -7.542   -7.540   -7.544   -7.555   -7.571   -7.583   -7.592   -7.593   -7.588   -7.584   -7.586   -7.595   -7.612   -7.637   -7.676   -7.788
 -11.681  -11.610  -11.578  -11.560  -11.550  -11.544  -11.544  -11.545  -11.548  -11.545  -11.538  -11.521  -11.502  -11.485  -11.476  -11.479  -11.487  -11.502  -11.512  -11.502  -11.451  -11.306  -11.003  -10.488   -9.757   -8.876   -7.982   -7.221   -6.681   -6.369   -6.229   -6.187   -6.186   -6.195   -6.202   -6.205   -6.191   -6.138   -6.004   -5.748   -5.362   -4.876   -4.361   -3.885   -3.500   -3.211   -3.002   -2.870   -2.824   -2.904   -3.142   -3.540   -4.036   -4.537   -4.953   -5.261   -5.513   -5.770   -6.051   -6.341   -6.584   -6.744   -6.813   -6.821   -6.808   -6.808   -6.834   -6.879   -6.923   -6.954   -6.969   -6.969   -6.969   -6.976   -6.981   -6.985   -6.982   -6.974   -6.968   -6.962   -6.951   -6.931   -6.910   -6.892   -6.886   -6.887   -6.896   -6.914   -6.930   -6.943   -6.945   -6.932   -6.915   -6.901   -6.897   -6.902   -6.915   -6.937   -6.974   -7.092
 -12.109  -12.037  -12.010  -11.992  -11.981  -11.976  -11.972  -11.972  -11.969  -11.963  -11.949  -11.930  -11.907  -11.887  -11.874  -11.877  -11.884  -11.903  -11.915  -11.907  -11.852  -11.696  -11.371  -10.816  -10.030   -9.084   -8.122   -7.297   -6.714   -6.378   -6.236   -6.206   -6.213   -6.229   -6.240   -6.244   -6.231   -6.180   -6.066   -5.862   -5.563   -5.197   -4.810   -4.451   -4.152   -3.922   -3.759   -3.661   -3.637   -3.705   -3.890   -4.198   -4.589   -4.991   -5.325   -5.562   -5.735   -5.890   -6.056   -6.217   -6.343   -6.416   -6.428   -6.410   -6.386   -6.379   -6.394   -6.433   -6.476   -6.514   -6.536   -6.544   -6.547   -6.556   -6.564   -6.570   -6.564   -6.562   -6.561   -6.565   -6.561   -6.546   -6.525   -6.504   -6.492   -6.492   -6.505   -6.525   -6.544   -6.554   -6.544   -6.525   -6.501   -6.489   -6.487   -6.495   -6.509   -6.528   -6.561   -6.677
 -12.347  -12.273  -12.244  -12.222  -12.209  -12.203  -12.197  -12.191  -12.185  -12.177  -12.161  -12.137  -12.111  -12.090  -12.076  -12.073  -12.081  -12.097  -12.111  -12.108  -12.053  -11.893  -11.557  -10.983  -10.171   -9.191   -8.194   -7.338   -6.730   -6.384   -6.248   -6.235   -6.261   -6.286   -6.300   -6.297   -6.279   -6.230   -6.137   -5.989   -5.788   -5.549   -5.290   -5.035   -4.805   -4.619   -4.487   -4.424   -4.426   -4.501   -4.646   -4.863   -5.132   -5.411   -5.645   -5.809   -5.924   -6.022   -6.120   -6.213   -6.279   -6.310   -6.303   -6.273   -6.240   -6.216   -6.205   -6.214   -6.237   -6.270   -6.293   -6.303   -6.314   -6.324   -6.332   -6.332   -6.330   -6.333   -6.344   -6.357   -6.360   -6.352   -6.330   -6.307   -6.292   -6.293   -6.311   -6.338   -6.360   -6.366   -6.349   -6.324   -6.299   -6.294   -6.303   -6.318   -6.338   -6.362   -6.391   -6.500
 -12.460  -12.380  -12.349  -12.325  -12.312  -12.302  -12.295  -12.288  -12.282  -12.273  -12.256  -12.233  -12.209  -12.185  -12.166  -12.159  -12.164  -12.177  -12.192  -12.190  -12.136  -11.977  -11.636  -11.057  -10.231   -9.237   -8.224   -7.351   -6.731   -6.384   -6.257   -6.257   -6.300   -6.336   -6.351   -6.341   -6.309   -6.257   -6.182   -6.086   -5.973   -5.846   -5.695   -5.527   -5.351   -5.198   -5.092   -5.053   -5.084   -5.166   -5.286   -5.435   -5.598   -5.758   -5.889   -5.987   -6.058   -6.126   -6.199   -6.267   -6.317   -6.339   -6.335   -6.311   -6.269   -6.221   -6.178   -6.149   -6.144   -6.157   -6.171   -6.183   -6.200   -6.213   -6.221   -6.219   -6.211   -6.214   -6.232   -6.254   -6.263   -6.262   -6.244   -6.216   -6.199   -6.201   -6.228   -6.269   -6.298   -6.307   -6.288   -6.258   -6.232   -6.230   -6.245   -6.275   -6.306   -6.335   -6.363   -6.466
 -12.513  -12.424  -12.391  -12.368  -12.354  -12.345  -12.339  -12.338  -12.332  -12.323  -12.311  -12.291  -12.270  -12.247  -12.226  -12.211  -12.212  -12.222  -12.234  -12.231  -12.179  -12.018  -11.675  -11.091  -10.260   -9.261   -8.240   -7.360   -6.731   -6.381   -6.253   -6.257   -6.308   -6.348   -6.358   -6.336   -6.290   -6.232   -6.171   -6.120   -6.082   -6.041   -5.976   -5.876   -5.749   -5.629   -5.546   -5.524   -5.566   -5.656   -5.766   -5.872   -5.958   -6.021   -6.066   -6.103   -6.141   -6.193   -6.254   -6.316   -6.366   -6.396   -6.405   -6.392   -6.351   -6.291   -6.224   -6.168   -6.134   -6.120   -6.118   -6.126   -6.144   -6.160   -6.166   -6.160   -6.149   -6.148   -6.166   -6.192   -6.210   -6.212   -6.196   -6.172   -6.157   -6.165   -6.199   -6.253   -6.292   -6.304   -6.284   -6.248   -6.220   -6.214   -6.234   -6.272   -6.311   -6.343   -6.374   -6.476
 -12.542  -12.444  -12.406  -12.388  -12.377  -12.372  -12.368  -12.370  -12.370  -12.368  -12.362  -12.351  -12.333  -12.313  -12.290  -12.271  -12.263  -12.266  -12.272  -12.264  -12.210  -12.047  -11.704  -11.118  -10.284   -9.283   -8.259   -7.375   -6.740   -6.380   -6.240   -6.233   -6.272   -6.303   -6.301   -6.270   -6.219   -6.161   -6.115   -6.098   -6.113   -6.135   -6.134   -6.090   -6.012   -5.929   -5.869   -5.858   -5.904   -5.991   -6.095   -6.181   -6.220   -6.221   -6.201   -6.185   -6.188   -6.216   -6.264   -6.315   -6.364   -6.401   -6.424   -6.425   -6.399   -6.347   -6.284   -6.219   -6.163   -6.119   -6.091   -6.084   -6.097   -6.115   -6.126   -6.119   -6.106   -6.105   -6.123   -6.155   -6.181   -6.189   -6.179   -6.159   -6.145   -6.157   -6.194   -6.250   -6.291   -6.302   -6.281   -6.241   -6.205   -6.195   -6.211   -6.246   -6.283   -6.318   -6.352   -6.458
 -12.557  -12.452  -12.417  -12.402  -12.392  -12.390  -12.391  -12.397  -12.401  -12.409  -12.412  -12.411  -12.399  -12.381  -12.358  -12.332  -12.315  -12.304  -12.301  -12.289  -12.233  -12.069  -11.724  -11.134  -10.300   -9.300   -8.280   -7.395   -6.756   -6.384   -6.223   -6.187   -6.200   -6.211   -6.199   -6.167   -6.122   -6.078   -6.053   -6.062   -6.107   -6.160   -6.196   -6.196   -6.164   -6.121   -6.087   -6.087   -6.130   -6.212   -6.306   -6.374   -6.394   -6.359   -6.295   -6.237   -6.202   -6.201   -6.223   -6.253   -6.289   -6.328   -6.363   -6.383   -6.383   -6.361   -6.318   -6.259   -6.190   -6.120   -6.063   -6.032   -6.036   -6.053   -6.065   -6.069   -6.069   -6.085   -6.116   -6.156   -6.186   -6.200   -6.189   -6.171   -6.157   -6.164   -6.192   -6.234   -6.266   -6.271   -6.247   -6.205   -6.166   -6.150   -6.156   -6.181   -6.211   -6.238   -6.270   -6.382
 -12.579  -12.464  -12.430  -12.412  -12.404  -12.404  -12.404  -12.411  -12.419  -12.434  -12.447  -12.452  -12.446  -12.432  -12.404  -12.371  -12.341  -12.321  -12.309  -12.292  -12.232  -12.068  -11.722  -11.133  -10.301   -9.302   -8.286   -7.409   -6.774   -6.392   -6.207   -6.141   -6.124   -6.118   -6.099   -6.080   -6.055   -6.041   -6.035   -6.055   -6.103   -6.160   -6.207   -6.232   -6.234   -6.222   -6.211   -6.223   -6.261   -6.327   -6.407   -6.462   -6.468   -6.416   -6.329   -6.243   -6.182   -6.156   -6.150   -6.160   -6.182   -6.217   -6.258   -6.296   -6.320   -6.326   -6.306   -6.258   -6.188   -6.104   -6.026   -5.981   -5.973   -5.988   -6.009   -6.025   -6.049   -6.094   -6.149   -6.198   -6.227   -6.236   -6.217   -6.191   -6.168   -6.160   -6.173   -6.197   -6.213   -6.211   -6.188   -6.152   -6.119   -6.102   -6.100   -6.113   -6.124   -6.139   -6.160   -6.280
 -12.623  -12.497  -12.456  -12.436  -12.426  -12.421  -12.419  -12.421  -12.425  -12.441  -12.454  -12.464  -12.463  -12.445  -12.414  -12.379  -12.344  -12.319  -12.305  -12.284  -12.221  -12.056  -11.712  -11.121  -10.291   -9.295   -8.287   -7.420   -6.792   -6.406   -6.208   -6.121   -6.083   -6.063   -6.052   -6.052   -6.065   -6.077   -6.089   -6.105   -6.137   -6.177   -6.213   -6.238   -6.250   -6.254   -6.259   -6.274   -6.303   -6.354   -6.409   -6.445   -6.438   -6.380   -6.286   -6.194   -6.130   -6.093   -6.078   -6.079   -6.091   -6.126   -6.171   -6.217   -6.252   -6.270   -6.259   -6.217   -6.152   -6.074   -6.007   -5.964   -5.956   -5.969   -5.987   -6.011   -6.053   -6.117   -6.193   -6.248   -6.273   -6.266   -6.233   -6.193   -6.159   -6.135   -6.133   -6.142   -6.148   -6.148   -6.139   -6.124   -6.108   -6.108   -6.110   -6.112   -6.108   -6.104   -6.118   -6.240
 -12.723  -12.583  -12.535  -12.511  -12.494  -12.482  -12.472  -12.466  -12.462  -12.468  -12.474  -12.482  -12.482  -12.468  -12.441  -12.407  -12.375  -12.354  -12.341  -12.319  -12.256  -12.088  -11.739  -11.147  -10.314   -9.323   -8.322   -7.464   -6.840   -6.448   -6.241   -6.140   -6.094   -6.072   -6.078   -6.106   -6.154   -6.196   -6.222   -6.235   -6.243   -6.253   -6.259   -6.259   -6.257   -6.257   -6.260   -6.271   -6.292   -6.319   -6.343   -6.348   -6.319   -6.259   -6.174   -6.098   -6.052   -6.029   -6.025   -6.028   -6.043   -6.082   -6.129   -6.176   -6.209   -6.215   -6.198   -6.159   -6.112   -6.066   -6.032   -6.017   -6.015   -6.019   -6.015   -6.025   -6.063   -6.132   -6.210   -6.265   -6.282   -6.261   -6.222   -6.174   -6.125   -6.093   -6.079   -6.088   -6.107   -6.134   -6.163   -6.194   -6.224   -6.262   -6.291   -6.301   -6.289   -6.274   -6.284   -6.406
 -12.942  -12.788  -12.734  -12.703  -12.680  -12.660  -12.641  -12.624  -12.607  -12.600  -12.599  -12.599  -12.596  -12.584  -12.564  -12.541  -12.521  -12.512  -12.506  -12.489  -12.424  -12.251  -11.895  -11.299  -10.463   -9.471   -8.469   -7.610   -6.975   -6.569   -6.340   -6.220   -6.163   -6.148   -6.175   -6.239   -6.327   -6.407   -6.457   -6.474   -6.461   -6.428   -6.382   -6.333   -6.290   -6.265   -6.261   -6.269   -6.276   -6.272   -6.256   -6.220   -6.169   -6.102   -6.035   -5.988   -5.973   -5.979   -5.993   -6.006   -6.030   -6.072   -6.124   -6.167   -6.190   -6.186   -6.158   -6.122   -6.100   -6.098   -6.114   -6.133   -6.139   -6.118   -6.079   -6.054   -6.070   -6.126   -6.194   -6.239   -6.247   -6.229   -6.191   -6.145   -6.097   -6.063   -6.054   -6.077   -6.135   -6.218   -6.323   -6.442   -6.572   -6.698   -6.799   -6.854   -6.860   -6.849   -6.850   -6.975
 -13.351  -13.185  -13.127  -13.093  -13.064  -13.041  -13.015  -12.989  -12.963  -12.941  -12.931  -12.925  -12.919  -12.908  -12.892  -12.881  -12.877  -12.880  -12.884  -12.871  -12.806  -12.627  -12.266  -11.663  -10.825   -9.829   -8.812   -7.926   -7.254   -6.803   -6.529   -6.377   -6.303   -6.292   -6.348   -6.463   -6.609   -6.745   -6.839   -6.871   -6.835   -6.743   -6.618   -6.484   -6.377   -6.313   -6.292   -6.293   -6.287   -6.250   -6.188   -6.116   -6.043   -5.976   -5.926   -5.907   -5.925   -5.962   -5.995   -6.018   -6.042   -6.081   -6.130   -6.169   -6.186   -6.179   -6.152   -6.129   -6.137   -6.174   -6.228   -6.270   -6.270   -6.227   -6.152   -6.092   -6.081   -6.113   -6.163   -6.194   -6.195   -6.177   -6.149   -6.117   -6.086   -6.068   -6.081   -6.138   -6.254   -6.425   -6.663   -6.950   -7.265   -7.570   -7.819   -7.970   -8.030   -8.037   -8.038   -8.152
 -13.998  -13.825  -13.769  -13.734  -13.707  -13.682  -13.652  -13.619  -13.587  -13.558  -13.539  -13.527  -13.517  -13.504  -13.494  -13.486  -13.490  -13.504  -13.515  -13.506  -13.441  -13.262  -12.902  -12.299  -11.457  -10.448   -9.403   -8.465   -7.718   -7.184   -6.830   -6.612   -6.506   -6.503   -6.605   -6.796   -7.032   -7.257   -7.411   -7.458   -7.381   -7.203   -6.963   -6.718   -6.522   -6.403   -6.355   -6.347   -6.328   -6.267   -6.172   -6.067   -5.984   -5.921   -5.889   -5.892   -5.938   -5.997   -6.044   -6.067   -6.077   -6.098   -6.130   -6.164   -6.185   -6.187   -6.181   -6.177   -6.204   -6.266   -6.335   -6.382   -6.375   -6.312   -6.220   -6.141   -6.107   -6.116   -6.139   -6.147   -6.137   -6.119   -6.105   -6.094   -6.094   -6.103   -6.149   -6.251   -6.443   -6.748   -7.190   -7.749   -8.372   -8.971   -9.452   -9.768   -9.917   -9.959   -9.965  -10.053
 -14.887  -14.712  -14.657  -14.625  -14.600  -14.575  -14.538  -14.502  -14.464  -14.431  -14.407  -14.390  -14.374  -14.359  -14.346  -14.337  -14.341  -14.354  -14.366  -14.362  -14.301  -14.129  -13.773  -13.175  -12.329  -11.302  -10.210   -9.192   -8.340   -7.687   -7.222   -6.920   -6.771   -6.777   -6.943   -7.242   -7.602   -7.938   -8.160   -8.209   -8.067   -7.762   -7.372   -6.988   -6.688   -6.502   -6.424   -6.404   -6.380   -6.306   -6.190   -6.073   -5.988   -5.941   -5.928   -5.949   -6.006   -6.071   -6.117   -6.130   -6.117   -6.111   -6.123   -6.149   -6.182   -6.204   -6.217   -6.232   -6.266   -6.326   -6.388   -6.429   -6.416   -6.354   -6.270   -6.196   -6.151   -6.139   -6.135   -6.115   -6.088   -6.064   -6.065   -6.079   -6.106   -6.147   -6.227   -6.379   -6.662   -7.140   -7.858   -8.795   -9.839  -10.835  -11.630  -12.158  -12.431  -12.520  -12.534  -12.579
 -15.967  -15.795  -15.743  -15.715  -15.688  -15.651  -15.601  -15.547  -15.491  -15.450  -15.422  -15.402  -15.384  -15.365  -15.345  -15.331  -15.329  -15.333  -15.342  -15.337  -15.281  -15.116  -14.767  -14.175  -13.324  -12.272  -11.124  -10.012   -9.039   -8.250   -7.656   -7.258   -7.060   -7.083   -7.329   -7.759   -8.263   -8.715   -9.002   -9.039   -8.803   -8.347   -7.780   -7.239   -6.823   -6.569   -6.457   -6.424   -6.399   -6.324   -6.207   -6.091   -6.020   -5.999   -6.012   -6.046   -6.099   -6.152   -6.184   -6.177   -6.144   -6.114   -6.108   -6.133   -6.174   -6.212   -6.236   -6.256   -6.283   -6.322   -6.366   -6.392   -6.382   -6.339   -6.284   -6.233   -6.194   -6.167   -6.142   -6.104   -6.069   -6.048   -6.056   -6.090   -6.135   -6.191   -6.288   -6.477   -6.854   -7.530   -8.579   -9.956  -11.485  -12.926  -14.070  -14.829  -15.235  -15.390  -15.417  -15.409
 -17.244  -17.073  -17.027  -16.993  -16.948  -16.872  -16.764  -16.647  -16.542  -16.469  -16.426  -16.403  -16.385  -16.363  -16.339  -16.316  -16.305  -16.302  -16.304  -16.294  -16.237  -16.075  -15.731  -15.138  -14.279  -13.197  -11.991  -10.789   -9.694   -8.775   -8.062   -7.573   -7.334   -7.382   -7.717   -8.274   -8.916   -9.473   -9.807   -9.820   -9.486   -8.875   -8.134   -7.429   -6.889   -6.559   -6.410   -6.372   -6.350   -6.287   -6.185   -6.094   -6.054   -6.070   -6.111   -6.153   -6.186   -6.209   -6.214   -6.194   -6.150   -6.112   -6.098   -6.118   -6.159   -6.198   -6.222   -6.231   -6.240   -6.257   -6.280   -6.294   -6.289   -6.273   -6.253   -6.235   -6.218   -6.195   -6.164   -6.128   -6.100   -6.093   -6.117   -6.152   -6.191   -6.236   -6.320   -6.522   -6.980   -7.855   -9.238  -11.057  -13.063  -14.928  -16.397  -17.376  -17.913  -18.137  -18.183  -18.123
 -18.900  -18.736  -18.696  -18.646  -18.530  -18.332  -18.065  -17.781  -17.541  -17.377  -17.288  -17.247  -17.227  -17.207  -17.181  -17.153  -17.135  -17.126  -17.121  -17.105  -17.045  -16.878  -16.531  -15.930  -15.056  -13.943  -12.684  -11.399  -10.203   -9.176   -8.371   -7.818   -7.563   -7.646   -8.067   -8.734   -9.478  -10.109  -10.467  -10.444  -10.026   -9.285   -8.391   -7.539   -6.881   -6.475   -6.292   -6.253   -6.249   -6.211   -6.140   -6.083   -6.084   -6.136   -6.196   -6.230   -6.237   -6.229   -6.211   -6.188   -6.153   -6.117   -6.099   -6.111   -6.141   -6.171   -6.184   -6.180   -6.172   -6.171   -6.176   -6.185   -6.187   -6.192   -6.203   -6.215   -6.224   -6.216   -6.197   -6.177   -6.171   -6.191   -6.229   -6.261   -6.275   -6.281   -6.324   -6.521   -7.042   -8.086   -9.765  -11.965  -14.368  -16.583  -18.319  -19.480  -20.125  -20.406  -20.473  -20.367
 -21.388  -21.252  -21.224  -21.111  -20.821  -20.331  -19.700  -19.049  -18.506  -18.144  -17.949  -17.864  -17.831  -17.809  -17.786  -17.762  -17.744  -17.732  -17.724  -17.703  -17.633  -17.458  -17.099  -16.484  -15.587  -14.438  -13.130  -11.778  -10.509   -9.411   -8.558   -7.987   -7.754   -7.892   -8.385   -9.124   -9.922  -10.578  -10.926  -10.867  -10.381   -9.550   -8.546   -7.584   -6.831   -6.365   -6.165   -6.135   -6.162   -6.157   -6.118   -6.092   -6.117   -6.181   -6.237   -6.256   -6.238   -6.213   -6.196   -6.183   -6.162   -6.133   -6.111   -6.108   -6.128   -6.149   -6.157   -6.146   -6.128   -6.116   -6.116   -6.127   -6.138   -6.156   -6.179   -6.206   -6.221   -6.222   -6.216   -6.222   -6.254   -6.304   -6.353   -6.373   -6.352   -6.313   -6.316   -6.500   -7.065   -8.243  -10.144  -12.627  -15.315  -17.777  -19.702  -20.988  -21.708  -22.027  -22.105  -21.966
 -25.356  -25.285  -25.242  -24.963  -24.304  -23.251  -21.944  -20.626  -19.542  -18.819  -18.427  -18.260  -18.201  -18.175  -18.156  -18.139  -18.125  -18.117  -18.109  -18.085  -18.008  -17.821  -17.443  -16.806  -15.876  -14.689  -13.333  -11.929  -10.614   -9.491   -8.642   -8.116   -7.954   -8.166   -8.717   -9.482  -10.276  -10.901  -11.206  -11.096  -10.559   -9.674   -8.615   -7.589   -6.782   -6.287   -6.087   -6.082   -6.141   -6.166   -6.148   -6.130   -6.152   -6.199   -6.232   -6.230   -6.207   -6.185   -6.179   -6.178   -6.166   -6.140   -6.113   -6.106   -6.125   -6.153   -6.169   -6.157   -6.132   -6.119   -6.125   -6.146   -6.169   -6.187   -6.204   -6.212   -6.206   -6.198   -6.204   -6.244   -6.314   -6.394   -6.449   -6.455   -6.404   -6.333   -6.313   -6.489   -7.090   -8.356  -10.395  -13.046  -15.902  -18.509  -20.542  -21.896  -22.650  -22.981  -23.058  -22.902
 -31.221  -31.244  -31.089  -30.460  -29.175  -27.250  -24.928  -22.618  -20.728  -19.467  -18.788  -18.497  -18.398  -18.366  -18.352  -18.342  -18.335  -18.331  -18.325  -18.300  -18.217  -18.017  -17.617  -16.948  -15.980  -14.748  -13.344  -11.904  -10.569   -9.467   -8.685   -8.264   -8.220   -8.529   -9.121   -9.868  -10.602  -11.148  -11.375  -11.204  -10.623   -9.714   -8.635   -7.597   -6.776   -6.274   -6.085   -6.096   -6.177   -6.217   -6.201   -6.174   -6.177   -6.200   -6.208   -6.196   -6.176   -6.159   -6.157   -6.156   -6.143   -6.112   -6.084   -6.090   -6.126   -6.178   -6.207   -6.202   -6.174   -6.161   -6.178   -6.213   -6.244   -6.256   -6.247   -6.212   -6.167   -6.139   -6.155   -6.225   -6.330   -6.431   -6.489   -6.483   -6.420   -6.338   -6.317   -6.507   -7.132   -8.441  -10.540  -13.257  -16.175  -18.829  -20.895  -22.264  -23.018  -23.341  -23.408  -23.245
 -38.635  -38.732  -38.301  -37.100  -34.961  -31.945  -28.398  -24.892  -22.026  -20.116  -19.092  -18.654  -18.505  -18.465  -18.452  -18.445  -18.440  -18.436  -18.430  -18.405  -18.320  -18.110  -17.690  -16.987  -15.971  -14.687  -13.243  -11.782  -10.463   -9.427   -8.762   -8.492   -8.594   -8.999   -9.611  -10.304  -10.941  -11.380  -11.515  -11.281  -10.670   -9.754   -8.686   -7.656   -6.840   -6.336   -6.137   -6.140   -6.209   -6.245   -6.231   -6.200   -6.193   -6.205   -6.211   -6.199   -6.177   -6.154   -6.133   -6.113   -6.083   -6.043   -6.021   -6.043   -6.108   -6.186   -6.234   -6.234   -6.208   -6.195   -6.212   -6.254   -6.291   -6.298   -6.267   -6.197   -6.116   -6.069   -6.086   -6.171   -6.291   -6.395   -6.448   -6.442   -6.382   -6.317   -6.319   -6.531   -7.172   -8.487  -10.571  -13.259  -16.148  -18.770  -20.805  -22.147  -22.877  -23.181  -23.236  -23.074
 -46.457  -46.554  -45.693  -43.752  -40.636  -36.480  -31.713  -27.043  -23.232  -20.702  -19.352  -18.777  -18.583  -18.532  -18.518  -18.508  -18.495  -18.483  -18.471  -18.446  -18.366  -18.156  -17.721  -16.986  -15.926  -14.592  -13.114  -11.658  -10.395   -9.462   -8.941   -8.836   -9.076   -9.549  -10.144  -10.756  -11.278  -11.609  -11.664  -11.386  -10.766   -9.864   -8.815   -7.800   -6.982   -6.459   -6.221   -6.173   -6.201   -6.218   -6.205   -6.196   -6.211   -6.243   -6.266   -6.257   -6.215   -6.160   -6.106   -6.061   -6.016   -5.970   -5.949   -5.978   -6.058   -6.154   -6.215   -6.217   -6.187   -6.165   -6.175   -6.216   -6.262   -6.282   -6.254   -6.178   -6.085   -6.021   -6.024   -6.095   -6.199   -6.288   -6.333   -6.328   -6.292   -6.258   -6.297   -6.534   -7.177   -8.450  -10.453  -13.034  -15.805  -18.322  -20.272  -21.552  -22.242  -22.522  -22.570  -22.421
 -53.533  -53.504  -52.114  -49.317  -45.165  -39.929  -34.125  -28.546  -24.052  -21.099  -19.536  -18.875  -18.654  -18.597  -18.581  -18.562  -18.536  -18.512  -18.495  -18.476  -18.412  -18.214  -17.773  -17.008  -15.902  -14.526  -13.033  -11.612  -10.436   -9.638   -9.269   -9.306   -9.636  -10.129  -10.670  -11.173  -11.570  -11.798  -11.790  -11.491  -10.886  -10.014   -8.996   -7.995   -7.174   -6.615   -6.312   -6.185   -6.147   -6.138   -6.142   -6.173   -6.238   -6.308   -6.345   -6.321   -6.247   -6.160   -6.086   -6.034   -5.988   -5.940   -5.915   -5.937   -6.009   -6.098   -6.154   -6.151   -6.111   -6.076   -6.077   -6.121   -6.186   -6.240   -6.249   -6.196   -6.108   -6.031   -6.003   -6.031   -6.089   -6.146   -6.175   -6.176   -6.165   -6.170   -6.244   -6.499   -7.114   -8.295  -10.144  -12.533  -15.102  -17.440  -19.250  -20.437  -21.072  -21.329  -21.371  -21.246
 -59.289  -58.923  -56.826  -53.033  -47.829  -41.640  -35.072  -28.989  -24.237  -21.188  -19.597  -18.933  -18.716  -18.668  -18.659  -18.644  -18.617  -18.593  -18.589  -18.596  -18.566  -18.388  -17.938  -17.129  -15.962  -14.543  -13.051  -11.693  -10.633   -9.977   -9.745   -9.879  -10.246  -10.711  -11.163  -11.539  -11.803  -11.917  -11.839  -11.523  -10.938  -10.107   -9.128   -8.151   -7.327   -6.738   -6.374   -6.177   -6.084   -6.056   -6.084   -6.161   -6.272   -6.364   -6.394   -6.343   -6.244   -6.153   -6.103   -6.086   -6.062   -6.016   -5.977   -5.973   -6.014   -6.074   -6.106   -6.086   -6.031   -5.989   -5.989   -6.044   -6.143   -6.243   -6.297   -6.273   -6.189   -6.093   -6.029   -6.010   -6.021   -6.040   -6.046   -6.050   -6.053   -6.084   -6.176   -6.420   -6.967   -8.002   -9.622  -11.722  -13.999  -16.077  -17.691  -18.748  -19.312  -19.538  -19.578  -19.490
 -63.236  -62.277  -59.245  -54.416  -48.284  -41.352  -34.359  -28.246  -23.721  -20.927  -19.505  -18.927  -18.764  -18.766  -18.815  -18.858  -18.885  -18.917  -18.976  -19.055  -19.081  -18.916  -18.414  -17.496  -16.205  -14.697  -13.187  -11.894  -10.962  -10.447  -10.326  -10.513  -10.874  -11.282  -11.636  -11.885  -12.007  -11.991  -11.818  -11.454  -10.872  -10.074   -9.137   -8.196   -7.385   -6.784   -6.395   -6.164   -6.048   -6.024   -6.081   -6.195   -6.321   -6.404   -6.399   -6.315   -6.217   -6.172   -6.200   -6.251   -6.270   -6.237   -6.182   -6.146   -6.144   -6.160   -6.154   -6.107   -6.043   -6.002   -6.012   -6.081   -6.195   -6.321   -6.395   -6.380   -6.294   -6.182   -6.098   -6.051   -6.033   -6.025   -6.015   -6.005   -6.006   -6.033   -6.110   -6.312   -6.756   -7.594   -8.911  -10.636  -12.517  -14.252  -15.604  -16.492  -16.962  -17.141  -17.173  -17.134
 -64.447  -62.876  -58.995  -53.395  -46.602  -39.203  -32.190  -26.535  -22.653  -20.383  -19.276  -18.868  -18.837  -18.994  -19.230  -19.477  -19.711  -19.938  -20.177  -20.395  -20.484  -20.263  -19.572  -18.373  -16.785  -15.057  -13.459  -12.195  -11.366  -10.968  -10.929  -11.137  -11.470  -11.815  -12.087  -12.228  -12.226  -12.077  -11.790  -11.353  -10.747   -9.970   -9.071   -8.169   -7.382   -6.792   -6.407   -6.191   -6.099   -6.110   -6.196   -6.320   -6.427   -6.464   -6.409   -6.305   -6.238   -6.278   -6.410   -6.553   -6.626   -6.608   -6.541   -6.473   -6.430   -6.401   -6.356   -6.292   -6.231   -6.197   -6.213   -6.271   -6.360   -6.453   -6.501   -6.473   -6.385   -6.282   -6.202   -6.159   -6.138   -6.121   -6.099   -6.073   -6.059   -6.058   -6.098   -6.231   -6.542   -7.149   -8.115   -9.391  -10.794  -12.099  -13.124  -13.789  -14.130  -14.246  -14.254  -14.270
 -62.340  -60.490  -56.265  -50.317  -43.162  -35.676  -29.129  -24.338  -21.328  -19.683  -18.949  -18.793  -19.034  -19.563  -20.269  -21.042  -21.794  -22.488  -23.089  -23.517  -23.602  -23.127  -21.953  -20.129  -17.924  -15.727  -13.881  -12.563  -11.785  -11.465  -11.471  -11.674  -11.965  -12.250  -12.455  -12.528  -12.443  -12.201  -11.822  -11.321  -10.690   -9.926   -9.065   -8.201   -7.441   -6.872   -6.519   -6.351   -6.319   -6.380   -6.486   -6.591   -6.648   -6.623   -6.523   -6.414   -6.397   -6.531   -6.767   -6.992   -7.112   -7.113   -7.040   -6.956   -6.883   -6.822   -6.759   -6.698   -6.646   -6.617   -6.610   -6.616   -6.633   -6.650   -6.645   -6.603   -6.529   -6.458   -6.408   -6.387   -6.377   -6.362   -6.338   -6.298   -6.262   -6.232   -6.227   -6.287   -6.468   -6.835   -7.427   -8.213   -9.086   -9.894  -10.522  -10.916  -11.092  -11.118  -11.088  -11.144
 -57.639  -55.801  -51.646  -45.666  -38.552  -31.546  -25.934  -22.192  -20.028  -18.931  -18.549  -18.739  -19.487  -20.768  -22.436  -24.254  -25.997  -27.504  -28.654  -29.282  -29.171  -28.102  -26.006  -23.079  -19.806  -16.786  -14.463  -12.963  -12.170  -11.879  -11.894  -12.067  -12.298  -12.517  -12.667  -12.702  -12.591  -12.329  -11.934  -11.423  -10.796  -10.057   -9.239   -8.419   -7.699   -7.171   -6.866   -6.763   -6.796   -6.894   -6.997   -7.055   -7.045   -6.961   -6.829   -6.734   -6.770   -6.975   -7.283   -7.561   -7.718   -7.743   -7.686   -7.605   -7.529   -7.466   -7.409   -7.367   -7.330   -7.292   -7.242   -7.173   -7.102   -7.046   -6.999   -6.961   -6.923   -6.891   -6.874   -6.868   -6.868   -6.858   -6.833   -6.790   -6.735   -6.682   -6.650   -6.657   -6.724   -6.872   -7.108   -7.411   -7.735   -8.014   -8.202   -8.278   -8.248   -8.150   -8.061   -8.140
 -51.658  -49.806  -45.845  -40.178  -33.714  -27.758  -23.295  -20.480  -18.909  -18.159  -18.060  -18.708  -20.293  -22.842  -26.075  -29.496  -32.626  -35.145  -36.842  -37.518  -36.956  -34.978  -31.594  -27.152  -22.387  -18.187  -15.152  -13.350  -12.482  -12.185  -12.183  -12.306  -12.464  -12.603  -12.696  -12.713  -12.628  -12.429  -12.105  -11.656  -11.083  -10.396   -9.636   -8.881   -8.231   -7.769   -7.529   -7.482   -7.558   -7.662   -7.730   -7.727   -7.653   -7.525   -7.388   -7.316   -7.390   -7.630   -7.973   -8.284   -8.479   -8.544   -8.528   -8.479   -8.432   -8.391   -8.364   -8.351   -8.335   -8.286   -8.196   -8.077   -7.959   -7.867   -7.821   -7.803   -7.797   -7.792   -7.785   -7.779   -7.778   -7.771   -7.749   -7.704   -7.640   -7.579   -7.539   -7.518   -7.504   -7.467   -7.388   -7.251   -7.059   -6.823   -6.562   -6.286   -6.006   -5.754   -5.578   -5.652
 -45.526  -43.668  -40.154  -35.315  -30.008  -25.262  -21.718  -19.411  -18.030  -17.348  -17.438  -18.666  -21.438  -25.754  -30.996  -36.239  -40.733  -44.073  -46.074  -46.594  -45.454  -42.498  -37.768  -31.704  -25.262  -19.687  -15.814  -13.653  -12.690  -12.380  -12.357  -12.431  -12.512  -12.571  -12.606  -12.614  -12.581  -12.481  -12.282  -11.949  -11.472  -10.872  -10.203   -9.547   -9.000   -8.625   -8.450   -8.446   -8.527   -8.606   -8.621   -8.561   -8.442   -8.297   -8.172   -8.129   -8.229   -8.496   -8.862   -9.211   -9.461   -9.592   -9.643   -9.654   -9.653   -9.656   -9.670   -9.689   -9.689   -9.644   -9.553   -9.433   -9.327   -9.254   -9.233   -9.242   -9.252   -9.250   -9.236   -9.219   -9.212   -9.215   -9.199   -9.152   -9.082   -9.018   -8.980   -8.945   -8.869   -8.689   -8.355   -7.857   -7.233   -6.546   -5.857   -5.221   -4.666   -4.231   -3.949   -3.997
 -41.294  -39.679  -36.918  -33.125  -28.869  -24.849  -21.559  -19.124  -17.448  -16.523  -16.677  -18.562  -22.762  -29.077  -36.322  -43.100  -48.558  -52.383  -54.492  -54.784  -53.061  -49.185  -43.272  -35.784  -27.794  -20.908  -16.253  -13.791  -12.777  -12.478  -12.452  -12.491  -12.514  -12.509  -12.494  -12.491  -12.499  -12.488  -12.405  -12.195  -11.837  -11.355  -10.808  -10.279   -9.848   -9.566   -9.444   -9.450   -9.509   -9.549   -9.521   -9.426   -9.296   -9.162   -9.069   -9.065   -9.204   -9.509   -9.926  -10.348  -10.688  -10.916  -11.053  -11.134  -11.185  -11.228  -11.270  -11.310  -11.330  -11.304  -11.244  -11.169  -11.114  -11.093  -11.104  -11.130  -11.144  -11.133  -11.106  -11.091  -11.097  -11.118  -11.111  -11.065  -10.989  -10.920  -10.876  -10.827  -10.701  -10.415   -9.902   -9.154   -8.219   -7.185   -6.149   -5.187   -4.367   -3.737   -3.343   -3.350
 -41.250  -40.065  -37.924  -34.754  -30.847  -26.712  -22.874  -19.666  -17.236  -15.785  -15.855  -18.354  -23.961  -32.091  -40.893  -48.702  -54.845  -59.131  -61.409  -61.443  -58.980  -54.091  -47.149  -38.572  -29.392  -21.512  -16.325  -13.727  -12.746  -12.503  -12.499  -12.526  -12.519  -12.478  -12.431  -12.413  -12.430  -12.457  -12.438  -12.318  -12.070  -11.714  -11.304  -10.908  -10.586  -10.378  -10.284  -10.279  -10.304  -10.310  -10.259  -10.161  -10.046   -9.950   -9.905   -9.960  -10.170  -10.555  -11.068  -11.610  -12.077  -12.416  -12.640  -12.778  -12.865  -12.928  -12.981  -13.025  -13.051  -13.050  -13.030  -13.009  -13.011  -13.040  -13.079  -13.119  -13.137  -13.129  -13.111  -13.114  -13.153  -13.202  -13.212  -13.167  -13.085  -13.009  -12.955  -12.890  -12.727  -12.376  -11.768  -10.893   -9.798   -8.570   -7.310   -6.124   -5.098   -4.317   -3.832   -3.801
 -44.849  -44.060  -42.138  -39.010  -34.826  -30.004  -25.144  -20.805  -17.374  -15.234  -15.090  -18.014  -24.664  -34.035  -43.764  -52.193  -58.950  -63.794  -66.251  -65.860  -62.473  -56.586  -48.862  -39.583  -29.697  -21.328  -16.002  -13.488  -12.642  -12.492  -12.527  -12.560  -12.543  -12.492  -12.433  -12.401  -12.401  -12.419  -12.409  -12.330  -12.161  -11.913  -11.625  -11.344  -11.112  -10.950  -10.865  -10.838  -10.829  -10.809  -10.754  -10.675  -10.594  -10.544  -10.558  -10.686  -10.991  -11.494  -12.142  -12.827  -13.430  -13.880  -14.176  -14.352  -14.452  -14.514  -14.559  -14.593  -14.615  -14.624  -14.630  -14.648  -14.686  -14.743  -14.804  -14.855  -14.887  -14.897  -14.908  -14.945  -15.019  -15.097  -15.129  -15.094  -15.015  -14.940  -14.882  -14.806  -14.626  -14.260  -13.645  -12.768  -11.666  -10.418   -9.112   -7.852   -6.743   -5.892   -5.360   -5.292
 -49.370  -48.813  -46.829  -43.433  -38.761  -33.193  -27.360  -21.983  -17.653  -14.894  -14.478  -17.497  -24.531  -34.346  -44.374  -53.001  -59.981  -64.976  -67.306  -66.471  -62.521  -56.210  -48.187  -38.629  -28.609  -20.381  -15.368  -13.157  -12.518  -12.473  -12.549  -12.594  -12.582  -12.532  -12.476  -12.437  -12.417  -12.405  -12.376  -12.304  -12.180  -12.009  -11.812  -11.619  -11.449  -11.323  -11.240  -11.192  -11.160  -11.123  -11.071  -11.014  -10.965  -10.954  -11.024  -11.227  -11.628  -12.250  -13.033  -13.856  -14.579  -15.120  -15.468  -15.663  -15.762  -15.810  -15.839  -15.856  -15.868  -15.875  -15.890  -15.918  -15.964  -16.026  -16.090  -16.149  -16.195  -16.228  -16.267  -16.333  -16.432  -16.527  -16.574  -16.554  -16.492  -16.431  -16.383  -16.309  -16.143  -15.814  -15.272  -14.507  -13.550  -12.452  -11.284  -10.126   -9.082   -8.260   -7.736   -7.640
 -52.723  -52.192  -49.992  -46.227  -41.104  -35.006  -28.570  -22.597  -17.781  -14.685  -14.027  -16.768  -23.392  -32.770  -42.485  -50.821  -57.347  -61.796  -63.696  -62.720  -58.976  -52.989  -45.133  -35.747  -26.256  -18.835  -14.552  -12.806  -12.404  -12.456  -12.566  -12.616  -12.610  -12.571  -12.524  -12.484  -12.451  -12.420  -12.375  -12.304  -12.206  -12.086  -11.955  -11.823  -11.704  -11.605  -11.530  -11.475  -11.428  -11.385  -11.339  -11.294  -11.268  -11.287  -11.393  -11.652  -12.126  -12.837  -13.718  -14.636  -15.444  -16.048  -16.431  -16.635  -16.727  -16.763  -16.775  -16.780  -16.780  -16.781  -16.790  -16.808  -16.841  -16.890  -16.945  -16.999  -17.048  -17.092  -17.144  -17.217  -17.314  -17.405  -17.453  -17.448  -17.408  -17.369  -17.339  -17.289  -17.166  -16.916  -16.516  -15.964  -15.285  -14.504  -13.646  -12.750  -11.890  -11.173  -10.693  -10.572
 -53.735  -53.101  -50.681  -46.648  -41.263  -34.941  -28.363  -22.348  -17.561  -14.487  -13.670  -15.826  -21.346  -29.444  -38.192  -45.855  -51.672  -55.405  -56.894  -56.015  -52.771  -47.314  -39.891  -31.229  -22.979  -16.929  -13.658  -12.462  -12.288  -12.417  -12.542  -12.594  -12.590  -12.562  -12.528  -12.493  -12.462  -12.429  -12.385  -12.325  -12.251  -12.171  -12.091  -12.009  -11.935  -11.869  -11.812  -11.761  -11.717  -11.674  -11.632  -11.597  -11.582  -11.613  -11.738  -12.024  -12.533  -13.285  -14.211  -15.176  -16.030  -16.668  -17.073  -17.287  -17.379  -17.410  -17.414  -17.411  -17.403  -17.398  -17.396  -17.400  -17.414  -17.441  -17.477  -17.519  -17.558  -17.595  -17.638  -17.692  -17.763  -17.826  -17.861  -17.858  -17.836  -17.816  -17.806  -17.788  -17.728  -17.602  -17.411  -17.177  -16.918  -16.621  -16.237  -15.730  -15.132  -14.553  -14.120  -13.972
 -52.313  -51.549  -49.014  -44.898  -39.482  -33.258  -26.964  -21.368  -17.004  -14.199  -13.285  -14.703  -18.724  -24.918  -32.017  -38.584  -43.688  -46.939  -48.208  -47.420  -44.519  -39.574  -32.977  -25.718  -19.301  -14.922  -12.744  -12.080  -12.104  -12.285  -12.414  -12.465  -12.467  -12.450  -12.429  -12.409  -12.389  -12.370  -12.343  -12.308  -12.266  -12.225  -12.189  -12.156  -12.123  -12.091  -12.059  -12.029  -11.996  -11.961  -11.930  -11.901  -11.893  -11.927  -12.053  -12.336  -12.845  -13.592  -14.516  -15.487  -16.354  -17.014  -17.441  -17.673  -17.779  -17.815  -17.821  -17.816  -17.806  -17.796  -17.785  -17.778  -17.775  -17.783  -17.801  -17.826  -17.852  -17.873  -17.895  -17.920  -17.950  -17.975  -17.985  -17.975  -17.959  -17.951  -17.956  -17.974  -17.997  -18.039  -18.145  -18.364  -18.709  -19.096  -19.360  -19.359  -19.075  -18.641  -18.241  -18.040
 -49.323  -48.427  -45.866  -41.818  -36.597  -30.762  -25.040  -20.077  -16.249  -13.746  -12.728  -13.407  -15.918  -20.037  -25.042  -29.973  -34.026  -36.718  -37.799  -37.131  -34.677  -30.601  -25.433  -20.120  -15.754  -13.003  -11.798  -11.576  -11.744  -11.951  -12.082  -12.134  -12.146  -12.144  -12.143  -12.146  -12.156  -12.167  -12.173  -12.174  -12.172  -12.175  -12.182  -12.191  -12.198  -12.199  -12.199  -12.195  -12.188  -12.175  -12.161  -12.143  -12.135  -12.165  -12.275  -12.534  -13.007  -13.713  -14.606  -15.557  -16.426  -17.107  -17.567  -17.835  -17.971  -18.030  -18.047  -18.044  -18.035  -18.023  -18.009  -17.995  -17.983  -17.982  -17.988  -18.001  -18.014  -18.025  -18.029  -18.029  -18.029  -18.021  -18.008  -17.987  -17.968  -17.964  -17.984  -18.043  -18.172  -18.442  -18.958  -19.806  -20.970  -22.257  -23.343  -23.963  -24.060  -23.801  -23.436  -23.139
 -45.714  -44.731  -42.255  -38.448  -33.641  -28.377  -23.288  -18.886  -15.451  -13.106  -11.918  -11.957  -13.232  -15.580  -18.591  -21.696  -24.364  -26.210  -26.977  -26.503  -24.763  -21.950  -18.538  -15.225  -12.685  -11.240  -10.762  -10.841  -11.094  -11.312  -11.440  -11.499  -11.525  -11.544  -11.569  -11.605  -11.659  -11.720  -11.778  -11.834  -11.887  -11.944  -12.000  -12.050  -12.090  -12.125  -12.157  -12.193  -12.224  -12.249  -12.262  -12.259  -12.250  -12.263  -12.340  -12.553  -12.960  -13.600  -14.437  -15.357  -16.227  -16.940  -17.453  -17.782  -17.970  -18.067  -18.104  -18.111  -18.104  -18.091  -18.078  -18.067  -18.057  -18.054  -18.059  -18.067  -18.078  -18.086  -18.090  -18.084  -18.070  -18.048  -18.025  -18.003  -17.988  -17.988  -18.023  -18.130  -18.395  -18.951  -19.976  -21.589  -23.718  -26.020  -28.008  -29.318  -29.880  -29.891  -29.626  -29.197
 -42.252  -41.275  -39.006  -35.584  -31.310  -26.636  -22.066  -18.016  -14.741  -12.366  -10.941  -10.468  -10.880  -11.997  -13.545  -15.179  -16.593  -17.571  -17.952  -17.636  -16.606  -15.002  -13.127  -11.399  -10.179   -9.611   -9.576   -9.814  -10.098  -10.310  -10.437  -10.506  -10.548  -10.585  -10.635  -10.711  -10.820  -10.949  -11.084  -11.214  -11.342  -11.466  -11.579  -11.673  -11.750  -11.814  -11.887  -11.967  -12.051  -12.126  -12.177  -12.191  -12.179  -12.164  -12.193  -12.332  -12.656  -13.208  -13.969  -14.847  -15.719  -16.476  -17.060  -17.469  -17.730  -17.877  -17.945  -17.966  -17.965  -17.956  -17.948  -17.947  -17.951  -17.960  -17.976  -17.998  -18.026  -18.054  -18.077  -18.089  -18.088  -18.078  -18.064  -18.054  -18.050  -18.061  -18.113  -18.276  -18.678  -19.523  -21.052  -23.405  -26.433  -29.649  -32.447  -34.420  -35.506  -35.902  -35.844  -35.307
 -39.350  -38.451  -36.442  -33.441  -29.691  -25.534  -21.360  -17.516  -14.259  -11.755  -10.078   -9.217   -9.069   -9.450  -10.116  -10.828  -11.408  -11.753  -11.811  -11.551  -10.989  -10.204   -9.343   -8.613   -8.175   -8.086   -8.260   -8.545   -8.815   -9.015   -9.147   -9.229   -9.278   -9.315   -9.370   -9.474   -9.638   -9.841  -10.063  -10.284  -10.501  -10.704  -10.883  -11.024  -11.132  -11.228  -11.338  -11.467  -11.608  -11.737  -11.827  -11.864  -11.848  -11.799  -11.767  -11.822  -12.049  -12.499  -13.173  -13.997  -14.861  -15.656  -16.312  -16.804  -17.140  -17.342  -17.443  -17.481  -17.489  -17.490  -17.501  -17.521  -17.555  -17.597  -17.651  -17.717  -17.793  -17.874  -17.949  -18.009  -18.053  -18.078  -18.094  -18.106  -18.122  -18.146  -18.217  -18.419  -18.914  -19.954  -21.819  -24.662  -28.284  -32.114  -35.499  -38.034  -39.652  -40.510  -40.754  -40.200
 -36.992  -36.183  -34.414  -31.788  -28.497  -24.799  -20.991  -17.357  -14.147  -11.557   -9.689   -8.553   -8.048   -7.987   -8.151   -8.347   -8.456   -8.430   -8.268   -7.995   -7.645   -7.260   -6.908   -6.663   -6.588   -6.693   -6.918   -7.182   -7.430   -7.633   -7.784   -7.882   -7.917   -7.918   -7.939   -8.032   -8.220   -8.481   -8.780   -9.085   -9.386   -9.665   -9.901  -10.083  -10.217  -10.331  -10.465  -10.630  -10.815  -10.989  -11.122  -11.183  -11.169  -11.091  -11.002  -10.975  -11.103  -11.451  -12.030  -12.785  -13.616  -14.421  -15.118  -15.668  -16.055  -16.296  -16.423  -16.479  -16.500  -16.523  -16.564  -16.628  -16.711  -16.815  -16.946  -17.096  -17.270  -17.451  -17.629  -17.783  -17.907  -17.998  -18.061  -18.107  -18.142  -18.178  -18.255  -18.462  -18.967  -20.025  -21.931  -24.858  -28.623  -32.669  -36.358  -39.293  -41.391  -42.738  -43.359  -42.929
 -34.969  -34.226  -32.646  -30.330  -27.444  -24.194  -20.801  -17.494  -14.484  -11.954  -10.027   -8.731   -7.980   -7.616   -7.452   -7.333   -7.162   -6.914   -6.602   -6.256   -5.920   -5.635   -5.433   -5.338   -5.362   -5.490   -5.692   -5.930   -6.180   -6.422   -6.620   -6.735   -6.738   -6.661   -6.592   -6.618   -6.777   -7.049   -7.383   -7.736   -8.085   -8.404   -8.673   -8.872   -9.010   -9.124   -9.258   -9.430   -9.631   -9.831   -9.991  -10.078  -10.073   -9.980   -9.851   -9.763   -9.811  -10.068  -10.548  -11.215  -11.978  -12.741  -13.422  -13.970  -14.365  -14.613  -14.747  -14.814  -14.857  -14.914  -14.998  -15.120  -15.281  -15.482  -15.727  -16.015  -16.341  -16.683  -17.020  -17.323  -17.568  -17.755  -17.884  -17.970  -18.025  -18.070  -18.139  -18.312  -18.731  -19.629  -21.274  -23.860  -27.292  -31.124  -34.784  -37.894  -40.341  -42.129  -43.149  -42.967
 -33.148  -32.441  -31.004  -28.944  -26.423  -23.623  -20.708  -17.844  -15.190  -12.892  -11.054   -9.706   -8.790   -8.189   -7.765   -7.402   -7.028   -6.608   -6.155   -5.686   -5.245   -4.876   -4.619   -4.481   -4.466   -4.547   -4.704   -4.932   -5.221   -5.537   -5.814   -5.964   -5.930   -5.757   -5.562   -5.473   -5.553   -5.774   -6.083   -6.420   -6.756   -7.064   -7.315   -7.488   -7.602   -7.692   -7.799   -7.943   -8.124   -8.317   -8.481   -8.583   -8.587   -8.493   -8.347   -8.222   -8.213   -8.393   -8.778   -9.334   -9.986  -10.648  -11.249  -11.736  -12.082  -12.299  -12.422  -12.494  -12.561  -12.655  -12.795  -12.988  -13.240  -13.560  -13.951  -14.417  -14.938  -15.494  -16.042  -16.535  -16.939  -17.241  -17.449  -17.576  -17.652  -17.698  -17.745  -17.855  -18.139  -18.768  -19.964  -21.919  -24.638  -27.847  -31.122  -34.128  -36.724  -38.818  -40.175  -40.304
 -31.514  -30.829  -29.498  -27.646  -25.449  -23.071  -20.640  -18.263  -16.043  -14.074  -12.425  -11.115  -10.107   -9.327   -8.687   -8.113   -7.553   -6.976   -6.373   -5.757   -5.161   -4.642   -4.247   -3.994   -3.885   -3.898   -4.017   -4.248   -4.584   -4.985   -5.346   -5.544   -5.503   -5.263   -4.967   -4.768   -4.743   -4.876   -5.106   -5.369   -5.626   -5.852   -6.027   -6.137   -6.198   -6.241   -6.298   -6.390   -6.519   -6.669   -6.805   -6.894   -6.895   -6.801   -6.650   -6.511   -6.464   -6.575   -6.859   -7.286   -7.793   -8.315   -8.786   -9.162   -9.427   -9.587   -9.684   -9.756   -9.843   -9.971  -10.160  -10.418  -10.761  -11.198  -11.735  -12.377  -13.103  -13.877  -14.646  -15.342  -15.912  -16.331  -16.609  -16.773  -16.861  -16.900  -16.919  -16.961  -17.102  -17.457  -18.182  -19.435  -21.280  -23.604  -26.168  -28.751  -31.218  -33.398  -34.956  -35.392
 -30.037  -29.375  -28.127  -26.443  -24.512  -22.494  -20.489  -18.559  -16.754  -15.120  -13.689  -12.463  -11.420  -10.519   -9.705   -8.946   -8.215   -7.492   -6.763   -6.026   -5.311   -4.671   -4.162   -3.820   -3.636   -3.588   -3.670   -3.889   -4.244   -4.688   -5.104   -5.349   -5.337   -5.104   -4.788   -4.537   -4.437   -4.480   -4.607   -4.763   -4.907   -5.015   -5.077   -5.095   -5.087   -5.077   -5.076   -5.106   -5.162   -5.241   -5.319   -5.367   -5.347   -5.249   -5.098   -4.943   -4.858   -4.895   -5.071   -5.362   -5.723   -6.095   -6.427   -6.683   -6.852   -6.952   -7.013   -7.076   -7.168   -7.313   -7.526   -7.823   -8.221   -8.738   -9.375  -10.133  -10.998  -11.932  -12.867  -13.714  -14.404  -14.902  -15.223  -15.406  -15.493  -15.515  -15.501  -15.481  -15.507  -15.649  -16.005  -16.677  -17.737  -19.167  -20.879  -22.784  -24.807  -26.764  -28.287  -28.930
 -28.554  -27.919  -26.745  -25.203  -23.493  -21.767  -20.104  -18.532  -17.066  -15.714  -14.479  -13.349  -12.308  -11.327  -10.387   -9.479   -8.610   -7.777   -6.975   -6.200   -5.467   -4.823   -4.315   -3.965   -3.768   -3.700   -3.758   -3.946   -4.267   -4.679   -5.073   -5.328   -5.363   -5.191   -4.930   -4.705   -4.587   -4.577   -4.630   -4.691   -4.728   -4.725   -4.677   -4.608   -4.532   -4.472   -4.428   -4.397   -4.386   -4.389   -4.397   -4.393   -4.345   -4.238   -4.079   -3.908   -3.776   -3.730   -3.802   -3.981   -4.224   -4.486   -4.712   -4.874   -4.966   -5.008   -5.031   -5.066   -5.138   -5.261   -5.457   -5.742   -6.140   -6.657   -7.296   -8.055   -8.925   -9.874  -10.831  -11.705  -12.408  -12.906  -13.218  -13.392  -13.466  -13.466  -13.416  -13.344  -13.293  -13.304  -13.431  -13.724  -14.228  -14.963  -15.924  -17.114  -18.522  -20.005  -21.247  -21.928
 -26.798  -26.186  -25.101  -23.704  -22.194  -20.710  -19.317  -18.022  -16.814  -15.682  -14.609  -13.577  -12.567  -11.562  -10.558   -9.576   -8.641   -7.780   -7.006   -6.314   -5.708   -5.209   -4.835   -4.598   -4.484   -4.473   -4.551   -4.716   -4.967   -5.271   -5.562   -5.749   -5.775   -5.648   -5.450   -5.272   -5.165   -5.139   -5.150   -5.155   -5.125   -5.045   -4.921   -4.776   -4.649   -4.543   -4.456   -4.377   -4.307   -4.250   -4.208   -4.170   -4.108   -4.004   -3.853   -3.672   -3.497   -3.386   -3.381   -3.495   -3.689   -3.909   -4.089   -4.200   -4.244   -4.240   -4.221   -4.211   -4.228   -4.289   -4.420   -4.648   -4.982   -5.420   -5.946   -6.561   -7.265   -8.034   -8.815   -9.515  -10.068  -10.449  -10.684  -10.813  -10.858  -10.837  -10.762  -10.661  -10.571  -10.521  -10.538  -10.633  -10.823  -11.127  -11.583  -12.238  -13.107  -14.100  -14.977  -15.582
 -24.567  -23.974  -23.006  -21.785  -20.489  -19.234  -18.073  -17.004  -16.000  -15.043  -14.114  -13.195  -12.266  -11.326  -10.377   -9.455   -8.601   -7.866   -7.273   -6.822   -6.500   -6.294   -6.198   -6.204   -6.297   -6.447   -6.635   -6.838   -7.034   -7.207   -7.314   -7.322   -7.210   -7.004   -6.759   -6.543   -6.402   -6.334   -6.306   -6.273   -6.205   -6.075   -5.890   -5.675   -5.464   -5.276   -5.108   -4.952   -4.809   -4.690   -4.605   -4.554   -4.509   -4.441   -4.326   -4.164   -3.982   -3.846   -3.822   -3.932   -4.145   -4.383   -4.573   -4.675   -4.697   -4.665   -4.606   -4.542   -4.495   -4.483   -4.533   -4.679   -4.921   -5.233   -5.586   -5.967   -6.371   -6.791   -7.191   -7.518   -7.740   -7.869   -7.940   -7.977   -7.984   -7.946   -7.864   -7.761   -7.670   -7.621   -7.614   -7.643   -7.702   -7.815   -8.032   -8.418   -8.993   -9.683  -10.316  -10.837
 -21.932  -21.365  -20.557  -19.556  -18.503  -17.490  -16.554  -15.688  -14.874  -14.090  -13.329  -12.579  -11.836  -11.104  -10.396   -9.748   -9.214   -8.831   -8.631   -8.599   -8.710   -8.932   -9.240   -9.621  -10.051  -10.504  -10.932  -11.282  -11.505  -11.568  -11.451  -11.161  -10.730  -10.216   -9.702   -9.257   -8.927   -8.714   -8.583   -8.478   -8.351   -8.158   -7.878   -7.534   -7.157   -6.777   -6.407   -6.064   -5.755   -5.511   -5.341   -5.245   -5.198   -5.162   -5.092   -4.972   -4.823   -4.709   -4.711   -4.858   -5.115   -5.393   -5.604   -5.715   -5.734   -5.690   -5.610   -5.515   -5.424   -5.362   -5.366   -5.462   -5.636   -5.849   -6.051   -6.207   -6.309   -6.339   -6.277   -6.117   -5.892   -5.668   -5.502   -5.408   -5.351   -5.293   -5.218   -5.136   -5.077   -5.068   -5.102   -5.154   -5.215   -5.304   -5.484   -5.834   -6.361   -6.987   -7.548   -8.031
 -19.317  -18.799  -18.186  -17.444  -16.664  -15.915  -15.225  -14.589  -14.003  -13.452  -12.942  -12.482  -12.086  -11.770  -11.551  -11.459  -11.517  -11.745  -12.141  -12.687  -13.346  -14.086  -14.887  -15.739  -16.623  -17.500  -18.294  -18.913  -19.263  -19.284  -18.953  -18.293  -17.383  -16.337  -15.287  -14.354  -13.611  -13.077  -12.713  -12.444  -12.186  -11.857  -11.407  -10.832  -10.166   -9.442   -8.704   -7.992   -7.354   -6.827   -6.430   -6.166   -6.007   -5.906   -5.815   -5.695   -5.561   -5.463   -5.480   -5.639   -5.899   -6.174   -6.380   -6.481   -6.494   -6.446   -6.364   -6.271   -6.182   -6.126   -6.143   -6.248   -6.418   -6.600   -6.736   -6.781   -6.708   -6.479   -6.072   -5.507   -4.871   -4.300   -3.881   -3.625   -3.479   -3.382   -3.298   -3.235   -3.219   -3.269   -3.383   -3.527   -3.675   -3.840   -4.089   -4.507   -5.105   -5.787   -6.379   -6.851
 -17.288  -16.852  -16.447  -15.979  -15.493  -15.042  -14.652  -14.326  -14.064  -13.866  -13.756  -13.758  -13.911  -14.240  -14.766  -15.471  -16.334  -17.324  -18.412  -19.574  -20.785  -22.036  -23.328  -24.669  -26.042  -27.388  -28.602  -29.547  -30.097  -30.160  -29.694  -28.722  -27.334  -25.684  -23.968  -22.370  -21.030  -20.002  -19.256  -18.692  -18.191  -17.631  -16.931  -16.056  -15.020  -13.861  -12.639  -11.429  -10.295   -9.292   -8.458   -7.802   -7.303   -6.925   -6.618   -6.340   -6.084   -5.897   -5.828   -5.892   -6.054   -6.237   -6.366   -6.421   -6.408   -6.350   -6.275   -6.202   -6.144   -6.132   -6.196   -6.348   -6.557   -6.771   -6.936   -7.008   -6.946   -6.689   -6.195   -5.480   -4.653   -3.877   -3.277   -2.882   -2.630   -2.462   -2.342   -2.268   -2.277   -2.394   -2.616   -2.897   -3.178   -3.451   -3.771   -4.226   -4.848   -5.539   -6.131   -6.570
 -16.191  -15.854  -15.655  -15.463  -15.298  -15.197  -15.188  -15.277  -15.463  -15.754  -16.179  -16.786  -17.632  -18.749  -20.122  -21.692  -23.363  -25.055  -26.722  -28.355  -29.969  -31.595  -33.269  -35.012  -36.802  -38.553  -40.129  -41.370  -42.132  -42.316  -41.868  -40.796  -39.174  -37.153  -34.945  -32.787  -30.877  -29.323  -28.122  -27.177  -26.348  -25.494  -24.508  -23.333  -21.959  -20.419  -18.770  -17.079  -15.416  -13.842  -12.402  -11.127  -10.020   -9.068   -8.241   -7.509   -6.868   -6.352   -5.987   -5.776   -5.685   -5.652   -5.622   -5.570   -5.497   -5.417   -5.335   -5.267   -5.230   -5.253   -5.357   -5.544   -5.785   -6.037   -6.268   -6.449   -6.533   -6.454   -6.136   -5.566   -4.831   -4.087   -3.460   -2.998   -2.667   -2.414   -2.227   -2.117   -2.135   -2.316   -2.658   -3.089   -3.507   -3.858   -4.180   -4.564   -5.062   -5.619   -6.100   -6.460
 -16.121  -15.885  -15.881  -15.963  -16.142  -16.440  -16.874  -17.441  -18.131  -18.948  -19.930  -21.140  -22.645  -24.466  -26.556  -28.795  -31.037  -33.177  -35.170  -37.047  -38.867  -40.705  -42.623  -44.645  -46.737  -48.784  -50.629  -52.101  -53.062  -53.418  -53.121  -52.176  -50.643  -48.646  -46.368  -44.035  -41.858  -39.984  -38.445  -37.170  -36.030  -34.893  -33.651  -32.245  -30.656  -28.896  -27.001  -25.011  -22.967  -20.906  -18.866  -16.883  -14.994  -13.220  -11.572  -10.059   -8.706   -7.548   -6.608   -5.883   -5.348   -4.957   -4.666   -4.447   -4.271   -4.133   -4.018   -3.927   -3.880   -3.894   -3.982   -4.146   -4.367   -4.618   -4.889   -5.166   -5.421   -5.590   -5.580   -5.344   -4.911   -4.396   -3.906   -3.486   -3.127   -2.818   -2.574   -2.433   -2.458   -2.693   -3.126   -3.666   -4.173   -4.541   -4.782   -4.986   -5.237   -5.536   -5.805   -6.058
 -17.289  -17.147  -17.315  -17.647  -18.145  -18.815  -19.654  -20.642  -21.753  -22.985  -24.379  -26.007  -27.937  -30.181  -32.663  -35.233  -37.729  -40.041  -42.147  -44.103  -46.005  -47.955  -50.030  -52.258  -54.590  -56.898  -59.008  -60.740  -61.945  -62.521  -62.428  -61.687  -60.378  -58.626  -56.592  -54.455  -52.388  -50.519  -48.892  -47.463  -46.138  -44.811  -43.400  -41.857  -40.166  -38.333  -36.366  -34.272  -32.050  -29.697  -27.220  -24.646  -22.015  -19.383  -16.805  -14.338  -12.049   -9.999   -8.235   -6.774   -5.609   -4.715   -4.062   -3.603   -3.283   -3.060   -2.888   -2.754   -2.664   -2.624   -2.648   -2.742   -2.892   -3.091   -3.333   -3.633   -3.974   -4.318   -4.577   -4.675   -4.595   -4.391   -4.119   -3.822   -3.514   -3.212   -2.959   -2.817   -2.853   -3.109   -3.571   -4.136   -4.633   -4.942   -5.050   -5.044   -5.030   -5.052   -5.106   -5.254
 -20.149  -20.109  -20.399  -20.893  -21.593  -22.495  -23.575  -24.788  -26.104  -27.514  -29.060  -30.817  -32.848  -35.162  -37.680  -40.255  -42.731  -45.014  -47.090  -49.024  -50.927  -52.912  -55.067  -57.423  -59.937  -62.485  -64.891  -66.963  -68.520  -69.430  -69.641  -69.181  -68.156  -66.715  -65.026  -63.239  -61.482  -59.838  -58.331  -56.927  -55.559  -54.156  -52.662  -51.050  -49.315  -47.459  -45.479  -43.359  -41.067  -38.568  -35.838  -32.879  -29.720  -26.422  -23.067  -19.744  -16.555  -13.592  -10.932   -8.627   -6.711   -5.200   -4.087   -3.316   -2.805   -2.464   -2.220   -2.033   -1.893   -1.802   -1.766   -1.784   -1.857   -1.972   -2.144   -2.388   -2.712   -3.090   -3.463   -3.756   -3.929   -3.975   -3.919   -3.777   -3.568   -3.330   -3.122   -3.011   -3.056   -3.291   -3.696   -4.168   -4.558   -4.748   -4.722   -4.566   -4.386   -4.239   -4.167   -4.261
 -24.822  -24.934  -25.276  -25.805  -26.539  -27.468  -28.555  -29.752  -31.024  -32.361  -33.801  -35.410  -37.247  -39.325  -41.583  -43.897  -46.141  -48.231  -50.156  -51.975  -53.788  -55.703  -57.803  -60.120  -62.622  -65.202  -67.711  -69.976  -71.830  -73.149  -73.862  -73.965  -73.529  -72.661  -71.504  -70.199  -68.857  -67.539  -66.257  -64.976  -63.652  -62.236  -60.702  -59.041  -57.256  -55.355  -53.333  -51.161  -48.799  -46.195  -43.309  -40.125  -36.661  -32.972  -29.140  -25.264  -21.448  -17.790  -14.379  -11.297   -8.626   -6.448   -4.794   -3.629   -2.852   -2.342   -1.999   -1.755   -1.583   -1.471   -1.413   -1.398   -1.425   -1.477   -1.577   -1.739   -1.980   -2.296   -2.648   -2.977   -3.242   -3.417   -3.494   -3.476   -3.377   -3.227   -3.091   -3.018   -3.053   -3.216   -3.484   -3.779   -3.994   -4.042   -3.926   -3.728   -3.524   -3.377   -3.304   -3.407
 -30.477  -30.803  -31.165  -31.653  -32.306  -33.116  -34.051  -35.068  -36.132  -37.239  -38.415  -39.714  -41.188  -42.855  -44.676  -46.571  -48.444  -50.230  -51.916  -53.544  -55.184  -56.915  -58.802  -60.869  -63.091  -65.381  -67.629  -69.725  -71.584  -73.153  -74.397  -75.279  -75.773  -75.874  -75.616  -75.075  -74.338  -73.466  -72.487  -71.390  -70.150  -68.750  -67.182  -65.455  -63.588  -61.596  -59.476  -57.204  -54.738  -52.027  -49.029  -45.725  -42.129  -38.290  -34.288  -30.207  -26.133  -22.133  -18.271  -14.630  -11.329   -8.503   -6.253   -4.592   -3.435   -2.663   -2.164   -1.847   -1.654   -1.560   -1.524   -1.522   -1.530   -1.540   -1.572   -1.653   -1.816   -2.050   -2.341   -2.632   -2.895   -3.098   -3.221   -3.267   -3.236   -3.162   -3.081   -3.030   -3.031   -3.091   -3.186   -3.272   -3.293   -3.209   -3.054   -2.898   -2.802   -2.775   -2.802   -2.961
 -35.672  -36.234  -36.637  -37.093  -37.659  -38.335  -39.095  -39.906  -40.738  -41.589  -42.480  -43.453  -44.549  -45.788  -47.157  -48.610  -50.085  -51.541  -52.961  -54.361  -55.773  -57.239  -58.794  -60.450  -62.189  -63.962  -65.707  -67.387  -69.003  -70.579  -72.133  -73.642  -75.034  -76.204  -77.048  -77.516  -77.605  -77.345  -76.779  -75.932  -74.821  -73.455  -71.856  -70.048  -68.072  -65.952  -63.698  -61.301  -58.729  -55.939  -52.894  -49.580  -46.012  -42.239  -38.329  -34.350  -30.352  -26.356  -22.382  -18.477  -14.761  -11.405   -8.567   -6.328   -4.669   -3.512   -2.753   -2.306   -2.088   -2.023   -2.041   -2.071   -2.070   -2.020   -1.958   -1.945   -2.026   -2.208   -2.461   -2.731   -2.980   -3.178   -3.307   -3.360   -3.352   -3.313   -3.254   -3.198   -3.152   -3.102   -3.035   -2.935   -2.788   -2.611   -2.456   -2.398   -2.465   -2.621   -2.794   -3.027
 -39.259  -40.012  -40.485  -40.958  -41.497  -42.102  -42.753  -43.425  -44.093  -44.758  -45.436  -46.160  -46.968  -47.880  -48.899  -50.005  -51.165  -52.349  -53.538  -54.723  -55.909  -57.094  -58.282  -59.468  -60.642  -61.791  -62.922  -64.076  -65.329  -66.759  -68.410  -70.262  -72.239  -74.204  -75.993  -77.441  -78.427  -78.901  -78.862  -78.360  -77.441  -76.155  -74.549  -72.674  -70.586  -68.332  -65.951  -63.451  -60.816  -58.018  -55.027  -51.834  -48.453  -44.924  -41.304  -37.637  -33.937  -30.186  -26.359  -22.464  -18.591  -14.905  -11.597   -8.800   -6.582   -4.942   -3.837   -3.192   -2.904   -2.855   -2.919   -2.971   -2.926   -2.767   -2.561   -2.399   -2.375   -2.501   -2.732   -3.005   -3.268   -3.467   -3.586   -3.625   -3.607   -3.561   -3.500   -3.427   -3.331   -3.193   -3.013   -2.793   -2.554   -2.349   -2.252   -2.334   -2.591   -2.948   -3.285   -3.595
 -40.714  -41.558  -42.106  -42.639  -43.213  -43.823  -44.448  -45.066  -45.663  -46.237  -46.803  -47.393  -48.039  -48.767  -49.592  -50.504  -51.487  -52.516  -53.564  -54.608  -55.625  -56.592  -57.480  -58.264  -58.926  -59.473  -59.963  -60.511  -61.276  -62.406  -63.978  -65.967  -68.258  -70.687  -73.075  -75.226  -76.955  -78.121  -78.662  -78.585  -77.951  -76.826  -75.275  -73.376  -71.211  -68.864  -66.398  -63.851  -61.227  -58.509  -55.678  -52.720  -49.643  -46.476  -43.250  -39.984  -36.665  -33.253  -29.699  -25.987  -22.174  -18.401  -14.841  -11.655   -8.967   -6.866   -5.385   -4.483   -4.062   -3.971   -4.024   -4.053   -3.927   -3.621   -3.217   -2.862   -2.680   -2.701   -2.884   -3.145   -3.405   -3.604   -3.707   -3.719   -3.675   -3.606   -3.532   -3.442   -3.317   -3.137   -2.914   -2.668   -2.447   -2.319   -2.368   -2.646   -3.124   -3.686   -4.180   -4.553
 -40.097  -40.919  -41.523  -42.130  -42.771  -43.429  -44.085  -44.718  -45.316  -45.879  -46.424  -46.979  -47.581  -48.263  -49.041  -49.917  -50.873  -51.883  -52.910  -53.919  -54.872  -55.730  -56.449  -56.981  -57.293  -57.389  -57.342  -57.307  -57.507  -58.169  -59.442  -61.334  -63.715  -66.378  -69.097  -71.659  -73.866  -75.541  -76.569  -76.914  -76.606  -75.702  -74.278  -72.424  -70.252  -67.874  -65.389  -62.862  -60.321  -57.763  -55.166  -52.514  -49.800  -47.028  -44.206  -41.329  -38.369  -35.282  -32.016  -28.551  -24.930  -21.263  -17.693  -14.363  -11.422   -9.003   -7.202   -6.028   -5.401   -5.163   -5.119   -5.060   -4.825   -4.366   -3.776   -3.223   -2.860   -2.733   -2.804   -2.986   -3.195   -3.359   -3.433   -3.419   -3.350   -3.263   -3.178   -3.082   -2.957   -2.790   -2.605   -2.436   -2.343   -2.399   -2.675   -3.197   -3.899   -4.647   -5.270   -5.685
 -38.037  -38.755  -39.377  -40.038  -40.738  -41.450  -42.151  -42.826  -43.461  -44.058  -44.633  -45.219  -45.858  -46.589  -47.433  -48.391  -49.439  -50.541  -51.653  -52.726  -53.715  -54.574  -55.250  -55.683  -55.825  -55.670  -55.280  -54.817  -54.524  -54.672  -55.477  -57.024  -59.236  -61.911  -64.785  -67.586  -70.080  -72.074  -73.431  -74.090  -74.056  -73.370  -72.100  -70.344  -68.223  -65.880  -63.436  -60.987  -58.582  -56.228  -53.902  -51.572  -49.212  -46.802  -44.328  -41.769  -39.096  -36.271  -33.254  -30.036  -26.653  -23.199  -19.783  -16.522  -13.544  -10.987   -8.976   -7.554   -6.676   -6.214   -5.992   -5.790   -5.438   -4.862   -4.140   -3.442   -2.922   -2.634   -2.550   -2.597   -2.701   -2.792   -2.822   -2.785   -2.705   -2.614   -2.528   -2.445   -2.354   -2.253   -2.168   -2.148   -2.253   -2.548   -3.076   -3.823   -4.702   -5.572   -6.254   -6.685
 -35.566  -36.164  -36.771  -37.445  -38.164  -38.899  -39.627  -40.331  -41.000  -41.634  -42.251  -42.887  -43.592  -44.410  -45.363  -46.446  -47.629  -48.866  -50.100  -51.278  -52.347  -53.261  -53.964  -54.392  -54.491  -54.239  -53.692  -52.996  -52.386  -52.136  -52.490  -53.595  -55.452  -57.922  -60.752  -63.635  -66.283  -68.463  -70.020  -70.881  -71.035  -70.517  -69.388  -67.742  -65.713  -63.448  -61.095  -58.768  -56.531  -54.394  -52.330  -50.292  -48.231  -46.110  -43.902  -41.578  -39.114  -36.484  -33.667  -30.658  -27.501  -24.272  -21.061  -17.957  -15.063  -12.500  -10.385   -8.778   -7.665   -6.967   -6.542   -6.202   -5.753   -5.109   -4.321   -3.547   -2.924   -2.513   -2.284   -2.194   -2.178   -2.183   -2.169   -2.120   -2.042   -1.958   -1.885   -1.826   -1.787   -1.767   -1.800   -1.936   -2.236   -2.734   -3.452   -4.350   -5.327   -6.235   -6.930   -7.359
 -33.620  -34.166  -34.741  -35.388  -36.083  -36.800  -37.515  -38.214  -38.885  -39.530  -40.165  -40.827  -41.573  -42.444  -43.463  -44.620  -45.881  -47.191  -48.494  -49.728  -50.845  -51.795  -52.524  -52.967  -53.071  -52.809  -52.230  -51.465  -50.727  -50.274  -50.344  -51.103  -52.604  -54.768  -57.389  -60.176  -62.825  -65.076  -66.745  -67.730  -68.007  -67.600  -66.572  -65.022  -63.088  -60.931  -58.702  -56.523  -54.460  -52.523  -50.677  -48.865  -47.029  -45.122  -43.109  -40.964  -38.666  -36.199  -33.551  -30.725  -27.758  -24.722  -21.691  -18.738  -15.945  -13.420  -11.275   -9.571   -8.322   -7.475   -6.919   -6.481   -5.975   -5.302   -4.502   -3.706   -3.041   -2.562   -2.255   -2.076   -1.988   -1.939   -1.896   -1.841   -1.768   -1.691   -1.629   -1.590   -1.581   -1.617   -1.721   -1.952   -2.349   -2.953   -3.756   -4.714   -5.712   -6.615   -7.305   -7.778
