DSAA
 100 100
 0.0 400.0
 0.0 400.0
 -133.5217 -0.2396545
 -14.465  -14.615  -14.835  -15.166  -15.612  -16.143  -16.709  -17.240  -17.645  -17.835  -17.715  -17.165  -16.089  -14.486  -12.510  -10.475   -8.772   -7.680   -7.257   -7.375   -7.860   -8.572   -9.448  -10.451  -11.495  -12.424  -13.041  -13.195  -12.853  -12.062  -10.898   -9.486   -8.006   -6.711   -5.837   -5.450   -5.454   -5.654   -5.868   -5.984   -5.970   -5.850   -5.677   -5.524   -5.430   -5.428   -5.512   -5.655   -5.819   -5.997   -6.191   -6.412   -6.635   -6.776   -6.703   -6.288   -5.466   -4.337   -3.109   -2.032   -1.257   -0.782   -0.528   -0.411   -0.368   -0.342   -0.334   -0.326   -0.321   -0.313   -0.309   -0.309   -0.310   -0.312   -0.314   -0.316   -0.309   -0.309   -0.313   -0.325   -0.334   -0.340   -0.348   -0.367   -0.392   -0.434   -0.500   -0.608   -0.778   -1.030   -1.401   -1.877   -2.461   -3.134   -3.914   -4.842   -5.907   -6.999   -7.904   -8.493
 -14.319  -14.448  -14.640  -14.925  -15.308  -15.772  -16.278  -16.751  -17.113  -17.283  -17.164  -16.652  -15.637  -14.115  -12.221  -10.258   -8.591   -7.494   -7.034   -7.102   -7.522   -8.174   -8.995   -9.947  -10.953  -11.866  -12.514  -12.760  -12.565  -11.949  -10.965   -9.690   -8.305   -7.046   -6.124   -5.620   -5.470   -5.529   -5.655   -5.734   -5.721   -5.624   -5.485   -5.359   -5.296   -5.314   -5.409   -5.552   -5.709   -5.875   -6.061   -6.275   -6.500   -6.664   -6.640   -6.298   -5.572   -4.533   -3.368   -2.305   -1.494   -0.965   -0.665   -0.512   -0.439   -0.406   -0.385   -0.368   -0.351   -0.337   -0.324   -0.313   -0.312   -0.311   -0.305   -0.306   -0.307   -0.311   -0.315   -0.321   -0.328   -0.344   -0.359   -0.393   -0.444   -0.532   -0.671   -0.883   -1.186   -1.614   -2.186   -2.898   -3.706   -4.581   -5.532   -6.578   -7.724   -8.856   -9.761  -10.298
 -13.913  -14.012  -14.143  -14.340  -14.601  -14.929  -15.300  -15.651  -15.915  -16.025  -15.903  -15.460  -14.596  -13.285  -11.630   -9.874   -8.334   -7.266   -6.749   -6.713   -7.004   -7.521   -8.207   -9.024   -9.903  -10.736  -11.394  -11.780  -11.842  -11.554  -10.913   -9.964   -8.828   -7.695   -6.742   -6.047   -5.607   -5.378   -5.298   -5.289   -5.289   -5.263   -5.223   -5.200   -5.231   -5.314   -5.428   -5.546   -5.649   -5.760   -5.893   -6.073   -6.279   -6.461   -6.508   -6.307   -5.784   -4.957   -3.957   -2.965   -2.128   -1.512   -1.118   -0.887   -0.767   -0.702   -0.657   -0.616   -0.566   -0.512   -0.477   -0.450   -0.435   -0.427   -0.424   -0.418   -0.414   -0.416   -0.421   -0.433   -0.452   -0.476   -0.514   -0.591   -0.722   -0.946   -1.277   -1.737   -2.347   -3.133   -4.102   -5.220   -6.402   -7.573   -8.721   -9.874  -11.039  -12.123  -12.959  -13.380
 -13.159  -13.213  -13.270  -13.346  -13.455  -13.615  -13.821  -14.028  -14.174  -14.204  -14.073  -13.710  -13.040  -12.024  -10.710   -9.271   -7.953   -6.973   -6.432   -6.288   -6.429   -6.770   -7.264   -7.882   -8.562   -9.240   -9.853  -10.339  -10.648  -10.719  -10.502   -9.990   -9.241   -8.364   -7.452   -6.577   -5.807   -5.224   -4.871   -4.737   -4.748   -4.849   -5.013   -5.231   -5.485   -5.720   -5.883   -5.941   -5.909   -5.852   -5.836   -5.898   -6.037   -6.203   -6.322   -6.286   -6.002   -5.463   -4.719   -3.891   -3.106   -2.454   -1.977   -1.670   -1.489   -1.391   -1.311   -1.226   -1.114   -0.996   -0.897   -0.836   -0.804   -0.790   -0.776   -0.757   -0.739   -0.732   -0.740   -0.771   -0.809   -0.867   -0.962   -1.127   -1.421   -1.894   -2.564   -3.432   -4.480   -5.712   -7.107   -8.593  -10.055  -11.392  -12.583  -13.678  -14.705  -15.621  -16.296  -16.552
 -11.996  -11.989  -11.958  -11.906  -11.857  -11.853  -11.900  -11.967  -12.000  -11.961  -11.821  -11.550  -11.097  -10.416   -9.509   -8.469   -7.461   -6.664   -6.164   -5.960   -5.976   -6.144   -6.423   -6.794   -7.217   -7.665   -8.136   -8.613   -9.068   -9.440   -9.659   -9.672   -9.440   -8.937   -8.149   -7.150   -6.086   -5.157   -4.521   -4.240   -4.262   -4.542   -5.017   -5.633   -6.276   -6.808   -7.092   -7.081   -6.828   -6.476   -6.176   -6.006   -5.978   -6.051   -6.174   -6.257   -6.207   -5.967   -5.537   -4.969   -4.345   -3.766   -3.289   -2.954   -2.754   -2.638   -2.542   -2.407   -2.217   -2.004   -1.830   -1.722   -1.674   -1.650   -1.622   -1.578   -1.539   -1.525   -1.544   -1.606   -1.694   -1.811   -1.988   -2.306   -2.844   -3.672   -4.775   -6.098   -7.581   -9.177  -10.838  -12.481  -13.968  -15.214  -16.223  -17.075  -17.829  -18.481  -18.942  -19.030
 -10.482  -10.408  -10.283  -10.103   -9.905   -9.751   -9.666   -9.622   -9.573   -9.483   -9.355   -9.181   -8.949   -8.614   -8.143   -7.551   -6.926   -6.392   -6.026   -5.837   -5.784   -5.816   -5.903   -6.025   -6.161   -6.328   -6.557   -6.893   -7.355   -7.932   -8.573   -9.180   -9.565   -9.522   -8.933   -7.866   -6.573   -5.356   -4.456   -3.992   -3.986   -4.425   -5.259   -6.361   -7.526   -8.483   -9.002   -8.995   -8.545   -7.876   -7.216   -6.700   -6.370   -6.224   -6.238   -6.347   -6.459   -6.479   -6.355   -6.081   -5.712   -5.309   -4.938   -4.659   -4.500   -4.415   -4.338   -4.191   -3.954   -3.680   -3.450   -3.313   -3.261   -3.242   -3.210   -3.154   -3.100   -3.080   -3.120   -3.224   -3.377   -3.584   -3.884   -4.383   -5.193   -6.362   -7.841   -9.501  -11.246  -13.004  -14.717  -16.280  -17.566  -18.501  -19.144  -19.620  -20.039  -20.410  -20.668  -20.628
  -8.853   -8.704   -8.480   -8.179   -7.853   -7.579   -7.397   -7.282   -7.189   -7.083   -6.971   -6.888   -6.863   -6.863   -6.824   -6.698   -6.492   -6.275   -6.111   -6.016   -5.961   -5.921   -5.868   -5.786   -5.666   -5.538   -5.471   -5.558   -5.891   -6.554   -7.558   -8.745   -9.757  -10.198   -9.860   -8.825   -7.417   -6.015   -4.891   -4.196   -4.034   -4.494   -5.578   -7.124   -8.811  -10.243  -11.102  -11.250  -10.780   -9.943   -9.003   -8.124   -7.397   -6.899   -6.680   -6.716   -6.896   -7.081   -7.178   -7.158   -7.039   -6.852   -6.649   -6.493   -6.428   -6.427   -6.422   -6.332   -6.127   -5.873   -5.657   -5.548   -5.527   -5.536   -5.525   -5.479   -5.432   -5.426   -5.495   -5.647   -5.875   -6.179   -6.606   -7.271   -8.272   -9.647  -11.297  -13.068  -14.851  -16.588  -18.210  -19.584  -20.551  -21.067  -21.242  -21.289  -21.364  -21.493  -21.591  -21.457
  -7.436   -7.214   -6.889   -6.469   -6.038   -5.688   -5.457   -5.319   -5.223   -5.120   -5.032   -5.029   -5.177   -5.474   -5.834   -6.147   -6.353   -6.467   -6.531   -6.564   -6.565   -6.511   -6.392   -6.180   -5.878   -5.510   -5.156   -4.940   -5.039   -5.641   -6.832   -8.416   -9.907  -10.779  -10.744   -9.908   -8.617   -7.235   -5.986   -5.014   -4.515   -4.743   -5.824   -7.597   -9.660  -11.509  -12.752  -13.201  -12.935  -12.182  -11.175  -10.064   -8.976   -8.089   -7.577   -7.473   -7.640   -7.884   -8.083   -8.194   -8.230   -8.208   -8.159   -8.128   -8.169   -8.277   -8.384   -8.414   -8.329   -8.176   -8.058   -8.030   -8.076   -8.136   -8.160   -8.149   -8.131   -8.155   -8.259   -8.458   -8.753   -9.139   -9.665  -10.420  -11.495  -12.889  -14.494  -16.165  -17.827  -19.444  -20.942  -22.118  -22.772  -22.853  -22.550  -22.166  -21.925  -21.851  -21.829  -21.631
  -6.530   -6.240   -5.802   -5.261   -4.749   -4.354   -4.123   -4.011   -3.944   -3.874   -3.818   -3.883   -4.181   -4.725   -5.414   -6.096   -6.658   -7.061   -7.334   -7.494   -7.558   -7.527   -7.388   -7.127   -6.727   -6.208   -5.630   -5.119   -4.908   -5.270   -6.365   -8.016   -9.705  -10.859  -11.183  -10.768   -9.908   -8.853   -7.676   -6.459   -5.483   -5.196   -5.940   -7.643   -9.853  -11.987  -13.563  -14.366  -14.439  -13.958  -13.089  -11.940  -10.662   -9.518   -8.794   -8.575   -8.695   -8.918   -9.091   -9.190   -9.246   -9.277   -9.302   -9.361   -9.494   -9.709   -9.943  -10.119  -10.191  -10.190  -10.201  -10.271  -10.381  -10.475  -10.515  -10.520  -10.533  -10.594  -10.737  -10.980  -11.325  -11.770  -12.345  -13.115  -14.143  -15.423  -16.845  -18.303  -19.761  -21.227  -22.598  -23.605  -23.990  -23.698  -22.976  -22.222  -21.707  -21.458  -21.336  -21.089
  -6.257   -5.892   -5.336   -4.671   -4.072   -3.663   -3.459   -3.402   -3.398   -3.386   -3.392   -3.554   -3.985   -4.724   -5.657   -6.608   -7.420   -8.030   -8.440   -8.685   -8.787   -8.770   -8.631   -8.361   -7.928   -7.329   -6.595   -5.838   -5.290   -5.257   -5.970   -7.326   -8.889  -10.157  -10.858  -11.047  -10.893  -10.441   -9.572   -8.247   -6.796   -5.862   -6.020   -7.376   -9.501  -11.735  -13.522  -14.599  -14.973  -14.792  -14.163  -13.151  -11.917  -10.767  -10.030   -9.800   -9.891  -10.039  -10.104  -10.089  -10.051  -10.029  -10.054  -10.153  -10.361  -10.673  -11.035  -11.356  -11.574  -11.707  -11.816  -11.947  -12.073  -12.136  -12.127  -12.089  -12.094  -12.186  -12.378  -12.675  -13.060  -13.526  -14.080  -14.777  -15.672  -16.761  -17.948  -19.149  -20.374  -21.662  -22.891  -23.748  -23.919  -23.351  -22.329  -21.303  -20.576  -20.164  -19.930  -19.647
  -6.548   -6.127   -5.449   -4.661   -3.985   -3.560   -3.389   -3.386   -3.446   -3.501   -3.613   -3.902   -4.486   -5.372   -6.449   -7.535   -8.476   -9.183   -9.646   -9.898   -9.992   -9.959   -9.810   -9.530   -9.088   -8.446   -7.606   -6.648   -5.784   -5.311   -5.483   -6.308   -7.515   -8.737   -9.768  -10.600  -11.242  -11.509  -11.090   -9.852   -8.107   -6.608   -6.144   -7.013   -8.870  -11.021  -12.836  -14.008  -14.536  -14.555  -14.166  -13.424  -12.463  -11.569  -11.025  -10.889  -10.970  -11.030  -10.966  -10.816  -10.652  -10.537  -10.517  -10.622  -10.881  -11.278  -11.750  -12.193  -12.526  -12.732  -12.865  -12.971  -13.024  -12.970  -12.823  -12.664  -12.611  -12.716  -12.970  -13.322  -13.726  -14.151  -14.599  -15.134  -15.821  -16.671  -17.605  -18.547  -19.533  -20.615  -21.677  -22.378  -22.395  -21.671  -20.503  -19.340  -18.467  -17.901  -17.535  -17.238
  -7.240   -6.780   -6.021   -5.145   -4.409   -3.956   -3.790   -3.804   -3.883   -4.010   -4.246   -4.703   -5.443   -6.433   -7.556   -8.653   -9.587  -10.273  -10.692  -10.880  -10.905  -10.809  -10.617  -10.314   -9.855   -9.179   -8.266   -7.167   -6.052   -5.196   -4.860   -5.135   -5.918   -6.992   -8.227   -9.558  -10.848  -11.732  -11.782  -10.779   -9.008   -7.225   -6.310   -6.704   -8.185  -10.087  -11.752  -12.848  -13.374  -13.488  -13.315  -12.923  -12.399  -11.944  -11.718  -11.724  -11.796  -11.773  -11.618  -11.380  -11.138  -10.955  -10.885  -10.979  -11.253  -11.694  -12.228  -12.734  -13.109  -13.309  -13.379  -13.363  -13.254  -13.008  -12.655  -12.324  -12.174  -12.274  -12.567  -12.946  -13.318  -13.627  -13.891  -14.183  -14.609  -15.197  -15.883  -16.592  -17.352  -18.217  -19.082  -19.631  -19.558  -18.820  -17.682  -16.528  -15.595  -14.901  -14.402  -14.099
  -8.113   -7.664   -6.892   -5.998   -5.233   -4.741   -4.523   -4.485   -4.548   -4.720   -5.089   -5.726   -6.617   -7.670   -8.753   -9.755  -10.566  -11.125  -11.408  -11.460  -11.352  -11.152  -10.883  -10.529  -10.037   -9.340   -8.390   -7.216   -5.966   -4.880   -4.209   -4.105   -4.550   -5.447   -6.704   -8.242   -9.845  -11.087  -11.492  -10.816   -9.273   -7.537   -6.442   -6.484   -7.566   -9.119  -10.531  -11.468  -11.929  -12.090  -12.115  -12.083  -12.042  -12.060  -12.160  -12.289  -12.343  -12.270  -12.094  -11.878  -11.657  -11.467  -11.372  -11.433  -11.668  -12.063  -12.542  -12.992  -13.307  -13.419  -13.350  -13.147  -12.826  -12.367  -11.811  -11.312  -11.056  -11.104  -11.371  -11.707  -11.974  -12.117  -12.152  -12.187  -12.350  -12.706  -13.193  -13.727  -14.307  -14.972  -15.628  -16.030  -15.930  -15.303  -14.348  -13.341  -12.437  -11.666  -11.073  -10.767
  -8.958   -8.555   -7.850   -7.011   -6.255   -5.717   -5.401   -5.262   -5.268   -5.473   -5.964   -6.771   -7.786   -8.867   -9.872  -10.712  -11.330  -11.684  -11.765  -11.624  -11.343  -10.998  -10.623  -10.193   -9.661   -8.956   -8.015   -6.861   -5.611   -4.494   -3.745   -3.507   -3.790   -4.517   -5.616   -7.012   -8.534   -9.812  -10.412  -10.082   -8.944   -7.516   -6.493   -6.350   -7.093   -8.300   -9.464  -10.264  -10.689  -10.896  -11.068  -11.308  -11.634  -12.008  -12.337  -12.528  -12.548  -12.461  -12.358  -12.274  -12.178  -12.059  -11.970  -11.981  -12.116  -12.351  -12.637  -12.894  -13.033  -12.978  -12.728  -12.330  -11.824  -11.217  -10.548   -9.959   -9.614   -9.570   -9.736   -9.940  -10.047  -10.001   -9.836   -9.670   -9.654   -9.863  -10.240  -10.690  -11.167  -11.664  -12.117  -12.361  -12.256  -11.784  -11.076  -10.275   -9.466   -8.698   -8.078   -7.784
  -9.554   -9.232   -8.641   -7.916   -7.203   -6.614   -6.196   -5.947   -5.902   -6.145   -6.753   -7.685   -8.786   -9.861  -10.775  -11.455  -11.877  -12.019  -11.884  -11.533  -11.058  -10.553  -10.053   -9.550   -8.985   -8.293   -7.424   -6.388   -5.288   -4.328   -3.719   -3.571   -3.848   -4.416   -5.204   -6.182   -7.290   -8.313   -8.929   -8.890   -8.212   -7.214   -6.418   -6.242   -6.778   -7.758   -8.770   -9.524   -9.961  -10.190  -10.402  -10.730  -11.199  -11.712  -12.117  -12.293  -12.263  -12.181  -12.197  -12.301  -12.386  -12.380  -12.315  -12.273  -12.281  -12.309  -12.326  -12.310  -12.207  -11.954  -11.531  -10.987  -10.393   -9.772   -9.152   -8.609   -8.258   -8.139   -8.168   -8.209   -8.142   -7.938   -7.645   -7.385   -7.291   -7.435   -7.773   -8.197   -8.611   -8.964   -9.213   -9.280   -9.114   -8.738   -8.213   -7.589   -6.905   -6.217   -5.648   -5.402
  -9.730   -9.487   -9.030   -8.431   -7.791   -7.193   -6.706   -6.403   -6.358   -6.661   -7.353   -8.353   -9.477  -10.520  -11.355  -11.926  -12.213  -12.203  -11.910  -11.400  -10.774  -10.134   -9.531   -8.960   -8.390   -7.757   -7.021   -6.189   -5.347   -4.666   -4.327   -4.395   -4.737   -5.157   -5.549   -5.954   -6.453   -7.014   -7.465   -7.579   -7.261   -6.666   -6.141   -6.055   -6.547   -7.458   -8.448   -9.232   -9.695   -9.902  -10.032  -10.261  -10.650  -11.103  -11.433  -11.518  -11.408  -11.312  -11.401  -11.646  -11.872  -11.951  -11.907  -11.827  -11.741  -11.612  -11.420  -11.180  -10.883  -10.480   -9.947   -9.359   -8.802   -8.330   -7.930   -7.612   -7.407   -7.313   -7.257   -7.152   -6.934   -6.610   -6.251   -5.957   -5.828   -5.913   -6.183   -6.532   -6.840   -7.033   -7.069   -6.933   -6.643   -6.260   -5.811   -5.314   -4.771   -4.223   -3.782   -3.613
  -9.383   -9.192   -8.848   -8.373   -7.826   -7.278   -6.818   -6.543   -6.564   -6.949   -7.695   -8.700   -9.776  -10.764  -11.551  -12.084  -12.335  -12.291  -11.955  -11.398  -10.713  -10.011   -9.359   -8.774   -8.229   -7.698   -7.135   -6.546   -5.993   -5.621   -5.569   -5.840   -6.242   -6.509   -6.513   -6.342   -6.198   -6.216   -6.339   -6.397   -6.240   -5.905   -5.625   -5.699   -6.276   -7.243   -8.297   -9.139   -9.612   -9.744   -9.718   -9.749   -9.942  -10.220  -10.399  -10.353  -10.142   -9.971  -10.020  -10.256  -10.490  -10.569  -10.512  -10.422  -10.323  -10.182   -9.960   -9.672   -9.326   -8.892   -8.363   -7.836   -7.429   -7.218   -7.173   -7.220   -7.303   -7.349   -7.286   -7.055   -6.676   -6.230   -5.804   -5.474   -5.287   -5.252   -5.345   -5.499   -5.609   -5.599   -5.425   -5.105   -4.695   -4.267   -3.862   -3.468   -3.077   -2.710   -2.430   -2.349
  -8.541   -8.376   -8.097   -7.722   -7.282   -6.845   -6.500   -6.350   -6.489   -6.964   -7.727   -8.676   -9.665  -10.582  -11.348  -11.919  -12.242  -12.285  -12.046  -11.578  -10.961  -10.303   -9.677   -9.123   -8.650   -8.234   -7.841   -7.459   -7.142   -7.002   -7.143   -7.527   -7.921   -8.040   -7.741   -7.136   -6.484   -5.994   -5.716   -5.544   -5.353   -5.134   -5.048   -5.314   -6.037   -7.106   -8.227   -9.087   -9.505   -9.509   -9.294   -9.104   -9.077   -9.163   -9.196   -9.044   -8.745   -8.466   -8.368   -8.438   -8.524   -8.506   -8.408   -8.342   -8.339   -8.355   -8.319   -8.204   -7.993   -7.665   -7.245   -6.857   -6.644   -6.707   -7.014   -7.437   -7.822   -8.012   -7.909   -7.511   -6.928   -6.318   -5.815   -5.451   -5.193   -4.998   -4.854   -4.735   -4.604   -4.386   -4.054   -3.625   -3.167   -2.750   -2.412   -2.132   -1.901   -1.708   -1.572   -1.566
  -7.408   -7.228   -6.972   -6.649   -6.318   -6.034   -5.863   -5.890   -6.173   -6.717   -7.453   -8.299   -9.168  -10.003  -10.770  -11.426  -11.901  -12.139  -12.117  -11.857  -11.426  -10.910  -10.388   -9.916   -9.526   -9.207   -8.925   -8.665   -8.461   -8.413   -8.597   -8.956   -9.267   -9.258   -8.793   -7.977   -7.052   -6.243   -5.640   -5.213   -4.914   -4.756   -4.851   -5.320   -6.201   -7.343   -8.451   -9.213   -9.464   -9.243   -8.770   -8.323   -8.071   -7.982   -7.901   -7.698   -7.364   -7.007   -6.745   -6.600   -6.482   -6.338   -6.216   -6.228   -6.416   -6.727   -7.034   -7.241   -7.281   -7.143   -6.888   -6.649   -6.586   -6.813   -7.310   -7.930   -8.444   -8.642   -8.402   -7.776   -6.963   -6.206   -5.644   -5.272   -4.980   -4.677   -4.342   -4.009   -3.679   -3.327   -2.925   -2.493   -2.081   -1.750   -1.518   -1.359   -1.248   -1.184   -1.153   -1.201
  -6.342   -6.121   -5.826   -5.510   -5.254   -5.117   -5.139   -5.341   -5.741   -6.300   -6.952   -7.647   -8.360   -9.095   -9.852  -10.606  -11.269  -11.766  -12.036  -12.076  -11.916  -11.619  -11.260  -10.903  -10.590  -10.316  -10.058   -9.798   -9.573   -9.471   -9.548   -9.757   -9.916   -9.800   -9.302   -8.494   -7.568   -6.705   -5.994   -5.476   -5.170   -5.145   -5.470   -6.177   -7.206   -8.359   -9.333   -9.845   -9.767   -9.178   -8.338   -7.556   -7.021   -6.724   -6.527   -6.293   -5.977   -5.606   -5.267   -4.985   -4.743   -4.544   -4.458   -4.614   -5.058   -5.710   -6.395   -6.937   -7.242   -7.304   -7.203   -7.070   -7.058   -7.272   -7.718   -8.262   -8.659   -8.680   -8.210   -7.358   -6.381   -5.553   -5.002   -4.667   -4.388   -4.054   -3.645   -3.217   -2.811   -2.433   -2.070   -1.727   -1.441   -1.239   -1.120   -1.057   -1.036   -1.044   -1.071   -1.145
  -5.757   -5.473   -5.097   -4.725   -4.493   -4.462   -4.625   -4.950   -5.388   -5.883   -6.381   -6.861   -7.364   -7.947   -8.651   -9.466  -10.307  -11.068  -11.666  -12.055  -12.224  -12.206  -12.055  -11.833  -11.581  -11.303  -10.981  -10.621  -10.264   -9.985   -9.844   -9.815   -9.777   -9.574   -9.125   -8.479   -7.762   -7.089   -6.530   -6.156   -6.048   -6.292   -6.920   -7.894   -9.065  -10.180  -10.934  -11.090  -10.577   -9.525   -8.238   -7.040   -6.148   -5.579   -5.213   -4.919   -4.615   -4.280   -3.949   -3.649   -3.409   -3.259   -3.299   -3.642   -4.336   -5.276   -6.255   -7.053   -7.560   -7.776   -7.797   -7.735   -7.702   -7.778   -7.983   -8.230   -8.317   -8.042   -7.332   -6.333   -5.309   -4.512   -4.020   -3.738   -3.495   -3.188   -2.801   -2.402   -2.040   -1.735   -1.477   -1.273   -1.139   -1.078   -1.058   -1.064   -1.093   -1.137   -1.188   -1.271
  -5.920   -5.574   -5.088   -4.624   -4.362   -4.362   -4.585   -4.928   -5.306   -5.643   -5.902   -6.101   -6.328   -6.695   -7.275   -8.072   -9.018  -10.004  -10.923  -11.675  -12.204  -12.508  -12.606  -12.540  -12.345  -12.030  -11.603  -11.083  -10.529  -10.015   -9.605   -9.301   -9.052   -8.763   -8.392   -7.963   -7.547   -7.203   -6.977   -6.932   -7.157   -7.737   -8.675   -9.881  -11.149  -12.202  -12.741  -12.569  -11.664  -10.212   -8.533   -6.960   -5.712   -4.841   -4.264   -3.854   -3.516   -3.203   -2.908   -2.660   -2.489   -2.459   -2.652   -3.181   -4.057   -5.165   -6.286   -7.200   -7.806   -8.126   -8.251   -8.264   -8.214   -8.141   -8.064   -7.942   -7.654   -7.076   -6.193   -5.150   -4.182   -3.469   -3.033   -2.773   -2.547   -2.285   -1.976   -1.677   -1.429   -1.239   -1.113   -1.055   -1.058   -1.104   -1.159   -1.204   -1.249   -1.309   -1.369   -1.449
  -6.767   -6.384   -5.815   -5.262   -4.941   -4.923   -5.124   -5.397   -5.624   -5.715   -5.672   -5.533   -5.444   -5.533   -5.913   -6.607   -7.561   -8.682   -9.847  -10.929  -11.819  -12.455  -12.824  -12.935  -12.813  -12.470  -11.934  -11.252  -10.495   -9.744   -9.074   -8.523   -8.077   -7.707   -7.396   -7.162   -7.043   -7.057   -7.207   -7.527   -8.075   -8.910  -10.023  -11.316  -12.578  -13.537  -13.910  -13.535  -12.436  -10.819   -8.994   -7.257   -5.811   -4.717   -3.937   -3.385   -2.963   -2.622   -2.343   -2.144   -2.059   -2.146   -2.482   -3.125   -4.066   -5.182   -6.271   -7.147   -7.742   -8.098   -8.313   -8.425   -8.418   -8.268   -7.979   -7.549   -6.954   -6.158   -5.195   -4.193   -3.319   -2.673   -2.258   -1.989   -1.776   -1.563   -1.355   -1.175   -1.048   -0.981   -0.965   -1.013   -1.103   -1.202   -1.283   -1.328   -1.368   -1.422   -1.474   -1.551
  -7.920   -7.551   -6.967   -6.388   -6.043   -6.000   -6.149   -6.307   -6.334   -6.151   -5.778   -5.311   -4.900   -4.714   -4.859   -5.375   -6.230   -7.361   -8.655   -9.966  -11.140  -12.061  -12.674  -12.960  -12.930  -12.601  -12.004  -11.207  -10.290   -9.355   -8.488   -7.752   -7.171   -6.736   -6.460   -6.366   -6.481   -6.793   -7.257   -7.852   -8.577   -9.474  -10.537  -11.703  -12.800  -13.582  -13.818  -13.385  -12.334  -10.863   -9.229   -7.653   -6.264   -5.124   -4.234   -3.556   -3.039   -2.650   -2.365   -2.202   -2.187   -2.362   -2.767   -3.424   -4.292   -5.256   -6.149   -6.840   -7.303   -7.621   -7.883   -8.096   -8.169   -8.010   -7.611   -7.001   -6.228   -5.334   -4.385   -3.484   -2.710   -2.126   -1.727   -1.460   -1.270   -1.128   -1.017   -0.944   -0.921   -0.942   -1.012   -1.112   -1.231   -1.330   -1.381   -1.391   -1.392   -1.416   -1.453   -1.521
  -8.989   -8.677   -8.173   -7.665   -7.368   -7.327   -7.431   -7.481   -7.323   -6.898   -6.261   -5.529   -4.875   -4.463   -4.400   -4.717   -5.409   -6.428   -7.695   -9.061  -10.352  -11.421  -12.179  -12.598  -12.660  -12.379  -11.785  -10.946   -9.953   -8.911   -7.933   -7.100   -6.448   -5.992   -5.744   -5.742   -6.013   -6.520   -7.182   -7.907   -8.649   -9.418  -10.237  -11.080  -11.844  -12.354  -12.453  -12.063  -11.250  -10.176   -9.009   -7.859   -6.772   -5.776   -4.897   -4.165   -3.588   -3.161   -2.879   -2.746   -2.774   -2.972   -3.358   -3.915   -4.587   -5.266   -5.843   -6.242   -6.492   -6.698   -6.949   -7.211   -7.341   -7.207   -6.775   -6.110   -5.302   -4.447   -3.619   -2.872   -2.244   -1.749   -1.393   -1.160   -1.023   -0.954   -0.924   -0.937   -0.986   -1.072   -1.183   -1.305   -1.411   -1.466   -1.453   -1.395   -1.337   -1.317   -1.328   -1.394
  -9.752   -9.536   -9.186   -8.845   -8.655   -8.656   -8.739   -8.719   -8.446   -7.878   -7.087   -6.216   -5.435   -4.900   -4.703   -4.861   -5.368   -6.193   -7.275   -8.487   -9.674  -10.687  -11.435  -11.878  -11.998  -11.781  -11.242  -10.433   -9.440   -8.377   -7.368   -6.507   -5.848   -5.407   -5.203   -5.269   -5.624   -6.224   -6.956   -7.690   -8.347   -8.909   -9.409   -9.864  -10.233  -10.437  -10.401  -10.113   -9.631   -9.058   -8.457   -7.830   -7.145   -6.400   -5.635   -4.919   -4.324   -3.889   -3.615   -3.497   -3.513   -3.661   -3.930   -4.281   -4.662   -4.997   -5.221   -5.314   -5.334   -5.402   -5.587   -5.834   -5.972   -5.855   -5.459   -4.852   -4.156   -3.466   -2.847   -2.316   -1.868   -1.509   -1.243   -1.075   -1.000   -0.986   -1.013   -1.074   -1.166   -1.284   -1.413   -1.530   -1.602   -1.599   -1.517   -1.383   -1.261   -1.195   -1.185   -1.242
 -10.217  -10.110   -9.960   -9.823   -9.784   -9.853   -9.940   -9.894   -9.585   -8.989   -8.172   -7.289   -6.497   -5.941   -5.688   -5.750   -6.094   -6.692   -7.480   -8.366   -9.241   -9.996  -10.568  -10.922  -11.032  -10.864  -10.405   -9.676   -8.746   -7.732   -6.755   -5.916   -5.285   -4.878   -4.714   -4.817   -5.194   -5.794   -6.494   -7.168   -7.714   -8.110   -8.370   -8.528   -8.598   -8.583   -8.491   -8.353   -8.203   -8.073   -7.936   -7.740   -7.405   -6.900   -6.268   -5.602   -5.005   -4.547   -4.246   -4.073   -4.009   -4.031   -4.112   -4.209   -4.289   -4.312   -4.248   -4.119   -3.984   -3.945   -4.058   -4.245   -4.360   -4.269   -3.965   -3.518   -3.038   -2.605   -2.245   -1.948   -1.688   -1.467   -1.299   -1.205   -1.177   -1.199   -1.252   -1.327   -1.421   -1.535   -1.645   -1.721   -1.743   -1.686   -1.553   -1.377   -1.220   -1.131   -1.100   -1.155
 -10.469  -10.477  -10.523  -10.602  -10.718  -10.861  -10.969  -10.931  -10.651  -10.109   -9.363   -8.547   -7.813   -7.285   -7.025   -7.021   -7.243   -7.618   -8.075   -8.561   -9.012   -9.394   -9.689   -9.880   -9.924   -9.779   -9.397   -8.773   -7.956   -7.047   -6.151   -5.368   -4.768   -4.372   -4.206   -4.290   -4.617   -5.137   -5.742   -6.322   -6.786   -7.100   -7.263   -7.307   -7.276   -7.230   -7.223   -7.287   -7.421   -7.596   -7.742   -7.782   -7.645   -7.286   -6.732   -6.085   -5.457   -4.931   -4.534   -4.241   -4.028   -3.878   -3.757   -3.639   -3.498   -3.326   -3.125   -2.920   -2.758   -2.701   -2.775   -2.911   -3.002   -2.968   -2.799   -2.562   -2.328   -2.147   -2.019   -1.907   -1.796   -1.687   -1.608   -1.580   -1.596   -1.642   -1.700   -1.761   -1.815   -1.854   -1.876   -1.869   -1.821   -1.722   -1.575   -1.407   -1.263   -1.183   -1.155   -1.203
 -10.590  -10.693  -10.905  -11.169  -11.422  -11.630  -11.752  -11.725  -11.494  -11.040  -10.407   -9.701   -9.050   -8.554   -8.275   -8.212   -8.309   -8.480   -8.642   -8.748   -8.797   -8.817   -8.834   -8.855   -8.836   -8.710   -8.412   -7.916   -7.256   -6.503   -5.739   -5.028   -4.436   -4.002   -3.764   -3.741   -3.934   -4.304   -4.762   -5.220   -5.617   -5.908   -6.081   -6.164   -6.212   -6.308   -6.509   -6.819   -7.191   -7.548   -7.819   -7.941   -7.857   -7.529   -6.983   -6.304   -5.612   -4.989   -4.455   -4.007   -3.634   -3.330   -3.063   -2.823   -2.595   -2.390   -2.207   -2.060   -1.975   -1.983   -2.073   -2.207   -2.312   -2.351   -2.322   -2.262   -2.212   -2.202   -2.212   -2.211   -2.188   -2.171   -2.189   -2.240   -2.318   -2.397   -2.458   -2.482   -2.446   -2.349   -2.218   -2.062   -1.907   -1.763   -1.631   -1.512   -1.421   -1.380   -1.371   -1.429
 -10.611  -10.774  -11.100  -11.488  -11.825  -12.057  -12.162  -12.120  -11.915  -11.540  -11.021  -10.431   -9.861   -9.395   -9.084   -8.938   -8.901   -8.887   -8.806   -8.629   -8.391   -8.155   -7.987   -7.903   -7.863   -7.790   -7.609   -7.287   -6.839   -6.305   -5.718   -5.113   -4.527   -4.005   -3.607   -3.385   -3.361   -3.508   -3.761   -4.062   -4.364   -4.627   -4.836   -5.014   -5.220   -5.528   -5.976   -6.519   -7.075   -7.544   -7.862   -7.989   -7.886   -7.534   -6.952   -6.231   -5.480   -4.779   -4.150   -3.597   -3.122   -2.729   -2.412   -2.162   -1.972   -1.845   -1.776   -1.754   -1.791   -1.882   -2.029   -2.192   -2.343   -2.465   -2.544   -2.587   -2.621   -2.670   -2.717   -2.749   -2.783   -2.856   -2.992   -3.171   -3.354   -3.495   -3.569   -3.542   -3.385   -3.113   -2.769   -2.426   -2.133   -1.919   -1.786   -1.708   -1.679   -1.687   -1.718   -1.792
 -10.532  -10.726  -11.111  -11.547  -11.898  -12.092  -12.116  -11.996  -11.760  -11.416  -10.986  -10.505  -10.028   -9.603   -9.268   -9.034   -8.860   -8.681   -8.431   -8.087   -7.705   -7.359   -7.119   -7.018   -7.018   -7.055   -7.050   -6.967   -6.801   -6.558   -6.215   -5.767   -5.206   -4.577   -3.971   -3.480   -3.165   -3.026   -3.023   -3.113   -3.269   -3.463   -3.677   -3.926   -4.262   -4.739   -5.358   -6.052   -6.711   -7.237   -7.577   -7.696   -7.567   -7.186   -6.584   -5.852   -5.099   -4.405   -3.789   -3.243   -2.774   -2.397   -2.117   -1.941   -1.860   -1.864   -1.924   -2.020   -2.148   -2.311   -2.498   -2.694   -2.895   -3.080   -3.209   -3.276   -3.300   -3.316   -3.338   -3.370   -3.451   -3.636   -3.930   -4.282   -4.606   -4.837   -4.936   -4.861   -4.590   -4.148   -3.597   -3.051   -2.586   -2.249   -2.060   -1.978   -1.971   -2.008   -2.067   -2.156
 -10.388  -10.589  -10.980  -11.402  -11.696  -11.775  -11.641  -11.365  -11.019  -10.644  -10.261   -9.875   -9.502   -9.146   -8.822   -8.527   -8.245   -7.945   -7.599   -7.199   -6.792   -6.448   -6.233   -6.176   -6.264   -6.445   -6.669   -6.887   -7.071   -7.180   -7.148   -6.907   -6.418   -5.718   -4.923   -4.163   -3.548   -3.100   -2.811   -2.656   -2.625   -2.709   -2.882   -3.145   -3.529   -4.051   -4.694   -5.384   -6.026   -6.538   -6.864   -6.977   -6.847   -6.473   -5.897   -5.217   -4.545   -3.958   -3.473   -3.059   -2.711   -2.447   -2.288   -2.240   -2.302   -2.429   -2.593   -2.758   -2.930   -3.108   -3.296   -3.497   -3.714   -3.908   -4.026   -4.051   -3.998   -3.939   -3.911   -3.945   -4.092   -4.414   -4.890   -5.437   -5.917   -6.246   -6.374   -6.270   -5.924   -5.352   -4.641   -3.904   -3.251   -2.753   -2.434   -2.266   -2.221   -2.248   -2.312   -2.407
 -10.255  -10.446  -10.817  -11.183  -11.370  -11.273  -10.916  -10.410   -9.878   -9.407   -9.017   -8.701   -8.433   -8.170   -7.893   -7.587   -7.254   -6.901   -6.531   -6.153   -5.795   -5.512   -5.353   -5.357   -5.530   -5.863   -6.323   -6.864   -7.424   -7.916   -8.217   -8.224   -7.871   -7.186   -6.291   -5.348   -4.498   -3.796   -3.248   -2.863   -2.653   -2.618   -2.727   -2.951   -3.285   -3.716   -4.217   -4.731   -5.199   -5.582   -5.833   -5.923   -5.807   -5.482   -4.992   -4.432   -3.916   -3.516   -3.241   -3.052   -2.926   -2.854   -2.872   -2.993   -3.191   -3.424   -3.646   -3.832   -3.989   -4.131   -4.280   -4.445   -4.617   -4.763   -4.810   -4.738   -4.592   -4.459   -4.399   -4.460   -4.695   -5.153   -5.800   -6.511   -7.124   -7.534   -7.689   -7.569   -7.177   -6.530   -5.707   -4.815   -3.983   -3.309   -2.837   -2.550   -2.415   -2.401   -2.450   -2.549
 -10.201  -10.380  -10.721  -11.021  -11.080  -10.791  -10.187   -9.409   -8.641   -8.011   -7.565   -7.284   -7.099   -6.933   -6.729   -6.465   -6.146   -5.806   -5.473   -5.159   -4.876   -4.662   -4.549   -4.594   -4.825   -5.265   -5.919   -6.744   -7.646   -8.481   -9.097   -9.358   -9.194   -8.622   -7.758   -6.774   -5.817   -4.965   -4.253   -3.715   -3.382   -3.256   -3.299   -3.448   -3.660   -3.893   -4.113   -4.306   -4.461   -4.592   -4.687   -4.705   -4.601   -4.360   -4.008   -3.631   -3.325   -3.162   -3.147   -3.230   -3.361   -3.527   -3.751   -4.043   -4.365   -4.664   -4.894   -5.052   -5.165   -5.253   -5.336   -5.434   -5.533   -5.597   -5.551   -5.386   -5.163   -4.982   -4.926   -5.036   -5.357   -5.913   -6.651   -7.435   -8.100   -8.522   -8.661   -8.517   -8.094   -7.405   -6.513   -5.518   -4.567   -3.772   -3.180   -2.792   -2.583   -2.520   -2.559   -2.660
 -10.223  -10.401  -10.722  -10.967  -10.920  -10.464   -9.634   -8.593   -7.572   -6.757   -6.221   -5.935   -5.805   -5.717   -5.591   -5.395   -5.143   -4.871   -4.612   -4.373   -4.163   -3.997   -3.918   -3.974   -4.218   -4.710   -5.477   -6.490   -7.639   -8.738   -9.609  -10.102  -10.145   -9.758   -9.043   -8.144   -7.212   -6.345   -5.592   -5.005   -4.624   -4.448   -4.428   -4.480   -4.522   -4.492   -4.370   -4.166   -3.937   -3.746   -3.623   -3.532   -3.430   -3.275   -3.088   -2.927   -2.865   -2.961   -3.216   -3.574   -3.970   -4.374   -4.790   -5.220   -5.618   -5.932   -6.138   -6.254   -6.311   -6.347   -6.383   -6.425   -6.464   -6.453   -6.345   -6.132   -5.886   -5.713   -5.688   -5.839   -6.187   -6.736   -7.425   -8.135   -8.707   -9.033   -9.086   -8.876   -8.415   -7.705   -6.791   -5.773   -4.803   -3.991   -3.379   -2.965   -2.730   -2.663   -2.702   -2.812
 -10.206  -10.385  -10.704  -10.932  -10.825  -10.260   -9.261   -8.014   -6.776   -5.781   -5.139   -4.831   -4.730   -4.704   -4.649   -4.537   -4.378   -4.200   -4.025   -3.861   -3.705   -3.573   -3.513   -3.566   -3.792   -4.265   -5.051   -6.148   -7.431   -8.700   -9.748  -10.427  -10.671  -10.493   -9.975   -9.243   -8.430   -7.648   -6.962   -6.420   -6.055   -5.853   -5.760   -5.691   -5.539   -5.238   -4.776   -4.199   -3.614   -3.124   -2.790   -2.597   -2.486   -2.410   -2.374   -2.416   -2.596   -2.944   -3.446   -4.046   -4.674   -5.278   -5.845   -6.354   -6.774   -7.066   -7.229   -7.300   -7.321   -7.337   -7.358   -7.380   -7.394   -7.365   -7.258   -7.074   -6.875   -6.748   -6.751   -6.896   -7.176   -7.575   -8.050   -8.505   -8.836   -8.956   -8.847   -8.530   -8.015   -7.308   -6.440   -5.506   -4.635   -3.926   -3.402   -3.050   -2.859   -2.816   -2.875   -3.003
  -9.917  -10.106  -10.440  -10.675  -10.565   -9.966   -8.890   -7.522   -6.146   -5.021   -4.301   -3.969   -3.885   -3.901   -3.909   -3.874   -3.814   -3.744   -3.655   -3.552   -3.438   -3.337   -3.292   -3.333   -3.518   -3.930   -4.667   -5.747   -7.069   -8.411   -9.564  -10.377  -10.781  -10.790  -10.463   -9.912   -9.266   -8.629   -8.073   -7.633   -7.312   -7.094   -6.921   -6.714   -6.373   -5.823   -5.078   -4.219   -3.387   -2.719   -2.280   -2.039   -1.936   -1.923   -1.993   -2.187   -2.554   -3.096   -3.794   -4.577   -5.374   -6.122   -6.777   -7.314   -7.707   -7.957   -8.082   -8.129   -8.143   -8.159   -8.193   -8.231   -8.260   -8.252   -8.198   -8.091   -7.977   -7.910   -7.923   -8.008   -8.137   -8.284   -8.417   -8.503   -8.488   -8.328   -8.013   -7.573   -7.011   -6.343   -5.597   -4.844   -4.179   -3.664   -3.302   -3.068   -2.951   -2.959   -3.042   -3.184
  -9.148   -9.335   -9.685   -9.960   -9.895   -9.334   -8.275   -6.901   -5.496   -4.340   -3.596   -3.256   -3.181   -3.216   -3.263   -3.292   -3.318   -3.329   -3.317   -3.270   -3.200   -3.137   -3.104   -3.134   -3.272   -3.613   -4.268   -5.272   -6.544   -7.877   -9.063   -9.947  -10.457  -10.601  -10.432  -10.046   -9.571   -9.105   -8.707   -8.384   -8.117   -7.881   -7.628   -7.294   -6.785   -6.048   -5.112   -4.099   -3.174   -2.481   -2.064   -1.870   -1.818   -1.853   -1.989   -2.271   -2.736   -3.388   -4.186   -5.064   -5.946   -6.765   -7.453   -7.973   -8.318   -8.520   -8.618   -8.656   -8.672   -8.702   -8.756   -8.820   -8.873   -8.907   -8.915   -8.893   -8.859   -8.831   -8.831   -8.831   -8.790   -8.670   -8.455   -8.161   -7.791   -7.348   -6.844   -6.300   -5.730   -5.148   -4.575   -4.051   -3.631   -3.335   -3.151   -3.056   -3.033   -3.089   -3.205   -3.355
  -7.868   -8.029   -8.386   -8.702   -8.717   -8.262   -7.319   -6.053   -4.743   -3.664   -2.968   -2.646   -2.570   -2.597   -2.653   -2.710   -2.772   -2.834   -2.874   -2.881   -2.857   -2.840   -2.834   -2.864   -2.979   -3.264   -3.828   -4.720   -5.865   -7.104   -8.245   -9.132   -9.691   -9.914   -9.852   -9.610   -9.297   -9.006   -8.762   -8.552   -8.339   -8.083   -7.759   -7.316   -6.694   -5.850   -4.839   -3.806   -2.931   -2.339   -2.041   -1.962   -2.000   -2.098   -2.273   -2.582   -3.068   -3.721   -4.514   -5.381   -6.257   -7.067   -7.728   -8.200   -8.486   -8.644   -8.715   -8.741   -8.756   -8.795   -8.859   -8.936   -9.009   -9.075   -9.125   -9.157   -9.168   -9.160   -9.135   -9.060   -8.889   -8.570   -8.102   -7.528   -6.902   -6.265   -5.644   -5.063   -4.532   -4.069   -3.681   -3.378   -3.176   -3.065   -3.036   -3.061   -3.130   -3.248   -3.388   -3.560
  -6.284   -6.404   -6.745   -7.085   -7.192   -6.884   -6.130   -5.069   -3.959   -3.050   -2.461   -2.177   -2.087   -2.086   -2.111   -2.156   -2.219   -2.289   -2.353   -2.405   -2.442   -2.481   -2.524   -2.589   -2.711   -2.968   -3.448   -4.190   -5.151   -6.214   -7.226   -8.048   -8.591   -8.838   -8.841   -8.706   -8.537   -8.403   -8.295   -8.179   -8.003   -7.734   -7.362   -6.859   -6.183   -5.329   -4.360   -3.425   -2.689   -2.258   -2.116   -2.167   -2.304   -2.469   -2.679   -2.977   -3.405   -3.972   -4.655   -5.415   -6.191   -6.911   -7.496   -7.894   -8.119   -8.225   -8.267   -8.275   -8.278   -8.304   -8.364   -8.443   -8.520   -8.596   -8.662   -8.714   -8.736   -8.725   -8.675   -8.559   -8.326   -7.922   -7.347   -6.658   -5.933   -5.231   -4.603   -4.066   -3.634   -3.304   -3.084   -2.950   -2.901   -2.916   -2.987   -3.103   -3.262   -3.442   -3.619   -3.808
  -4.804   -4.872   -5.171   -5.510   -5.684   -5.526   -4.981   -4.170   -3.317   -2.621   -2.167   -1.927   -1.821   -1.780   -1.762   -1.771   -1.809   -1.865   -1.943   -2.031   -2.132   -2.240   -2.349   -2.469   -2.618   -2.866   -3.272   -3.868   -4.621   -5.458   -6.276   -6.963   -7.429   -7.654   -7.685   -7.625   -7.566   -7.550   -7.537   -7.475   -7.318   -7.050   -6.667   -6.161   -5.514   -4.743   -3.917   -3.161   -2.607   -2.332   -2.304   -2.435   -2.638   -2.853   -3.083   -3.356   -3.689   -4.098   -4.590   -5.152   -5.741   -6.302   -6.762   -7.070   -7.229   -7.287   -7.296   -7.278   -7.263   -7.270   -7.314   -7.386   -7.461   -7.529   -7.590   -7.632   -7.637   -7.612   -7.553   -7.435   -7.205   -6.822   -6.272   -5.624   -4.943   -4.313   -3.779   -3.360   -3.062   -2.875   -2.784   -2.768   -2.800   -2.877   -3.002   -3.170   -3.386   -3.619   -3.827   -4.024
  -3.856   -3.862   -4.087   -4.376   -4.566   -4.506   -4.143   -3.571   -2.966   -2.471   -2.143   -1.946   -1.821   -1.734   -1.680   -1.652   -1.666   -1.719   -1.807   -1.930   -2.083   -2.250   -2.425   -2.593   -2.779   -3.036   -3.400   -3.890   -4.473   -5.100   -5.709   -6.218   -6.572   -6.741   -6.772   -6.765   -6.786   -6.835   -6.857   -6.794   -6.642   -6.397   -6.055   -5.618   -5.080   -4.470   -3.848   -3.308   -2.932   -2.765   -2.781   -2.919   -3.123   -3.348   -3.576   -3.799   -4.012   -4.229   -4.469   -4.760   -5.091   -5.429   -5.717   -5.909   -5.996   -6.009   -5.988   -5.950   -5.922   -5.915   -5.951   -6.014   -6.079   -6.138   -6.180   -6.194   -6.174   -6.134   -6.081   -5.989   -5.814   -5.507   -5.074   -4.558   -4.030   -3.556   -3.180   -2.914   -2.758   -2.701   -2.719   -2.773   -2.850   -2.944   -3.071   -3.248   -3.474   -3.721   -3.936   -4.146
  -3.674   -3.625   -3.753   -3.935   -4.069   -4.026   -3.763   -3.358   -2.943   -2.601   -2.355   -2.172   -2.025   -1.907   -1.823   -1.780   -1.788   -1.845   -1.953   -2.103   -2.288   -2.492   -2.698   -2.897   -3.117   -3.394   -3.770   -4.239   -4.755   -5.265   -5.718   -6.077   -6.317   -6.432   -6.473   -6.515   -6.589   -6.653   -6.649   -6.551   -6.388   -6.185   -5.936   -5.627   -5.255   -4.848   -4.451   -4.118   -3.897   -3.797   -3.802   -3.888   -4.033   -4.221   -4.412   -4.562   -4.640   -4.635   -4.589   -4.557   -4.563   -4.616   -4.681   -4.725   -4.729   -4.699   -4.650   -4.602   -4.573   -4.566   -4.600   -4.660   -4.721   -4.774   -4.799   -4.786   -4.744   -4.697   -4.662   -4.608   -4.503   -4.302   -4.012   -3.661   -3.317   -3.026   -2.819   -2.711   -2.693   -2.738   -2.831   -2.932   -3.032   -3.123   -3.224   -3.361   -3.554   -3.770   -3.967   -4.177
  -4.271   -4.169   -4.194   -4.241   -4.245   -4.118   -3.844   -3.495   -3.163   -2.893   -2.677   -2.488   -2.318   -2.182   -2.090   -2.049   -2.067   -2.138   -2.258   -2.421   -2.612   -2.816   -3.020   -3.220   -3.459   -3.786   -4.242   -4.792   -5.369   -5.891   -6.309   -6.603   -6.784   -6.892   -6.974   -7.076   -7.179   -7.227   -7.169   -7.018   -6.844   -6.693   -6.555   -6.393   -6.199   -5.990   -5.804   -5.662   -5.572   -5.515   -5.486   -5.496   -5.565   -5.688   -5.815   -5.881   -5.815   -5.588   -5.244   -4.848   -4.481   -4.190   -3.984   -3.850   -3.752   -3.672   -3.605   -3.549   -3.522   -3.521   -3.556   -3.617   -3.677   -3.729   -3.745   -3.724   -3.680   -3.642   -3.625   -3.615   -3.573   -3.471   -3.308   -3.111   -2.928   -2.793   -2.729   -2.743   -2.823   -2.949   -3.097   -3.235   -3.349   -3.430   -3.501   -3.588   -3.732   -3.908   -4.081   -4.296
  -5.514   -5.378   -5.320   -5.231   -5.055   -4.743   -4.328   -3.901   -3.532   -3.238   -3.002   -2.799   -2.627   -2.500   -2.421   -2.397   -2.428   -2.501   -2.612   -2.758   -2.919   -3.088   -3.251   -3.433   -3.686   -4.083   -4.664   -5.382   -6.133   -6.799   -7.305   -7.635   -7.844   -7.996   -8.149   -8.309   -8.429   -8.449   -8.343   -8.158   -7.988   -7.880   -7.824   -7.779   -7.726   -7.681   -7.665   -7.675   -7.686   -7.673   -7.623   -7.584   -7.596   -7.657   -7.723   -7.702   -7.509   -7.098   -6.487   -5.750   -5.000   -4.341   -3.845   -3.513   -3.307   -3.174   -3.088   -3.025   -2.989   -2.985   -3.013   -3.071   -3.132   -3.185   -3.218   -3.217   -3.194   -3.176   -3.180   -3.197   -3.202   -3.176   -3.106   -3.017   -2.945   -2.914   -2.940   -3.024   -3.163   -3.333   -3.526   -3.702   -3.849   -3.944   -4.009   -4.074   -4.183   -4.340   -4.496   -4.722
  -7.196   -7.061   -6.958   -6.752   -6.382   -5.829   -5.172   -4.534   -4.010   -3.618   -3.326   -3.113   -2.962   -2.872   -2.821   -2.808   -2.835   -2.883   -2.955   -3.041   -3.139   -3.236   -3.342   -3.488   -3.749   -4.216   -4.934   -5.850   -6.826   -7.708   -8.394   -8.852   -9.147   -9.375   -9.593   -9.789   -9.911   -9.910   -9.791   -9.612   -9.458   -9.377   -9.358   -9.373   -9.406   -9.467   -9.558   -9.663   -9.748   -9.772   -9.734   -9.687   -9.680   -9.710   -9.729   -9.648   -9.378   -8.851   -8.060   -7.067   -6.000   -5.032   -4.287   -3.796   -3.507   -3.339   -3.235   -3.160   -3.116   -3.101   -3.120   -3.159   -3.221   -3.287   -3.341   -3.379   -3.398   -3.413   -3.443   -3.485   -3.525   -3.545   -3.531   -3.500   -3.472   -3.469   -3.512   -3.608   -3.759   -3.960   -4.197   -4.444   -4.660   -4.818   -4.910   -4.972   -5.063   -5.206   -5.356   -5.596
  -9.102   -8.977   -8.853   -8.568   -8.024   -7.225   -6.282   -5.373   -4.628   -4.083   -3.713   -3.486   -3.359   -3.298   -3.265   -3.246   -3.244   -3.244   -3.248   -3.256   -3.260   -3.273   -3.308   -3.403   -3.651   -4.160   -4.977   -6.056   -7.247   -8.365   -9.263   -9.887  -10.301  -10.602  -10.859  -11.062  -11.173  -11.165  -11.063  -10.920  -10.798  -10.729  -10.722  -10.755  -10.823  -10.924  -11.052  -11.194  -11.307  -11.356  -11.351  -11.329  -11.337  -11.371  -11.373  -11.270  -10.977  -10.418   -9.556   -8.434   -7.203   -6.072   -5.208   -4.661   -4.359   -4.196   -4.099   -4.031   -3.982   -3.964   -3.977   -4.018   -4.077   -4.160   -4.247   -4.336   -4.420   -4.492   -4.558   -4.624   -4.688   -4.737   -4.741   -4.711   -4.657   -4.606   -4.585   -4.631   -4.763   -4.994   -5.307   -5.669   -6.006   -6.261   -6.396   -6.450   -6.499   -6.594   -6.712   -6.948
 -11.045  -10.921  -10.772  -10.416   -9.737   -8.734   -7.538   -6.362   -5.372   -4.647   -4.175   -3.904   -3.775   -3.712   -3.672   -3.630   -3.584   -3.527   -3.459   -3.388   -3.311   -3.242   -3.201   -3.241   -3.460   -3.970   -4.832   -6.011   -7.359   -8.671   -9.768  -10.564  -11.094  -11.456  -11.722  -11.907  -11.994  -11.991  -11.930  -11.846  -11.770  -11.726  -11.726  -11.763  -11.834  -11.926  -12.036  -12.151  -12.251  -12.308  -12.330  -12.348  -12.392  -12.449  -12.461  -12.363  -12.087  -11.555  -10.724   -9.631   -8.425   -7.336   -6.540   -6.075   -5.853   -5.760   -5.717   -5.679   -5.652   -5.648   -5.683   -5.744   -5.823   -5.927   -6.051   -6.204   -6.374   -6.539   -6.677   -6.786   -6.879   -6.942   -6.948   -6.878   -6.732   -6.541   -6.372   -6.300   -6.389   -6.661   -7.095   -7.623   -8.129   -8.503   -8.684   -8.707   -8.677   -8.682   -8.733   -8.970
 -13.100  -12.946  -12.734  -12.280  -11.468  -10.299   -8.893   -7.471   -6.231   -5.299   -4.685   -4.336   -4.162   -4.074   -4.012   -3.943   -3.858   -3.758   -3.644   -3.521   -3.389   -3.271   -3.186   -3.187   -3.373   -3.859   -4.713   -5.923   -7.357   -8.799  -10.042  -10.978  -11.611  -12.018  -12.277  -12.429  -12.497  -12.511  -12.503  -12.494  -12.492  -12.502  -12.536  -12.590  -12.652  -12.717  -12.777  -12.833  -12.883  -12.920  -12.952  -13.000  -13.076  -13.156  -13.190  -13.121  -12.892  -12.444  -11.739  -10.820   -9.832   -8.983   -8.426   -8.172   -8.121   -8.153   -8.187   -8.201   -8.210   -8.241   -8.308   -8.404   -8.510   -8.634   -8.796   -9.023   -9.308   -9.606   -9.863  -10.061  -10.211  -10.312  -10.331  -10.213   -9.942   -9.553   -9.160   -8.915   -8.938   -9.274   -9.875  -10.628  -11.366  -11.918  -12.195  -12.233  -12.185  -12.184  -12.243  -12.549
 -15.796  -15.570  -15.225  -14.595  -13.598  -12.234  -10.603   -8.908   -7.377   -6.182   -5.367   -4.885   -4.633   -4.509   -4.429   -4.345   -4.243   -4.124   -3.995   -3.859   -3.723   -3.595   -3.508   -3.507   -3.682   -4.140   -4.963   -6.151   -7.598   -9.089  -10.416  -11.447  -12.154  -12.593  -12.839  -12.962  -13.019  -13.061  -13.124  -13.215  -13.325  -13.444  -13.565  -13.674  -13.759  -13.807  -13.819  -13.808  -13.790  -13.783  -13.795  -13.840  -13.922  -14.018  -14.088  -14.082  -13.955  -13.663  -13.190  -12.582  -11.960  -11.488  -11.278  -11.312  -11.479  -11.651  -11.765  -11.822  -11.858  -11.912  -11.989  -12.085  -12.183  -12.300  -12.482  -12.788  -13.222  -13.701  -14.138  -14.489  -14.765  -14.983  -15.086  -14.992  -14.638  -14.079  -13.480  -13.082  -13.075  -13.536  -14.391  -15.486  -16.590  -17.496  -18.086  -18.431  -18.711  -19.056  -19.412  -19.951
 -19.945  -19.643  -19.082  -18.169  -16.878  -15.221  -13.272  -11.206   -9.271   -7.699   -6.590   -5.908   -5.536   -5.352   -5.252   -5.165   -5.064   -4.951   -4.831   -4.715   -4.609   -4.527   -4.485   -4.517   -4.703   -5.137   -5.912   -7.046   -8.438   -9.913  -11.253  -12.329  -13.077  -13.530  -13.764  -13.865  -13.923  -14.002  -14.150  -14.379  -14.671  -14.988  -15.285  -15.525  -15.684  -15.753  -15.740  -15.670  -15.580  -15.502  -15.457  -15.459  -15.513  -15.617  -15.752  -15.875  -15.940  -15.914  -15.789  -15.602  -15.441  -15.418  -15.597  -15.939  -16.324  -16.631  -16.811  -16.892  -16.932  -16.965  -16.998  -17.025  -17.050  -17.120  -17.315  -17.714  -18.320  -19.030  -19.714  -20.317  -20.852  -21.328  -21.667  -21.749  -21.498  -20.976  -20.403  -20.086  -20.283  -21.080  -22.396  -24.040  -25.759  -27.327  -28.644  -29.796  -30.947  -32.116  -33.071  -33.856
 -26.009  -25.685  -24.880  -23.617  -21.945  -19.889  -17.505  -14.937  -12.457  -10.368   -8.847   -7.870   -7.312   -7.023   -6.875   -6.775   -6.671   -6.560   -6.455   -6.375   -6.324   -6.314   -6.354   -6.461   -6.682   -7.093   -7.800   -8.829  -10.121  -11.516  -12.819  -13.886  -14.642  -15.094  -15.311  -15.392  -15.450  -15.574  -15.831  -16.245  -16.794  -17.413  -18.000  -18.471  -18.776  -18.906  -18.889  -18.769  -18.600  -18.435  -18.300  -18.221  -18.221  -18.340  -18.584  -18.918  -19.285  -19.639  -19.959  -20.259  -20.590  -21.018  -21.576  -22.213  -22.807  -23.247  -23.508  -23.637  -23.696  -23.712  -23.690  -23.635  -23.592  -23.643  -23.901  -24.449  -25.276  -26.262  -27.264  -28.224  -29.151  -30.038  -30.792  -31.286  -31.460  -31.402  -31.362  -31.659  -32.528  -34.033  -36.068  -38.430  -40.891  -43.265  -45.486  -47.614  -49.700  -51.580  -52.869  -53.395
 -33.434  -33.211  -32.219  -30.646  -28.607  -26.148  -23.302  -20.191  -17.111  -14.434  -12.413  -11.061  -10.247   -9.795   -9.556   -9.408   -9.273   -9.141   -9.031   -8.971   -8.980   -9.061   -9.213   -9.421   -9.690  -10.082  -10.694  -11.582  -12.722  -13.986  -15.210  -16.244  -16.989  -17.429  -17.618  -17.669  -17.718  -17.886  -18.262  -18.896  -19.761  -20.756  -21.712  -22.483  -22.982  -23.201  -23.188  -23.022  -22.782  -22.532  -22.307  -22.143  -22.096  -22.250  -22.645  -23.254  -23.990  -24.776  -25.561  -26.335  -27.121  -27.952  -28.843  -29.742  -30.544  -31.158  -31.576  -31.848  -32.032  -32.151  -32.211  -32.237  -32.301  -32.511  -32.987  -33.794  -34.903  -36.189  -37.531  -38.876  -40.229  -41.574  -42.833  -43.917  -44.813  -45.634  -46.601  -47.953  -49.821  -52.184  -54.904  -57.808  -60.734  -63.575  -66.293  -68.892  -71.294  -73.223  -74.226  -73.897
 -40.858  -40.843  -39.782  -38.026  -35.744  -32.997  -29.803  -26.273  -22.710  -19.537  -17.069  -15.359  -14.274  -13.632  -13.260  -13.024  -12.818  -12.624  -12.461  -12.387  -12.437  -12.614  -12.895  -13.225  -13.561  -13.941  -14.457  -15.192  -16.158  -17.277  -18.412  -19.409  -20.148  -20.573  -20.726  -20.733  -20.759  -20.955  -21.440  -22.278  -23.443  -24.792  -26.100  -27.155  -27.841  -28.147  -28.148  -27.956  -27.679  -27.387  -27.120  -26.921  -26.878  -27.108  -27.684  -28.575  -29.668  -30.845  -32.026  -33.179  -34.313  -35.453  -36.607  -37.729  -38.745  -39.592  -40.272  -40.834  -41.325  -41.770  -42.179  -42.583  -43.052  -43.684  -44.567  -45.736  -47.145  -48.695  -50.299  -51.924  -53.579  -55.260  -56.933  -58.568  -60.193  -61.909  -63.863  -66.165  -68.830  -71.774  -74.866  -77.974  -81.006  -83.901  -86.627  -89.119  -91.200  -92.528  -92.619  -91.191
 -46.927  -47.147  -46.121  -44.318  -41.949  -39.086  -35.744  -32.033  -28.254  -24.839  -22.128  -20.194  -18.913  -18.102  -17.598  -17.254  -16.947  -16.646  -16.388  -16.247  -16.295  -16.550  -16.964  -17.433  -17.870  -18.273  -18.726  -19.339  -20.166  -21.179  -22.264  -23.264  -24.024  -24.454  -24.582  -24.548  -24.542  -24.744  -25.287  -26.251  -27.601  -29.168  -30.691  -31.924  -32.728  -33.101  -33.133  -32.962  -32.712  -32.457  -32.237  -32.101  -32.148  -32.518  -33.289  -34.425  -35.792  -37.246  -38.689  -40.082  -41.431  -42.762  -44.089  -45.388  -46.617  -47.742  -48.776  -49.760  -50.736  -51.717  -52.709  -53.728  -54.813  -56.016  -57.382  -58.913  -60.568  -62.283  -64.010  -65.742  -67.503  -69.318  -71.198  -73.162  -75.255  -77.544  -80.089  -82.898  -85.905  -88.991  -92.033  -94.938  -97.651 -100.134 -102.332 -104.130 -105.338 -105.675 -104.638 -103.455
 -50.781  -51.179  -50.234  -48.479  -46.150  -43.331  -40.049  -36.416  -32.723  -29.382  -26.701  -24.747  -23.400  -22.501  -21.905  -21.462  -21.049  -20.623  -20.231  -19.982  -19.986  -20.286  -20.821  -21.444  -22.018  -22.502  -22.967  -23.542  -24.329  -25.335  -26.463  -27.545  -28.386  -28.873  -29.022  -28.982  -28.962  -29.152  -29.692  -30.657  -32.012  -33.587  -35.120  -36.371  -37.201  -37.611  -37.699  -37.605  -37.455  -37.324  -37.250  -37.281  -37.516  -38.081  -39.047  -40.366  -41.898  -43.495  -45.054  -46.541  -47.971  -49.377  -50.790  -52.214  -53.637  -55.054  -56.485  -57.963  -59.506  -61.112  -62.762  -64.438  -66.135  -67.864  -69.630  -71.424  -73.217  -74.979  -76.696  -78.386  -80.088  -81.854  -83.728  -85.755  -87.977  -90.422  -93.082  -95.896  -98.769 -101.599 -104.315 -106.877 -109.263 -111.445 -113.376 -114.979 -116.135 -116.552 -115.313 -117.491
 -52.049  -52.520  -51.653  -49.992  -47.786  -45.132  -42.075  -38.737  -35.388  -32.386  -29.975  -28.190  -26.918  -26.031  -25.406  -24.904  -24.411  -23.878  -23.360  -22.997  -22.933  -23.252  -23.889  -24.671  -25.416  -26.050  -26.636  -27.312  -28.205  -29.350  -30.652  -31.922  -32.938  -33.569  -33.828  -33.862  -33.878  -34.064  -34.550  -35.404  -36.598  -37.982  -39.336  -40.453  -41.220  -41.636  -41.790  -41.808  -41.802  -41.842  -41.967  -42.224  -42.696  -43.477  -44.613  -46.042  -47.632  -49.246  -50.796  -52.259  -53.661  -55.051  -56.478  -57.974  -59.558  -61.245  -63.056  -65.005  -67.083  -69.253  -71.459  -73.651  -75.793  -77.865  -79.859  -81.764  -83.568  -85.268  -86.876  -88.425  -89.972  -91.580  -93.315  -95.232  -97.373  -99.755 -102.360 -105.142 -108.039 -110.982 -113.894 -116.698 -119.320 -121.688 -123.770 -125.484 -126.677 -126.939 -125.073 -130.542
 -50.756  -51.178  -50.351  -48.793  -46.749  -44.334  -41.614  -38.717  -35.877  -33.377  -31.383  -29.891  -28.800  -28.013  -27.428  -26.930  -26.412  -25.832  -25.248  -24.814  -24.712  -25.052  -25.789  -26.738  -27.701  -28.577  -29.418  -30.365  -31.550  -33.010  -34.638  -36.221  -37.529  -38.419  -38.904  -39.115  -39.244  -39.458  -39.877  -40.564  -41.502  -42.581  -43.640  -44.528  -45.163  -45.546  -45.742  -45.850  -45.961  -46.138  -46.426  -46.871  -47.535  -48.480  -49.713  -51.165  -52.715  -54.249  -55.699  -57.056  -58.362  -59.681  -61.080  -62.612  -64.314  -66.215  -68.328  -70.642  -73.109  -75.659  -78.208  -80.686  -83.042  -85.251  -87.303  -89.194  -90.928  -92.515  -93.980  -95.366  -96.733  -98.156  -99.709 -101.458 -103.451 -105.709 -108.222 -110.945 -113.807 -116.718 -119.563 -122.258 -124.722 -126.895 -128.711 -130.049 -130.715 -130.278 -127.551 -132.943
 -47.247  -47.513  -46.680  -45.205  -43.327  -41.179  -38.849  -36.457  -34.189  -32.243  -30.710  -29.562  -28.711  -28.084  -27.604  -27.178  -26.715  -26.183  -25.643  -25.251  -25.203  -25.631  -26.515  -27.688  -28.951  -30.201  -31.475  -32.895  -34.575  -36.526  -38.619  -40.628  -42.325  -43.576  -44.382  -44.859  -45.163  -45.445  -45.815  -46.336  -47.010  -47.769  -48.510  -49.136  -49.596  -49.888  -50.054  -50.159  -50.276  -50.468  -50.785  -51.279  -51.998  -52.970  -54.177  -55.542  -56.961  -58.340  -59.633  -60.846  -62.035  -63.272  -64.632  -66.174  -67.946  -69.973  -72.255  -74.752  -77.392  -80.079  -82.720  -85.243  -87.601  -89.773  -91.751  -93.536  -95.135  -96.563  -97.850  -99.041 -100.197 -101.392 -102.705 -104.198 -105.919 -107.878 -110.057 -112.395 -114.820 -117.249 -119.615 -121.883 -124.000 -125.943 -127.601 -128.848 -129.450 -128.987 -126.407 -129.431
 -42.167  -42.206  -41.328  -39.909  -38.179  -36.289  -34.341  -32.438  -30.711  -29.278  -28.174  -27.359  -26.766  -26.336  -26.015  -25.731  -25.424  -25.071  -24.736  -24.565  -24.751  -25.428  -26.602  -28.137  -29.859  -31.665  -33.568  -35.646  -37.969  -40.509  -43.119  -45.576  -47.674  -49.298  -50.445  -51.202  -51.696  -52.059  -52.397  -52.781  -53.230  -53.715  -54.173  -54.548  -54.805  -54.940  -54.973  -54.950  -54.929  -54.976  -55.150  -55.509  -56.096  -56.922  -57.954  -59.117  -60.322  -61.494  -62.604  -63.671  -64.752  -65.920  -67.241  -68.769  -70.541  -72.573  -74.848  -77.312  -79.878  -82.450  -84.940  -87.284  -89.446  -91.410  -93.174  -94.740  -96.120  -97.333  -98.409  -99.393 -100.341 -101.320 -102.401 -103.645 -105.093 -106.759 -108.628 -110.663 -112.800 -114.984 -117.168 -119.307 -121.366 -123.278 -124.961 -126.270 -127.007 -126.780 -124.721 -125.289
 -36.416  -36.219  -35.288  -33.906  -32.301  -30.638  -29.021  -27.531  -26.248  -25.230  -24.476  -23.955  -23.610  -23.403  -23.291  -23.237  -23.208  -23.201  -23.277  -23.567  -24.239  -25.416  -27.110  -29.218  -31.588  -34.104  -36.735  -39.507  -42.437  -45.470  -48.465  -51.232  -53.605  -55.491  -56.886  -57.852  -58.487  -58.905  -59.209  -59.477  -59.745  -60.008  -60.231  -60.377  -60.420  -60.350  -60.177  -59.935  -59.679  -59.472  -59.382  -59.471  -59.782  -60.323  -61.062  -61.934  -62.865  -63.803  -64.727  -65.659  -66.648  -67.751  -69.017  -70.479  -72.156  -74.051  -76.136  -78.354  -80.624  -82.863  -85.000  -86.989  -88.806  -90.446  -91.911  -93.208  -94.350  -95.354  -96.249  -97.069  -97.863  -98.689  -99.607 -100.672 -101.926 -103.386 -105.053 -106.902 -108.893 -110.980 -113.119 -115.258 -117.344 -119.302 -121.041 -122.409 -123.230 -123.155 -121.533 -120.434
 -31.043  -30.668  -29.715  -28.390  -26.914  -25.452  -24.105  -22.934  -21.980  -21.266  -20.789  -20.517  -20.413  -20.453  -20.617  -20.895  -21.282  -21.791  -22.481  -23.451  -24.831  -26.717  -29.112  -31.917  -34.979  -38.156  -41.374  -44.617  -47.880  -51.112  -54.208  -57.032  -59.462  -61.428  -62.920  -63.977  -64.674  -65.102  -65.357  -65.519  -65.636  -65.716  -65.742  -65.687  -65.524  -65.242  -64.850  -64.378  -63.877  -63.409  -63.040  -62.831  -62.828  -63.042  -63.449  -64.003  -64.650  -65.350  -66.093  -66.893  -67.785  -68.800  -69.963  -71.283  -72.762  -74.390  -76.136  -77.950  -79.771  -81.537  -83.203  -84.744  -86.151  -87.427  -88.576  -89.605  -90.525  -91.348  -92.094  -92.792  -93.479  -94.201  -95.008  -95.948  -97.057  -98.353  -99.843 -101.512 -103.336 -105.284 -107.321 -109.406 -111.483 -113.477 -115.281 -116.743 -117.664 -117.754 -116.510 -114.562
 -27.052  -26.604  -25.709  -24.514  -23.217  -21.972  -20.868  -19.947  -19.241  -18.759  -18.503  -18.453  -18.592  -18.905  -19.394  -20.074  -20.959  -22.061  -23.414  -25.085  -27.160  -29.702  -32.702  -36.049  -39.573  -43.113  -46.576  -49.928  -53.170  -56.282  -59.205  -61.856  -64.149  -66.033  -67.489  -68.537  -69.227  -69.629  -69.828  -69.897  -69.888  -69.820  -69.685  -69.461  -69.126  -68.669  -68.100  -67.451  -66.769  -66.112  -65.538  -65.104  -64.850  -64.791  -64.915  -65.190  -65.584  -66.071  -66.641  -67.302  -68.069  -68.950  -69.948  -71.055  -72.256  -73.537  -74.868  -76.212  -77.529  -78.783  -79.955  -81.039  -82.037  -82.957  -83.804  -84.583  -85.300  -85.967  -86.596  -87.208  -87.830  -88.495  -89.243  -90.110  -91.125  -92.304  -93.651  -95.160  -96.817  -98.602 -100.490 -102.452 -104.441 -106.392 -108.200 -109.722 -110.755 -111.028 -110.136 -107.996
 -25.165  -24.773  -24.050  -23.095  -22.074  -21.110  -20.267  -19.583  -19.073  -18.765  -18.669  -18.796  -19.131  -19.678  -20.448  -21.467  -22.750  -24.290  -26.084  -28.170  -30.607  -33.446  -36.676  -40.185  -43.794  -47.338  -50.710  -53.879  -56.856  -59.651  -62.243  -64.591  -66.640  -68.348  -69.693  -70.675  -71.324  -71.691  -71.843  -71.847  -71.752  -71.581  -71.333  -70.993  -70.542  -69.976  -69.307  -68.569  -67.806  -67.069  -66.404  -65.859  -65.467  -65.239  -65.173  -65.251  -65.453  -65.764  -66.177  -66.691  -67.305  -68.014  -68.805  -69.659  -70.557  -71.479  -72.403  -73.303  -74.157  -74.954  -75.692  -76.380  -77.029  -77.649  -78.242  -78.812  -79.363  -79.904  -80.445  -81.000  -81.587  -82.228  -82.952  -83.784  -84.746  -85.850  -87.096  -88.481  -89.994  -91.621  -93.347  -95.148  -96.989  -98.816 -100.539 -102.028 -103.103 -103.512 -102.906 -100.946
 -25.608  -25.392  -24.937  -24.329  -23.680  -23.066  -22.519  -22.046  -21.671  -21.429  -21.363  -21.510  -21.874  -22.471  -23.312  -24.421  -25.800  -27.421  -29.255  -31.315  -33.663  -36.358  -39.402  -42.696  -46.068  -49.347  -52.421  -55.253  -57.859  -60.265  -62.481  -64.490  -66.265  -67.769  -68.980  -69.887  -70.501  -70.854  -70.999  -70.989  -70.870  -70.665  -70.377  -69.997  -69.513  -68.927  -68.254  -67.529  -66.792  -66.082  -65.438  -64.893  -64.470  -64.179  -64.021  -63.984  -64.061  -64.242  -64.521  -64.894  -65.352  -65.881  -66.460  -67.071  -67.692  -68.306  -68.895  -69.444  -69.943  -70.394  -70.810  -71.209  -71.604  -72.004  -72.411  -72.826  -73.251  -73.694  -74.165  -74.673  -75.232  -75.855  -76.562  -77.371  -78.298  -79.349  -80.524  -81.816  -83.211  -84.701  -86.272  -87.907  -89.579  -91.244  -92.831  -94.228  -95.277  -95.756  -95.355  -93.686
 -27.918  -27.958  -27.795  -27.541  -27.271  -26.997  -26.710  -26.382  -26.018  -25.671  -25.423  -25.347  -25.482  -25.849  -26.468  -27.353  -28.488  -29.834  -31.345  -33.026  -34.941  -37.169  -39.732  -42.556  -45.482  -48.341  -51.012  -53.452  -55.669  -57.697  -59.558  -61.256  -62.778  -64.102  -65.206  -66.070  -66.693  -67.091  -67.299  -67.360  -67.309  -67.166  -66.936  -66.616  -66.201  -65.695  -65.119  -64.503  -63.882  -63.286  -62.742  -62.273  -61.894  -61.615  -61.435  -61.351  -61.359  -61.455  -61.638  -61.900  -62.226  -62.602  -63.007  -63.423  -63.835  -64.226  -64.583  -64.897  -65.165  -65.397  -65.612  -65.828  -66.061  -66.318  -66.599  -66.902  -67.233  -67.597  -68.004  -68.464  -68.985  -69.581  -70.262  -71.046  -71.942  -72.956  -74.080  -75.304  -76.611  -77.991  -79.430  -80.918  -82.437  -83.952  -85.407  -86.710  -87.723  -88.247  -88.009  -86.630
 -31.000  -31.290  -31.332  -31.315  -31.285  -31.224  -31.071  -30.761  -30.275  -29.671  -29.062  -28.565  -28.259  -28.181  -28.354  -28.783  -29.450  -30.303  -31.291  -32.412  -33.729  -35.330  -37.263  -39.480  -41.849  -44.208  -46.437  -48.481  -50.341  -52.043  -53.614  -55.066  -56.399  -57.605  -58.665  -59.558  -60.270  -60.804  -61.179  -61.421  -61.551  -61.585  -61.526  -61.372  -61.123  -60.788  -60.388  -59.948  -59.496  -59.053  -58.641  -58.275  -57.970  -57.735  -57.573  -57.484  -57.469  -57.529  -57.662  -57.860  -58.108  -58.387  -58.681  -58.974  -59.255  -59.514  -59.739  -59.924  -60.068  -60.182  -60.287  -60.401  -60.538  -60.703  -60.898  -61.122  -61.377  -61.672  -62.016  -62.421  -62.896  -63.453  -64.104  -64.863  -65.740  -66.736  -67.838  -69.023  -70.273  -71.570  -72.907  -74.278  -75.675  -77.077  -78.440  -79.684  -80.687  -81.269  -81.181  -80.065
 -33.541  -33.976  -34.053  -34.055  -34.044  -33.992  -33.809  -33.391  -32.694  -31.767  -30.741  -29.767  -28.960  -28.372  -28.028  -27.929  -28.055  -28.356  -28.782  -29.324  -30.033  -31.000  -32.282  -33.859  -35.637  -37.477  -39.270  -40.955  -42.523  -43.986  -45.362  -46.664  -47.904  -49.083  -50.191  -51.206  -52.108  -52.883  -53.532  -54.061  -54.477  -54.783  -54.979  -55.062  -55.037  -54.915  -54.716  -54.461  -54.171  -53.865  -53.562  -53.281  -53.039  -52.850  -52.720  -52.652  -52.651  -52.721  -52.858  -53.052  -53.285  -53.535  -53.786  -54.027  -54.251  -54.450  -54.617  -54.744  -54.833  -54.895  -54.946  -55.005  -55.082  -55.185  -55.317  -55.476  -55.668  -55.898  -56.178  -56.522  -56.944  -57.461  -58.090  -58.845  -59.733  -60.747  -61.864  -63.049  -64.272  -65.514  -66.772  -68.052  -69.359  -70.685  -71.995  -73.221  -74.248  -74.906  -74.962  -74.082
 -34.491  -34.898  -34.812  -34.597  -34.368  -34.120  -33.755  -33.144  -32.212  -30.993  -29.620  -28.264  -27.055  -26.055  -25.285  -24.740  -24.402  -24.236  -24.194  -24.266  -24.487  -24.937  -25.668  -26.682  -27.922  -29.292  -30.709  -32.119  -33.501  -34.844  -36.152  -37.431  -38.693  -39.947  -41.191  -42.406  -43.566  -44.641  -45.616  -46.474  -47.204  -47.796  -48.248  -48.557  -48.733  -48.790  -48.745  -48.619  -48.430  -48.198  -47.949  -47.708  -47.501  -47.345  -47.251  -47.225  -47.271  -47.392  -47.583  -47.829  -48.103  -48.380  -48.642  -48.879  -49.089  -49.269  -49.414  -49.520  -49.589  -49.629  -49.656  -49.682  -49.722  -49.780  -49.861  -49.965  -50.098  -50.264  -50.476  -50.755  -51.122  -51.606  -52.232  -53.016  -53.960  -55.044  -56.226  -57.453  -58.680  -59.890  -61.087  -62.292  -63.527  -64.800  -66.085  -67.319  -68.388  -69.128  -69.320  -68.649
 -33.309  -33.504  -33.083  -32.456  -31.811  -31.201  -30.544  -29.701  -28.575  -27.177  -25.631  -24.103  -22.723  -21.544  -20.571  -19.792  -19.194  -18.751  -18.438  -18.238  -18.180  -18.313  -18.682  -19.300  -20.147  -21.177  -22.347  -23.616  -24.954  -26.322  -27.701  -29.081  -30.470  -31.871  -33.285  -34.700  -36.087  -37.413  -38.644  -39.749  -40.700  -41.483  -42.092  -42.532  -42.816  -42.960  -42.984  -42.903  -42.737  -42.512  -42.264  -42.028  -41.836  -41.710  -41.661  -41.695  -41.813  -42.014  -42.288  -42.610  -42.947  -43.270  -43.557  -43.800  -44.001  -44.162  -44.286  -44.375  -44.431  -44.458  -44.472  -44.481  -44.497  -44.525  -44.570  -44.630  -44.709  -44.812  -44.953  -45.160  -45.471  -45.930  -46.573  -47.421  -48.467  -49.673  -50.969  -52.277  -53.541  -54.740  -55.891  -57.031  -58.201  -59.428  -60.695  -61.943  -63.057  -63.875  -64.185  -63.697
 -30.001  -29.863  -29.019  -27.883  -26.721  -25.665  -24.674  -23.621  -22.398  -20.996  -19.520  -18.102  -16.845  -15.770  -14.868  -14.119  -13.508  -13.029  -12.662  -12.408  -12.276  -12.298  -12.507  -12.919  -13.551  -14.406  -15.480  -16.751  -18.175  -19.690  -21.243  -22.804  -24.363  -25.915  -27.458  -28.986  -30.478  -31.905  -33.226  -34.405  -35.412  -36.232  -36.865  -37.319  -37.613  -37.763  -37.785  -37.693  -37.510  -37.268  -37.012  -36.784  -36.621  -36.543  -36.557  -36.664  -36.861  -37.136  -37.475  -37.845  -38.212  -38.545  -38.822  -39.038  -39.197  -39.308  -39.384  -39.433  -39.461  -39.472  -39.474  -39.477  -39.485  -39.504  -39.530  -39.563  -39.600  -39.642  -39.710  -39.842  -40.095  -40.533  -41.206  -42.140  -43.320  -44.681  -46.123  -47.544  -48.871  -50.081  -51.197  -52.278  -53.385  -54.561  -55.805  -57.060  -58.212  -59.095  -59.505  -59.174
 -25.125  -24.647  -23.447  -21.884  -20.290  -18.855  -17.604  -16.434  -15.253  -14.035  -12.849  -11.769  -10.851  -10.079   -9.438   -8.898   -8.450   -8.096   -7.832   -7.656   -7.578   -7.614   -7.788   -8.127   -8.667   -9.458  -10.528  -11.870  -13.435  -15.137  -16.887  -18.633  -20.338  -21.988  -23.577  -25.104  -26.564  -27.934  -29.188  -30.289  -31.216  -31.962  -32.534  -32.947  -33.214  -33.352  -33.369  -33.280  -33.107  -32.887  -32.670  -32.500  -32.409  -32.411  -32.505  -32.681  -32.926  -33.226  -33.559  -33.895  -34.207  -34.468  -34.664  -34.791  -34.855  -34.871  -34.860  -34.838  -34.816  -34.799  -34.789  -34.791  -34.807  -34.836  -34.866  -34.893  -34.902  -34.896  -34.896  -34.958  -35.154  -35.574  -36.283  -37.313  -38.638  -40.167  -41.769  -43.316  -44.717  -45.944  -47.031  -48.049  -49.081  -50.190  -51.393  -52.640  -53.814  -54.749  -55.244  -55.046
 -19.726  -19.042  -17.713  -16.010  -14.270  -12.707  -11.373  -10.225   -9.189   -8.248   -7.418   -6.716   -6.146   -5.686   -5.309   -4.993   -4.738   -4.546   -4.413   -4.342   -4.340   -4.416   -4.590   -4.891   -5.380   -6.123   -7.182   -8.568  -10.228  -12.060  -13.953  -15.820  -17.605  -19.277  -20.834  -22.277  -23.616  -24.844  -25.945  -26.902  -27.704  -28.354  -28.869  -29.261  -29.543  -29.721  -29.800  -29.789  -29.708  -29.596  -29.498  -29.455  -29.483  -29.586  -29.753  -29.961  -30.195  -30.436  -30.667  -30.867  -31.022  -31.124  -31.163  -31.143  -31.069  -30.962  -30.841  -30.730  -30.643  -30.586  -30.561  -30.566  -30.600  -30.650  -30.702  -30.736  -30.738  -30.701  -30.655  -30.664  -30.825  -31.245  -32.006  -33.146  -34.619  -36.313  -38.066  -39.720  -41.176  -42.399  -43.430  -44.360  -45.289  -46.303  -47.436  -48.650  -49.829  -50.801  -51.364  -51.277
 -15.074  -14.373  -13.163  -11.620  -10.023   -8.560   -7.298   -6.246   -5.374   -4.670   -4.112   -3.678   -3.330   -3.051   -2.816   -2.637   -2.502   -2.408   -2.362   -2.354   -2.394   -2.484   -2.635   -2.892   -3.303   -3.961   -4.936   -6.262   -7.897   -9.741  -11.663  -13.551  -15.329  -16.953  -18.421  -19.741  -20.933  -22.003  -22.950  -23.773  -24.480  -25.084  -25.601  -26.041  -26.413  -26.717  -26.948  -27.110  -27.214  -27.295  -27.387  -27.515  -27.681  -27.878  -28.082  -28.269  -28.421  -28.525  -28.570  -28.554  -28.484  -28.367  -28.211  -28.020  -27.806  -27.579  -27.360  -27.169  -27.023  -26.929  -26.891  -26.901  -26.948  -27.020  -27.094  -27.147  -27.155  -27.116  -27.060  -27.066  -27.243  -27.714  -28.574  -29.853  -31.486  -33.326  -35.186  -36.892  -38.337  -39.493  -40.415  -41.206  -41.990  -42.872  -43.904  -45.056  -46.216  -47.206  -47.820  -47.824
 -12.061  -11.447  -10.433   -9.123   -7.710   -6.361   -5.175   -4.205   -3.465   -2.935   -2.566   -2.293   -2.058   -1.838   -1.644   -1.494   -1.395   -1.335   -1.315   -1.327   -1.369   -1.444   -1.557   -1.745   -2.061   -2.577   -3.390   -4.535   -6.004   -7.706   -9.518  -11.309  -12.992  -14.513  -15.863  -17.055  -18.114  -19.057  -19.893  -20.636  -21.304  -21.920  -22.498  -23.048  -23.572  -24.064  -24.512  -24.908  -25.257  -25.576  -25.883  -26.185  -26.475  -26.733  -26.932  -27.049  -27.074  -26.994  -26.816  -26.560  -26.250  -25.916  -25.577  -25.241  -24.920  -24.615  -24.341  -24.109  -23.933  -23.822  -23.778  -23.792  -23.849  -23.935  -24.028  -24.105  -24.140  -24.134  -24.123  -24.194  -24.470  -25.080  -26.114  -27.574  -29.362  -31.298  -33.179  -34.833  -36.165  -37.165  -37.904  -38.509  -39.114  -39.839  -40.747  -41.815  -42.932  -43.917  -44.561  -44.636
 -10.654  -10.128   -9.226   -8.009   -6.644   -5.299   -4.114   -3.184   -2.544   -2.160   -1.942   -1.784   -1.614   -1.413   -1.217   -1.058   -0.947   -0.880   -0.857   -0.863   -0.895   -0.942   -1.017   -1.141   -1.348   -1.710   -2.302   -3.183   -4.360   -5.791   -7.359   -8.942  -10.446  -11.819  -13.038  -14.112  -15.071  -15.929  -16.703  -17.414  -18.087  -18.745  -19.408  -20.082  -20.765  -21.450  -22.117  -22.749  -23.337  -23.879  -24.378  -24.825  -25.205  -25.493  -25.663  -25.698  -25.587  -25.333  -24.957  -24.498  -24.000  -23.506  -23.047  -22.633  -22.269  -21.950  -21.677  -21.457  -21.292  -21.194  -21.164  -21.191  -21.263  -21.366  -21.483  -21.592  -21.678  -21.745  -21.840  -22.053  -22.515  -23.348  -24.614  -26.270  -28.168  -30.108  -31.889  -33.366  -34.474  -35.235  -35.743  -36.134  -36.555  -37.127  -37.912  -38.888  -39.945  -40.903  -41.556  -41.683
 -10.003   -9.534   -8.664   -7.453   -6.058   -4.665   -3.455   -2.558   -2.001   -1.731   -1.627   -1.558   -1.439   -1.265   -1.074   -0.909   -0.781   -0.703   -0.672   -0.668   -0.685   -0.710   -0.761   -0.830   -0.957   -1.179   -1.559   -2.154   -2.999   -4.068   -5.294   -6.581   -7.844   -9.020  -10.091  -11.060  -11.939  -12.740  -13.483  -14.186  -14.872  -15.567  -16.291  -17.050  -17.842  -18.658  -19.479  -20.280  -21.038  -21.738  -22.369  -22.913  -23.350  -23.654  -23.802  -23.779  -23.577  -23.213  -22.722  -22.155  -21.571  -21.024  -20.540  -20.135  -19.804  -19.538  -19.325  -19.164  -19.056  -19.008  -19.019  -19.084  -19.188  -19.325  -19.481  -19.639  -19.799  -19.970  -20.208  -20.617  -21.320  -22.412  -23.915  -25.718  -27.638  -29.463  -31.023  -32.219  -33.028  -33.510  -33.776  -33.971  -34.237  -34.687  -35.372  -36.266  -37.256  -38.169  -38.806  -38.966
  -9.140   -8.721   -7.909   -6.764   -5.427   -4.086   -2.924   -2.092   -1.601   -1.404   -1.361   -1.340   -1.264   -1.131   -0.973   -0.825   -0.706   -0.626   -0.585   -0.577   -0.585   -0.603   -0.636   -0.676   -0.742   -0.863   -1.083   -1.435   -1.973   -2.687   -3.554   -4.503   -5.473   -6.422   -7.320   -8.168   -8.963   -9.710  -10.423  -11.119  -11.808  -12.511  -13.247  -14.018  -14.828  -15.672  -16.534  -17.385  -18.203  -18.962  -19.645  -20.230  -20.696  -21.019  -21.176  -21.152  -20.945  -20.576  -20.092  -19.549  -19.013  -18.532  -18.130  -17.817  -17.585  -17.423  -17.312  -17.251  -17.235  -17.272  -17.358  -17.489  -17.654  -17.846  -18.056  -18.277  -18.514  -18.796  -19.192  -19.803  -20.740  -22.061  -23.727  -25.581  -27.411  -29.021  -30.283  -31.150  -31.648  -31.868  -31.932  -31.980  -32.142  -32.513  -33.129  -33.952  -34.871  -35.725  -36.328  -36.501
  -7.586   -7.232   -6.575   -5.634   -4.526   -3.401   -2.423   -1.705   -1.283   -1.113   -1.081   -1.075   -1.032   -0.943   -0.832   -0.724   -0.633   -0.570   -0.536   -0.532   -0.541   -0.555   -0.575   -0.593   -0.624   -0.685   -0.797   -0.993   -1.296   -1.728   -2.275   -2.910   -3.591   -4.291   -4.997   -5.693   -6.383   -7.059   -7.727   -8.398   -9.078   -9.767  -10.471  -11.187  -11.923  -12.681  -13.456  -14.231  -14.983  -15.695  -16.346  -16.921  -17.392  -17.742  -17.948  -17.991  -17.876  -17.623  -17.274  -16.887  -16.516  -16.199  -15.959  -15.795  -15.702  -15.664  -15.676  -15.732  -15.832  -15.980  -16.167  -16.386  -16.628  -16.887  -17.155  -17.431  -17.736  -18.111  -18.636  -19.408  -20.514  -21.972  -23.691  -25.486  -27.138  -28.481  -29.434  -29.996  -30.233  -30.253  -30.183  -30.151  -30.266  -30.597  -31.162  -31.920  -32.767  -33.553  -34.111  -34.282
  -5.519   -5.245   -4.806   -4.172   -3.410   -2.615   -1.898   -1.354   -1.015   -0.861   -0.822   -0.809   -0.789   -0.739   -0.681   -0.616   -0.558   -0.519   -0.506   -0.515   -0.527   -0.538   -0.552   -0.556   -0.570   -0.594   -0.643   -0.739   -0.900   -1.135   -1.455   -1.842   -2.274   -2.748   -3.252   -3.784   -4.333   -4.912   -5.519   -6.155   -6.815   -7.479   -8.124   -8.743   -9.343   -9.936  -10.531  -11.127  -11.720  -12.297  -12.851  -13.366  -13.826  -14.211  -14.499  -14.671  -14.725  -14.678  -14.563  -14.420  -14.285  -14.189  -14.142  -14.142  -14.190  -14.278  -14.407  -14.577  -14.795  -15.052  -15.340  -15.646  -15.960  -16.275  -16.582  -16.892  -17.233  -17.664  -18.266  -19.124  -20.306  -21.788  -23.457  -25.109  -26.546  -27.632  -28.323  -28.651  -28.708  -28.610  -28.480  -28.430  -28.541  -28.861  -29.391  -30.093  -30.869  -31.589  -32.106  -32.271
  -3.491   -3.311   -3.076   -2.733   -2.301   -1.833   -1.386   -1.023   -0.787   -0.662   -0.622   -0.607   -0.602   -0.582   -0.553   -0.524   -0.499   -0.488   -0.499   -0.519   -0.542   -0.554   -0.559   -0.550   -0.540   -0.545   -0.561   -0.605   -0.680   -0.803   -0.977   -1.190   -1.444   -1.734   -2.061   -2.421   -2.831   -3.292   -3.823   -4.410   -5.038   -5.658   -6.229   -6.737   -7.177   -7.579   -7.960   -8.340   -8.731   -9.135   -9.556   -9.988  -10.426  -10.848  -11.232  -11.562  -11.829  -12.030  -12.183  -12.310  -12.427  -12.556  -12.698  -12.853  -13.029  -13.226  -13.452  -13.715  -14.020  -14.357  -14.713  -15.072  -15.422  -15.755  -16.066  -16.374  -16.713  -17.152  -17.767  -18.638  -19.803  -21.221  -22.770  -24.253  -25.491  -26.375  -26.882  -27.065  -27.028  -26.887  -26.756  -26.729  -26.864  -27.192  -27.707  -28.369  -29.095  -29.768  -30.255  -30.423
  -1.993   -1.882   -1.780   -1.629   -1.426   -1.188   -0.951   -0.744   -0.596   -0.518   -0.495   -0.489   -0.499   -0.496   -0.485   -0.478   -0.471   -0.487   -0.519   -0.560   -0.590   -0.597   -0.583   -0.561   -0.531   -0.513   -0.511   -0.527   -0.561   -0.625   -0.709   -0.820   -0.956   -1.116   -1.307   -1.535   -1.805   -2.153   -2.584   -3.095   -3.657   -4.200   -4.680   -5.067   -5.362   -5.595   -5.791   -5.977   -6.181   -6.421   -6.714   -7.063   -7.474   -7.923   -8.400   -8.882   -9.352   -9.790  -10.192  -10.563  -10.914  -11.251  -11.570  -11.872  -12.162  -12.451  -12.749  -13.071  -13.417  -13.780  -14.144  -14.495  -14.819  -15.118  -15.390  -15.655  -15.960  -16.368  -16.949  -17.771  -18.858  -20.169  -21.576  -22.909  -24.001  -24.758  -25.168  -25.291  -25.229  -25.096  -24.999  -25.011  -25.186  -25.539  -26.059  -26.712  -27.418  -28.074  -28.556  -28.738
  -1.127   -1.051   -1.019   -0.956   -0.867   -0.761   -0.650   -0.547   -0.470   -0.436   -0.427   -0.433   -0.449   -0.459   -0.460   -0.461   -0.475   -0.518   -0.573   -0.621   -0.649   -0.642   -0.608   -0.563   -0.518   -0.493   -0.479   -0.480   -0.494   -0.520   -0.562   -0.617   -0.688   -0.766   -0.867   -0.995   -1.167   -1.402   -1.722   -2.119   -2.565   -2.997   -3.359   -3.635   -3.814   -3.924   -3.990   -4.051   -4.126   -4.248   -4.436   -4.715   -5.087   -5.548   -6.087   -6.680   -7.296   -7.908   -8.500   -9.073   -9.628  -10.156  -10.645  -11.090  -11.491  -11.862  -12.211  -12.556  -12.897  -13.229  -13.536  -13.813  -14.057  -14.276  -14.474  -14.676  -14.927  -15.284  -15.814  -16.566  -17.559  -18.757  -20.041  -21.259  -22.268  -22.973  -23.364  -23.496  -23.463  -23.374  -23.325  -23.386  -23.604  -23.990  -24.534  -25.200  -25.917  -26.583  -27.076  -27.274
  -0.719   -0.657   -0.637   -0.615   -0.574   -0.523   -0.476   -0.428   -0.401   -0.385   -0.386   -0.405   -0.430   -0.444   -0.454   -0.464   -0.495   -0.558   -0.639   -0.700   -0.716   -0.679   -0.618   -0.553   -0.496   -0.465   -0.448   -0.442   -0.446   -0.459   -0.479   -0.507   -0.539   -0.578   -0.630   -0.697   -0.793   -0.940   -1.145   -1.416   -1.723   -2.019   -2.264   -2.437   -2.535   -2.576   -2.583   -2.579   -2.587   -2.644   -2.763   -2.975   -3.296   -3.729   -4.269   -4.893   -5.564   -6.266   -6.974   -7.689   -8.407   -9.108   -9.767  -10.358  -10.877  -11.330  -11.724  -12.071  -12.378  -12.638  -12.851  -13.020  -13.157  -13.278  -13.393  -13.534  -13.739  -14.062  -14.553  -15.252  -16.169  -17.271  -18.461  -19.603  -20.570  -21.274  -21.697  -21.890  -21.929  -21.914  -21.929  -22.044  -22.303  -22.722  -23.294  -23.984  -24.721  -25.402  -25.904  -26.111
  -0.550   -0.492   -0.476   -0.460   -0.436   -0.415   -0.390   -0.369   -0.361   -0.354   -0.364   -0.381   -0.404   -0.423   -0.436   -0.454   -0.503   -0.591   -0.689   -0.754   -0.752   -0.688   -0.600   -0.516   -0.461   -0.431   -0.414   -0.408   -0.416   -0.417   -0.430   -0.447   -0.463   -0.485   -0.507   -0.546   -0.595   -0.673   -0.792   -0.947   -1.121   -1.298   -1.434   -1.529   -1.580   -1.596   -1.585   -1.566   -1.559   -1.588   -1.662   -1.812   -2.064   -2.422   -2.892   -3.456   -4.090   -4.773   -5.509   -6.294   -7.123   -7.968   -8.781   -9.521  -10.167  -10.708  -11.149  -11.503  -11.776  -11.967  -12.089  -12.159  -12.205  -12.247  -12.311  -12.420  -12.612  -12.933  -13.414  -14.087  -14.956  -15.979  -17.083  -18.161  -19.091  -19.807  -20.284  -20.560  -20.699  -20.781  -20.878  -21.057  -21.359  -21.813  -22.409  -23.112  -23.858  -24.540  -25.037  -25.232
  -0.472   -0.417   -0.410   -0.391   -0.376   -0.363   -0.351   -0.338   -0.333   -0.337   -0.341   -0.352   -0.373   -0.387   -0.402   -0.431   -0.489   -0.584   -0.692   -0.756   -0.748   -0.668   -0.561   -0.475   -0.422   -0.394   -0.384   -0.382   -0.381   -0.386   -0.395   -0.404   -0.416   -0.427   -0.445   -0.462   -0.489   -0.529   -0.589   -0.661   -0.750   -0.832   -0.902   -0.950   -0.973   -0.982   -0.975   -0.967   -0.960   -0.977   -1.025   -1.123   -1.290   -1.548   -1.893   -2.326   -2.840   -3.430   -4.104   -4.877   -5.744   -6.674   -7.603   -8.474   -9.240   -9.880  -10.387  -10.769  -11.032  -11.191  -11.264  -11.283  -11.285  -11.303  -11.360  -11.482  -11.697  -12.040  -12.536  -13.192  -14.006  -14.940  -15.942  -16.920  -17.787  -18.488  -19.003  -19.354  -19.594  -19.783  -19.974  -20.227  -20.587  -21.076  -21.693  -22.402  -23.138  -23.803  -24.285  -24.452
  -0.434   -0.383   -0.369   -0.357   -0.347   -0.335   -0.328   -0.322   -0.317   -0.314   -0.321   -0.326   -0.339   -0.347   -0.361   -0.390   -0.446   -0.536   -0.641   -0.701   -0.685   -0.605   -0.511   -0.430   -0.383   -0.360   -0.355   -0.352   -0.356   -0.363   -0.370   -0.378   -0.386   -0.394   -0.403   -0.415   -0.432   -0.451   -0.476   -0.513   -0.551   -0.585   -0.617   -0.637   -0.655   -0.659   -0.661   -0.660   -0.665   -0.676   -0.704   -0.757   -0.854   -1.007   -1.226   -1.511   -1.863   -2.300   -2.844   -3.522   -4.339   -5.260   -6.231   -7.177   -8.039   -8.773   -9.356   -9.788  -10.085  -10.260  -10.343  -10.377  -10.395  -10.440  -10.539  -10.714  -10.976  -11.352  -11.850  -12.466  -13.187  -13.997  -14.848  -15.678  -16.432  -17.067  -17.575  -17.968  -18.281  -18.558  -18.837  -19.168  -19.587  -20.121  -20.760  -21.474  -22.198  -22.840  -23.300  -23.446
  -0.414   -0.365   -0.353   -0.340   -0.331   -0.323   -0.316   -0.310   -0.306   -0.302   -0.300   -0.307   -0.312   -0.313   -0.325   -0.351   -0.393   -0.467   -0.542   -0.589   -0.583   -0.520   -0.448   -0.386   -0.351   -0.334   -0.329   -0.331   -0.337   -0.343   -0.349   -0.356   -0.363   -0.370   -0.377   -0.385   -0.392   -0.403   -0.420   -0.434   -0.452   -0.464   -0.481   -0.493   -0.503   -0.510   -0.513   -0.521   -0.522   -0.533   -0.549   -0.580   -0.628   -0.706   -0.820   -0.978   -1.186   -1.467   -1.850   -2.365   -3.039   -3.854   -4.762   -5.699   -6.588   -7.372   -8.011   -8.503   -8.856   -9.090   -9.235   -9.331   -9.419   -9.540   -9.718   -9.964  -10.290  -10.689  -11.158  -11.692  -12.284  -12.917  -13.572  -14.212  -14.805  -15.324  -15.769  -16.152  -16.490  -16.814  -17.153  -17.538  -18.005  -18.568  -19.224  -19.936  -20.644  -21.270  -21.722  -21.873
  -0.400   -0.353   -0.340   -0.329   -0.319   -0.312   -0.305   -0.300   -0.296   -0.292   -0.289   -0.288   -0.289   -0.294   -0.298   -0.314   -0.342   -0.387   -0.436   -0.468   -0.467   -0.427   -0.383   -0.339   -0.319   -0.314   -0.311   -0.316   -0.321   -0.326   -0.332   -0.337   -0.343   -0.349   -0.355   -0.362   -0.368   -0.374   -0.381   -0.391   -0.399   -0.412   -0.420   -0.428   -0.437   -0.442   -0.447   -0.455   -0.461   -0.469   -0.477   -0.491   -0.516   -0.552   -0.601   -0.676   -0.780   -0.937   -1.170   -1.510   -1.995   -2.622   -3.368   -4.179   -4.993   -5.743   -6.384   -6.904   -7.308   -7.612   -7.839   -8.023   -8.210   -8.435   -8.727   -9.072   -9.464   -9.880  -10.302  -10.724  -11.156  -11.586  -12.016  -12.440  -12.839  -13.205  -13.542  -13.860  -14.170  -14.488  -14.830  -15.226  -15.698  -16.256  -16.892  -17.578  -18.256  -18.861  -19.309  -19.487
  -0.387   -0.341   -0.329   -0.318   -0.309   -0.302   -0.296   -0.291   -0.287   -0.284   -0.281   -0.279   -0.277   -0.276   -0.280   -0.288   -0.303   -0.323   -0.352   -0.369   -0.368   -0.350   -0.328   -0.311   -0.300   -0.294   -0.298   -0.302   -0.307   -0.311   -0.316   -0.321   -0.326   -0.331   -0.337   -0.342   -0.348   -0.353   -0.359   -0.365   -0.371   -0.377   -0.383   -0.389   -0.395   -0.401   -0.407   -0.413   -0.419   -0.425   -0.432   -0.442   -0.456   -0.470   -0.495   -0.523   -0.571   -0.646   -0.765   -0.962   -1.261   -1.674   -2.199   -2.805   -3.449   -4.071   -4.638   -5.122   -5.533   -5.873   -6.165   -6.439   -6.732   -7.085   -7.502   -7.968   -8.438   -8.874   -9.246   -9.555   -9.818  -10.043  -10.253  -10.448  -10.640  -10.833  -11.030  -11.243  -11.481  -11.741  -12.038  -12.390  -12.811  -13.304  -13.866  -14.469  -15.080  -15.636  -16.058  -16.271
  -0.376   -0.331   -0.320   -0.310   -0.301   -0.294   -0.289   -0.284   -0.280   -0.277   -0.274   -0.272   -0.270   -0.269   -0.268   -0.268   -0.280   -0.289   -0.298   -0.310   -0.310   -0.301   -0.294   -0.288   -0.281   -0.284   -0.287   -0.291   -0.294   -0.298   -0.302   -0.307   -0.311   -0.316   -0.320   -0.325   -0.330   -0.336   -0.341   -0.346   -0.351   -0.356   -0.361   -0.366   -0.372   -0.377   -0.382   -0.388   -0.394   -0.399   -0.405   -0.410   -0.416   -0.425   -0.436   -0.451   -0.471   -0.503   -0.561   -0.658   -0.814   -1.048   -1.358   -1.739   -2.168   -2.608   -3.027   -3.416   -3.767   -4.091   -4.406   -4.736   -5.118   -5.583   -6.122   -6.698   -7.247   -7.702   -8.032   -8.243   -8.353   -8.402   -8.404   -8.394   -8.386   -8.404   -8.461   -8.559   -8.702   -8.881   -9.101   -9.366   -9.689  -10.070  -10.508  -10.975  -11.459  -11.915  -12.273  -12.506
  -0.366   -0.323   -0.312   -0.302   -0.294   -0.287   -0.282   -0.277   -0.273   -0.270   -0.268   -0.265   -0.264   -0.263   -0.262   -0.261   -0.262   -0.267   -0.274   -0.277   -0.278   -0.277   -0.272   -0.270   -0.273   -0.275   -0.278   -0.281   -0.284   -0.287   -0.291   -0.295   -0.298   -0.302   -0.307   -0.311   -0.315   -0.320   -0.324   -0.328   -0.333   -0.338   -0.343   -0.348   -0.352   -0.357   -0.362   -0.366   -0.371   -0.376   -0.381   -0.386   -0.392   -0.397   -0.402   -0.410   -0.422   -0.437   -0.463   -0.504   -0.575   -0.686   -0.843   -1.046   -1.281   -1.540   -1.801   -2.054   -2.314   -2.573   -2.854   -3.188   -3.604   -4.121   -4.726   -5.357   -5.935   -6.391   -6.682   -6.817   -6.819   -6.732   -6.582   -6.409   -6.239   -6.119   -6.056   -6.061   -6.122   -6.224   -6.365   -6.544   -6.760   -7.019   -7.313   -7.629   -7.963   -8.281   -8.542   -8.769
  -0.358   -0.316   -0.306   -0.296   -0.288   -0.281   -0.276   -0.272   -0.268   -0.265   -0.262   -0.260   -0.259   -0.257   -0.256   -0.256   -0.256   -0.256   -0.256   -0.257   -0.258   -0.260   -0.260   -0.263   -0.265   -0.267   -0.270   -0.273   -0.275   -0.278   -0.281   -0.284   -0.288   -0.291   -0.295   -0.299   -0.302   -0.306   -0.310   -0.314   -0.318   -0.322   -0.326   -0.331   -0.335   -0.339   -0.344   -0.348   -0.353   -0.357   -0.362   -0.366   -0.371   -0.376   -0.381   -0.386   -0.391   -0.398   -0.410   -0.431   -0.456   -0.505   -0.572   -0.664   -0.772   -0.896   -1.030   -1.175   -1.328   -1.502   -1.720   -2.005   -2.386   -2.868   -3.441   -4.028   -4.561   -4.968   -5.203   -5.284   -5.228   -5.067   -4.841   -4.579   -4.332   -4.137   -4.014   -3.964   -3.974   -4.026   -4.110   -4.225   -4.372   -4.541   -4.737   -4.948   -5.162   -5.366   -5.541   -5.734
  -0.352   -0.310   -0.300   -0.290   -0.283   -0.277   -0.271   -0.267   -0.263   -0.260   -0.258   -0.256   -0.254   -0.253   -0.252   -0.251   -0.251   -0.251   -0.251   -0.252   -0.253   -0.254   -0.255   -0.257   -0.258   -0.260   -0.262   -0.265   -0.267   -0.270   -0.273   -0.276   -0.279   -0.282   -0.285   -0.288   -0.292   -0.295   -0.299   -0.302   -0.306   -0.310   -0.313   -0.317   -0.321   -0.325   -0.328   -0.332   -0.336   -0.340   -0.344   -0.349   -0.354   -0.358   -0.362   -0.367   -0.371   -0.376   -0.381   -0.390   -0.405   -0.424   -0.449   -0.482   -0.528   -0.579   -0.637   -0.706   -0.783   -0.886   -1.028   -1.232   -1.525   -1.901   -2.346   -2.804   -3.217   -3.525   -3.696   -3.732   -3.661   -3.502   -3.272   -3.017   -2.781   -2.589   -2.467   -2.405   -2.391   -2.420   -2.475   -2.563   -2.674   -2.821   -2.989   -3.167   -3.347   -3.512   -3.644   -3.809
  -0.346   -0.306   -0.296   -0.286   -0.279   -0.273   -0.268   -0.264   -0.260   -0.257   -0.255   -0.253   -0.251   -0.250   -0.249   -0.248   -0.248   -0.248   -0.248   -0.248   -0.249   -0.250   -0.251   -0.252   -0.253   -0.255   -0.257   -0.259   -0.261   -0.263   -0.266   -0.268   -0.271   -0.274   -0.277   -0.280   -0.283   -0.286   -0.289   -0.292   -0.296   -0.299   -0.302   -0.306   -0.309   -0.312   -0.316   -0.319   -0.323   -0.327   -0.330   -0.334   -0.338   -0.342   -0.346   -0.350   -0.355   -0.359   -0.364   -0.369   -0.373   -0.382   -0.396   -0.408   -0.425   -0.445   -0.466   -0.497   -0.533   -0.588   -0.665   -0.789   -0.972   -1.219   -1.499   -1.793   -2.056   -2.249   -2.351   -2.368   -2.311   -2.191   -2.026   -1.841   -1.668   -1.531   -1.442   -1.393   -1.384   -1.401   -1.448   -1.527   -1.642   -1.805   -1.997   -2.211   -2.423   -2.609   -2.750   -2.901
  -0.343   -0.303   -0.293   -0.284   -0.276   -0.270   -0.265   -0.261   -0.258   -0.255   -0.252   -0.250   -0.249   -0.248   -0.247   -0.246   -0.245   -0.245   -0.245   -0.246   -0.246   -0.247   -0.248   -0.249   -0.250   -0.251   -0.253   -0.255   -0.256   -0.258   -0.261   -0.263   -0.265   -0.268   -0.270   -0.273   -0.276   -0.279   -0.282   -0.285   -0.287   -0.290   -0.293   -0.296   -0.300   -0.303   -0.306   -0.309   -0.312   -0.316   -0.319   -0.322   -0.326   -0.329   -0.333   -0.337   -0.341   -0.345   -0.349   -0.353   -0.358   -0.363   -0.367   -0.375   -0.380   -0.394   -0.401   -0.416   -0.430   -0.458   -0.499   -0.560   -0.659   -0.781   -0.930   -1.083   -1.219   -1.321   -1.372   -1.383   -1.349   -1.279   -1.188   -1.083   -0.989   -0.912   -0.869   -0.845   -0.842   -0.859   -0.900   -0.973   -1.091   -1.267   -1.491   -1.749   -2.010   -2.241   -2.417   -2.577
  -0.341   -0.301   -0.292   -0.282   -0.275   -0.269   -0.264   -0.260   -0.257   -0.254   -0.252   -0.250   -0.248   -0.247   -0.246   -0.245   -0.244   -0.244   -0.244   -0.244   -0.245   -0.245   -0.246   -0.247   -0.248   -0.249   -0.250   -0.252   -0.254   -0.255   -0.257   -0.259   -0.261   -0.263   -0.266   -0.268   -0.270   -0.273   -0.275   -0.278   -0.281   -0.284   -0.287   -0.290   -0.292   -0.295   -0.298   -0.301   -0.304   -0.307   -0.310   -0.313   -0.316   -0.320   -0.323   -0.326   -0.330   -0.333   -0.337   -0.341   -0.345   -0.349   -0.353   -0.357   -0.362   -0.367   -0.371   -0.379   -0.389   -0.402   -0.421   -0.449   -0.490   -0.542   -0.611   -0.679   -0.732   -0.780   -0.801   -0.806   -0.790   -0.765   -0.728   -0.683   -0.645   -0.616   -0.596   -0.587   -0.590   -0.608   -0.637   -0.698   -0.808   -0.981   -1.205   -1.469   -1.757   -2.032   -2.240   -2.409
  -0.343   -0.302   -0.293   -0.283   -0.276   -0.270   -0.265   -0.261   -0.258   -0.255   -0.253   -0.251   -0.249   -0.248   -0.247   -0.246   -0.245   -0.245   -0.245   -0.245   -0.245   -0.246   -0.246   -0.247   -0.248   -0.249   -0.250   -0.251   -0.253   -0.254   -0.256   -0.258   -0.259   -0.261   -0.263   -0.265   -0.268   -0.270   -0.272   -0.274   -0.277   -0.279   -0.282   -0.284   -0.287   -0.290   -0.293   -0.296   -0.298   -0.301   -0.304   -0.307   -0.310   -0.313   -0.316   -0.319   -0.322   -0.325   -0.329   -0.332   -0.336   -0.339   -0.343   -0.347   -0.351   -0.355   -0.359   -0.363   -0.368   -0.373   -0.385   -0.398   -0.415   -0.434   -0.460   -0.483   -0.506   -0.524   -0.529   -0.534   -0.535   -0.528   -0.518   -0.508   -0.499   -0.488   -0.481   -0.485   -0.489   -0.501   -0.523   -0.568   -0.654   -0.789   -0.984   -1.230   -1.511   -1.790   -2.019   -2.200
  -0.347   -0.303   -0.294   -0.285   -0.277   -0.271   -0.267   -0.263   -0.259   -0.257   -0.254   -0.252   -0.250   -0.249   -0.248   -0.247   -0.246   -0.246   -0.246   -0.246   -0.246   -0.246   -0.247   -0.247   -0.248   -0.249   -0.250   -0.251   -0.252   -0.253   -0.255   -0.256   -0.258   -0.260   -0.262   -0.263   -0.265   -0.267   -0.269   -0.272   -0.274   -0.276   -0.278   -0.281   -0.283   -0.285   -0.288   -0.290   -0.294   -0.296   -0.299   -0.301   -0.304   -0.307   -0.310   -0.313   -0.315   -0.318   -0.322   -0.325   -0.328   -0.331   -0.335   -0.338   -0.342   -0.345   -0.349   -0.353   -0.357   -0.360   -0.364   -0.370   -0.381   -0.390   -0.397   -0.409   -0.419   -0.423   -0.427   -0.431   -0.436   -0.440   -0.436   -0.435   -0.437   -0.439   -0.436   -0.437   -0.442   -0.453   -0.471   -0.501   -0.558   -0.657   -0.804   -1.018   -1.276   -1.553   -1.784   -1.974
  -0.444   -0.338   -0.325   -0.315   -0.307   -0.301   -0.296   -0.292   -0.288   -0.286   -0.283   -0.281   -0.279   -0.278   -0.276   -0.275   -0.275   -0.274   -0.274   -0.273   -0.273   -0.273   -0.274   -0.274   -0.275   -0.275   -0.276   -0.277   -0.278   -0.279   -0.281   -0.282   -0.283   -0.285   -0.286   -0.288   -0.290   -0.292   -0.294   -0.296   -0.298   -0.300   -0.302   -0.304   -0.306   -0.308   -0.311   -0.313   -0.316   -0.318   -0.321   -0.324   -0.326   -0.329   -0.332   -0.335   -0.337   -0.340   -0.343   -0.346   -0.349   -0.353   -0.356   -0.359   -0.363   -0.366   -0.370   -0.373   -0.377   -0.381   -0.385   -0.389   -0.393   -0.396   -0.402   -0.408   -0.422   -0.427   -0.432   -0.436   -0.440   -0.435   -0.436   -0.440   -0.442   -0.447   -0.451   -0.455   -0.459   -0.464   -0.481   -0.502   -0.546   -0.628   -0.755   -0.941   -1.189   -1.455   -1.691   -1.959
