DSAA
 100 100
 0.0 400.0
 0.0 400.0
 -173.9231 -2.244705
  -3.346   -2.973   -3.158   -3.510   -4.017   -4.597   -5.199   -5.711   -6.036   -6.105   -5.850   -5.295   -4.556   -3.787   -3.138   -2.713   -2.595   -2.803   -3.399   -4.340   -5.436   -6.330   -6.685   -6.430   -5.833   -5.297   -5.105   -5.206   -5.360   -5.369   -5.183   -4.880   -4.593   -4.341   -4.144   -3.969   -3.853   -3.873   -4.126   -4.654   -5.408   -6.235   -7.015   -7.681   -8.145   -8.309   -8.131   -7.764   -7.466   -7.372   -7.438   -7.541   -7.583   -7.554   -7.448   -7.243   -6.885   -6.407   -5.933   -5.619   -5.606   -5.784   -5.889   -5.667   -5.066   -4.284   -3.627   -3.324   -3.375   -3.644   -3.936   -4.183   -4.435   -4.712   -4.924   -4.900   -4.600   -4.175   -3.807   -3.612   -3.605   -3.733   -3.954   -4.156   -4.302   -4.429   -4.656   -5.083   -5.749   -6.597   -7.491   -8.246   -8.652   -8.532   -7.832   -6.723   -5.468   -4.350   -3.596   -3.687
  -3.560   -3.415   -3.664   -4.067   -4.590   -5.193   -5.782   -6.266   -6.553   -6.554   -6.232   -5.609   -4.795   -3.950   -3.233   -2.743   -2.568   -2.730   -3.263   -4.130   -5.139   -5.962   -6.283   -6.047   -5.486   -4.982   -4.780   -4.864   -5.028   -5.102   -5.019   -4.824   -4.585   -4.339   -4.117   -3.922   -3.806   -3.820   -4.051   -4.516   -5.165   -5.865   -6.519   -7.067   -7.471   -7.663   -7.615   -7.459   -7.398   -7.533   -7.759   -7.944   -8.004   -7.938   -7.768   -7.469   -6.993   -6.381   -5.747   -5.306   -5.166   -5.252   -5.310   -5.113   -4.586   -3.910   -3.366   -3.138   -3.224   -3.510   -3.797   -4.014   -4.227   -4.490   -4.697   -4.698   -4.432   -4.056   -3.751   -3.608   -3.641   -3.811   -4.029   -4.242   -4.415   -4.609   -4.917   -5.436   -6.207   -7.165   -8.192   -9.092   -9.597   -9.499   -8.711   -7.420   -5.952   -4.646   -3.746   -3.588
  -4.886   -4.798   -5.091   -5.545   -6.103   -6.694   -7.242   -7.646   -7.825   -7.705   -7.267   -6.541   -5.625   -4.658   -3.810   -3.186   -2.876   -2.910   -3.303   -3.982   -4.796   -5.452   -5.710   -5.528   -5.075   -4.658   -4.464   -4.508   -4.674   -4.848   -4.945   -4.926   -4.780   -4.563   -4.325   -4.138   -4.042   -4.073   -4.269   -4.630   -5.100   -5.588   -6.031   -6.403   -6.701   -6.890   -7.007   -7.142   -7.424   -7.853   -8.283   -8.565   -8.634   -8.521   -8.250   -7.814   -7.187   -6.420   -5.642   -5.054   -4.758   -4.701   -4.678   -4.506   -4.120   -3.655   -3.296   -3.174   -3.304   -3.555   -3.801   -3.986   -4.154   -4.377   -4.586   -4.642   -4.474   -4.221   -4.047   -4.018   -4.130   -4.314   -4.515   -4.696   -4.886   -5.169   -5.608   -6.266   -7.156   -8.264   -9.489  -10.625  -11.335  -11.314  -10.472   -8.999   -7.289   -5.762   -4.712   -4.451
  -6.712   -6.667   -6.987   -7.458   -8.002   -8.550   -9.001   -9.301   -9.357   -9.116   -8.573   -7.744   -6.719   -5.620   -4.602   -3.794   -3.284   -3.111   -3.268   -3.691   -4.231   -4.679   -4.873   -4.757   -4.461   -4.161   -3.997   -4.000   -4.152   -4.406   -4.647   -4.780   -4.746   -4.581   -4.391   -4.273   -4.256   -4.343   -4.525   -4.793   -5.119   -5.455   -5.749   -5.998   -6.194   -6.360   -6.526   -6.786   -7.206   -7.747   -8.241   -8.536   -8.588   -8.413   -8.080   -7.581   -6.939   -6.189   -5.464   -4.883   -4.544   -4.390   -4.271   -4.091   -3.816   -3.530   -3.329   -3.284   -3.396   -3.593   -3.799   -3.951   -4.106   -4.317   -4.543   -4.670   -4.648   -4.571   -4.568   -4.675   -4.846   -5.005   -5.130   -5.225   -5.380   -5.685   -6.203   -6.940   -7.911   -9.134  -10.536  -11.912  -12.872  -13.040  -12.285  -10.807   -9.042   -7.443   -6.332   -6.026
  -8.680   -8.654   -8.957   -9.388   -9.854  -10.302  -10.655  -10.836  -10.790  -10.469   -9.864   -8.990   -7.902   -6.716   -5.564   -4.570   -3.819   -3.380   -3.251   -3.362   -3.611   -3.845   -3.969   -3.924   -3.768   -3.586   -3.453   -3.416   -3.530   -3.779   -4.064   -4.263   -4.309   -4.233   -4.160   -4.161   -4.256   -4.417   -4.612   -4.852   -5.123   -5.424   -5.709   -5.940   -6.107   -6.226   -6.341   -6.519   -6.813   -7.191   -7.532   -7.728   -7.721   -7.530   -7.219   -6.804   -6.320   -5.817   -5.345   -4.954   -4.673   -4.452   -4.221   -3.962   -3.706   -3.507   -3.405   -3.395   -3.480   -3.628   -3.797   -3.960   -4.141   -4.357   -4.586   -4.776   -4.901   -5.025   -5.211   -5.442   -5.628   -5.717   -5.713   -5.686   -5.763   -6.044   -6.553   -7.292   -8.272   -9.545  -11.090  -12.667  -13.867  -14.277  -13.767  -12.521  -10.957   -9.505   -8.485   -8.198
 -10.491  -10.458  -10.691  -11.022  -11.378  -11.701  -11.925  -12.009  -11.911  -11.575  -10.975  -10.130   -9.065   -7.876   -6.669   -5.552   -4.616   -3.934   -3.512   -3.314   -3.273   -3.302   -3.341   -3.328   -3.265   -3.160   -3.052   -2.975   -3.018   -3.191   -3.435   -3.626   -3.705   -3.724   -3.761   -3.860   -4.015   -4.205   -4.414   -4.656   -4.933   -5.259   -5.602   -5.896   -6.121   -6.257   -6.329   -6.370   -6.416   -6.499   -6.577   -6.616   -6.549   -6.404   -6.198   -5.962   -5.735   -5.537   -5.349   -5.167   -4.939   -4.636   -4.264   -3.891   -3.592   -3.417   -3.366   -3.394   -3.491   -3.647   -3.853   -4.072   -4.289   -4.498   -4.700   -4.902   -5.136   -5.424   -5.766   -6.060   -6.224   -6.236   -6.150   -6.069   -6.100   -6.360   -6.849   -7.571   -8.553   -9.877  -11.536  -13.282  -14.689  -15.357  -15.141  -14.236  -12.992  -11.773  -10.897  -10.630
 -11.933  -11.874  -12.015  -12.229  -12.456  -12.642  -12.758  -12.770  -12.650  -12.342  -11.812  -11.057  -10.094   -8.999   -7.831   -6.712   -5.693   -4.850   -4.202   -3.754   -3.472   -3.327   -3.261   -3.242   -3.215   -3.152   -3.049   -2.958   -2.933   -3.028   -3.197   -3.360   -3.460   -3.528   -3.575   -3.632   -3.728   -3.851   -4.009   -4.225   -4.488   -4.804   -5.158   -5.500   -5.801   -6.023   -6.135   -6.127   -6.030   -5.898   -5.788   -5.692   -5.623   -5.552   -5.490   -5.429   -5.382   -5.362   -5.316   -5.195   -4.935   -4.542   -4.072   -3.623   -3.305   -3.165   -3.171   -3.272   -3.431   -3.661   -3.947   -4.255   -4.512   -4.695   -4.850   -5.045   -5.341   -5.719   -6.100   -6.368   -6.477   -6.453   -6.382   -6.378   -6.522   -6.850   -7.379   -8.132   -9.157  -10.564  -12.350  -14.258  -15.882  -16.799  -16.884  -16.281  -15.273  -14.188  -13.336  -13.049
 -12.949  -12.849  -12.906  -13.013  -13.108  -13.185  -13.219  -13.185  -13.061  -12.802  -12.355  -11.715  -10.887   -9.945   -8.921   -7.886   -6.887   -5.979   -5.207   -4.586   -4.137   -3.853   -3.716   -3.683   -3.674   -3.629   -3.551   -3.490   -3.483   -3.567   -3.715   -3.873   -3.981   -4.009   -3.957   -3.844   -3.738   -3.673   -3.699   -3.805   -3.966   -4.178   -4.445   -4.755   -5.083   -5.374   -5.573   -5.630   -5.544   -5.359   -5.172   -5.052   -5.020   -5.055   -5.107   -5.141   -5.148   -5.110   -5.026   -4.840   -4.525   -4.092   -3.613   -3.219   -2.984   -2.930   -2.997   -3.159   -3.391   -3.695   -4.062   -4.444   -4.736   -4.929   -5.079   -5.290   -5.611   -5.979   -6.293   -6.460   -6.487   -6.467   -6.528   -6.735   -7.106   -7.622   -8.274   -9.093  -10.188  -11.672  -13.573  -15.652  -17.490  -18.701  -19.089  -18.736  -17.864  -16.779  -15.839  -15.474
 -13.578  -13.447  -13.438  -13.458  -13.475  -13.476  -13.448  -13.383  -13.262  -13.047  -12.671  -12.128  -11.428  -10.629   -9.763   -8.847   -7.919   -7.007   -6.179   -5.462   -4.917   -4.564   -4.408   -4.375   -4.397   -4.409   -4.422   -4.481   -4.614   -4.809   -5.033   -5.219   -5.298   -5.228   -4.985   -4.628   -4.241   -3.938   -3.757   -3.689   -3.696   -3.741   -3.852   -4.036   -4.289   -4.575   -4.818   -4.952   -4.924   -4.781   -4.592   -4.481   -4.489   -4.602   -4.746   -4.826   -4.807   -4.701   -4.527   -4.283   -3.959   -3.588   -3.259   -3.038   -2.969   -3.016   -3.121   -3.267   -3.483   -3.788   -4.171   -4.577   -4.916   -5.174   -5.405   -5.689   -6.024   -6.343   -6.543   -6.598   -6.579   -6.628   -6.873   -7.335   -7.955   -8.653   -9.410  -10.286  -11.411  -12.948  -14.910  -17.120  -19.166  -20.655  -21.364  -21.281  -20.576  -19.528  -18.543  -18.109
 -13.917  -13.762  -13.719  -13.690  -13.668  -13.631  -13.579  -13.513  -13.399  -13.208  -12.876  -12.396  -11.777  -11.071  -10.298   -9.463   -8.568   -7.663   -6.801   -6.039   -5.448   -5.081   -4.944   -4.968   -5.066   -5.203   -5.399   -5.692   -6.074   -6.507   -6.878   -7.089   -7.099   -6.869   -6.408   -5.798   -5.178   -4.667   -4.308   -4.078   -3.912   -3.794   -3.736   -3.752   -3.868   -4.052   -4.249   -4.379   -4.365   -4.214   -4.010   -3.870   -3.867   -4.007   -4.189   -4.309   -4.311   -4.215   -4.057   -3.859   -3.635   -3.439   -3.341   -3.367   -3.485   -3.593   -3.653   -3.694   -3.779   -3.990   -4.315   -4.686   -5.044   -5.384   -5.732   -6.118   -6.510   -6.822   -6.983   -7.026   -7.076   -7.261   -7.697   -8.333   -9.078   -9.839  -10.601  -11.455  -12.559  -14.087  -16.064  -18.332  -20.502  -22.205  -23.198  -23.432  -23.018  -22.201  -21.362  -20.953
 -14.064  -13.898  -13.835  -13.797  -13.761  -13.725  -13.693  -13.642  -13.549  -13.380  -13.079  -12.632  -12.050  -11.362  -10.588   -9.747   -8.822   -7.876   -6.960   -6.156   -5.555   -5.214   -5.130   -5.243   -5.497   -5.847   -6.313   -6.916   -7.615   -8.299   -8.804   -9.020   -8.909   -8.488   -7.825   -7.038   -6.281   -5.659   -5.196   -4.845   -4.563   -4.326   -4.131   -4.014   -3.974   -4.022   -4.104   -4.146   -4.069   -3.844   -3.540   -3.301   -3.219   -3.315   -3.506   -3.685   -3.795   -3.832   -3.819   -3.783   -3.747   -3.776   -3.925   -4.172   -4.419   -4.547   -4.499   -4.370   -4.293   -4.373   -4.600   -4.909   -5.242   -5.605   -6.029   -6.512   -6.985   -7.383   -7.655   -7.854   -8.091   -8.462   -9.021   -9.701  -10.401  -11.059  -11.699  -12.446  -13.485  -14.968  -16.919  -19.161  -21.371  -23.176  -24.357  -24.867  -24.810  -24.383  -23.870  -23.592
 -14.119  -13.935  -13.879  -13.833  -13.804  -13.791  -13.775  -13.758  -13.695  -13.565  -13.299  -12.884  -12.309  -11.613  -10.786   -9.850   -8.824   -7.776   -6.776   -5.922   -5.307   -4.993   -4.988   -5.249   -5.705   -6.328   -7.107   -8.026   -8.999   -9.858  -10.418  -10.584  -10.328   -9.734   -8.929   -8.065   -7.293   -6.668   -6.154   -5.724   -5.342   -5.024   -4.774   -4.581   -4.456   -4.402   -4.380   -4.319   -4.124   -3.773   -3.335   -2.955   -2.756   -2.779   -2.952   -3.201   -3.447   -3.666   -3.855   -4.017   -4.194   -4.442   -4.779   -5.162   -5.470   -5.560   -5.410   -5.172   -5.023   -5.068   -5.276   -5.543   -5.829   -6.145   -6.560   -7.080   -7.638   -8.174   -8.654   -9.094   -9.550  -10.072  -10.663  -11.260  -11.795  -12.240  -12.697  -13.300  -14.246  -15.646  -17.512  -19.680  -21.836  -23.646  -24.909  -25.608  -25.845  -25.790  -25.622  -25.504
 -14.112  -13.932  -13.874  -13.830  -13.807  -13.806  -13.816  -13.824  -13.793  -13.695  -13.486  -13.123  -12.584  -11.874  -10.991   -9.941   -8.788   -7.605   -6.500   -5.584   -4.949   -4.659   -4.725   -5.124   -5.788   -6.669   -7.723   -8.872   -9.995  -10.906  -11.449  -11.524  -11.156  -10.458   -9.613   -8.794   -8.100   -7.505   -6.950   -6.416   -5.929   -5.550   -5.301   -5.134   -5.017   -4.947   -4.872   -4.731   -4.442   -3.982   -3.436   -2.945   -2.651   -2.603   -2.755   -3.046   -3.389   -3.753   -4.102   -4.435   -4.788   -5.188   -5.638   -6.080   -6.390   -6.454   -6.309   -6.139   -6.137   -6.343   -6.667   -6.965   -7.215   -7.451   -7.798   -8.282   -8.876   -9.522  -10.158  -10.770  -11.351  -11.916  -12.452  -12.913  -13.245  -13.487  -13.756  -14.222  -15.051  -16.316  -18.028  -20.040  -22.076  -23.833  -25.112  -25.904  -26.318  -26.488  -26.535  -26.540
 -14.092  -13.907  -13.841  -13.801  -13.780  -13.779  -13.797  -13.812  -13.809  -13.745  -13.595  -13.310  -12.835  -12.153  -11.253  -10.138   -8.872   -7.577   -6.377   -5.387   -4.714   -4.418   -4.511   -4.984   -5.772   -6.814   -8.021   -9.271  -10.424  -11.312  -11.799  -11.805  -11.380  -10.674   -9.898   -9.204   -8.618   -8.070   -7.455   -6.808   -6.231   -5.829   -5.622   -5.541   -5.521   -5.501   -5.445   -5.275   -4.928   -4.398   -3.779   -3.227   -2.874   -2.765   -2.895   -3.197   -3.595   -4.046   -4.487   -4.938   -5.427   -5.952   -6.500   -6.994   -7.338   -7.470   -7.490   -7.581   -7.918   -8.442   -8.975   -9.365   -9.602   -9.784  -10.059  -10.484  -11.038  -11.673  -12.323  -12.932  -13.486  -13.970  -14.385  -14.689  -14.867  -14.960  -15.103  -15.455  -16.143  -17.218  -18.692  -20.469  -22.317  -23.973  -25.237  -26.064  -26.545  -26.789  -26.903  -26.966
 -14.064  -13.874  -13.807  -13.761  -13.736  -13.733  -13.744  -13.756  -13.757  -13.723  -13.623  -13.420  -13.040  -12.433  -11.579  -10.471   -9.189   -7.845   -6.596   -5.555   -4.827   -4.459   -4.487   -4.887   -5.631   -6.652   -7.845   -9.087  -10.223  -11.098  -11.560  -11.552  -11.141  -10.499   -9.842   -9.303   -8.837   -8.332   -7.693   -7.000   -6.409   -6.060   -5.956   -6.010   -6.108   -6.162   -6.126   -5.926   -5.519   -4.917   -4.240   -3.636   -3.234   -3.081   -3.175   -3.481   -3.908   -4.410   -4.948   -5.541   -6.200   -6.909   -7.632   -8.285   -8.778   -9.106   -9.414   -9.871  -10.571  -11.379  -12.091  -12.557  -12.793  -12.966  -13.201  -13.560  -14.018  -14.530  -15.038  -15.510  -15.916  -16.245  -16.516  -16.693  -16.771  -16.788  -16.863  -17.122  -17.659  -18.512  -19.710  -21.178  -22.768  -24.249  -25.442  -26.271  -26.764  -27.011  -27.118  -27.188
 -14.026  -13.833  -13.776  -13.734  -13.711  -13.697  -13.696  -13.692  -13.694  -13.665  -13.607  -13.464  -13.183  -12.701  -11.966  -10.970   -9.764   -8.480   -7.242   -6.178   -5.381   -4.883   -4.716   -4.899   -5.407   -6.221   -7.276   -8.448   -9.588  -10.504  -11.021  -11.053  -10.680  -10.093   -9.535   -9.107   -8.750   -8.330   -7.775   -7.188   -6.738   -6.546   -6.615   -6.816   -7.006   -7.102   -7.032   -6.742   -6.218   -5.496   -4.712   -4.013   -3.525   -3.313   -3.386   -3.712   -4.218   -4.846   -5.570   -6.408   -7.365   -8.401   -9.431  -10.369  -11.130  -11.732  -12.323  -13.042  -13.933  -14.850  -15.585  -16.048  -16.293  -16.467  -16.689  -16.993  -17.331  -17.675  -18.002  -18.284  -18.502  -18.673  -18.806  -18.899  -18.925  -18.924  -18.963  -19.152  -19.550  -20.196  -21.117  -22.258  -23.525  -24.751  -25.792  -26.571  -27.066  -27.324  -27.436  -27.509
 -14.009  -13.814  -13.759  -13.720  -13.699  -13.689  -13.673  -13.655  -13.643  -13.617  -13.578  -13.492  -13.304  -12.961  -12.391  -11.584  -10.562   -9.426   -8.273   -7.229   -6.346   -5.689   -5.274   -5.133   -5.288   -5.776   -6.607   -7.689   -8.851   -9.863  -10.482  -10.585  -10.238   -9.664   -9.123   -8.740   -8.479   -8.200   -7.862   -7.533   -7.361   -7.438   -7.709   -8.043   -8.297   -8.363   -8.201   -7.766   -7.059   -6.151   -5.180   -4.320   -3.705   -3.415   -3.496   -3.907   -4.592   -5.484   -6.560   -7.811   -9.205  -10.659  -12.082  -13.347  -14.372  -15.191  -15.921  -16.686  -17.519  -18.320  -18.939  -19.323  -19.545  -19.718  -19.932  -20.186  -20.440  -20.652  -20.825  -20.934  -20.996  -21.035  -21.074  -21.120  -21.140  -21.138  -21.165  -21.290  -21.576  -22.056  -22.735  -23.580  -24.505  -25.425  -26.248  -26.929  -27.424  -27.729  -27.888  -27.982
 -14.010  -13.813  -13.751  -13.724  -13.704  -13.689  -13.669  -13.640  -13.623  -13.596  -13.574  -13.520  -13.417  -13.195  -12.813  -12.231  -11.448  -10.518   -9.515   -8.526   -7.620   -6.846   -6.207   -5.747   -5.535   -5.669   -6.233   -7.187   -8.361   -9.467  -10.181  -10.344  -10.013   -9.414   -8.845   -8.468   -8.281   -8.184   -8.112   -8.112   -8.266   -8.604   -9.055   -9.492   -9.764   -9.794   -9.522   -8.940   -8.061   -6.948   -5.745   -4.671   -3.891   -3.529   -3.655   -4.260   -5.258   -6.580   -8.142   -9.889  -11.747  -13.602  -15.332  -16.803  -17.958  -18.833  -19.518  -20.145  -20.759  -21.322  -21.753  -22.021  -22.196  -22.355  -22.547  -22.764  -22.966  -23.108  -23.173  -23.174  -23.131  -23.085  -23.075  -23.094  -23.122  -23.137  -23.156  -23.231  -23.419  -23.768  -24.270  -24.871  -25.502  -26.114  -26.699  -27.252  -27.737  -28.110  -28.354  -28.486
 -14.017  -13.820  -13.766  -13.733  -13.711  -13.692  -13.673  -13.644  -13.626  -13.599  -13.585  -13.565  -13.514  -13.404  -13.176  -12.802  -12.262  -11.558  -10.750   -9.891   -9.040   -8.220   -7.464   -6.788   -6.288   -6.115   -6.405   -7.193   -8.303   -9.419  -10.195  -10.419  -10.122   -9.529   -8.956   -8.593   -8.470   -8.528   -8.684   -8.946   -9.339   -9.843  -10.383  -10.843  -11.116  -11.119  -10.807  -10.161   -9.172   -7.905   -6.504   -5.200   -4.237   -3.818   -4.057   -4.935   -6.357   -8.174  -10.255  -12.470  -14.687  -16.781  -18.615  -20.102  -21.201  -21.966  -22.490  -22.903  -23.266  -23.595  -23.855  -24.029  -24.153  -24.279  -24.436  -24.618  -24.781  -24.890  -24.912  -24.849  -24.746  -24.656  -24.619  -24.638  -24.680  -24.699  -24.705  -24.737  -24.851  -25.094  -25.463  -25.889  -26.289  -26.648  -27.010  -27.427  -27.890  -28.321  -28.649  -28.827
 -14.028  -13.827  -13.774  -13.746  -13.731  -13.706  -13.687  -13.663  -13.642  -13.624  -13.617  -13.609  -13.596  -13.554  -13.437  -13.225  -12.881  -12.401  -11.808  -11.130  -10.418   -9.678   -8.916   -8.153   -7.489   -7.093   -7.141   -7.720   -8.680   -9.726  -10.496  -10.776  -10.564  -10.072   -9.573   -9.271   -9.206   -9.341   -9.613   -9.991  -10.455  -10.977  -11.492  -11.905  -12.145  -12.144  -11.848  -11.234  -10.256   -8.937   -7.413   -5.927   -4.805   -4.355   -4.736   -5.921   -7.765  -10.045  -12.549  -15.100  -17.514  -19.649  -21.399  -22.727  -23.639  -24.210  -24.547  -24.767  -24.942  -25.114  -25.265  -25.381  -25.466  -25.562  -25.679  -25.831  -25.970  -26.052  -26.042  -25.948  -25.811  -25.711  -25.674  -25.700  -25.736  -25.747  -25.724  -25.713  -25.770  -25.933  -26.206  -26.513  -26.752  -26.929  -27.120  -27.412  -27.830  -28.286  -28.662  -28.886
 -14.056  -13.853  -13.798  -13.768  -13.747  -13.733  -13.712  -13.693  -13.673  -13.660  -13.653  -13.649  -13.651  -13.642  -13.592  -13.479  -13.286  -12.996  -12.608  -12.146  -11.616  -11.019  -10.351   -9.626   -8.923   -8.408   -8.283   -8.640   -9.387  -10.284  -11.003  -11.337  -11.260  -10.930  -10.572  -10.360  -10.344  -10.496  -10.761  -11.109  -11.510  -11.931  -12.325  -12.640  -12.821  -12.827  -12.587  -12.052  -11.157   -9.877   -8.323   -6.735   -5.512   -5.031   -5.531   -6.983   -9.163  -11.789  -14.593  -17.333  -19.805  -21.858  -23.424  -24.505  -25.183  -25.559  -25.746  -25.846  -25.923  -26.012  -26.117  -26.203  -26.277  -26.355  -26.445  -26.561  -26.664  -26.708  -26.675  -26.567  -26.431  -26.339  -26.312  -26.341  -26.363  -26.339  -26.277  -26.221  -26.228  -26.345  -26.550  -26.763  -26.908  -26.977  -27.050  -27.246  -27.594  -28.026  -28.412  -28.651
 -14.081  -13.874  -13.820  -13.795  -13.771  -13.757  -13.740  -13.727  -13.713  -13.694  -13.685  -13.681  -13.683  -13.677  -13.657  -13.603  -13.512  -13.367  -13.154  -12.873  -12.528  -12.091  -11.570  -10.964  -10.330   -9.815   -9.591   -9.762  -10.284  -10.985  -11.610  -11.966  -12.019  -11.869  -11.674  -11.557  -11.565  -11.677  -11.864  -12.102  -12.378  -12.654  -12.907  -13.106  -13.223  -13.210  -13.015  -12.561  -11.765  -10.578   -9.048   -7.423   -6.129   -5.625   -6.182   -7.796  -10.197  -13.049  -16.039  -18.894  -21.380  -23.328  -24.700  -25.563  -26.040  -26.261  -26.355  -26.399  -26.435  -26.499  -26.580  -26.653  -26.724  -26.792  -26.862  -26.942  -26.997  -27.009  -26.960  -26.856  -26.747  -26.676  -26.664  -26.684  -26.672  -26.608  -26.502  -26.406  -26.386  -26.469  -26.627  -26.777  -26.863  -26.884  -26.903  -27.034  -27.304  -27.672  -28.017  -28.250
 -14.113  -13.901  -13.843  -13.807  -13.784  -13.781  -13.770  -13.757  -13.736  -13.718  -13.710  -13.702  -13.696  -13.688  -13.679  -13.660  -13.622  -13.565  -13.472  -13.330  -13.122  -12.839  -12.466  -12.014  -11.526  -11.097  -10.854  -10.895  -11.221  -11.720  -12.218  -12.564  -12.699  -12.681  -12.601  -12.552  -12.558  -12.615  -12.712  -12.837  -12.984  -13.137  -13.266  -13.365  -13.413  -13.366  -13.169  -12.750  -12.009  -10.883   -9.399   -7.767   -6.432   -5.885   -6.445   -8.112  -10.629  -13.631  -16.778  -19.744  -22.273  -24.183  -25.435  -26.145  -26.478  -26.609  -26.651  -26.676  -26.702  -26.752  -26.811  -26.871  -26.923  -26.971  -27.015  -27.052  -27.077  -27.068  -27.019  -26.948  -26.871  -26.826  -26.822  -26.834  -26.799  -26.711  -26.582  -26.477  -26.443  -26.498  -26.599  -26.699  -26.752  -26.763  -26.777  -26.875  -27.070  -27.355  -27.626  -27.828
 -14.145  -13.924  -13.855  -13.817  -13.794  -13.787  -13.776  -13.768  -13.748  -13.727  -13.713  -13.706  -13.704  -13.699  -13.688  -13.674  -13.662  -13.646  -13.618  -13.550  -13.440  -13.272  -13.034  -12.744  -12.419  -12.114  -11.916  -11.895  -12.069  -12.406  -12.771  -13.057  -13.212  -13.250  -13.234  -13.210  -13.198  -13.211  -13.243  -13.285  -13.345  -13.403  -13.454  -13.475  -13.446  -13.329  -13.068  -12.589  -11.821  -10.687   -9.215   -7.595   -6.245   -5.664   -6.184   -7.836  -10.398  -13.524  -16.849  -20.002  -22.657  -24.608  -25.826  -26.462  -26.719  -26.796  -26.816  -26.832  -26.861  -26.896  -26.929  -26.950  -26.959  -26.969  -26.978  -26.987  -26.989  -26.980  -26.957  -26.924  -26.887  -26.865  -26.867  -26.870  -26.839  -26.764  -26.662  -26.578  -26.544  -26.564  -26.611  -26.657  -26.686  -26.696  -26.729  -26.807  -26.950  -27.150  -27.345  -27.515
 -14.140  -13.916  -13.856  -13.819  -13.794  -13.776  -13.764  -13.753  -13.739  -13.720  -13.702  -13.698  -13.699  -13.700  -13.680  -13.662  -13.654  -13.648  -13.639  -13.614  -13.557  -13.457  -13.335  -13.180  -13.005  -12.825  -12.691  -12.659  -12.751  -12.953  -13.202  -13.412  -13.539  -13.582  -13.582  -13.557  -13.535  -13.514  -13.507  -13.503  -13.516  -13.517  -13.505  -13.461  -13.338  -13.095  -12.689  -12.059  -11.154   -9.936   -8.440   -6.862   -5.562   -4.980   -5.441   -7.044   -9.623  -12.868  -16.413  -19.811  -22.679  -24.755  -26.014  -26.629  -26.852  -26.894  -26.904  -26.923  -26.951  -26.974  -26.975  -26.953  -26.921  -26.887  -26.865  -26.856  -26.849  -26.853  -26.857  -26.861  -26.858  -26.843  -26.839  -26.840  -26.837  -26.815  -26.787  -26.755  -26.736  -26.733  -26.725  -26.720  -26.712  -26.720  -26.757  -26.826  -26.932  -27.068  -27.209  -27.344
 -14.115  -13.888  -13.827  -13.791  -13.767  -13.757  -13.752  -13.741  -13.727  -13.703  -13.689  -13.683  -13.680  -13.672  -13.655  -13.629  -13.607  -13.597  -13.599  -13.589  -13.561  -13.517  -13.469  -13.399  -13.329  -13.246  -13.177  -13.154  -13.205  -13.324  -13.473  -13.609  -13.700  -13.724  -13.716  -13.686  -13.656  -13.627  -13.602  -13.583  -13.566  -13.533  -13.462  -13.320  -13.072  -12.649  -12.019  -11.142  -10.024   -8.686   -7.191   -5.707   -4.536   -4.026   -4.474   -6.005   -8.558  -11.903  -15.665  -19.336  -22.448  -24.694  -26.044  -26.675  -26.873  -26.892  -26.890  -26.914  -26.949  -26.970  -26.951  -26.907  -26.849  -26.800  -26.774  -26.762  -26.760  -26.770  -26.785  -26.802  -26.805  -26.791  -26.779  -26.774  -26.794  -26.839  -26.891  -26.931  -26.956  -26.950  -26.918  -26.872  -26.833  -26.820  -26.843  -26.894  -26.962  -27.057  -27.160  -27.274
 -14.097  -13.865  -13.806  -13.776  -13.760  -13.749  -13.742  -13.737  -13.719  -13.697  -13.674  -13.660  -13.652  -13.640  -13.615  -13.583  -13.557  -13.549  -13.547  -13.555  -13.551  -13.545  -13.527  -13.504  -13.479  -13.442  -13.408  -13.400  -13.439  -13.504  -13.587  -13.674  -13.726  -13.731  -13.717  -13.689  -13.660  -13.634  -13.616  -13.593  -13.551  -13.471  -13.322  -13.048  -12.609  -11.947  -11.036   -9.889   -8.554   -7.123   -5.705   -4.411   -3.470   -3.116   -3.580   -5.041   -7.529  -10.925  -14.840  -18.734  -22.062  -24.476  -25.919  -26.580  -26.766  -26.768  -26.759  -26.790  -26.838  -26.857  -26.841  -26.791  -26.748  -26.725  -26.726  -26.732  -26.733  -26.734  -26.732  -26.740  -26.740  -26.720  -26.694  -26.680  -26.713  -26.785  -26.893  -27.000  -27.080  -27.104  -27.085  -27.042  -26.991  -26.959  -26.951  -26.964  -26.998  -27.051  -27.129  -27.223
 -14.134  -13.900  -13.848  -13.826  -13.810  -13.803  -13.800  -13.797  -13.783  -13.751  -13.719  -13.691  -13.675  -13.650  -13.621  -13.593  -13.574  -13.578  -13.589  -13.609  -13.620  -13.624  -13.615  -13.597  -13.562  -13.530  -13.497  -13.482  -13.501  -13.538  -13.588  -13.640  -13.667  -13.668  -13.656  -13.638  -13.622  -13.607  -13.596  -13.564  -13.485  -13.331  -13.053  -12.595  -11.902  -10.960   -9.764   -8.387   -6.933   -5.533   -4.294   -3.298   -2.655   -2.504   -3.023   -4.425   -6.832  -10.188  -14.161  -18.175  -21.630  -24.157  -25.673  -26.369  -26.556  -26.545  -26.527  -26.558  -26.607  -26.630  -26.610  -26.585  -26.576  -26.601  -26.648  -26.682  -26.686  -26.664  -26.637  -26.626  -26.622  -26.599  -26.569  -26.538  -26.552  -26.621  -26.741  -26.872  -26.989  -27.070  -27.101  -27.099  -27.075  -27.045  -27.014  -26.989  -26.974  -26.986  -27.025  -27.099
 -14.377  -14.134  -14.088  -14.060  -14.051  -14.035  -14.033  -14.029  -14.015  -13.982  -13.942  -13.901  -13.875  -13.846  -13.821  -13.802  -13.811  -13.824  -13.860  -13.888  -13.910  -13.906  -13.882  -13.828  -13.747  -13.666  -13.587  -13.530  -13.505  -13.518  -13.550  -13.582  -13.601  -13.604  -13.597  -13.591  -13.588  -13.585  -13.566  -13.503  -13.354  -13.072  -12.604  -11.905  -10.933   -9.703   -8.288   -6.806   -5.390   -4.180   -3.243   -2.606   -2.284   -2.341   -2.935   -4.282   -6.590   -9.855  -13.763  -17.757  -21.228  -23.782  -25.333  -26.050  -26.240  -26.215  -26.180  -26.192  -26.224  -26.236  -26.220  -26.215  -26.238  -26.305  -26.389  -26.447  -26.451  -26.417  -26.370  -26.343  -26.339  -26.331  -26.307  -26.270  -26.257  -26.291  -26.374  -26.486  -26.609  -26.727  -26.818  -26.878  -26.911  -26.912  -26.885  -26.836  -26.785  -26.745  -26.748  -26.808
 -15.007  -14.761  -14.703  -14.668  -14.652  -14.633  -14.619  -14.608  -14.594  -14.562  -14.525  -14.489  -14.451  -14.434  -14.424  -14.425  -14.444  -14.475  -14.517  -14.556  -14.575  -14.557  -14.494  -14.365  -14.188  -13.990  -13.800  -13.652  -13.561  -13.533  -13.534  -13.555  -13.572  -13.582  -13.584  -13.582  -13.585  -13.579  -13.526  -13.387  -13.105  -12.636  -11.932  -10.953   -9.704   -8.267   -6.757   -5.320   -4.115   -3.232   -2.697   -2.454   -2.452   -2.709   -3.368   -4.669   -6.841   -9.933  -13.660  -17.480  -20.824  -23.300  -24.818  -25.531  -25.722  -25.685  -25.624  -25.598  -25.595  -25.583  -25.564  -25.565  -25.605  -25.682  -25.766  -25.822  -25.830  -25.793  -25.753  -25.734  -25.742  -25.758  -25.750  -25.716  -25.681  -25.668  -25.692  -25.757  -25.852  -25.969  -26.095  -26.203  -26.288  -26.338  -26.341  -26.299  -26.233  -26.174  -26.154  -26.200
 -16.195  -15.938  -15.866  -15.819  -15.784  -15.749  -15.732  -15.719  -15.707  -15.680  -15.658  -15.629  -15.609  -15.599  -15.594  -15.608  -15.633  -15.672  -15.713  -15.749  -15.754  -15.712  -15.584  -15.337  -15.002  -14.612  -14.227  -13.920  -13.711  -13.611  -13.583  -13.588  -13.603  -13.613  -13.619  -13.614  -13.612  -13.571  -13.456  -13.195  -12.732  -12.023  -11.041   -9.799   -8.360   -6.837   -5.375   -4.132   -3.243   -2.756   -2.645   -2.810   -3.138   -3.610   -4.343   -5.581   -7.563  -10.363  -13.745  -17.218  -20.271  -22.543  -23.945  -24.601  -24.776  -24.739  -24.665  -24.605  -24.561  -24.528  -24.500  -24.495  -24.526  -24.575  -24.629  -24.667  -24.673  -24.651  -24.623  -24.625  -24.660  -24.690  -24.700  -24.673  -24.622  -24.573  -24.550  -24.559  -24.610  -24.706  -24.823  -24.946  -25.061  -25.148  -25.190  -25.180  -25.131  -25.086  -25.071  -25.130
 -17.958  -17.701  -17.617  -17.553  -17.494  -17.457  -17.431  -17.419  -17.415  -17.407  -17.396  -17.385  -17.376  -17.368  -17.367  -17.383  -17.402  -17.437  -17.473  -17.497  -17.489  -17.398  -17.176  -16.773  -16.206  -15.535  -14.865  -14.317  -13.940  -13.737  -13.654  -13.639  -13.647  -13.657  -13.661  -13.654  -13.634  -13.557  -13.357  -12.956  -12.274  -11.298  -10.063   -8.632   -7.120   -5.661   -4.383   -3.412   -2.848   -2.717   -2.988   -3.532   -4.198   -4.913   -5.754   -6.915   -8.632  -11.005  -13.862  -16.812  -19.407  -21.341  -22.535  -23.093  -23.238  -23.202  -23.135  -23.075  -23.017  -22.967  -22.929  -22.915  -22.920  -22.937  -22.951  -22.966  -22.966  -22.952  -22.949  -22.962  -22.999  -23.036  -23.048  -23.027  -22.976  -22.915  -22.868  -22.850  -22.866  -22.929  -23.013  -23.116  -23.228  -23.324  -23.391  -23.415  -23.409  -23.399  -23.411  -23.512
 -20.096  -19.864  -19.773  -19.701  -19.644  -19.603  -19.583  -19.579  -19.589  -19.597  -19.593  -19.583  -19.574  -19.565  -19.561  -19.568  -19.586  -19.610  -19.636  -19.643  -19.605  -19.461  -19.122  -18.522  -17.666  -16.644  -15.626  -14.779  -14.188  -13.854  -13.712  -13.672  -13.666  -13.670  -13.670  -13.660  -13.634  -13.530  -13.253  -12.712  -11.844  -10.652   -9.229   -7.720   -6.275   -4.994   -3.973   -3.271   -2.944   -3.057   -3.593   -4.433   -5.412   -6.382   -7.331   -8.396   -9.796  -11.653  -13.869  -16.169  -18.195  -19.705  -20.622  -21.037  -21.141  -21.119  -21.080  -21.045  -21.007  -20.959  -20.921  -20.899  -20.884  -20.881  -20.871  -20.872  -20.862  -20.854  -20.856  -20.869  -20.894  -20.913  -20.917  -20.897  -20.855  -20.803  -20.765  -20.749  -20.758  -20.793  -20.847  -20.916  -20.990  -21.064  -21.128  -21.168  -21.191  -21.224  -21.279  -21.430
 -22.296  -22.100  -22.015  -21.947  -21.899  -21.872  -21.858  -21.861  -21.878  -21.891  -21.890  -21.877  -21.857  -21.834  -21.825  -21.833  -21.848  -21.868  -21.884  -21.878  -21.813  -21.600  -21.133  -20.324  -19.168  -17.787  -16.400  -15.227  -14.405  -13.933  -13.725  -13.660  -13.645  -13.642  -13.648  -13.644  -13.610  -13.485  -13.166  -12.551  -11.572  -10.270   -8.800   -7.340   -6.065   -5.022   -4.244   -3.736   -3.545   -3.759   -4.413   -5.416   -6.605   -7.755   -8.780   -9.735  -10.809  -12.140  -13.713  -15.349  -16.789  -17.848  -18.472  -18.726  -18.784  -18.776  -18.777  -18.793  -18.799  -18.782  -18.759  -18.735  -18.718  -18.710  -18.701  -18.700  -18.686  -18.674  -18.666  -18.667  -18.666  -18.663  -18.644  -18.618  -18.589  -18.562  -18.550  -18.552  -18.570  -18.601  -18.632  -18.667  -18.697  -18.728  -18.760  -18.793  -18.834  -18.890  -18.969  -19.177
 -24.233  -24.066  -23.989  -23.938  -23.903  -23.887  -23.879  -23.889  -23.900  -23.908  -23.904  -23.878  -23.846  -23.814  -23.802  -23.808  -23.823  -23.846  -23.865  -23.846  -23.754  -23.480  -22.896  -21.905  -20.487  -18.787  -17.068  -15.609  -14.575  -13.981  -13.712  -13.629  -13.612  -13.613  -13.624  -13.629  -13.598  -13.472  -13.146  -12.515  -11.546  -10.296   -8.932   -7.647   -6.582   -5.766   -5.172   -4.790   -4.661   -4.878   -5.503   -6.507   -7.731   -8.931   -9.948  -10.776  -11.562  -12.447  -13.473  -14.539  -15.465  -16.122  -16.481  -16.602  -16.611  -16.604  -16.648  -16.713  -16.774  -16.806  -16.807  -16.793  -16.788  -16.791  -16.791  -16.792  -16.781  -16.763  -16.747  -16.737  -16.716  -16.681  -16.646  -16.612  -16.592  -16.589  -16.596  -16.621  -16.655  -16.684  -16.703  -16.705  -16.694  -16.685  -16.689  -16.709  -16.746  -16.803  -16.887  -17.133
 -25.698  -25.543  -25.471  -25.432  -25.410  -25.397  -25.396  -25.399  -25.405  -25.399  -25.383  -25.346  -25.306  -25.266  -25.248  -25.253  -25.271  -25.304  -25.326  -25.304  -25.193  -24.874  -24.206  -23.072  -21.466  -19.527  -17.560  -15.888  -14.699  -14.012  -13.703  -13.612  -13.610  -13.628  -13.645  -13.650  -13.621  -13.503  -13.210  -12.645  -11.796  -10.728   -9.592   -8.548   -7.702   -7.065   -6.606   -6.314   -6.213   -6.388   -6.912   -7.788   -8.881   -9.980  -10.896  -11.575  -12.130  -12.694  -13.313  -13.949  -14.485  -14.837  -14.989  -15.007  -14.978  -14.977  -15.036  -15.134  -15.232  -15.299  -15.332  -15.332  -15.332  -15.347  -15.359  -15.368  -15.360  -15.343  -15.330  -15.317  -15.293  -15.250  -15.203  -15.163  -15.149  -15.152  -15.171  -15.211  -15.247  -15.276  -15.279  -15.250  -15.213  -15.184  -15.174  -15.185  -15.212  -15.262  -15.342  -15.604
 -26.641  -26.482  -26.421  -26.382  -26.358  -26.348  -26.339  -26.339  -26.332  -26.319  -26.288  -26.245  -26.195  -26.151  -26.124  -26.128  -26.145  -26.188  -26.213  -26.197  -26.075  -25.732  -25.017  -23.794  -22.066  -19.986  -17.869  -16.054  -14.770  -14.031  -13.719  -13.652  -13.668  -13.702  -13.729  -13.736  -13.709  -13.596  -13.346  -12.895  -12.238  -11.433  -10.582   -9.792   -9.134   -8.629   -8.270   -8.055   -8.000   -8.151   -8.558   -9.236  -10.096  -10.980  -11.714  -12.237  -12.616  -12.959  -13.323  -13.678  -13.954  -14.114  -14.141  -14.103  -14.050  -14.035  -14.068  -14.152  -14.246  -14.331  -14.380  -14.397  -14.404  -14.424  -14.441  -14.453  -14.440  -14.437  -14.434  -14.442  -14.434  -14.401  -14.354  -14.309  -14.284  -14.283  -14.311  -14.355  -14.398  -14.417  -14.396  -14.356  -14.303  -14.276  -14.272  -14.288  -14.318  -14.361  -14.434  -14.689
 -27.164  -27.001  -26.935  -26.889  -26.860  -26.846  -26.833  -26.821  -26.808  -26.789  -26.753  -26.702  -26.645  -26.598  -26.567  -26.561  -26.578  -26.614  -26.643  -26.637  -26.518  -26.165  -25.425  -24.164  -22.376  -20.219  -18.026  -16.143  -14.806  -14.045  -13.746  -13.717  -13.774  -13.829  -13.859  -13.853  -13.813  -13.705  -13.502  -13.175  -12.734  -12.208  -11.638  -11.077  -10.571  -10.160   -9.871   -9.733   -9.737   -9.901  -10.221  -10.698  -11.290  -11.905  -12.420  -12.780  -13.034  -13.249  -13.464  -13.669  -13.813  -13.881  -13.866  -13.801  -13.728  -13.674  -13.649  -13.670  -13.722  -13.792  -13.844  -13.868  -13.892  -13.914  -13.930  -13.931  -13.927  -13.932  -13.957  -13.986  -13.993  -13.974  -13.925  -13.875  -13.842  -13.844  -13.885  -13.944  -13.992  -14.004  -13.968  -13.914  -13.859  -13.847  -13.866  -13.900  -13.945  -13.996  -14.060  -14.300
 -27.413  -27.236  -27.168  -27.116  -27.086  -27.065  -27.048  -27.035  -27.021  -27.000  -26.964  -26.912  -26.859  -26.806  -26.764  -26.749  -26.760  -26.790  -26.823  -26.818  -26.700  -26.350  -25.600  -24.324  -22.507  -20.322  -18.094  -16.171  -14.808  -14.045  -13.765  -13.766  -13.859  -13.939  -13.973  -13.950  -13.879  -13.765  -13.600  -13.390  -13.142  -12.861  -12.529  -12.160  -11.772  -11.436  -11.203  -11.117  -11.184  -11.366  -11.630  -11.957  -12.316  -12.667  -12.956  -13.172  -13.327  -13.477  -13.637  -13.787  -13.898  -13.946  -13.937  -13.884  -13.792  -13.687  -13.591  -13.527  -13.516  -13.545  -13.577  -13.604  -13.639  -13.669  -13.686  -13.681  -13.664  -13.672  -13.710  -13.758  -13.780  -13.777  -13.736  -13.676  -13.637  -13.641  -13.702  -13.791  -13.855  -13.876  -13.833  -13.767  -13.711  -13.705  -13.738  -13.805  -13.872  -13.936  -13.999  -14.225
 -27.530  -27.334  -27.260  -27.210  -27.180  -27.160  -27.145  -27.142  -27.132  -27.110  -27.085  -27.041  -26.994  -26.942  -26.896  -26.864  -26.866  -26.887  -26.914  -26.909  -26.794  -26.440  -25.686  -24.401  -22.573  -20.376  -18.128  -16.191  -14.810  -14.038  -13.758  -13.766  -13.877  -13.966  -13.986  -13.938  -13.839  -13.711  -13.576  -13.464  -13.381  -13.291  -13.146  -12.927  -12.647  -12.384  -12.202  -12.152  -12.246  -12.443  -12.684  -12.919  -13.107  -13.248  -13.345  -13.427  -13.510  -13.624  -13.758  -13.896  -14.006  -14.072  -14.091  -14.063  -13.973  -13.839  -13.693  -13.569  -13.495  -13.464  -13.460  -13.478  -13.516  -13.552  -13.567  -13.553  -13.529  -13.526  -13.567  -13.621  -13.662  -13.668  -13.632  -13.578  -13.545  -13.562  -13.639  -13.756  -13.843  -13.868  -13.825  -13.745  -13.683  -13.672  -13.714  -13.797  -13.883  -13.954  -14.023  -14.248
 -27.591  -27.377  -27.293  -27.255  -27.229  -27.217  -27.211  -27.214  -27.215  -27.210  -27.196  -27.171  -27.133  -27.088  -27.039  -26.995  -26.978  -26.986  -27.000  -26.982  -26.862  -26.505  -25.748  -24.459  -22.624  -20.424  -18.171  -16.225  -14.829  -14.036  -13.729  -13.714  -13.798  -13.867  -13.863  -13.793  -13.681  -13.554  -13.453  -13.416  -13.449  -13.497  -13.494  -13.397  -13.227  -13.044  -12.913  -12.888  -12.989  -13.181  -13.409  -13.599  -13.684  -13.686  -13.642  -13.606  -13.615  -13.675  -13.781  -13.894  -14.000  -14.081  -14.134  -14.134  -14.078  -13.963  -13.826  -13.682  -13.560  -13.462  -13.401  -13.384  -13.414  -13.455  -13.476  -13.460  -13.431  -13.431  -13.471  -13.541  -13.598  -13.617  -13.594  -13.548  -13.520  -13.544  -13.626  -13.750  -13.839  -13.865  -13.818  -13.729  -13.650  -13.628  -13.665  -13.739  -13.823  -13.900  -13.973  -14.207
 -27.626  -27.394  -27.317  -27.284  -27.264  -27.258  -27.260  -27.272  -27.283  -27.299  -27.306  -27.304  -27.277  -27.238  -27.188  -27.130  -27.092  -27.069  -27.062  -27.035  -26.912  -26.552  -25.793  -24.495  -22.660  -20.461  -18.217  -16.269  -14.864  -14.045  -13.690  -13.613  -13.640  -13.664  -13.638  -13.567  -13.467  -13.372  -13.317  -13.338  -13.435  -13.553  -13.631  -13.632  -13.560  -13.467  -13.392  -13.391  -13.487  -13.665  -13.872  -14.022  -14.066  -13.989  -13.848  -13.720  -13.645  -13.643  -13.690  -13.756  -13.836  -13.922  -13.998  -14.043  -14.042  -13.994  -13.899  -13.769  -13.619  -13.464  -13.338  -13.269  -13.279  -13.317  -13.343  -13.353  -13.352  -13.387  -13.456  -13.544  -13.611  -13.639  -13.616  -13.577  -13.546  -13.561  -13.621  -13.715  -13.786  -13.795  -13.744  -13.652  -13.566  -13.530  -13.542  -13.597  -13.664  -13.723  -13.793  -14.040
 -27.673  -27.421  -27.345  -27.306  -27.288  -27.288  -27.290  -27.304  -27.322  -27.355  -27.384  -27.395  -27.382  -27.350  -27.288  -27.216  -27.151  -27.105  -27.080  -27.042  -26.911  -26.549  -25.789  -24.493  -22.663  -20.464  -18.229  -16.299  -14.903  -14.062  -13.656  -13.511  -13.474  -13.459  -13.418  -13.375  -13.321  -13.289  -13.278  -13.320  -13.427  -13.553  -13.657  -13.711  -13.714  -13.689  -13.663  -13.690  -13.774  -13.919  -14.095  -14.215  -14.230  -14.116  -13.924  -13.734  -13.600  -13.543  -13.529  -13.553  -13.601  -13.678  -13.767  -13.852  -13.903  -13.917  -13.874  -13.767  -13.614  -13.429  -13.258  -13.157  -13.139  -13.172  -13.219  -13.256  -13.308  -13.407  -13.527  -13.636  -13.700  -13.719  -13.678  -13.621  -13.568  -13.552  -13.581  -13.633  -13.668  -13.663  -13.612  -13.535  -13.461  -13.425  -13.420  -13.448  -13.474  -13.506  -13.553  -13.818
 -27.771  -27.493  -27.403  -27.357  -27.336  -27.326  -27.321  -27.326  -27.335  -27.370  -27.400  -27.421  -27.418  -27.379  -27.311  -27.235  -27.155  -27.103  -27.070  -27.023  -26.888  -26.524  -25.766  -24.467  -22.640  -20.448  -18.230  -16.324  -14.941  -14.092  -13.657  -13.466  -13.383  -13.338  -13.315  -13.313  -13.342  -13.370  -13.395  -13.431  -13.501  -13.591  -13.669  -13.724  -13.751  -13.760  -13.771  -13.802  -13.867  -13.979  -14.101  -14.178  -14.163  -14.035  -13.829  -13.627  -13.486  -13.405  -13.372  -13.374  -13.401  -13.477  -13.577  -13.678  -13.756  -13.794  -13.769  -13.678  -13.535  -13.363  -13.215  -13.121  -13.104  -13.132  -13.173  -13.224  -13.316  -13.458  -13.625  -13.744  -13.799  -13.784  -13.714  -13.626  -13.549  -13.497  -13.493  -13.512  -13.525  -13.525  -13.504  -13.473  -13.438  -13.438  -13.442  -13.446  -13.437  -13.429  -13.458  -13.728
 -27.992  -27.683  -27.576  -27.525  -27.487  -27.461  -27.438  -27.426  -27.416  -27.429  -27.444  -27.462  -27.460  -27.429  -27.369  -27.294  -27.224  -27.178  -27.149  -27.102  -26.963  -26.593  -25.825  -24.524  -22.692  -20.512  -18.307  -16.421  -15.048  -14.187  -13.730  -13.508  -13.407  -13.358  -13.370  -13.434  -13.539  -13.630  -13.689  -13.716  -13.735  -13.757  -13.769  -13.769  -13.766  -13.765  -13.771  -13.796  -13.843  -13.901  -13.955  -13.965  -13.902  -13.769  -13.582  -13.416  -13.314  -13.264  -13.255  -13.261  -13.293  -13.380  -13.484  -13.586  -13.659  -13.672  -13.636  -13.549  -13.446  -13.344  -13.272  -13.237  -13.234  -13.241  -13.234  -13.255  -13.338  -13.490  -13.661  -13.782  -13.820  -13.775  -13.687  -13.583  -13.475  -13.404  -13.375  -13.393  -13.435  -13.494  -13.559  -13.625  -13.692  -13.776  -13.840  -13.862  -13.837  -13.803  -13.824  -14.092
 -28.472  -28.133  -28.013  -27.947  -27.896  -27.852  -27.809  -27.772  -27.736  -27.720  -27.719  -27.719  -27.711  -27.685  -27.641  -27.590  -27.547  -27.526  -27.513  -27.475  -27.333  -26.950  -26.169  -24.856  -23.017  -20.837  -18.632  -16.741  -15.345  -14.451  -13.947  -13.685  -13.558  -13.526  -13.584  -13.725  -13.918  -14.095  -14.206  -14.243  -14.214  -14.141  -14.040  -13.932  -13.837  -13.782  -13.773  -13.793  -13.808  -13.800  -13.762  -13.684  -13.571  -13.425  -13.278  -13.173  -13.141  -13.154  -13.184  -13.215  -13.265  -13.359  -13.471  -13.567  -13.617  -13.609  -13.547  -13.468  -13.419  -13.415  -13.451  -13.492  -13.505  -13.460  -13.375  -13.319  -13.353  -13.478  -13.627  -13.726  -13.744  -13.704  -13.621  -13.519  -13.415  -13.339  -13.319  -13.370  -13.497  -13.678  -13.910  -14.172  -14.458  -14.736  -14.959  -15.077  -15.092  -15.067  -15.070  -15.345
 -29.373  -29.007  -28.879  -28.805  -28.743  -28.690  -28.633  -28.575  -28.518  -28.470  -28.448  -28.434  -28.422  -28.398  -28.363  -28.337  -28.328  -28.335  -28.346  -28.317  -28.172  -27.779  -26.984  -25.659  -23.816  -21.623  -19.387  -17.438  -15.959  -14.967  -14.364  -14.029  -13.866  -13.843  -13.966  -14.218  -14.539  -14.840  -15.047  -15.116  -15.036  -14.834  -14.560  -14.264  -14.029  -13.887  -13.841  -13.845  -13.831  -13.751  -13.614  -13.455  -13.293  -13.147  -13.037  -12.996  -13.036  -13.116  -13.188  -13.239  -13.292  -13.379  -13.487  -13.572  -13.609  -13.595  -13.535  -13.483  -13.501  -13.583  -13.703  -13.795  -13.795  -13.699  -13.534  -13.402  -13.379  -13.448  -13.557  -13.627  -13.629  -13.590  -13.529  -13.458  -13.390  -13.350  -13.379  -13.503  -13.759  -14.135  -14.658  -15.289  -15.982  -16.654  -17.201  -17.534  -17.667  -17.681  -17.684  -17.935
 -30.796  -30.416  -30.291  -30.215  -30.156  -30.101  -30.036  -29.961  -29.891  -29.828  -29.786  -29.760  -29.737  -29.708  -29.687  -29.668  -29.678  -29.708  -29.733  -29.713  -29.570  -29.177  -28.385  -27.058  -25.205  -22.985  -20.687  -18.622  -16.978  -15.803  -15.025  -14.547  -14.314  -14.308  -14.531  -14.952  -15.471  -15.965  -16.304  -16.407  -16.239  -15.846  -15.319  -14.779  -14.349  -14.086  -13.982  -13.964  -13.922  -13.788  -13.579  -13.347  -13.165  -13.027  -12.955  -12.962  -13.063  -13.193  -13.298  -13.346  -13.370  -13.416  -13.486  -13.559  -13.607  -13.611  -13.597  -13.590  -13.649  -13.787  -13.937  -14.041  -14.024  -13.886  -13.684  -13.511  -13.436  -13.454  -13.505  -13.524  -13.502  -13.461  -13.430  -13.408  -13.407  -13.427  -13.529  -13.753  -14.176  -14.846  -15.817  -17.047  -18.419  -19.736  -20.794  -21.488  -21.817  -21.910  -21.924  -22.117
 -32.752  -32.366  -32.245  -32.174  -32.121  -32.064  -31.985  -31.904  -31.820  -31.749  -31.695  -31.658  -31.623  -31.590  -31.560  -31.541  -31.549  -31.578  -31.606  -31.596  -31.462  -31.083  -30.301  -28.985  -27.123  -24.863  -22.463  -20.223  -18.348  -16.911  -15.889  -15.224  -14.895  -14.911  -15.274  -15.934  -16.726  -17.463  -17.951  -18.061  -17.748  -17.077  -16.218  -15.374  -14.714  -14.304  -14.133  -14.088  -14.036  -13.873  -13.617  -13.361  -13.172  -13.068  -13.042  -13.087  -13.215  -13.357  -13.457  -13.486  -13.458  -13.445  -13.470  -13.527  -13.601  -13.650  -13.678  -13.712  -13.784  -13.917  -14.054  -14.145  -14.115  -13.980  -13.794  -13.632  -13.531  -13.506  -13.496  -13.453  -13.395  -13.342  -13.342  -13.373  -13.434  -13.524  -13.700  -14.035  -14.656  -15.708  -17.289  -19.349  -21.645  -23.838  -25.587  -26.748  -27.347  -27.545  -27.575  -27.672
 -35.128  -34.748  -34.634  -34.574  -34.513  -34.433  -34.321  -34.202  -34.080  -33.990  -33.928  -33.883  -33.845  -33.803  -33.760  -33.727  -33.724  -33.733  -33.753  -33.742  -33.619  -33.255  -32.489  -31.184  -29.313  -26.997  -24.472  -22.027  -19.886  -18.149  -16.844  -15.968  -15.533  -15.582  -16.124  -17.070  -18.179  -19.174  -19.806  -19.886  -19.367  -18.364  -17.117  -15.927  -15.010  -14.452  -14.206  -14.134  -14.077  -13.912  -13.654  -13.401  -13.245  -13.197  -13.226  -13.302  -13.419  -13.535  -13.605  -13.590  -13.516  -13.452  -13.437  -13.493  -13.582  -13.665  -13.721  -13.762  -13.822  -13.909  -14.006  -14.064  -14.040  -13.946  -13.824  -13.713  -13.628  -13.569  -13.513  -13.429  -13.352  -13.305  -13.324  -13.398  -13.496  -13.621  -13.832  -14.250  -15.078  -16.566  -18.873  -21.903  -25.266  -28.436  -30.953  -32.624  -33.518  -33.858  -33.916  -33.900
 -37.937  -37.560  -37.460  -37.385  -37.285  -37.119  -36.881  -36.623  -36.393  -36.232  -36.137  -36.087  -36.046  -36.000  -35.946  -35.895  -35.870  -35.864  -35.868  -35.846  -35.722  -35.364  -34.608  -33.303  -31.413  -29.032  -26.381  -23.736  -21.328  -19.304  -17.737  -16.661  -16.136  -16.241  -16.977  -18.203  -19.615  -20.841  -21.576  -21.604  -20.869  -19.524  -17.894  -16.344  -15.155  -14.430  -14.102  -14.019  -13.969  -13.831  -13.607  -13.406  -13.320  -13.354  -13.444  -13.536  -13.609  -13.659  -13.672  -13.627  -13.531  -13.446  -13.416  -13.460  -13.550  -13.637  -13.689  -13.707  -13.728  -13.766  -13.815  -13.846  -13.836  -13.800  -13.757  -13.717  -13.680  -13.628  -13.562  -13.482  -13.419  -13.406  -13.459  -13.535  -13.621  -13.720  -13.903  -14.348  -15.357  -17.282  -20.323  -24.326  -28.738  -32.841  -36.073  -38.227  -39.408  -39.900  -40.003  -39.871
 -41.579  -41.219  -41.131  -41.021  -40.767  -40.329  -39.742  -39.118  -38.590  -38.231  -38.034  -37.945  -37.900  -37.855  -37.797  -37.738  -37.698  -37.677  -37.665  -37.631  -37.498  -37.132  -36.367  -35.047  -33.122  -30.674  -27.904  -25.078  -22.446  -20.187  -18.416  -17.201  -16.637  -16.822  -17.747  -19.215  -20.852  -22.240  -23.027  -22.977  -22.057  -20.428  -18.460  -16.585  -15.138  -14.245  -13.842  -13.756  -13.748  -13.663  -13.508  -13.383  -13.385  -13.498  -13.631  -13.706  -13.722  -13.704  -13.664  -13.613  -13.536  -13.458  -13.420  -13.444  -13.511  -13.576  -13.606  -13.597  -13.578  -13.575  -13.588  -13.607  -13.612  -13.622  -13.645  -13.673  -13.692  -13.675  -13.634  -13.588  -13.577  -13.620  -13.703  -13.773  -13.806  -13.818  -13.912  -14.347  -15.493  -17.790  -21.484  -26.324  -31.608  -36.482  -40.302  -42.856  -44.274  -44.894  -45.042  -44.806
 -47.054  -46.755  -46.693  -46.445  -45.805  -44.728  -43.339  -41.908  -40.713  -39.918  -39.488  -39.302  -39.228  -39.178  -39.129  -39.075  -39.036  -39.010  -38.992  -38.946  -38.793  -38.408  -37.618  -36.266  -34.291  -31.763  -28.886  -25.912  -23.120  -20.705  -18.828  -17.572  -17.057  -17.364  -18.446  -20.073  -21.829  -23.271  -24.038  -23.906  -22.838  -21.010  -18.801  -16.684  -15.029  -14.003  -13.564  -13.498  -13.557  -13.545  -13.459  -13.403  -13.458  -13.598  -13.723  -13.762  -13.725  -13.669  -13.630  -13.603  -13.556  -13.493  -13.444  -13.438  -13.482  -13.528  -13.545  -13.521  -13.481  -13.456  -13.456  -13.478  -13.504  -13.543  -13.593  -13.654  -13.687  -13.689  -13.675  -13.689  -13.759  -13.868  -13.977  -14.021  -13.976  -13.887  -13.895  -14.299  -15.544  -18.135  -22.316  -27.778  -33.693  -39.109  -43.345  -46.175  -47.757  -48.459  -48.630  -48.325
 -55.783  -55.627  -55.532  -54.918  -53.468  -51.153  -48.277  -45.377  -42.992  -41.401  -40.539  -40.172  -40.042  -39.984  -39.942  -39.905  -39.875  -39.858  -39.839  -39.786  -39.618  -39.206  -38.375  -36.973  -34.927  -32.315  -29.332  -26.245  -23.351  -20.881  -19.013  -17.855  -17.499  -17.965  -19.177  -20.861  -22.608  -23.984  -24.652  -24.411  -23.228  -21.283  -18.952  -16.696  -14.921  -13.831  -13.392  -13.381  -13.509  -13.565  -13.526  -13.486  -13.534  -13.638  -13.711  -13.705  -13.656  -13.606  -13.594  -13.592  -13.565  -13.508  -13.449  -13.433  -13.475  -13.538  -13.571  -13.546  -13.490  -13.461  -13.474  -13.521  -13.573  -13.612  -13.648  -13.666  -13.653  -13.636  -13.650  -13.738  -13.891  -14.067  -14.188  -14.200  -14.090  -13.932  -13.887  -14.276  -15.598  -18.383  -22.869  -28.701  -34.986  -40.719  -45.192  -48.171  -49.830  -50.560  -50.727  -50.384
 -68.685  -68.735  -68.396  -67.011  -64.185  -59.949  -54.843  -49.760  -45.601  -42.828  -41.333  -40.694  -40.475  -40.406  -40.374  -40.351  -40.336  -40.329  -40.315  -40.260  -40.078  -39.638  -38.758  -37.285  -35.155  -32.445  -29.358  -26.187  -23.252  -20.827  -19.108  -18.182  -18.085  -18.764  -20.067  -21.709  -23.324  -24.526  -25.026  -24.648  -23.371  -21.371  -18.998  -16.713  -14.906  -13.804  -13.387  -13.412  -13.589  -13.676  -13.642  -13.584  -13.589  -13.639  -13.657  -13.631  -13.588  -13.550  -13.545  -13.545  -13.514  -13.445  -13.385  -13.397  -13.479  -13.592  -13.656  -13.645  -13.583  -13.555  -13.592  -13.669  -13.738  -13.764  -13.745  -13.668  -13.567  -13.505  -13.542  -13.695  -13.926  -14.148  -14.276  -14.263  -14.124  -13.944  -13.899  -14.315  -15.691  -18.570  -23.189  -29.166  -35.584  -41.423  -45.968  -48.980  -50.640  -51.350  -51.497  -51.140
 -84.998  -85.210  -84.262  -81.619  -76.913  -70.281  -62.475  -54.763  -48.457  -44.256  -42.003  -41.038  -40.711  -40.622  -40.595  -40.579  -40.569  -40.558  -40.546  -40.491  -40.304  -39.841  -38.918  -37.372  -35.138  -32.312  -29.134  -25.919  -23.020  -20.740  -19.276  -18.683  -18.907  -19.799  -21.144  -22.668  -24.070  -25.035  -25.334  -24.819  -23.473  -21.459  -19.108  -16.844  -15.047  -13.939  -13.502  -13.508  -13.659  -13.740  -13.708  -13.641  -13.625  -13.652  -13.663  -13.639  -13.589  -13.539  -13.493  -13.449  -13.382  -13.296  -13.247  -13.295  -13.437  -13.609  -13.714  -13.715  -13.657  -13.628  -13.667  -13.758  -13.840  -13.855  -13.787  -13.633  -13.455  -13.351  -13.389  -13.576  -13.841  -14.068  -14.187  -14.172  -14.041  -13.898  -13.902  -14.369  -15.780  -18.672  -23.256  -29.170  -35.525  -41.293  -45.771  -48.723  -50.329  -50.998  -51.119  -50.763
-102.206 -102.418 -100.525  -96.254  -89.400  -80.257  -69.770  -59.494  -51.112  -45.546  -42.575  -41.310  -40.883  -40.770  -40.739  -40.717  -40.689  -40.663  -40.635  -40.580  -40.406  -39.942  -38.987  -37.370  -35.036  -32.102  -28.850  -25.647  -22.868  -20.816  -19.671  -19.439  -19.966  -21.008  -22.317  -23.664  -24.811  -25.540  -25.660  -25.049  -23.685  -21.700  -19.393  -17.160  -15.361  -14.209  -13.686  -13.581  -13.643  -13.680  -13.652  -13.632  -13.664  -13.736  -13.784  -13.767  -13.673  -13.551  -13.434  -13.334  -13.234  -13.135  -13.088  -13.151  -13.328  -13.537  -13.674  -13.677  -13.612  -13.563  -13.586  -13.676  -13.776  -13.820  -13.759  -13.593  -13.387  -13.246  -13.253  -13.410  -13.637  -13.834  -13.933  -13.922  -13.842  -13.768  -13.852  -14.375  -15.789  -18.590  -22.997  -28.676  -34.771  -40.309  -44.599  -47.414  -48.931  -49.549  -49.654  -49.327
-117.772 -117.709 -114.650 -108.497  -99.364  -87.843  -75.074  -62.801  -52.913  -46.418  -42.980  -41.525  -41.039  -40.914  -40.879  -40.836  -40.780  -40.725  -40.688  -40.647  -40.507  -40.070  -39.101  -37.416  -34.983  -31.957  -28.674  -25.547  -22.959  -21.204  -20.392  -20.473  -21.199  -22.284  -23.473  -24.580  -25.455  -25.956  -25.938  -25.280  -23.950  -22.032  -19.791  -17.589  -15.783  -14.553  -13.886  -13.607  -13.524  -13.503  -13.512  -13.581  -13.723  -13.878  -13.960  -13.907  -13.743  -13.553  -13.389  -13.274  -13.173  -13.067  -13.013  -13.061  -13.220  -13.416  -13.538  -13.532  -13.443  -13.367  -13.370  -13.465  -13.609  -13.727  -13.747  -13.633  -13.437  -13.269  -13.206  -13.268  -13.396  -13.521  -13.586  -13.589  -13.563  -13.574  -13.738  -14.298  -15.650  -18.250  -22.318  -27.573  -33.226  -38.369  -42.351  -44.960  -46.359  -46.923  -47.016  -46.743
-130.436 -129.631 -125.017 -116.674 -105.224  -91.607  -77.159  -63.775  -53.323  -46.612  -43.113  -41.652  -41.176  -41.070  -41.051  -41.016  -40.957  -40.905  -40.894  -40.911  -40.846  -40.454  -39.464  -37.684  -35.117  -31.995  -28.713  -25.724  -23.392  -21.950  -21.440  -21.734  -22.541  -23.564  -24.558  -25.386  -25.967  -26.217  -26.047  -25.350  -24.064  -22.235  -20.081  -17.933  -16.121  -14.825  -14.024  -13.590  -13.385  -13.324  -13.384  -13.554  -13.797  -14.001  -14.068  -13.955  -13.737  -13.537  -13.428  -13.389  -13.336  -13.236  -13.148  -13.141  -13.231  -13.363  -13.433  -13.389  -13.269  -13.174  -13.175  -13.298  -13.513  -13.734  -13.852  -13.801  -13.617  -13.405  -13.264  -13.222  -13.246  -13.288  -13.301  -13.308  -13.316  -13.385  -13.588  -14.124  -15.329  -17.605  -21.169  -25.789  -30.798  -35.370  -38.920  -41.246  -42.486  -42.983  -43.071  -42.878
-139.120 -137.010 -130.338 -119.714 -106.224  -90.974  -75.590  -62.143  -52.187  -46.038  -42.910  -41.640  -41.282  -41.286  -41.393  -41.487  -41.547  -41.616  -41.746  -41.922  -41.978  -41.615  -40.511  -38.491  -35.652  -32.333  -29.013  -26.167  -24.117  -22.982  -22.718  -23.128  -23.924  -24.821  -25.598  -26.146  -26.416  -26.380  -26.000  -25.200  -23.919  -22.162  -20.102  -18.031  -16.247  -14.926  -14.070  -13.560  -13.306  -13.252  -13.377  -13.628  -13.907  -14.089  -14.079  -13.893  -13.678  -13.578  -13.639  -13.752  -13.795  -13.722  -13.602  -13.521  -13.518  -13.553  -13.538  -13.437  -13.296  -13.203  -13.227  -13.378  -13.629  -13.906  -14.069  -14.036  -13.847  -13.602  -13.414  -13.312  -13.272  -13.255  -13.234  -13.212  -13.212  -13.274  -13.443  -13.888  -14.862  -16.707  -19.606  -23.400  -27.539  -31.354  -34.330  -36.282  -37.315  -37.711  -37.780  -37.695
-141.784 -138.329 -129.788 -117.469 -102.525  -86.246  -70.819  -58.377  -49.837  -44.843  -42.407  -41.509  -41.441  -41.787  -42.305  -42.849  -43.363  -43.863  -44.389  -44.869  -45.064  -44.577  -43.059  -40.421  -36.927  -33.125  -29.610  -26.829  -25.006  -24.129  -24.045  -24.502  -25.234  -25.994  -26.590  -26.903  -26.898  -26.570  -25.938  -24.977  -23.643  -21.933  -19.957  -17.973  -16.241  -14.942  -14.095  -13.619  -13.418  -13.443  -13.631  -13.904  -14.139  -14.221  -14.101  -13.872  -13.725  -13.812  -14.102  -14.417  -14.576  -14.538  -14.390  -14.242  -14.147  -14.081  -13.984  -13.844  -13.707  -13.634  -13.669  -13.796  -13.993  -14.198  -14.302  -14.242  -14.047  -13.820  -13.643  -13.550  -13.504  -13.466  -13.419  -13.361  -13.329  -13.327  -13.415  -13.709  -14.392  -15.727  -17.853  -20.660  -23.747  -26.618  -28.872  -30.336  -31.086  -31.341  -31.359  -31.393
-137.148 -133.077 -123.782 -110.698  -94.955  -78.486  -64.083  -53.544  -46.923  -43.303  -41.688  -41.346  -41.875  -43.038  -44.592  -46.292  -47.948  -49.472  -50.796  -51.737  -51.924  -50.878  -48.296  -44.283  -39.431  -34.601  -30.538  -27.639  -25.928  -25.222  -25.237  -25.682  -26.323  -26.949  -27.402  -27.561  -27.374  -26.843  -26.009  -24.906  -23.518  -21.837  -19.943  -18.042  -16.370  -15.119  -14.342  -13.972  -13.902  -14.036  -14.270  -14.499  -14.624  -14.571  -14.351  -14.110  -14.074  -14.368  -14.887  -15.384  -15.646  -15.647  -15.488  -15.304  -15.142  -15.009  -14.869  -14.735  -14.620  -14.559  -14.542  -14.555  -14.592  -14.630  -14.618  -14.527  -14.365  -14.206  -14.097  -14.052  -14.030  -13.996  -13.944  -13.856  -13.775  -13.711  -13.699  -13.831  -14.230  -15.036  -16.340  -18.069  -19.990  -21.768  -23.148  -24.014  -24.402  -24.459  -24.393  -24.517
-126.806 -122.761 -113.621 -100.465  -84.815  -69.403  -57.054  -48.821  -44.061  -41.649  -40.807  -41.227  -42.871  -45.690  -49.358  -53.358  -57.193  -60.510  -63.039  -64.421  -64.176  -61.824  -57.213  -50.775  -43.572  -36.930  -31.818  -28.519  -26.775  -26.134  -26.166  -26.547  -27.057  -27.536  -27.867  -27.945  -27.700  -27.125  -26.256  -25.131  -23.751  -22.125  -20.325  -18.522  -16.937  -15.776  -15.106  -14.878  -14.951  -15.166  -15.394  -15.520  -15.500  -15.314  -15.025  -14.815  -14.893  -15.345  -16.022  -16.634  -16.980  -17.035  -16.909  -16.731  -16.565  -16.425  -16.300  -16.207  -16.126  -16.042  -15.933  -15.781  -15.625  -15.500  -15.398  -15.315  -15.232  -15.161  -15.122  -15.109  -15.109  -15.087  -15.033  -14.939  -14.816  -14.701  -14.629  -14.645  -14.793  -15.120  -15.638  -16.304  -17.017  -17.630  -18.045  -18.211  -18.145  -17.930  -17.733  -17.908
-113.647 -109.573 -100.858  -88.393  -74.173  -61.067  -51.249  -45.055  -41.600  -39.949  -39.731  -41.158  -44.644  -50.253  -57.367  -64.891  -71.777  -77.318  -81.053  -82.541  -81.304  -76.952  -69.506  -59.734  -49.251  -40.012  -33.335  -29.371  -27.459  -26.807  -26.803  -27.073  -27.421  -27.727  -27.930  -27.969  -27.782  -27.343  -26.631  -25.643  -24.383  -22.872  -21.200  -19.538  -18.107  -17.091  -16.563  -16.461  -16.628  -16.856  -17.006  -16.999  -16.837  -16.555  -16.255  -16.094  -16.257  -16.787  -17.541  -18.226  -18.655  -18.797  -18.761  -18.654  -18.550  -18.460  -18.401  -18.373  -18.336  -18.229  -18.031  -17.769  -17.510  -17.309  -17.205  -17.165  -17.153  -17.143  -17.128  -17.113  -17.111  -17.096  -17.048  -16.949  -16.807  -16.675  -16.585  -16.540  -16.509  -16.429  -16.253  -15.953  -15.529  -15.010  -14.436  -13.828  -13.215  -12.659  -12.272  -12.436
-100.158  -96.069  -88.337  -77.692  -66.018  -55.576  -47.780  -42.704  -39.667  -38.166  -38.363  -41.066  -47.164  -56.659  -68.192  -79.726  -89.612  -96.960 -101.363 -102.507 -100.000  -93.496  -83.091  -69.750  -55.576  -43.310  -34.789  -30.036  -27.918  -27.237  -27.186  -27.347  -27.526  -27.655  -27.732  -27.751  -27.679  -27.459  -27.021  -26.287  -25.239  -23.919  -22.447  -21.003  -19.800  -18.975  -18.590  -18.580  -18.759  -18.933  -18.966  -18.834  -18.573  -18.253  -17.980  -17.884  -18.104  -18.689  -19.496  -20.265  -20.813  -21.102  -21.216  -21.239  -21.237  -21.244  -21.274  -21.316  -21.315  -21.217  -21.017  -20.753  -20.519  -20.360  -20.312  -20.331  -20.355  -20.350  -20.319  -20.283  -20.268  -20.273  -20.238  -20.133  -19.980  -19.841  -19.756  -19.679  -19.512  -19.116  -18.382  -17.286  -15.913  -14.402  -12.885  -11.486  -10.266   -9.309   -8.687   -8.793
 -90.846  -87.294  -81.219  -72.875  -63.511  -54.667  -47.429  -42.073  -38.386  -36.352  -36.688  -40.837  -50.077  -63.970  -79.910  -94.821 -106.828 -115.244 -119.883 -120.525 -116.735 -108.207  -95.198  -78.724  -61.147  -45.999  -35.756  -30.339  -28.109  -27.453  -27.395  -27.480  -27.530  -27.519  -27.488  -27.481  -27.497  -27.474  -27.291  -26.829  -26.040  -24.981  -23.777  -22.614  -21.665  -21.046  -20.776  -20.789  -20.919  -21.007  -20.947  -20.738  -20.451  -20.156  -19.953  -19.943  -20.250  -20.921  -21.837  -22.766  -23.514  -24.016  -24.318  -24.494  -24.609  -24.701  -24.793  -24.882  -24.926  -24.870  -24.735  -24.573  -24.451  -24.406  -24.428  -24.484  -24.517  -24.493  -24.434  -24.399  -24.412  -24.459  -24.445  -24.343  -24.175  -24.024  -23.927  -23.819  -23.543  -22.913  -21.786  -20.138  -18.082  -15.807  -13.527  -11.412   -9.607   -8.222   -7.355   -7.371
 -90.750  -88.143  -83.432  -76.460  -67.862  -58.767  -50.323  -43.265  -37.920  -34.726  -34.881  -40.380  -52.714  -70.599  -89.965 -107.144 -120.659 -130.090 -135.101 -135.174 -129.757 -119.000 -103.726  -84.858  -64.662  -47.326  -35.915  -30.199  -28.042  -27.506  -27.498  -27.556  -27.541  -27.452  -27.348  -27.309  -27.347  -27.406  -27.364  -27.099  -26.553  -25.771  -24.869  -23.998  -23.291  -22.832  -22.624  -22.613  -22.669  -22.681  -22.569  -22.355  -22.100  -21.889  -21.792  -21.913  -22.374  -23.222  -24.349  -25.542  -26.568  -27.315  -27.809  -28.112  -28.302  -28.441  -28.558  -28.655  -28.711  -28.711  -28.665  -28.621  -28.623  -28.687  -28.774  -28.861  -28.902  -28.883  -28.845  -28.851  -28.937  -29.045  -29.067  -28.967  -28.787  -28.620  -28.501  -28.357  -28.001  -27.228  -25.890  -23.965  -21.557  -18.855  -16.083  -13.472  -11.215   -9.498   -8.431   -8.363
 -98.667  -96.933  -92.703  -85.822  -76.616  -66.010  -55.318  -45.772  -38.221  -33.514  -33.199  -39.630  -54.261  -74.877  -96.281 -114.824 -129.690 -140.347 -145.751 -144.891 -137.442 -124.489 -107.496  -87.083  -65.333  -46.922  -35.206  -29.673  -27.814  -27.482  -27.560  -27.631  -27.595  -27.483  -27.352  -27.281  -27.281  -27.322  -27.300  -27.125  -26.753  -26.208  -25.574  -24.958  -24.446  -24.091  -23.902  -23.842  -23.825  -23.781  -23.659  -23.485  -23.306  -23.197  -23.226  -23.508  -24.180  -25.288  -26.713  -28.219  -29.545  -30.537  -31.187  -31.574  -31.795  -31.931  -32.031  -32.105  -32.154  -32.173  -32.187  -32.227  -32.308  -32.434  -32.569  -32.681  -32.750  -32.773  -32.797  -32.879  -33.043  -33.213  -33.283  -33.207  -33.034  -32.869  -32.740  -32.572  -32.178  -31.372  -30.018  -28.091  -25.666  -22.920  -20.047  -17.275  -14.835  -12.961  -11.791  -11.642
-108.613 -107.389 -103.023  -95.552  -85.274  -73.024  -60.191  -48.363  -38.836  -32.768  -31.852  -38.493  -53.967  -75.561  -97.622 -116.602 -131.957 -142.948 -148.074 -146.235 -137.546 -123.661 -106.012  -84.985  -62.939  -44.839  -33.810  -28.945  -27.540  -27.442  -27.609  -27.707  -27.681  -27.571  -27.447  -27.361  -27.318  -27.290  -27.228  -27.070  -26.795  -26.420  -25.987  -25.561  -25.189  -24.910  -24.728  -24.621  -24.552  -24.471  -24.356  -24.230  -24.124  -24.100  -24.252  -24.699  -25.581  -26.950  -28.673  -30.482  -32.074  -33.264  -34.031  -34.459  -34.676  -34.782  -34.845  -34.883  -34.908  -34.926  -34.957  -35.019  -35.120  -35.257  -35.398  -35.528  -35.629  -35.701  -35.787  -35.933  -36.149  -36.360  -36.463  -36.419  -36.283  -36.148  -36.041  -35.880  -35.515  -34.790  -33.599  -31.917  -29.811  -27.395  -24.826  -22.277  -19.981  -18.171  -17.019  -16.809
-115.991 -114.824 -109.980 -101.699  -90.429  -77.013  -62.854  -49.714  -39.117  -32.308  -30.858  -36.890  -51.461  -72.095  -93.468 -111.806 -126.162 -135.952 -140.131 -137.984 -129.747 -116.575  -99.293  -78.644  -57.764  -41.438  -32.014  -28.174  -27.289  -27.403  -27.645  -27.757  -27.741  -27.655  -27.554  -27.464  -27.393  -27.323  -27.225  -27.070  -26.852  -26.589  -26.301  -26.009  -25.748  -25.530  -25.366  -25.243  -25.143  -25.046  -24.946  -24.848  -24.789  -24.832  -25.063  -25.635  -26.678  -28.241  -30.180  -32.199  -33.978  -35.304  -36.148  -36.596  -36.798  -36.878  -36.906  -36.915  -36.917  -36.918  -36.937  -36.977  -37.051  -37.158  -37.279  -37.398  -37.506  -37.603  -37.717  -37.878  -38.091  -38.291  -38.398  -38.385  -38.298  -38.213  -38.147  -38.035  -37.763  -37.216  -36.334  -35.120  -33.627  -31.908  -30.022  -28.051  -26.159  -24.582  -23.524  -23.258
-118.217 -116.823 -111.499 -102.627  -90.779  -76.870  -62.398  -49.165  -38.635  -31.871  -30.074  -34.816  -46.960  -64.775  -84.022 -100.881 -113.678 -121.890 -125.167 -123.234 -116.097 -104.091  -87.761  -68.703  -50.554  -37.244  -30.048  -27.416  -27.034  -27.318  -27.592  -27.707  -27.698  -27.637  -27.561  -27.484  -27.415  -27.343  -27.247  -27.115  -26.952  -26.777  -26.600  -26.421  -26.257  -26.112  -25.986  -25.875  -25.777  -25.683  -25.590  -25.514  -25.480  -25.549  -25.823  -26.454  -27.573  -29.226  -31.263  -33.387  -35.265  -36.669  -37.560  -38.030  -38.234  -38.301  -38.310  -38.303  -38.288  -38.276  -38.272  -38.279  -38.311  -38.370  -38.449  -38.541  -38.627  -38.709  -38.803  -38.922  -39.077  -39.217  -39.294  -39.286  -39.240  -39.196  -39.174  -39.132  -39.001  -38.723  -38.304  -37.789  -37.219  -36.566  -35.720  -34.606  -33.290  -32.016  -31.063  -30.739
-115.090 -113.409 -107.831  -98.774  -86.861  -73.168  -59.321  -47.011  -37.409  -31.237  -29.227  -32.346  -41.194  -54.821  -70.439  -84.886  -96.112 -103.265 -106.058 -104.323  -97.942  -87.064  -72.549  -56.579  -42.463  -32.829  -28.037  -26.577  -26.630  -27.026  -27.310  -27.421  -27.427  -27.391  -27.344  -27.300  -27.255  -27.213  -27.156  -27.077  -26.985  -26.896  -26.815  -26.742  -26.670  -26.601  -26.529  -26.465  -26.392  -26.315  -26.246  -26.183  -26.165  -26.240  -26.516  -27.140  -28.259  -29.901  -31.935  -34.072  -35.980  -37.431  -38.371  -38.880  -39.113  -39.193  -39.205  -39.194  -39.174  -39.152  -39.128  -39.111  -39.103  -39.122  -39.162  -39.217  -39.274  -39.321  -39.368  -39.424  -39.490  -39.546  -39.568  -39.546  -39.511  -39.493  -39.505  -39.542  -39.593  -39.686  -39.918  -40.400  -41.159  -42.010  -42.592  -42.590  -41.966  -41.011  -40.130  -39.690
-108.511 -106.540 -100.906  -91.999  -80.515  -67.677  -55.089  -44.168  -35.747  -30.242  -28.002  -29.495  -35.019  -44.082  -55.093  -65.941  -74.856  -80.780  -83.157  -81.689  -76.288  -67.323  -55.952  -44.263  -34.659  -28.605  -25.955  -25.466  -25.838  -26.293  -26.580  -26.695  -26.721  -26.716  -26.714  -26.722  -26.744  -26.768  -26.781  -26.782  -26.779  -26.786  -26.800  -26.820  -26.836  -26.837  -26.836  -26.829  -26.812  -26.786  -26.755  -26.715  -26.697  -26.762  -27.005  -27.575  -28.616  -30.169  -32.133  -34.225  -36.137  -37.636  -38.647  -39.237  -39.536  -39.667  -39.703  -39.698  -39.677  -39.651  -39.619  -39.589  -39.563  -39.561  -39.573  -39.603  -39.631  -39.653  -39.663  -39.665  -39.664  -39.647  -39.617  -39.570  -39.530  -39.520  -39.565  -39.695  -39.978  -40.573  -41.707  -43.574  -46.135  -48.965  -51.356  -52.719  -52.932  -52.362  -51.560  -50.905
-100.571  -98.407  -92.962  -84.585  -74.009  -62.428  -51.234  -41.550  -33.991  -28.834  -26.220  -26.306  -29.111  -34.276  -40.900  -47.730  -53.600  -57.663  -59.349  -58.307  -54.479  -48.290  -40.783  -33.495  -27.906  -24.729  -23.676  -23.850  -24.407  -24.886  -25.168  -25.297  -25.355  -25.397  -25.451  -25.532  -25.650  -25.784  -25.912  -26.034  -26.151  -26.276  -26.400  -26.511  -26.599  -26.674  -26.746  -26.824  -26.893  -26.949  -26.977  -26.969  -26.951  -26.979  -27.148  -27.616  -28.513  -29.921  -31.761  -33.786  -35.699  -37.268  -38.396  -39.120  -39.534  -39.747  -39.829  -39.845  -39.828  -39.801  -39.772  -39.748  -39.725  -39.718  -39.730  -39.747  -39.770  -39.790  -39.799  -39.786  -39.754  -39.706  -39.655  -39.607  -39.573  -39.575  -39.650  -39.887  -40.469  -41.694  -43.947  -47.495  -52.180  -57.244  -61.619  -64.500  -65.735  -65.759  -65.176  -64.233
 -92.955  -90.805  -85.812  -78.285  -68.882  -58.599  -48.546  -39.636  -32.430  -27.204  -24.070  -23.030  -23.936  -26.395  -29.800  -33.395  -36.506  -38.656  -39.495  -38.799  -36.534  -33.005  -28.880  -25.078  -22.393  -21.144  -21.066  -21.591  -22.216  -22.681  -22.962  -23.113  -23.205  -23.287  -23.398  -23.565  -23.804  -24.088  -24.384  -24.670  -24.952  -25.226  -25.475  -25.682  -25.850  -25.992  -26.151  -26.328  -26.513  -26.678  -26.788  -26.819  -26.794  -26.762  -26.824  -27.129  -27.843  -29.057  -30.731  -32.665  -34.582  -36.246  -37.533  -38.431  -39.006  -39.330  -39.479  -39.524  -39.522  -39.503  -39.486  -39.484  -39.492  -39.513  -39.547  -39.596  -39.657  -39.718  -39.770  -39.795  -39.794  -39.771  -39.741  -39.719  -39.710  -39.735  -39.850  -40.207  -41.093  -42.951  -46.314  -51.490  -58.154  -65.228  -71.382  -75.725  -78.115  -78.985  -78.857  -77.675
 -86.571  -84.592  -80.172  -73.572  -65.319  -56.175  -46.992  -38.535  -31.370  -25.861  -22.172  -20.278  -19.952  -20.789  -22.255  -23.822  -25.097  -25.857  -25.982  -25.413  -24.177  -22.449  -20.555  -18.948  -17.985  -17.789  -18.172  -18.799  -19.394  -19.834  -20.124  -20.304  -20.413  -20.493  -20.614  -20.844  -21.203  -21.649  -22.138  -22.624  -23.103  -23.550  -23.942  -24.252  -24.491  -24.702  -24.943  -25.229  -25.537  -25.821  -26.020  -26.100  -26.066  -25.958  -25.888  -26.009  -26.508  -27.497  -28.981  -30.794  -32.693  -34.444  -35.886  -36.969  -37.708  -38.152  -38.375  -38.457  -38.475  -38.478  -38.501  -38.548  -38.621  -38.712  -38.833  -38.976  -39.145  -39.323  -39.487  -39.621  -39.716  -39.771  -39.808  -39.834  -39.867  -39.921  -40.077  -40.522  -41.611  -43.899  -48.001  -54.256  -62.225  -70.650  -78.098  -83.675  -87.234  -89.121  -89.658  -88.439
 -81.382  -79.603  -75.710  -69.935  -62.693  -54.559  -46.180  -38.184  -31.125  -25.424  -21.317  -18.816  -17.706  -17.570  -17.932  -18.364  -18.604  -18.547  -18.189  -17.587  -16.818  -15.971  -15.198  -14.657  -14.492  -14.725  -15.219  -15.801  -16.345  -16.792  -17.125  -17.340  -17.418  -17.420  -17.466  -17.670  -18.085  -18.659  -19.316  -19.987  -20.651  -21.263  -21.783  -22.182  -22.478  -22.727  -23.022  -23.386  -23.793  -24.177  -24.469  -24.602  -24.573  -24.399  -24.204  -24.145  -24.426  -25.192  -26.467  -28.126  -29.955  -31.727  -33.260  -34.471  -35.322  -35.852  -36.131  -36.253  -36.300  -36.351  -36.442  -36.581  -36.765  -36.994  -37.282  -37.612  -37.994  -38.393  -38.783  -39.123  -39.396  -39.594  -39.735  -39.834  -39.912  -39.992  -40.160  -40.617  -41.726  -44.056  -48.248  -54.687  -62.970  -71.872  -79.987  -86.444  -91.059  -94.025  -95.390  -94.442
 -76.932  -75.297  -71.821  -66.726  -60.377  -53.227  -45.762  -38.487  -31.863  -26.301  -22.059  -19.208  -17.555  -16.756  -16.394  -16.133  -15.757  -15.211  -14.524  -13.765  -13.025  -12.398  -11.954  -11.744  -11.797  -12.080  -12.523  -13.047  -13.596  -14.127  -14.564  -14.816  -14.824  -14.654  -14.502  -14.560  -14.910  -15.508  -16.244  -17.020  -17.787  -18.490  -19.082  -19.518  -19.823  -20.074  -20.367  -20.747  -21.186  -21.628  -21.981  -22.170  -22.161  -21.956  -21.673  -21.478  -21.584  -22.149  -23.206  -24.672  -26.352  -28.030  -29.528  -30.734  -31.603  -32.148  -32.444  -32.589  -32.687  -32.809  -32.996  -33.265  -33.618  -34.061  -34.599  -35.233  -35.950  -36.702  -37.444  -38.110  -38.651  -39.061  -39.345  -39.534  -39.655  -39.754  -39.905  -40.285  -41.209  -43.183  -46.803  -52.492  -60.043  -68.473  -76.527  -83.367  -88.750  -92.683  -94.927  -94.527
 -72.927  -71.371  -68.209  -63.676  -58.132  -51.970  -45.557  -39.256  -33.417  -28.362  -24.319  -21.353  -19.336  -18.017  -17.083  -16.285  -15.462  -14.538  -13.541  -12.509  -11.539  -10.728  -10.161   -9.858   -9.824  -10.003  -10.349  -10.850  -11.486  -12.181  -12.792  -13.121  -13.046  -12.664  -12.237  -12.041  -12.217  -12.702  -13.382  -14.124  -14.862  -15.542  -16.093  -16.475  -16.724  -16.923  -17.157  -17.475  -17.872  -18.297  -18.660  -18.883  -18.890  -18.685  -18.364  -18.089  -18.069  -18.465  -19.311  -20.535  -21.968  -23.427  -24.747  -25.817  -26.581  -27.058  -27.328  -27.488  -27.636  -27.841  -28.148  -28.574  -29.129  -29.832  -30.693  -31.717  -32.864  -34.085  -35.291  -36.377  -37.265  -37.931  -38.387  -38.667  -38.834  -38.935  -39.039  -39.282  -39.906  -41.289  -43.920  -48.222  -54.203  -61.265  -68.468  -75.082  -80.793  -85.399  -88.386  -88.669
 -69.331  -67.824  -64.897  -60.822  -55.988  -50.757  -45.407  -40.179  -35.295  -30.964  -27.335  -24.453  -22.236  -20.520  -19.111  -17.849  -16.617  -15.347  -14.021  -12.665  -11.354  -10.212   -9.343   -8.788   -8.545   -8.576   -8.837   -9.345  -10.084  -10.968  -11.762  -12.198  -12.108  -11.579  -10.928  -10.489  -10.435  -10.728  -11.232  -11.811  -12.377  -12.874  -13.260  -13.501  -13.636  -13.730  -13.857  -14.058  -14.342  -14.671  -14.971  -15.166  -15.167  -14.963  -14.630  -14.324  -14.219  -14.465  -15.090  -16.030  -17.145  -18.293  -19.329  -20.158  -20.739  -21.092  -21.306  -21.464  -21.654  -21.937  -22.352  -22.920  -23.674  -24.635  -25.817  -27.230  -28.825  -30.530  -32.222  -33.752  -35.007  -35.928  -36.539  -36.900  -37.094  -37.179  -37.221  -37.315  -37.625  -38.406  -40.001  -42.757  -46.816  -51.930  -57.569  -63.252  -68.680  -73.476  -76.904  -77.862
 -66.080  -64.625  -61.879  -58.174  -53.926  -49.487  -45.076  -40.829  -36.859  -33.264  -30.116  -27.420  -25.124  -23.141  -21.352  -19.681  -18.073  -16.484  -14.879  -13.256  -11.685  -10.276   -9.155   -8.403   -7.999   -7.895   -8.074   -8.556   -9.336  -10.315  -11.230  -11.767  -11.741  -11.229  -10.533   -9.980   -9.761   -9.857  -10.137  -10.479  -10.795  -11.033  -11.170  -11.209  -11.191  -11.169  -11.168  -11.233  -11.356  -11.531  -11.703  -11.807  -11.763  -11.548  -11.216  -10.876  -10.687  -10.769  -11.155  -11.797  -12.591  -13.410  -14.141  -14.703  -15.075  -15.294  -15.428  -15.567  -15.769  -16.089  -16.558  -17.210  -18.086  -19.223  -20.625  -22.293  -24.195  -26.250  -28.306  -30.170  -31.688  -32.784  -33.490  -33.894  -34.084  -34.135  -34.102  -34.058  -34.117  -34.428  -35.210  -36.690  -39.022  -42.167  -45.933  -50.124  -54.575  -58.881  -62.232  -63.646
 -62.819  -61.420  -58.841  -55.448  -51.685  -47.887  -44.228  -40.771  -37.545  -34.571  -31.854  -29.369  -27.077  -24.918  -22.852  -20.855  -18.941  -17.108  -15.345  -13.641  -12.028  -10.610   -9.493   -8.725   -8.288   -8.139   -8.268   -8.682   -9.387  -10.294  -11.162  -11.721  -11.798  -11.421  -10.846  -10.351  -10.092  -10.069  -10.185  -10.319  -10.401  -10.396  -10.290  -10.138   -9.970   -9.840   -9.741   -9.674   -9.649   -9.657   -9.674   -9.664   -9.559   -9.322   -8.975   -8.599   -8.307   -8.206   -8.365   -8.757   -9.292   -9.868  -10.368  -10.723  -10.924  -11.017  -11.067  -11.144  -11.303  -11.574  -12.005  -12.634  -13.508  -14.645  -16.051  -17.721  -19.635  -21.724  -23.829  -25.750  -27.298  -28.394  -29.079  -29.463  -29.625  -29.626  -29.516  -29.358  -29.244  -29.269  -29.549  -30.192  -31.302  -32.919  -35.032  -37.651  -40.748  -44.012  -46.744  -48.241
 -58.955  -57.609  -55.224  -52.149  -48.827  -45.562  -42.497  -39.650  -36.992  -34.500  -32.140  -29.869  -27.648  -25.437  -23.227  -21.069  -19.010  -17.116  -15.413  -13.891  -12.558  -11.460  -10.636  -10.115   -9.866   -9.840  -10.012  -10.375  -10.927  -11.597  -12.237  -12.647  -12.704  -12.426  -11.991  -11.599  -11.363  -11.306  -11.328  -11.342  -11.274  -11.099  -10.826  -10.509  -10.226   -9.995   -9.803   -9.630   -9.476   -9.348   -9.257   -9.173   -9.037   -8.808   -8.477   -8.077   -7.692   -7.450   -7.439   -7.689   -8.116   -8.599   -8.995   -9.240   -9.337   -9.328   -9.285   -9.264   -9.301   -9.437   -9.724  -10.225  -10.961  -11.925  -13.081  -14.434  -15.982  -17.676  -19.393  -20.934  -22.150  -22.988  -23.506  -23.788  -23.886  -23.841  -23.677  -23.454  -23.256  -23.146  -23.183  -23.393  -23.810  -24.480  -25.483  -26.924  -28.837  -31.019  -32.950  -34.282
 -54.047  -52.743  -50.613  -47.927  -45.074  -42.314  -39.760  -37.408  -35.199  -33.093  -31.051  -29.029  -26.986  -24.917  -22.830  -20.801  -18.920  -17.305  -16.000  -15.009  -14.300  -13.848  -13.635  -13.649  -13.853  -14.184  -14.596  -15.043  -15.476  -15.855  -16.090  -16.108  -15.862  -15.409  -14.869  -14.395  -14.084  -13.935  -13.874  -13.801  -13.651  -13.366  -12.958  -12.485  -12.022  -11.607  -11.237  -10.895  -10.581  -10.318  -10.131  -10.020   -9.919   -9.769   -9.518   -9.161   -8.761   -8.462   -8.409   -8.651   -9.119   -9.643  -10.060  -10.286  -10.333  -10.263  -10.133   -9.993   -9.891   -9.862   -9.971  -10.293  -10.826  -11.512  -12.289  -13.126  -14.017  -14.941  -15.818  -16.540  -17.028  -17.312  -17.467  -17.550  -17.564  -17.481  -17.301  -17.075  -16.875  -16.767  -16.751  -16.815  -16.944  -17.194  -17.671  -18.520  -19.785  -21.302  -22.695  -23.841
 -48.250  -47.002  -45.225  -43.024  -40.707  -38.478  -36.419  -34.515  -32.724  -30.998  -29.324  -27.673  -26.039  -24.428  -22.870  -21.448  -20.271  -19.429  -18.989  -18.918  -19.161  -19.649  -20.329  -21.167  -22.112  -23.110  -24.050  -24.821  -25.311  -25.450  -25.193  -24.553  -23.607  -22.476  -21.344  -20.365  -19.639  -19.170  -18.881  -18.652  -18.372  -17.949  -17.333  -16.576  -15.747  -14.909  -14.094  -13.340  -12.660  -12.123  -11.751  -11.540  -11.437  -11.356  -11.202  -10.939  -10.610  -10.361  -10.365  -10.688  -11.252  -11.865  -12.329  -12.573  -12.614  -12.518  -12.342  -12.132  -11.933  -11.796  -11.806  -12.016  -12.398  -12.868  -13.311  -13.656  -13.881  -13.945  -13.810  -13.456  -12.962  -12.470  -12.104  -11.898  -11.772  -11.643  -11.479  -11.299  -11.170  -11.151  -11.225  -11.337  -11.471  -11.668  -12.066  -12.835  -13.993  -15.371  -16.605  -17.669
 -42.498  -41.357  -40.009  -38.377  -36.660  -35.014  -33.495  -32.098  -30.806  -29.595  -28.473  -27.461  -26.588  -25.893  -25.412  -25.211  -25.338  -25.839  -26.711  -27.913  -29.360  -30.989  -32.752  -34.626  -36.570  -38.500  -40.248  -41.609  -42.379  -42.425  -41.696  -40.244  -38.242  -35.942  -33.632  -31.579  -29.944  -28.769  -27.969  -27.377  -26.809  -26.085  -25.095  -23.832  -22.364  -20.773  -19.149  -17.584  -16.179  -15.020  -14.146  -13.564  -13.215  -12.994  -12.794  -12.529  -12.234  -12.018  -12.056  -12.407  -12.978  -13.583  -14.037  -14.259  -14.288  -14.181  -14.002  -13.796  -13.600  -13.476  -13.515  -13.745  -14.119  -14.520  -14.818  -14.919  -14.758  -14.255  -13.358  -12.115  -10.717   -9.460   -8.539   -7.975   -7.654   -7.441   -7.255   -7.116   -7.083   -7.191   -7.444   -7.758   -8.085   -8.449   -8.995   -9.915  -11.230  -12.731  -14.034  -15.071
 -38.033  -37.075  -36.185  -35.154  -34.086  -33.093  -32.234  -31.518  -30.940  -30.506  -30.262  -30.267  -30.603  -31.329  -32.486  -34.037  -35.936  -38.114  -40.507  -43.062  -45.727  -48.479  -51.322  -54.272  -57.292  -60.254  -62.923  -65.003  -66.214  -66.351  -65.326  -63.189  -60.133  -56.506  -52.729  -49.214  -46.266  -44.005  -42.361  -41.122  -40.020  -38.788  -37.249  -35.324  -33.043  -30.495  -27.806  -25.144  -22.649  -20.443  -18.609  -17.164  -16.065  -15.235  -14.560  -13.949  -13.386  -12.973  -12.820  -12.962  -13.318  -13.721  -14.006  -14.127  -14.098  -13.970  -13.806  -13.645  -13.517  -13.491  -13.630  -13.964  -14.425  -14.895  -15.258  -15.416  -15.281  -14.715  -13.628  -12.055  -10.236   -8.529   -7.210   -6.339   -5.787   -5.418   -5.153   -4.990   -5.010   -5.266   -5.756   -6.375   -6.991   -7.592   -8.295   -9.298  -10.665  -12.187  -13.487  -14.455
 -35.620  -34.879  -34.441  -34.018  -33.656  -33.433  -33.415  -33.610  -34.019  -34.659  -35.595  -36.930  -38.789  -41.248  -44.269  -47.722  -51.399  -55.121  -58.789  -62.382  -65.932  -69.509  -73.192  -77.026  -80.963  -84.817  -88.285  -91.013  -92.691  -93.094  -92.109  -89.751  -86.183  -81.736  -76.880  -72.132  -67.930  -64.510  -61.867  -59.789  -57.967  -56.088  -53.917  -51.333  -48.309  -44.922  -41.293  -37.573  -33.917  -30.451  -27.284  -24.480  -22.043  -19.950  -18.130  -16.520  -15.110  -13.974  -13.172  -12.709  -12.507  -12.434  -12.367  -12.254  -12.094  -11.917  -11.735  -11.587  -11.505  -11.556  -11.785  -12.198  -12.728  -13.281  -13.790  -14.188  -14.374  -14.200  -13.498  -12.246  -10.629   -8.992   -7.612   -6.596   -5.866   -5.312   -4.900   -4.659   -4.696   -5.095   -5.846   -6.796   -7.715   -8.488   -9.196  -10.041  -11.137  -12.361  -13.421  -14.212
 -35.466  -34.946  -34.940  -35.119  -35.512  -36.169  -37.122  -38.369  -39.888  -41.687  -43.846  -46.509  -49.818  -53.824  -58.424  -63.348  -68.281  -72.988  -77.375  -81.503  -85.508  -89.551  -93.769  -98.220 -102.820 -107.325 -111.382 -114.622 -116.736 -117.519 -116.866 -114.787 -111.415 -107.021 -102.010  -96.876  -92.088  -87.965  -84.579  -81.774  -79.267  -76.765  -74.033  -70.940  -67.443  -63.572  -59.401  -55.024  -50.526  -45.993  -41.504  -37.142  -32.985  -29.084  -25.460  -22.130  -19.154  -16.606  -14.538  -12.942  -11.765  -10.905  -10.266   -9.783   -9.397   -9.094   -8.840   -8.641   -8.535   -8.566   -8.760   -9.120   -9.608  -10.160  -10.755  -11.366  -11.925  -12.297  -12.275  -11.756  -10.804   -9.673   -8.593   -7.670   -6.878   -6.199   -5.661   -5.353   -5.407   -5.924   -6.876   -8.065   -9.181   -9.991  -10.520  -10.968  -11.521  -12.178  -12.772  -13.329
 -38.036  -37.722  -38.095  -38.823  -39.918  -41.393  -43.239  -45.413  -47.858  -50.567  -53.633  -57.214  -61.461  -66.398  -71.860  -77.514  -83.003  -88.090  -92.724  -97.027 -101.211 -105.501 -110.066 -114.968 -120.098 -125.175 -129.817 -133.628 -136.278 -137.547 -137.342 -135.711 -132.831 -128.977 -124.502 -119.801 -115.253 -111.142 -107.563 -104.419 -101.503  -98.585  -95.480  -92.085  -88.366  -84.332  -80.005  -75.399  -70.510  -65.333  -59.885  -54.221  -48.433  -42.643  -36.970  -31.544  -26.509  -21.998  -18.117  -14.902  -12.341  -10.372   -8.936   -7.927   -7.222   -6.731   -6.355   -6.060   -5.860   -5.773   -5.825   -6.034   -6.364   -6.800   -7.333   -7.991   -8.743   -9.501  -10.068  -10.283  -10.109   -9.660   -9.061   -8.410   -7.729   -7.068   -6.510   -6.199   -6.277   -6.839   -7.855   -9.100  -10.192  -10.872  -11.110  -11.096  -11.066  -11.115  -11.234  -11.560
 -44.327  -44.241  -44.878  -45.964  -47.504  -49.489  -51.863  -54.533  -57.428  -60.531  -63.933  -67.798  -72.265  -77.355  -82.896  -88.560  -94.009  -99.031 -103.597 -107.853 -112.039 -116.406 -121.146 -126.331 -131.861 -137.466 -142.759 -147.320 -150.744 -152.746 -153.211 -152.200 -149.943 -146.775 -143.056 -139.124 -135.259 -131.643 -128.328 -125.239 -122.230 -119.143 -115.857 -112.311 -108.494 -104.410 -100.054  -95.390  -90.347  -84.849  -78.844  -72.333  -65.384  -58.129  -50.747  -43.436  -36.421  -29.902  -24.049  -18.979  -14.765  -11.441   -8.990   -7.296   -6.171   -5.421   -4.884   -4.473   -4.164   -3.965   -3.885   -3.924   -4.086   -4.339   -4.716   -5.255   -5.966   -6.798   -7.618   -8.263   -8.644   -8.745   -8.622   -8.310   -7.849   -7.326   -6.868   -6.625   -6.724   -7.240   -8.131   -9.170  -10.028  -10.445  -10.389  -10.047   -9.649   -9.328   -9.167   -9.375
 -54.610  -54.856  -55.606  -56.772  -58.386  -60.430  -62.821  -65.455  -68.251  -71.194  -74.363  -77.902  -81.943  -86.515  -91.481  -96.574 -101.510 -106.108 -110.342 -114.345 -118.334 -122.545 -127.166 -132.265 -137.769 -143.444 -148.964 -153.948 -158.027 -160.929 -162.496 -162.724 -161.765 -159.854 -157.308 -154.437 -151.487 -148.586 -145.765 -142.947 -140.035 -136.920 -133.545 -129.890 -125.963 -121.781 -117.331 -112.555 -107.357 -101.629  -95.280  -88.275  -80.655  -72.538  -64.107  -55.581  -47.184  -39.138  -31.633  -24.853  -18.977  -14.187  -10.548   -7.984   -6.274   -5.153   -4.397   -3.861   -3.482   -3.237   -3.109   -3.077   -3.135   -3.248   -3.470   -3.827   -4.355   -5.053   -5.825   -6.550   -7.134   -7.516   -7.688   -7.646   -7.429   -7.099   -6.800   -6.639   -6.715   -7.075   -7.665   -8.315   -8.786   -8.893   -8.638   -8.202   -7.753   -7.428   -7.267   -7.495
 -67.050  -67.765  -68.562  -69.638  -71.072  -72.855  -74.913  -77.149  -79.491  -81.925  -84.512  -87.371  -90.614  -94.280  -98.289 -102.456 -106.576 -110.505 -114.217 -117.799 -121.405 -125.212 -129.363 -133.913 -138.798 -143.838 -148.785 -153.395 -157.484 -160.936 -163.673 -165.614 -166.701 -166.923 -166.356 -165.166 -163.543 -161.624 -159.471 -157.059 -154.330 -151.249 -147.799 -144.001 -139.894 -135.510 -130.846 -125.849 -120.424 -114.459 -107.864 -100.595  -92.682  -84.238  -75.432  -66.456  -57.493  -48.691  -40.195  -32.185  -24.924  -18.705  -13.756  -10.103   -7.558   -5.859   -4.760   -4.062   -3.639   -3.431   -3.352   -3.348   -3.366   -3.388   -3.457   -3.637   -3.995   -4.511   -5.149   -5.791   -6.369   -6.815   -7.086   -7.187   -7.118   -6.958   -6.779   -6.665   -6.669   -6.801   -7.009   -7.200   -7.244   -7.060   -6.719   -6.376   -6.165   -6.106   -6.165   -6.513
 -78.478  -79.714  -80.602  -81.605  -82.849  -84.337  -86.009  -87.792  -89.625  -91.497  -93.458  -95.596  -98.008 -100.734 -103.746 -106.940 -110.188 -113.390 -116.515 -119.594 -122.701 -125.926 -129.345 -132.990 -136.816 -140.716 -144.556 -148.252 -151.806 -155.275 -158.693 -162.013 -165.074 -167.649 -169.505 -170.536 -170.730 -170.160 -168.913 -167.051 -164.607 -161.601 -158.082 -154.107 -149.757 -145.093 -140.136 -134.863 -129.203 -123.066 -116.367 -109.076 -101.228  -92.926  -84.323  -75.570  -66.773  -57.983  -49.240  -40.650  -32.475  -25.090  -18.849  -13.922  -10.272   -7.728   -6.058   -5.073   -4.594   -4.449   -4.489   -4.555   -4.553   -4.444   -4.307   -4.280   -4.457   -4.858   -5.414   -6.008   -6.556   -6.991   -7.275   -7.394   -7.375   -7.288   -7.159   -7.036   -6.933   -6.824   -6.678   -6.456   -6.134   -5.744   -5.403   -5.274   -5.423   -5.765   -6.148   -6.660
 -86.370  -88.025  -89.067  -90.107  -91.292  -92.624  -94.059  -95.534  -97.005  -98.466  -99.958 -101.553 -103.329 -105.335 -107.578 -110.011 -112.563 -115.168 -117.784 -120.392 -122.998 -125.607 -128.221 -130.830 -133.412 -135.939 -138.429 -140.968 -143.724 -146.870 -150.502 -154.577 -158.926 -163.248 -167.184 -170.370 -172.540 -173.581 -173.497 -172.392 -170.370 -167.542 -164.007 -159.882 -155.288 -150.330 -145.092 -139.592 -133.795 -127.639 -121.061 -114.035 -106.595  -98.833  -90.869  -82.801  -74.661  -66.410  -57.989  -49.421  -40.899  -32.792  -25.513  -19.360  -14.481  -10.873   -8.441   -7.024   -6.389   -6.282   -6.422   -6.536   -6.437   -6.089   -5.634   -5.278   -5.226   -5.501   -6.011   -6.611   -7.189   -7.627   -7.890   -7.975   -7.935   -7.833   -7.701   -7.538   -7.328   -7.023   -6.628   -6.145   -5.618   -5.169   -4.955   -5.135   -5.700   -6.486   -7.227   -7.909
 -89.571  -91.427  -92.633  -93.807  -95.069  -96.412  -97.786  -99.147 -100.458 -101.721 -102.967 -104.264 -105.684 -107.289 -109.102 -111.110 -113.272 -115.536 -117.841 -120.138 -122.376 -124.502 -126.457 -128.180 -129.636 -130.841 -131.918 -133.125 -134.807 -137.293 -140.753 -145.128 -150.167 -155.511 -160.765 -165.497 -169.301 -171.868 -173.056 -172.886 -171.494 -169.015 -165.604 -161.427 -156.664 -151.502 -146.076 -140.472 -134.698 -128.721 -122.492 -115.984 -109.215 -102.246  -95.150  -87.964  -80.664  -73.159  -65.338  -57.171  -48.782  -40.483  -32.650  -25.640  -19.729  -15.106  -11.846   -9.863   -8.937   -8.735   -8.852   -8.916   -8.638   -7.967   -7.077   -6.296   -5.895   -5.944   -6.343   -6.921   -7.492   -7.930   -8.156   -8.183   -8.086   -7.934   -7.772   -7.573   -7.298   -6.902   -6.411   -5.870   -5.384   -5.102   -5.210   -5.821   -6.871   -8.108   -9.196  -10.017
 -88.213  -90.021  -91.349  -92.687  -94.095  -95.545  -96.987  -98.379  -99.695 -100.935 -102.132 -103.353 -104.678 -106.178 -107.890 -109.817 -111.921 -114.142 -116.403 -118.622 -120.719 -122.607 -124.187 -125.357 -126.043 -126.255 -126.151 -126.076 -126.515 -127.971 -130.771 -134.934 -140.174 -146.032 -152.013 -157.649 -162.504 -166.189 -168.453 -169.212 -168.533 -166.545 -163.411 -159.333 -154.554 -149.322 -143.857 -138.297 -132.706 -127.078 -121.366 -115.531 -109.559 -103.461  -97.252  -90.923  -84.413  -77.620  -70.435  -62.812  -54.847  -46.779  -38.925  -31.599  -25.128  -19.807  -15.845  -13.261  -11.882  -11.358  -11.263  -11.131  -10.615   -9.605   -8.307   -7.092   -6.292   -6.013   -6.169   -6.569   -7.029   -7.389   -7.554   -7.520   -7.370   -7.179   -6.990   -6.780   -6.507   -6.139   -5.731   -5.360   -5.153   -5.277   -5.885   -7.034   -8.578  -10.223  -11.593  -12.506
 -83.682  -85.260  -86.629  -88.086  -89.623  -91.190  -92.733  -94.217  -95.615  -96.929  -98.193  -99.481 -100.887 -102.496 -104.353 -106.460 -108.765 -111.190 -113.636 -115.997 -118.173 -120.064 -121.549 -122.502 -122.816 -122.473 -121.617 -120.599 -119.954 -120.279 -122.050 -125.452 -130.319 -136.206 -142.526 -148.689 -154.176 -158.563 -161.548 -162.998 -162.924 -161.413 -158.620 -154.757 -150.092 -144.935 -139.559 -134.172 -128.880 -123.701 -118.584 -113.459 -108.266 -102.964  -97.522  -91.892  -86.011  -79.794  -73.158  -66.078  -58.637  -51.038  -43.522  -36.348  -29.797  -24.172  -19.747  -16.619  -14.686  -13.671  -13.183  -12.738  -11.963  -10.697   -9.106   -7.572   -6.428   -5.795   -5.610   -5.713   -5.942   -6.142   -6.208   -6.128   -5.951   -5.752   -5.562   -5.379   -5.177   -4.956   -4.770   -4.727   -4.958   -5.605   -6.767   -8.409  -10.344  -12.257  -13.758  -14.706
 -78.246  -79.561  -80.894  -82.377  -83.960  -85.578  -87.180  -88.728  -90.200  -91.596  -92.953  -94.352  -95.902  -97.701  -99.798 -102.182 -104.783 -107.504 -110.220 -112.811 -115.164 -117.174 -118.720 -119.663 -119.879 -119.326 -118.121 -116.591 -115.248 -114.698 -115.479 -117.908 -121.995 -127.429 -133.655 -139.999 -145.823 -150.619 -154.043 -155.937 -156.276 -155.138 -152.653 -149.032 -144.568 -139.587 -134.410 -129.290 -124.367 -119.667 -115.126 -110.641 -106.107 -101.444  -96.585  -91.471  -86.051  -80.265  -74.067  -67.449  -60.501  -53.398  -46.334  -39.506  -33.140  -27.500  -22.847  -19.311  -16.862  -15.328  -14.391  -13.644  -12.658  -11.239   -9.505   -7.803   -6.434   -5.528   -5.024   -4.826   -4.791   -4.801   -4.772   -4.664   -4.494   -4.308   -4.147   -4.018   -3.932   -3.887   -3.959   -4.259   -4.918   -6.014   -7.594   -9.568  -11.719  -13.717  -15.245  -16.190
 -73.964  -75.165  -76.432  -77.855  -79.384  -80.959  -82.534  -84.071  -85.547  -86.964  -88.362  -89.821  -91.460  -93.377  -95.618  -98.165 -100.937 -103.821 -106.686 -109.403 -111.860 -113.949 -115.552 -116.529 -116.755 -116.181 -114.905 -113.222 -111.600 -110.602 -110.756 -112.426 -115.730 -120.490 -126.254 -132.386 -138.214 -143.166 -146.838 -149.006 -149.615 -148.721 -146.458 -143.047 -138.793 -134.047 -129.143 -124.350 -119.812 -115.550 -111.489 -107.502 -103.463  -99.268  -94.840  -90.119  -85.064  -79.638  -73.812  -67.594  -61.068  -54.389  -47.720  -41.224  -35.078  -29.523  -24.804  -21.058  -18.308  -16.445  -15.223  -14.258  -13.146  -11.665   -9.904   -8.152   -6.691   -5.636   -4.961   -4.567   -4.374   -4.267   -4.173   -4.049   -3.889   -3.721   -3.583   -3.498   -3.478   -3.557   -3.787   -4.295   -5.168   -6.496   -8.265  -10.370  -12.566  -14.554  -16.071  -17.111
