DSAA
 100 100
 0.0 400.0
 0.0 400.0
 -291.1212 -0.5225257
 -31.538  -31.864  -32.346  -33.067  -34.039  -35.198  -36.430  -37.589  -38.471  -38.886  -38.624  -37.426  -35.080  -31.585  -27.276  -22.839  -19.125  -16.743  -15.823  -16.079  -17.138  -18.690  -20.601  -22.786  -25.064  -27.089  -28.433  -28.770  -28.023  -26.299  -23.761  -20.681  -17.455  -14.632  -12.725  -11.883  -11.891  -12.327  -12.795  -13.047  -13.016  -12.754  -12.377  -12.043  -11.840  -11.835  -12.019  -12.330  -12.686  -13.075  -13.499  -13.980  -14.467  -14.774  -14.614  -13.710  -11.918   -9.456   -6.779   -4.431   -2.740   -1.706   -1.151   -0.896   -0.803   -0.745   -0.729   -0.712   -0.700   -0.682   -0.673   -0.674   -0.675   -0.678   -0.683   -0.688   -0.676   -0.673   -0.681   -0.709   -0.729   -0.742   -0.760   -0.800   -0.854   -0.947   -1.089   -1.326   -1.694   -2.246   -3.053   -4.094   -5.367   -6.832   -8.535  -10.557  -12.881  -15.261  -17.234  -18.518
 -31.221  -31.501  -31.919  -32.541  -33.376  -34.387  -35.489  -36.521  -37.313  -37.682  -37.423  -36.306  -34.095  -30.776  -26.645  -22.367  -18.731  -16.339  -15.338  -15.484  -16.401  -17.822  -19.610  -21.688  -23.881  -25.871  -27.285  -27.822  -27.396  -26.053  -23.907  -21.128  -18.107  -15.362  -13.353  -12.255  -11.928  -12.055  -12.330  -12.502  -12.473  -12.262  -11.958  -11.685  -11.548  -11.585  -11.792  -12.105  -12.447  -12.810  -13.216  -13.682  -14.172  -14.531  -14.477  -13.730  -12.149   -9.884   -7.343   -5.025   -3.257   -2.104   -1.449   -1.116   -0.957   -0.884   -0.839   -0.804   -0.764   -0.734   -0.705   -0.682   -0.680   -0.677   -0.664   -0.668   -0.670   -0.678   -0.686   -0.700   -0.716   -0.751   -0.782   -0.856   -0.968   -1.159   -1.463   -1.926   -2.586   -3.519   -4.768   -6.318   -8.080   -9.988  -12.061  -14.342  -16.839  -19.310  -21.282  -22.453
 -30.336  -30.550  -30.837  -31.265  -31.835  -32.551  -33.359  -34.126  -34.701  -34.941  -34.675  -33.707  -31.824  -28.966  -25.356  -21.530  -18.171  -15.842  -14.714  -14.635  -15.271  -16.398  -17.894  -19.675  -21.591  -23.407  -24.843  -25.685  -25.819  -25.191  -23.794  -21.724  -19.247  -16.777  -14.700  -13.185  -12.225  -11.726  -11.551  -11.532  -11.532  -11.476  -11.389  -11.338  -11.406  -11.586  -11.835  -12.091  -12.316  -12.559  -12.848  -13.240  -13.689  -14.087  -14.189  -13.752  -12.611  -10.808   -8.628   -6.464   -4.640   -3.298   -2.438   -1.934   -1.671   -1.531   -1.431   -1.342   -1.234   -1.118   -1.040   -0.981   -0.948   -0.932   -0.925   -0.912   -0.903   -0.907   -0.919   -0.943   -0.985   -1.037   -1.122   -1.289   -1.572   -2.062   -2.783   -3.789   -5.118   -6.830   -8.943  -11.380  -13.959  -16.513  -19.013  -21.528  -24.067  -26.431  -28.254  -29.174
 -28.691  -28.811  -28.932  -29.101  -29.336  -29.685  -30.134  -30.587  -30.903  -30.971  -30.683  -29.892  -28.431  -26.214  -23.353  -20.213  -17.339  -15.204  -14.023  -13.710  -14.016  -14.760  -15.839  -17.185  -18.669  -20.146  -21.482  -22.542  -23.216  -23.372  -22.898  -21.780  -20.148  -18.235  -16.247  -14.339  -12.660  -11.389  -10.620  -10.330  -10.352  -10.572  -10.930  -11.404  -11.957  -12.471  -12.828  -12.954  -12.883  -12.759  -12.724  -12.859  -13.162  -13.523  -13.783  -13.705  -13.085  -11.910  -10.290   -8.483   -6.772   -5.351   -4.311   -3.642   -3.248   -3.034   -2.859   -2.673   -2.429   -2.172   -1.956   -1.824   -1.753   -1.723   -1.693   -1.650   -1.612   -1.595   -1.615   -1.681   -1.766   -1.889   -2.098   -2.457   -3.097   -4.129   -5.589   -7.482   -9.769  -12.454  -15.496  -18.736  -21.923  -24.839  -27.435  -29.824  -32.062  -34.060  -35.528  -36.089
 -26.156  -26.139  -26.074  -25.959  -25.851  -25.843  -25.947  -26.090  -26.164  -26.078  -25.773  -25.184  -24.195  -22.710  -20.735  -18.466  -16.268  -14.530  -13.439  -12.995  -13.029  -13.397  -14.004  -14.812  -15.735  -16.713  -17.740  -18.779  -19.770  -20.582  -21.060  -21.088  -20.582  -19.484  -17.767  -15.590  -13.270  -11.244   -9.858   -9.244   -9.293   -9.902  -10.939  -12.281  -13.685  -14.843  -15.464  -15.440  -14.888  -14.119  -13.465  -13.095  -13.034  -13.193  -13.462  -13.641  -13.534  -13.010  -12.072  -10.835   -9.475   -8.212   -7.172   -6.439   -6.003   -5.752   -5.544   -5.249   -4.834   -4.370   -3.991   -3.754   -3.649   -3.597   -3.536   -3.443   -3.355   -3.324   -3.366   -3.502   -3.693   -3.949   -4.334   -5.028   -6.201   -8.005  -10.411  -13.296  -16.530  -20.009  -23.631  -27.213  -30.454  -33.172  -35.371  -37.229  -38.874  -40.294  -41.298  -41.492
 -22.853  -22.694  -22.420  -22.028  -21.596  -21.261  -21.074  -20.981  -20.872  -20.676  -20.397  -20.018  -19.513  -18.782  -17.753  -16.464  -15.101  -13.935  -13.138  -12.727  -12.612  -12.681  -12.871  -13.136  -13.433  -13.797  -14.297  -15.031  -16.037  -17.294  -18.692  -20.015  -20.855  -20.760  -19.475  -17.151  -14.331  -11.676   -9.714   -8.704   -8.690   -9.648  -11.467  -13.868  -16.409  -18.495  -19.627  -19.611  -18.631  -17.172  -15.733  -14.609  -13.888  -13.570  -13.602  -13.839  -14.082  -14.126  -13.856  -13.259  -12.454  -11.576  -10.767  -10.159   -9.811   -9.626   -9.459   -9.139   -8.622   -8.025   -7.522   -7.224   -7.109   -7.069   -6.999   -6.877   -6.758   -6.715   -6.803   -7.029   -7.362   -7.814   -8.468   -9.556  -11.321  -13.873  -17.095  -20.717  -24.521  -28.352  -32.089  -35.497  -38.298  -40.338  -41.741  -42.779  -43.690  -44.501  -45.063  -44.975
 -19.302  -18.978  -18.490  -17.834  -17.122  -16.524  -16.129  -15.877  -15.675  -15.442  -15.200  -15.020  -14.962  -14.964  -14.880  -14.605  -14.155  -13.682  -13.324  -13.116  -12.996  -12.909  -12.795  -12.616  -12.353  -12.073  -11.929  -12.119  -12.845  -14.290  -16.480  -19.066  -21.273  -22.234  -21.497  -19.242  -16.171  -13.113  -10.664   -9.149   -8.796   -9.799  -12.161  -15.533  -19.211  -22.332  -24.207  -24.528  -23.504  -21.679  -19.629  -17.713  -16.129  -15.042  -14.565  -14.644  -15.036  -15.440  -15.649  -15.608  -15.346  -14.939  -14.498  -14.156  -14.015  -14.012  -14.002  -13.805  -13.360  -12.805  -12.334  -12.095  -12.050  -12.071  -12.047  -11.947  -11.843  -11.831  -11.980  -12.312  -12.809  -13.472  -14.404  -15.852  -18.034  -21.033  -24.630  -28.492  -32.380  -36.168  -39.704  -42.700  -44.809  -45.931  -46.314  -46.418  -46.580  -46.862  -47.076  -46.783
 -16.212  -15.729  -15.020  -14.104  -13.165  -12.403  -11.898  -11.598  -11.388  -11.162  -10.971  -10.964  -11.288  -11.935  -12.720  -13.402  -13.852  -14.099  -14.239  -14.311  -14.313  -14.197  -13.936  -13.475  -12.816  -12.014  -11.240  -10.769  -10.988  -12.300  -14.896  -18.350  -21.600  -23.501  -23.425  -21.603  -18.788  -15.774  -13.053  -10.934   -9.845  -10.341  -12.697  -16.564  -21.061  -25.094  -27.803  -28.783  -28.202  -26.560  -24.364  -21.942  -19.571  -17.638  -16.521  -16.293  -16.658  -17.191  -17.623  -17.865  -17.945  -17.895  -17.789  -17.723  -17.811  -18.047  -18.279  -18.345  -18.161  -17.827  -17.569  -17.508  -17.607  -17.739  -17.791  -17.767  -17.729  -17.780  -18.006  -18.442  -19.084  -19.926  -21.073  -22.720  -25.062  -28.100  -31.601  -35.245  -38.867  -42.395  -45.659  -48.224  -49.651  -49.827  -49.164  -48.330  -47.804  -47.643  -47.595  -47.163
 -14.237  -13.604  -12.651  -11.470  -10.353   -9.493   -8.989   -8.748   -8.600   -8.445   -8.325   -8.467   -9.117  -10.302  -11.804  -13.291  -14.517  -15.395  -15.991  -16.340  -16.478  -16.411  -16.108  -15.539  -14.668  -13.537  -12.275  -11.162  -10.702  -11.491  -13.878  -17.478  -21.159  -23.676  -24.383  -23.479  -21.603  -19.303  -16.735  -14.082  -11.954  -11.330  -12.950  -16.664  -21.484  -26.135  -29.571  -31.324  -31.481  -30.433  -28.539  -26.033  -23.246  -20.751  -19.173  -18.695  -18.958  -19.443  -19.822  -20.038  -20.159  -20.227  -20.281  -20.409  -20.699  -21.168  -21.680  -22.061  -22.220  -22.217  -22.243  -22.394  -22.635  -22.840  -22.927  -22.937  -22.965  -23.097  -23.411  -23.940  -24.693  -25.663  -26.916  -28.595  -30.836  -33.627  -36.728  -39.905  -43.085  -46.281  -49.269  -51.469  -52.306  -51.669  -50.095  -48.450  -47.329  -46.786  -46.520  -45.981
 -13.642  -12.847  -11.635  -10.182   -8.878   -7.987   -7.540   -7.418   -7.411   -7.381   -7.396   -7.749   -8.690  -10.300  -12.334  -14.407  -16.178  -17.507  -18.402  -18.936  -19.159  -19.122  -18.819  -18.230  -17.286  -15.978  -14.378  -12.728  -11.534  -11.462  -13.018  -15.972  -19.382  -22.147  -23.674  -24.085  -23.750  -22.766  -20.870  -17.980  -14.818  -12.781  -13.126  -16.082  -20.715  -25.587  -29.483  -31.829  -32.646  -32.252  -30.879  -28.674  -25.982  -23.475  -21.869  -21.366  -21.564  -21.888  -22.031  -21.998  -21.915  -21.867  -21.920  -22.138  -22.590  -23.270  -24.060  -24.760  -25.236  -25.525  -25.763  -26.049  -26.322  -26.460  -26.442  -26.358  -26.368  -26.569  -26.989  -27.636  -28.475  -29.492  -30.700  -32.218  -34.170  -36.543  -39.133  -41.751  -44.422  -47.231  -49.910  -51.778  -52.152  -50.914  -48.684  -46.448  -44.861  -43.965  -43.454  -42.837
 -14.278  -13.358  -11.882  -10.164   -8.688   -7.761   -7.389   -7.385   -7.514   -7.634   -7.879   -8.507   -9.783  -11.713  -14.059  -16.428  -18.481  -20.021  -21.031  -21.581  -21.786  -21.714  -21.387  -20.778  -19.814  -18.415  -16.583  -14.494  -12.611  -11.580  -11.954  -13.753  -16.384  -19.051  -21.296  -23.111  -24.511  -25.094  -24.181  -21.480  -17.677  -14.407  -13.396  -15.289  -19.339  -24.030  -27.987  -30.542  -31.693  -31.736  -30.887  -29.268  -27.174  -25.225  -24.039  -23.742  -23.918  -24.050  -23.910  -23.583  -23.225  -22.975  -22.930  -23.159  -23.725  -24.591  -25.618  -26.585  -27.310  -27.760  -28.051  -28.281  -28.396  -28.279  -27.959  -27.613  -27.495  -27.725  -28.280  -29.047  -29.927  -30.853  -31.831  -32.996  -34.495  -36.350  -38.386  -40.440  -42.589  -44.948  -47.262  -48.792  -48.827  -47.250  -44.704  -42.166  -40.264  -39.030  -38.233  -37.585
 -15.784  -14.784  -13.128  -11.219   -9.614   -8.624   -8.263   -8.294   -8.467   -8.743   -9.258  -10.254  -11.867  -14.027  -16.474  -18.867  -20.904  -22.399  -23.314  -23.722  -23.775  -23.569  -23.149  -22.488  -21.487  -20.013  -18.023  -15.626  -13.197  -11.328  -10.597  -11.197  -12.904  -15.245  -17.937  -20.841  -23.652  -25.580  -25.689  -23.502  -19.641  -15.754  -13.757  -14.617  -17.846  -21.992  -25.624  -28.013  -29.159  -29.408  -29.032  -28.175  -27.033  -26.041  -25.550  -25.561  -25.719  -25.669  -25.331  -24.813  -24.283  -23.884  -23.732  -23.937  -24.535  -25.497  -26.660  -27.765  -28.581  -29.018  -29.171  -29.135  -28.898  -28.362  -27.591  -26.871  -26.543  -26.762  -27.400  -28.227  -29.038  -29.712  -30.288  -30.925  -31.853  -33.134  -34.631  -36.175  -37.834  -39.719  -41.604  -42.802  -42.642  -41.032  -38.552  -36.037  -34.002  -32.488  -31.402  -30.739
 -17.687  -16.710  -15.028  -13.077  -11.408  -10.336   -9.862   -9.779   -9.915  -10.291  -11.095  -12.484  -14.427  -16.722  -19.083  -21.269  -23.038  -24.255  -24.874  -24.985  -24.751  -24.315  -23.729  -22.958  -21.883  -20.364  -18.292  -15.732  -13.006  -10.641   -9.177   -8.949   -9.920  -11.875  -14.618  -17.971  -21.466  -24.174  -25.058  -23.584  -20.219  -16.434  -14.046  -14.138  -16.497  -19.883  -22.961  -25.005  -26.011  -26.360  -26.416  -26.345  -26.255  -26.295  -26.512  -26.794  -26.911  -26.752  -26.370  -25.897  -25.417  -25.003  -24.796  -24.927  -25.440  -26.301  -27.344  -28.325  -29.013  -29.260  -29.107  -28.664  -27.966  -26.964  -25.752  -24.666  -24.106  -24.211  -24.791  -25.525  -26.108  -26.419  -26.495  -26.572  -26.927  -27.704  -28.765  -29.929  -31.195  -32.644  -34.074  -34.950  -34.733  -33.365  -31.284  -29.090  -27.118  -25.437  -24.142  -23.475
 -19.531  -18.652  -17.117  -15.287  -13.638  -12.465  -11.775  -11.473  -11.485  -11.934  -13.003  -14.764  -16.978  -19.333  -21.524  -23.356  -24.702  -25.476  -25.651  -25.345  -24.730  -23.979  -23.161  -22.223  -21.064  -19.525  -17.477  -14.958  -12.233   -9.798   -8.165   -7.646   -8.264   -9.850  -12.245  -15.289  -18.607  -21.394  -22.703  -21.982  -19.502  -16.387  -14.157  -13.847  -15.464  -18.097  -20.635  -22.378  -23.305  -23.756  -24.133  -24.654  -25.366  -26.181  -26.899  -27.315  -27.360  -27.169  -26.944  -26.761  -26.554  -26.293  -26.100  -26.123  -26.417  -26.929  -27.552  -28.113  -28.416  -28.296  -27.751  -26.883  -25.780  -24.456  -22.998  -21.713  -20.962  -20.866  -21.227  -21.672  -21.907  -21.807  -21.445  -21.085  -21.049  -21.504  -22.327  -23.307  -24.348  -25.432  -26.419  -26.952  -26.722  -25.693  -24.150  -22.404  -20.638  -18.963  -17.612  -16.972
 -20.832  -20.129  -18.842  -17.260  -15.706  -14.420  -13.508  -12.966  -12.868  -13.398  -14.723  -16.757  -19.155  -21.501  -23.492  -24.977  -25.896  -26.205  -25.911  -25.145  -24.110  -23.009  -21.919  -20.821  -19.591  -18.082  -16.187  -13.929  -11.530   -9.437   -8.108   -7.787   -8.389   -9.629  -11.346  -13.479  -15.895  -18.126  -19.468  -19.383  -17.905  -15.730  -13.993  -13.611  -14.778  -16.916  -19.122  -20.766  -21.719  -22.218  -22.680  -23.396  -24.417  -25.537  -26.420  -26.803  -26.738  -26.559  -26.593  -26.820  -27.005  -26.992  -26.851  -26.759  -26.777  -26.836  -26.876  -26.840  -26.615  -26.065  -25.140  -23.955  -22.662  -21.305  -19.953  -18.772  -18.005  -17.746  -17.808  -17.899  -17.753  -17.307  -16.669  -16.100  -15.897  -16.211  -16.947  -17.873  -18.775  -19.545  -20.088  -20.233  -19.871  -19.053  -17.907  -16.546  -15.056  -13.554  -12.315  -11.779
 -21.214  -20.685  -19.689  -18.383  -16.987  -15.684  -14.622  -13.961  -13.861  -14.523  -16.032  -18.212  -20.662  -22.937  -24.756  -26.004  -26.630  -26.607  -25.969  -24.855  -23.491  -22.096  -20.780  -19.536  -18.294  -16.913  -15.308  -13.495  -11.659  -10.174   -9.435   -9.582  -10.327  -11.244  -12.099  -12.982  -14.069  -15.294  -16.276  -16.524  -15.833  -14.532  -13.389  -13.203  -14.276  -16.260  -18.418  -20.129  -21.137  -21.590  -21.872  -22.372  -23.220  -24.207  -24.929  -25.113  -24.874  -24.662  -24.857  -25.393  -25.885  -26.058  -25.961  -25.787  -25.598  -25.317  -24.900  -24.377  -23.729  -22.849  -21.688  -20.406  -19.191  -18.161  -17.290  -16.598  -16.149  -15.944  -15.823  -15.594  -15.119  -14.412  -13.630  -12.988  -12.706  -12.893  -13.480  -14.241  -14.914  -15.335  -15.412  -15.115  -14.485  -13.649  -12.669  -11.586  -10.403   -9.208   -8.245   -7.876
 -20.456  -20.043  -19.291  -18.256  -17.063  -15.868  -14.866  -14.265  -14.311  -15.151  -16.780  -18.970  -21.315  -23.470  -25.185  -26.347  -26.894  -26.798  -26.066  -24.850  -23.358  -21.827  -20.404  -19.130  -17.942  -16.784  -15.558  -14.271  -13.065  -12.255  -12.143  -12.733  -13.610  -14.192  -14.200  -13.827  -13.514  -13.553  -13.820  -13.946  -13.604  -12.876  -12.266  -12.426  -13.685  -15.792  -18.090  -19.925  -20.956  -21.245  -21.189  -21.256  -21.678  -22.282  -22.674  -22.572  -22.112  -21.740  -21.847  -22.362  -22.871  -23.043  -22.920  -22.723  -22.508  -22.200  -21.716  -21.088  -20.334  -19.387  -18.235  -17.085  -16.198  -15.737  -15.639  -15.742  -15.922  -16.024  -15.886  -15.382  -14.558  -13.584  -12.655  -11.936  -11.528  -11.450  -11.655  -11.991  -12.231  -12.207  -11.828  -11.132  -10.237   -9.303   -8.420   -7.560   -6.708   -5.908   -5.299   -5.123
 -18.623  -18.262  -17.654  -16.836  -15.876  -14.926  -14.172  -13.843  -14.147  -15.184  -16.847  -18.917  -21.071  -23.071  -24.742  -25.986  -26.693  -26.786  -26.263  -25.244  -23.898  -22.462  -21.099  -19.892  -18.859  -17.953  -17.097  -16.264  -15.572  -15.266  -15.573  -16.411  -17.271  -17.530  -16.878  -15.560  -14.138  -13.069  -12.462  -12.089  -11.671  -11.195  -11.005  -11.588  -13.161  -15.493  -17.936  -19.811  -20.724  -20.733  -20.264  -19.850  -19.790  -19.979  -20.049  -19.720  -19.067  -18.458  -18.246  -18.398  -18.584  -18.547  -18.332  -18.188  -18.181  -18.215  -18.137  -17.888  -17.428  -16.712  -15.797  -14.950  -14.487  -14.624  -15.293  -16.216  -17.054  -17.469  -17.245  -16.375  -15.105  -13.776  -12.679  -11.885  -11.323  -10.897  -10.585  -10.325  -10.038   -9.562   -8.837   -7.905   -6.904   -5.997   -5.260   -4.650   -4.146   -3.725   -3.428   -3.414
 -16.153  -15.759  -15.201  -14.496  -13.776  -13.156  -12.783  -12.841  -13.459  -14.644  -16.250  -18.094  -19.988  -21.810  -23.482  -24.912  -25.948  -26.467  -26.419  -25.852  -24.912  -23.787  -22.650  -21.621  -20.770  -20.073  -19.460  -18.892  -18.448  -18.343  -18.744  -19.527  -20.205  -20.185  -19.172  -17.392  -15.377  -13.612  -12.296  -11.367  -10.716  -10.369  -10.577  -11.600  -13.518  -16.010  -18.426  -20.087  -20.636  -20.152  -19.121  -18.147  -17.597  -17.404  -17.226  -16.785  -16.057  -15.278  -14.706  -14.390  -14.133  -13.819  -13.551  -13.579  -13.989  -14.667  -15.336  -15.788  -15.874  -15.573  -15.019  -14.496  -14.359  -14.854  -15.939  -17.289  -18.410  -18.841  -18.319  -16.954  -15.181  -13.531  -12.305  -11.494  -10.858  -10.197   -9.468   -8.739   -8.021   -7.253   -6.376   -5.436   -4.537   -3.817   -3.310   -2.964   -2.721   -2.581   -2.513   -2.619
 -13.829  -13.345  -12.704  -12.013  -11.456  -11.157  -11.204  -11.644  -12.517  -13.736  -15.159  -16.674  -18.227  -19.829  -21.481  -23.124  -24.570  -25.654  -26.243  -26.329  -25.980  -25.332  -24.550  -23.773  -23.091  -22.493  -21.930  -21.362  -20.872  -20.651  -20.818  -21.272  -21.619  -21.366  -20.281  -18.518  -16.501  -14.619  -13.069  -11.940  -11.271  -11.218  -11.926  -13.468  -15.713  -18.225  -20.349  -21.464  -21.294  -20.010  -18.180  -16.476  -15.309  -14.659  -14.231  -13.721  -13.031  -12.223  -11.484  -10.868  -10.342   -9.907   -9.720  -10.059  -11.028  -12.449  -13.942  -15.125  -15.790  -15.925  -15.704  -15.415  -15.388  -15.856  -16.829  -18.014  -18.880  -18.925  -17.901  -16.044  -13.913  -12.108  -10.907  -10.175   -9.566   -8.840   -7.946   -7.013   -6.130   -5.303   -4.512   -3.766   -3.142   -2.701   -2.440   -2.306   -2.259   -2.278   -2.335   -2.498
 -12.553  -11.932  -11.112  -10.303   -9.796   -9.729  -10.083  -10.793  -11.748  -12.826  -13.912  -14.959  -16.056  -17.328  -18.863  -20.638  -22.473  -24.133  -25.436  -26.284  -26.652  -26.614  -26.284  -25.799  -25.249  -24.644  -23.943  -23.158  -22.380  -21.772  -21.464  -21.401  -21.317  -20.874  -19.896  -18.487  -16.924  -15.456  -14.237  -13.423  -13.186  -13.719  -15.088  -17.213  -19.764  -22.195  -23.841  -24.180  -23.062  -20.768  -17.961  -15.350  -13.406  -12.164  -11.365  -10.725  -10.061   -9.332   -8.611   -7.955   -7.433   -7.106   -7.192   -7.940   -9.454  -11.504  -13.637  -15.376  -16.482  -16.955  -17.000  -16.865  -16.792  -16.959  -17.405  -17.944  -18.133  -17.533  -15.987  -13.808  -11.575   -9.838   -8.765   -8.151   -7.620   -6.951   -6.106   -5.238   -4.448   -3.782   -3.220   -2.774   -2.485   -2.350   -2.307   -2.321   -2.383   -2.480   -2.589   -2.770
 -12.907  -12.153  -11.093  -10.081   -9.510   -9.512   -9.996  -10.746  -11.570  -12.304  -12.868  -13.302  -13.797  -14.597  -15.862  -17.600  -19.662  -21.812  -23.817  -25.456  -26.610  -27.272  -27.485  -27.341  -26.917  -26.229  -25.298  -24.165  -22.956  -21.835  -20.943  -20.279  -19.735  -19.106  -18.296  -17.363  -16.455  -15.706  -15.214  -15.113  -15.605  -16.870  -18.913  -21.543  -24.308  -26.604  -27.780  -27.404  -25.432  -22.265  -18.605  -15.175  -12.454  -10.555   -9.296   -8.404   -7.666   -6.983   -6.339   -5.799   -5.427   -5.361   -5.783   -6.934   -8.846  -11.262  -13.706  -15.699  -17.019  -17.717  -17.991  -18.019  -17.908  -17.751  -17.583  -17.315  -16.689  -15.428  -13.504  -11.227   -9.119   -7.563   -6.615   -6.047   -5.554   -4.981   -4.308   -3.655   -3.115   -2.703   -2.426   -2.299   -2.308   -2.408   -2.527   -2.624   -2.725   -2.853   -2.984   -3.159
 -14.754  -13.919  -12.678  -11.474  -10.774  -10.734  -11.172  -11.767  -12.261  -12.462  -12.366  -12.065  -11.871  -12.064  -12.891  -14.405  -16.485  -18.929  -21.469  -23.829  -25.769  -27.155  -27.960  -28.203  -27.935  -27.190  -26.020  -24.534  -22.882  -21.245  -19.785  -18.581  -17.611  -16.804  -16.125  -15.615  -15.357  -15.386  -15.715  -16.411  -17.607  -19.427  -21.855  -24.673  -27.424  -29.516  -30.328  -29.510  -27.116  -23.589  -19.610  -15.823  -12.670  -10.285   -8.583   -7.380   -6.461   -5.717   -5.109   -4.674   -4.490   -4.679   -5.411   -6.813   -8.865  -11.298  -13.674  -15.584  -16.879  -17.656  -18.125  -18.368  -18.354  -18.025  -17.397  -16.460  -15.161  -13.426  -11.328   -9.143   -7.235   -5.828   -4.922   -4.336   -3.874   -3.407   -2.956   -2.562   -2.285   -2.138   -2.104   -2.207   -2.405   -2.621   -2.798   -2.896   -2.982   -3.100   -3.213   -3.381
 -17.269  -16.464  -15.191  -13.927  -13.176  -13.082  -13.406  -13.751  -13.810  -13.411  -12.598  -11.579  -10.683  -10.278  -10.595  -11.721  -13.584  -16.050  -18.872  -21.730  -24.289  -26.297  -27.633  -28.257  -28.192  -27.473  -26.173  -24.435  -22.436  -20.397  -18.508  -16.902  -15.635  -14.687  -14.086  -13.880  -14.131  -14.812  -15.823  -17.121  -18.701  -20.656  -22.975  -25.518  -27.909  -29.614  -30.128  -29.185  -26.893  -23.685  -20.123  -16.687  -13.657  -11.171   -9.233   -7.753   -6.625   -5.778   -5.156   -4.801   -4.768   -5.148   -6.032   -7.465   -9.358  -11.460  -13.406  -14.912  -15.923  -16.618  -17.187  -17.653  -17.810  -17.465  -16.595  -15.265  -13.578  -11.628   -9.562   -7.597   -5.910   -4.635   -3.767   -3.182   -2.771   -2.458   -2.217   -2.058   -2.008   -2.054   -2.205   -2.424   -2.684   -2.899   -3.011   -3.033   -3.035   -3.089   -3.168   -3.316
 -19.598  -18.918  -17.819  -16.713  -16.063  -15.976  -16.201  -16.310  -15.965  -15.039  -13.651  -12.056  -10.628   -9.731   -9.596  -10.284  -11.793  -14.015  -16.778  -19.755  -22.569  -24.902  -26.554  -27.468  -27.601  -26.991  -25.696  -23.865  -21.700  -19.430  -17.298  -15.479  -14.059  -13.064  -12.525  -12.520  -13.110  -14.215  -15.658  -17.240  -18.858  -20.535  -22.319  -24.159  -25.824  -26.935  -27.151  -26.300  -24.528  -22.187  -19.642  -17.136  -14.766  -12.593  -10.677   -9.080   -7.822   -6.892   -6.278   -5.987   -6.047   -6.480   -7.322   -8.535  -10.001  -11.481  -12.740  -13.609  -14.154  -14.604  -15.151  -15.722  -16.007  -15.713  -14.772  -13.321  -11.560   -9.695   -7.890   -6.263   -4.894   -3.813   -3.039   -2.529   -2.231   -2.079   -2.015   -2.043   -2.149   -2.338   -2.581   -2.847   -3.075   -3.196   -3.169   -3.041   -2.916   -2.871   -2.897   -3.039
 -21.263  -20.793  -20.029  -19.285  -18.870  -18.872  -19.054  -19.009  -18.415  -17.176  -15.452  -13.553  -11.851  -10.683  -10.255  -10.599  -11.705  -13.502  -15.862  -18.505  -21.092  -23.302  -24.931  -25.899  -26.160  -25.686  -24.510  -22.748  -20.584  -18.265  -16.064  -14.188  -12.752  -11.790  -11.345  -11.488  -12.262  -13.572  -15.166  -16.765  -18.199  -19.426  -20.514  -21.507  -22.311  -22.757  -22.677  -22.050  -20.999  -19.749  -18.440  -17.072  -15.580  -13.955  -12.285  -10.725   -9.428   -8.479   -7.882   -7.625   -7.660   -7.982   -8.568   -9.334  -10.164  -10.895  -11.383  -11.587  -11.629  -11.777  -12.181  -12.721  -13.020  -12.766  -11.901  -10.579   -9.061   -7.558   -6.207   -5.049   -4.073   -3.290   -2.710   -2.344   -2.180   -2.150   -2.209   -2.342   -2.543   -2.799   -3.080   -3.337   -3.493   -3.486   -3.307   -3.015   -2.749   -2.606   -2.584   -2.707
 -22.276  -22.044  -21.716  -21.418  -21.332  -21.485  -21.673  -21.572  -20.897  -19.599  -17.818  -15.893  -14.165  -12.952  -12.402  -12.536  -13.287  -14.591  -16.308  -18.242  -20.148  -21.796  -23.041  -23.814  -24.053  -23.686  -22.687  -21.096  -19.069  -16.857  -14.727  -12.899  -11.523  -10.636  -10.277  -10.505  -11.325  -12.632  -14.159  -15.628  -16.819  -17.683  -18.248  -18.594  -18.746  -18.713  -18.512  -18.212  -17.885  -17.601  -17.303  -16.877  -16.146  -15.045  -13.667  -12.214  -10.911   -9.915   -9.258   -8.880   -8.742   -8.789   -8.966   -9.178   -9.351   -9.401   -9.262   -8.980   -8.686   -8.601   -8.848   -9.256   -9.507   -9.309   -8.645   -7.670   -6.624   -5.679   -4.894   -4.248   -3.681   -3.199   -2.832   -2.628   -2.565   -2.614   -2.730   -2.893   -3.097   -3.346   -3.586   -3.752   -3.800   -3.675   -3.386   -3.003   -2.660   -2.467   -2.399   -2.519
 -22.824  -22.844  -22.943  -23.117  -23.369  -23.681  -23.918  -23.832  -23.223  -22.041  -20.414  -18.635  -17.034  -15.885  -15.316  -15.309  -15.792  -16.609  -17.606  -18.665  -19.650  -20.482  -21.125  -21.541  -21.637  -21.320  -20.489  -19.128  -17.348  -15.364  -13.410  -11.704  -10.394   -9.532   -9.171   -9.352  -10.068  -11.201  -12.519  -13.784  -14.796  -15.481  -15.834  -15.932  -15.864  -15.764  -15.749  -15.889  -16.181  -16.561  -16.881  -16.967  -16.668  -15.885  -14.679  -13.267  -11.898  -10.751   -9.885   -9.247   -8.782   -8.455   -8.192   -7.935   -7.627   -7.252   -6.813   -6.367   -6.014   -5.890   -6.051   -6.347   -6.547   -6.472   -6.101   -5.586   -5.077   -4.681   -4.402   -4.158   -3.917   -3.678   -3.507   -3.444   -3.480   -3.580   -3.705   -3.838   -3.957   -4.043   -4.091   -4.075   -3.972   -3.754   -3.434   -3.068   -2.754   -2.580   -2.518   -2.623
 -23.090  -23.314  -23.777  -24.353  -24.904  -25.357  -25.623  -25.564  -25.061  -24.070  -22.691  -21.152  -19.731  -18.649  -18.043  -17.906  -18.117  -18.489  -18.842  -19.074  -19.180  -19.224  -19.262  -19.307  -19.265  -18.991  -18.341  -17.259  -15.820  -14.178  -12.512  -10.962   -9.671   -8.725   -8.207   -8.156   -8.578   -9.385  -10.382  -11.382  -12.248  -12.881  -13.258  -13.440  -13.543  -13.753  -14.193  -14.869  -15.680  -16.457  -17.049  -17.312  -17.130  -16.417  -15.224  -13.746  -12.236  -10.878   -9.712   -8.737   -7.923   -7.260   -6.679   -6.156   -5.658   -5.210   -4.811   -4.492   -4.305   -4.323   -4.519   -4.813   -5.039   -5.125   -5.063   -4.931   -4.822   -4.802   -4.823   -4.821   -4.771   -4.731   -4.772   -4.883   -5.054   -5.227   -5.359   -5.410   -5.333   -5.121   -4.837   -4.496   -4.159   -3.844   -3.556   -3.296   -3.099   -3.007   -2.990   -3.115
 -23.136  -23.490  -24.202  -25.048  -25.783  -26.289  -26.517  -26.425  -25.978  -25.161  -24.030  -22.745  -21.500  -20.483  -19.805  -19.487  -19.408  -19.376  -19.201  -18.816  -18.295  -17.781  -17.414  -17.232  -17.146  -16.985  -16.590  -15.887  -14.911  -13.747  -12.467  -11.148   -9.870   -8.732   -7.865   -7.381   -7.328   -7.649   -8.200   -8.856   -9.515  -10.088  -10.543  -10.932  -11.381  -12.054  -13.030  -14.214  -15.424  -16.449  -17.142  -17.419  -17.195  -16.428  -15.158  -13.586  -11.949  -10.420   -9.049   -7.841   -6.808   -5.950   -5.259   -4.715   -4.299   -4.023   -3.872   -3.824   -3.904   -4.104   -4.424   -4.780   -5.109   -5.373   -5.548   -5.641   -5.716   -5.820   -5.924   -5.994   -6.068   -6.227   -6.525   -6.914   -7.312   -7.620   -7.780   -7.722   -7.381   -6.788   -6.037   -5.288   -4.650   -4.184   -3.894   -3.724   -3.659   -3.679   -3.746   -3.906
 -22.963  -23.387  -24.225  -25.178  -25.941  -26.365  -26.417  -26.156  -25.640  -24.889  -23.954  -22.906  -21.865  -20.937  -20.207  -19.697  -19.316  -18.929  -18.382  -17.632  -16.799  -16.045  -15.523  -15.302  -15.303  -15.382  -15.372  -15.190  -14.829  -14.299  -13.551  -12.574  -11.350   -9.979   -8.658   -7.587   -6.902   -6.597   -6.591   -6.787   -7.128   -7.551   -8.016   -8.559   -9.293  -10.333  -11.683  -13.194  -14.632  -15.779  -16.520  -16.781  -16.499  -15.668  -14.356  -12.760  -11.118   -9.605   -8.261   -7.070   -6.048   -5.226   -4.616   -4.232   -4.056   -4.064   -4.195   -4.404   -4.683   -5.040   -5.446   -5.875   -6.313   -6.715   -6.998   -7.143   -7.194   -7.231   -7.278   -7.347   -7.524   -7.928   -8.569   -9.337  -10.044  -10.546  -10.762  -10.599  -10.008   -9.044   -7.842   -6.652   -5.639   -4.904   -4.492   -4.313   -4.298   -4.379   -4.506   -4.701
 -22.649  -23.087  -23.941  -24.860  -25.501  -25.673  -25.381  -24.780  -24.025  -23.207  -22.371  -21.531  -20.718  -19.942  -19.234  -18.591  -17.977  -17.323  -16.568  -15.697  -14.808  -14.058  -13.590  -13.466  -13.657  -14.052  -14.541  -15.015  -15.418  -15.654  -15.584  -15.059  -13.993  -12.466  -10.732   -9.077   -7.736   -6.760   -6.129   -5.790   -5.723   -5.908   -6.284   -6.858   -7.694   -8.832  -10.234  -11.739  -13.139  -14.256  -14.965  -15.212  -14.929  -14.112  -12.857  -11.375   -9.910   -8.630   -7.572   -6.671   -5.910   -5.335   -4.988   -4.883   -5.019   -5.296   -5.654   -6.012   -6.388   -6.776   -7.186   -7.625   -8.097   -8.521   -8.779   -8.832   -8.716   -8.589   -8.527   -8.601   -8.923   -9.623  -10.662  -11.854  -12.900  -13.619  -13.897  -13.672  -12.916  -11.669  -10.119   -8.513   -7.088   -6.003   -5.308   -4.939   -4.842   -4.901   -5.041   -5.248
 -22.361  -22.776  -23.584  -24.383  -24.789  -24.578  -23.802  -22.698  -21.537  -20.509  -19.660  -18.972  -18.386  -17.813  -17.209  -16.542  -15.816  -15.048  -14.239  -13.415  -12.635  -12.019  -11.673  -11.680  -12.058  -12.782  -13.786  -14.966  -16.187  -17.258  -17.916  -17.931  -17.160  -15.668  -13.717  -11.661   -9.808   -8.276   -7.082   -6.242   -5.786   -5.707   -5.945   -6.435   -7.161   -8.103   -9.194  -10.314  -11.336  -12.171  -12.718  -12.914  -12.661  -11.953  -10.885   -9.664   -8.538   -7.666   -7.067   -6.654   -6.379   -6.222   -6.262   -6.524   -6.957   -7.464   -7.949   -8.356   -8.696   -9.006   -9.331   -9.691  -10.066  -10.385  -10.487  -10.330  -10.014   -9.721   -9.591   -9.724  -10.235  -11.235  -12.645  -14.197  -15.534  -16.426  -16.764  -16.503  -15.648  -14.237  -12.444  -10.499   -8.684   -7.216   -6.185   -5.560   -5.266   -5.235   -5.341   -5.558
 -22.241  -22.632  -23.376  -24.029  -24.158  -23.527  -22.211  -20.514  -18.841  -17.466  -16.495  -15.881  -15.480  -15.117  -14.671  -14.096  -13.400  -12.659  -11.934  -11.247  -10.632  -10.166   -9.919  -10.017  -10.519  -11.480  -12.904  -14.703  -16.671  -18.493  -19.835  -20.404  -20.045  -18.797  -16.915  -14.769  -12.683  -10.825   -9.274   -8.099   -7.373   -7.100   -7.191   -7.518   -7.981   -8.487   -8.967   -9.388   -9.726  -10.012  -10.218  -10.259  -10.032   -9.506   -8.739   -7.917   -7.249   -6.894   -6.862   -7.043   -7.328   -7.689   -8.178   -8.816   -9.517  -10.170  -10.671  -11.015  -11.261  -11.454  -11.635  -11.848  -12.064  -12.203  -12.103  -11.743  -11.257  -10.863  -10.741  -10.981  -11.681  -12.891  -14.503  -16.211  -17.661  -18.581  -18.882  -18.569  -17.648  -16.146  -14.201  -12.032   -9.958   -8.225   -6.934   -6.086   -5.632   -5.494   -5.579   -5.799
 -22.290  -22.677  -23.376  -23.912  -23.809  -22.816  -21.004  -18.734  -16.510  -14.732  -13.563  -12.941  -12.656  -12.465  -12.189  -11.762  -11.214  -10.621  -10.055   -9.535   -9.076   -8.714   -8.542   -8.664   -9.196  -10.269  -11.943  -14.151  -16.655  -19.052  -20.951  -22.027  -22.119  -21.276  -19.716  -17.757  -15.725  -13.834  -12.192  -10.912  -10.082   -9.697   -9.655   -9.769   -9.860   -9.794   -9.528   -9.083   -8.585   -8.167   -7.900   -7.701   -7.478   -7.141   -6.732   -6.382   -6.247   -6.455   -7.011   -7.793   -8.656   -9.536  -10.445  -11.381  -12.249  -12.934  -13.382  -13.635  -13.760  -13.839  -13.916  -14.009  -14.094  -14.069  -13.834  -13.369  -12.833  -12.457  -12.402  -12.732  -13.491  -14.687  -16.189  -17.737  -18.985  -19.696  -19.811  -19.354  -18.347  -16.800  -14.806  -12.587  -10.471   -8.701   -7.368   -6.465   -5.952   -5.807   -5.891   -6.131
 -22.253  -22.643  -23.338  -23.834  -23.602  -22.369  -20.194  -17.474  -14.775  -12.604  -11.206  -10.533  -10.312  -10.256  -10.136   -9.893   -9.545   -9.158   -8.776   -8.419   -8.079   -7.791   -7.660   -7.776   -8.267   -9.298  -11.014  -13.404  -16.202  -18.969  -21.253  -22.734  -23.266  -22.879  -21.748  -20.152  -18.381  -16.676  -15.180  -13.998  -13.202  -12.761  -12.560  -12.407  -12.076  -11.421  -10.414   -9.155   -7.879   -6.811   -6.084   -5.661   -5.419   -5.254   -5.175   -5.267   -5.661   -6.420   -7.513   -8.822  -10.190  -11.507  -12.743  -13.855  -14.769  -15.406  -15.762  -15.917  -15.962  -15.997  -16.042  -16.091  -16.122  -16.058  -15.825  -15.423  -14.991  -14.713  -14.720  -15.036  -15.647  -16.517  -17.550  -18.544  -19.265  -19.527  -19.289  -18.597  -17.475  -15.933  -14.041  -12.004  -10.105   -8.559   -7.417   -6.650   -6.234   -6.141   -6.267   -6.547
 -21.622  -22.035  -22.763  -23.275  -23.036  -21.731  -19.383  -16.401  -13.400  -10.947   -9.377   -8.653   -8.471   -8.505   -8.522   -8.446   -8.317   -8.164   -7.968   -7.746   -7.496   -7.276   -7.177   -7.268   -7.669   -8.567  -10.175  -12.531  -15.412  -18.338  -20.853  -22.625  -23.505  -23.526  -22.812  -21.612  -20.201  -18.813  -17.603  -16.643  -15.944  -15.467  -15.090  -14.639  -13.895  -12.696  -11.072   -9.199   -7.385   -5.929   -4.971   -4.447   -4.221   -4.192   -4.345   -4.768   -5.568   -6.750   -8.271   -9.980  -11.717  -13.347  -14.776  -15.947  -16.804  -17.349  -17.621  -17.723  -17.754  -17.790  -17.863  -17.947  -18.009  -17.993  -17.875  -17.642  -17.394  -17.246  -17.275  -17.460  -17.741  -18.063  -18.351  -18.540  -18.507  -18.158  -17.471  -16.511  -15.287  -13.829  -12.204  -10.562   -9.113   -7.990   -7.200   -6.691   -6.433   -6.450   -6.632   -6.943
 -19.947  -20.352  -21.117  -21.717  -21.575  -20.351  -18.042  -15.045  -11.984   -9.463   -7.841   -7.099   -6.937   -7.012   -7.114   -7.178   -7.234   -7.258   -7.232   -7.129   -6.978   -6.839   -6.768   -6.832   -7.133   -7.878   -9.305  -11.496  -14.268  -17.174  -19.760  -21.688  -22.799  -23.114  -22.744  -21.904  -20.869  -19.851  -18.984  -18.280  -17.699  -17.182  -16.632  -15.904  -14.794  -13.186  -11.147   -8.938   -6.920   -5.410   -4.500   -4.079   -3.964   -4.040   -4.338   -4.951   -5.965   -7.387   -9.126  -11.041  -12.966  -14.750  -16.250  -17.384  -18.135  -18.577  -18.790  -18.872  -18.908  -18.975  -19.091  -19.230  -19.344  -19.421  -19.437  -19.389  -19.315  -19.254  -19.254  -19.256  -19.165  -18.902  -18.434  -17.793  -16.986  -16.021  -14.923  -13.736  -12.493  -11.225   -9.975   -8.832   -7.916   -7.272   -6.869   -6.663   -6.613   -6.735   -6.987   -7.315
 -17.155  -17.506  -18.284  -18.973  -19.006  -18.014  -15.958  -13.196  -10.342   -7.988   -6.472   -5.770   -5.603   -5.662   -5.785   -5.908   -6.044   -6.180   -6.266   -6.281   -6.230   -6.193   -6.178   -6.246   -6.494   -7.117   -8.346  -10.291  -12.786  -15.488  -17.976  -19.911  -21.130  -21.617  -21.482  -20.952  -20.271  -19.636  -19.105  -18.646  -18.181  -17.623  -16.917  -15.952  -14.595  -12.756  -10.551   -8.297   -6.391   -5.099   -4.451   -4.278   -4.360   -4.575   -4.957   -5.631   -6.688   -8.114   -9.842  -11.731  -13.642  -15.407  -16.850  -17.879  -18.504  -18.847  -19.001  -19.059  -19.091  -19.175  -19.315  -19.484  -19.642  -19.785  -19.895  -19.966  -19.991  -19.971  -19.916  -19.753  -19.381  -18.685  -17.665  -16.412  -15.049  -13.659  -12.307  -11.039   -9.881   -8.872   -8.026   -7.365   -6.926   -6.683   -6.620   -6.672   -6.826   -7.083   -7.387   -7.761
 -13.700  -13.962  -14.708  -15.448  -15.680  -15.009  -13.366  -11.053   -8.632   -6.651   -5.367   -4.745   -4.550   -4.548   -4.603   -4.700   -4.839   -4.991   -5.130   -5.243   -5.325   -5.410   -5.505   -5.645   -5.912   -6.470   -7.517   -9.135  -11.231  -13.550  -15.755  -17.547  -18.730  -19.271  -19.277  -18.983  -18.614  -18.320  -18.086  -17.832  -17.450  -16.863  -16.052  -14.954  -13.481  -11.619   -9.506   -7.467   -5.863   -4.923   -4.613   -4.724   -5.022   -5.383   -5.840   -6.491   -7.425   -8.661  -10.151  -11.808  -13.498  -15.067  -16.343  -17.212  -17.701  -17.934  -18.024  -18.042  -18.049  -18.106  -18.235  -18.408  -18.577  -18.741  -18.886  -18.999  -19.047  -19.022  -18.914  -18.661  -18.154  -17.273  -16.020  -14.516  -12.936  -11.406  -10.035   -8.865   -7.924   -7.204   -6.723   -6.433   -6.326   -6.357   -6.514   -6.766   -7.111   -7.504   -7.891   -8.302
 -10.474  -10.622  -11.274  -12.013  -12.392  -12.048  -10.860   -9.092   -7.232   -5.714   -4.725   -4.201   -3.970   -3.881   -3.843   -3.861   -3.944   -4.068   -4.237   -4.429   -4.649   -4.883   -5.123   -5.383   -5.708   -6.249   -7.135   -8.433  -10.075  -11.901  -13.683  -15.180  -16.198  -16.688  -16.757  -16.624  -16.496  -16.461  -16.433  -16.297  -15.956  -15.371  -14.537  -13.435  -12.022  -10.341   -8.540   -6.893   -5.683   -5.085   -5.024   -5.310   -5.752   -6.221   -6.722   -7.317   -8.043   -8.934  -10.009  -11.233  -12.517  -13.741  -14.744  -15.413  -15.761  -15.887  -15.908  -15.869  -15.836  -15.850  -15.947  -16.102  -16.267  -16.415  -16.548  -16.641  -16.652  -16.596  -16.467  -16.211  -15.709  -14.874  -13.675  -12.262  -10.779   -9.404   -8.239   -7.325   -6.675   -6.269   -6.071   -6.035   -6.105   -6.272   -6.545   -6.911   -7.383   -7.890   -8.344   -8.774
  -8.408   -8.420   -8.910   -9.542   -9.956   -9.824   -9.034   -7.785   -6.465   -5.387   -4.673   -4.242   -3.971   -3.782   -3.662   -3.603   -3.633   -3.748   -3.939   -4.207   -4.541   -4.905   -5.287   -5.654   -6.059   -6.620   -7.413   -8.483   -9.754  -11.119  -12.447  -13.558  -14.329  -14.697  -14.766  -14.750  -14.794  -14.902  -14.950  -14.814  -14.481  -13.947  -13.203  -12.250  -11.077   -9.747   -8.390   -7.212   -6.392   -6.029   -6.064   -6.363   -6.810   -7.300   -7.796   -8.283   -8.747   -9.220   -9.745  -10.379  -11.100  -11.838  -12.465  -12.883  -13.073  -13.102  -13.056  -12.972  -12.913  -12.897  -12.974  -13.112  -13.254  -13.384  -13.475  -13.505  -13.462  -13.374  -13.258  -13.059  -12.677  -12.008  -11.062   -9.939   -8.787   -7.754   -6.932   -6.354   -6.013   -5.889   -5.929   -6.046   -6.215   -6.418   -6.696   -7.081   -7.575   -8.112   -8.583   -9.040
  -8.012   -7.903   -8.183   -8.578   -8.871   -8.779   -8.205   -7.321   -6.416   -5.671   -5.135   -4.735   -4.414   -4.157   -3.974   -3.882   -3.899   -4.022   -4.259   -4.584   -4.988   -5.432   -5.884   -6.317   -6.797   -7.400   -8.220   -9.241  -10.367  -11.479  -12.467  -13.249  -13.773  -14.024  -14.112  -14.205  -14.366  -14.507  -14.496  -14.284  -13.928  -13.485  -12.942  -12.268  -11.458  -10.570   -9.705   -8.980   -8.497   -8.278   -8.290   -8.478   -8.793   -9.203   -9.619   -9.947  -10.116  -10.106  -10.005   -9.935   -9.949  -10.064  -10.206  -10.302  -10.312  -10.246  -10.138  -10.033   -9.971   -9.956  -10.031  -10.161  -10.293  -10.410  -10.463  -10.435  -10.344  -10.243  -10.164  -10.048   -9.817   -9.381   -8.747   -7.982   -7.233   -6.598   -6.146   -5.911   -5.870   -5.970   -6.173   -6.393   -6.611   -6.809   -7.029   -7.328   -7.748   -8.220   -8.650   -9.107
  -9.312   -9.090   -9.143   -9.246   -9.254   -8.978   -8.381   -7.622   -6.898   -6.307   -5.837   -5.425   -5.054   -4.757   -4.556   -4.468   -4.506   -4.661   -4.923   -5.278   -5.696   -6.140   -6.585   -7.021   -7.543   -8.254   -9.249  -10.449  -11.706  -12.845  -13.755  -14.396  -14.792  -15.027  -15.206  -15.428  -15.654  -15.757  -15.632  -15.302  -14.923  -14.592  -14.292  -13.939  -13.515  -13.061  -12.654  -12.346  -12.149  -12.024  -11.962  -11.983  -12.135  -12.402  -12.678  -12.822  -12.678  -12.185  -11.433  -10.569   -9.769   -9.134   -8.687   -8.394   -8.179   -8.007   -7.861   -7.737   -7.678   -7.676   -7.753   -7.887   -8.017   -8.130   -8.166   -8.118   -8.023   -7.942   -7.905   -7.881   -7.789   -7.567   -7.213   -6.783   -6.384   -6.089   -5.951   -5.979   -6.155   -6.431   -6.753   -7.053   -7.302   -7.478   -7.632   -7.823   -8.138   -8.521   -8.896   -9.365
 -12.021  -11.725  -11.599  -11.405  -11.021  -10.341   -9.437   -8.504   -7.700   -7.061   -6.544   -6.102   -5.729   -5.452   -5.278   -5.227   -5.293   -5.454   -5.695   -6.013   -6.364   -6.732   -7.088   -7.485   -8.036   -8.902  -10.169  -11.735  -13.373  -14.823  -15.926  -16.648  -17.103  -17.434  -17.767  -18.115  -18.377  -18.421  -18.191  -17.788  -17.416  -17.181  -17.059  -16.961  -16.845  -16.747  -16.712  -16.735  -16.758  -16.728  -16.621  -16.535  -16.561  -16.696  -16.838  -16.794  -16.373  -15.475  -14.143  -12.537  -10.901   -9.465   -8.384   -7.660   -7.209   -6.919   -6.734   -6.597   -6.518   -6.508   -6.570   -6.695   -6.829   -6.945   -7.017   -7.013   -6.963   -6.923   -6.934   -6.971   -6.982   -6.926   -6.773   -6.578   -6.420   -6.354   -6.411   -6.593   -6.896   -7.268   -7.687   -8.072   -8.392   -8.599   -8.741   -8.883   -9.121   -9.462   -9.803  -10.297
 -15.689  -15.394  -15.171  -14.722  -13.916  -12.710  -11.276   -9.885   -8.744   -7.888   -7.251   -6.787   -6.458   -6.262   -6.150   -6.121   -6.183   -6.286   -6.442   -6.630   -6.844   -7.055   -7.287   -7.604   -8.174   -9.192  -10.758  -12.756  -14.884  -16.806  -18.301  -19.301  -19.944  -20.441  -20.916  -21.343  -21.609  -21.608  -21.348  -20.958  -20.620  -20.446  -20.403  -20.436  -20.509  -20.640  -20.840  -21.069  -21.254  -21.306  -21.223  -21.122  -21.105  -21.170  -21.211  -21.036  -20.446  -19.297  -17.574  -15.408  -13.082  -10.971   -9.346   -8.277   -7.646   -7.280   -7.053   -6.890   -6.793   -6.761   -6.803   -6.889   -7.023   -7.167   -7.285   -7.367   -7.410   -7.441   -7.508   -7.598   -7.684   -7.730   -7.699   -7.631   -7.569   -7.562   -7.657   -7.867   -8.196   -8.636   -9.150   -9.690  -10.160  -10.503  -10.704  -10.841  -11.039  -11.351  -11.677  -12.200
 -19.845  -19.572  -19.302  -18.682  -17.496  -15.753  -13.696  -11.714  -10.090   -8.902   -8.096   -7.600   -7.324   -7.191   -7.118   -7.077   -7.074   -7.073   -7.081   -7.100   -7.108   -7.135   -7.212   -7.419   -7.959   -9.070  -10.852  -13.204  -15.800  -18.237  -20.196  -21.557  -22.459  -23.117  -23.677  -24.118  -24.361  -24.342  -24.121  -23.810  -23.543  -23.392  -23.377  -23.449  -23.598  -23.817  -24.097  -24.407  -24.654  -24.761  -24.748  -24.701  -24.718  -24.793  -24.798  -24.573  -23.933  -22.715  -20.836  -18.389  -15.705  -13.240  -11.355  -10.162   -9.503   -9.149   -8.938   -8.788   -8.682   -8.642   -8.672   -8.760   -8.890   -9.069   -9.258   -9.454   -9.637   -9.794   -9.937  -10.083  -10.222  -10.328  -10.337  -10.271  -10.155  -10.042   -9.997  -10.096  -10.385  -10.888  -11.572  -12.361  -13.095  -13.652  -13.945  -14.063  -14.171  -14.377  -14.635  -15.149
 -24.082  -23.810  -23.487  -22.709  -21.229  -19.042  -16.436  -13.871  -11.713  -10.132   -9.103   -8.512   -8.231   -8.095   -8.006   -7.915   -7.813   -7.690   -7.541   -7.387   -7.220   -7.069   -6.980   -7.067   -7.544   -8.655  -10.535  -13.106  -16.044  -18.906  -21.297  -23.032  -24.188  -24.979  -25.557  -25.960  -26.152  -26.146  -26.011  -25.829  -25.662  -25.567  -25.566  -25.648  -25.802  -26.003  -26.241  -26.492  -26.711  -26.835  -26.884  -26.922  -27.019  -27.143  -27.169  -26.955  -26.353  -25.194  -23.382  -20.999  -18.370  -15.995  -14.260  -13.244  -12.761  -12.560  -12.465  -12.383  -12.323  -12.314  -12.391  -12.524  -12.695  -12.923  -13.194  -13.527  -13.898  -14.258  -14.558  -14.797  -14.999  -15.136  -15.149  -14.996  -14.677  -14.263  -13.893  -13.737  -13.930  -14.522  -15.471  -16.621  -17.724  -18.540  -18.935  -18.984  -18.919  -18.931  -19.041  -19.558
 -28.562  -28.228  -27.764  -26.774  -25.005  -22.456  -19.390  -16.290  -13.586  -11.554  -10.216   -9.455   -9.075   -8.883   -8.748   -8.595   -8.411   -8.195   -7.946   -7.676   -7.390   -7.133   -6.946   -6.948   -7.354   -8.413  -10.277  -12.915  -16.041  -19.186  -21.894  -23.936  -25.316  -26.203  -26.769  -27.099  -27.246  -27.278  -27.261  -27.242  -27.236  -27.259  -27.331  -27.451  -27.587  -27.729  -27.857  -27.981  -28.088  -28.169  -28.239  -28.343  -28.509  -28.685  -28.759  -28.607  -28.109  -27.132  -25.593  -23.592  -21.437  -19.585  -18.372  -17.817  -17.706  -17.775  -17.850  -17.880  -17.899  -17.968  -18.114  -18.323  -18.555  -18.826  -19.179  -19.672  -20.294  -20.945  -21.505  -21.936  -22.265  -22.483  -22.525  -22.268  -21.677  -20.828  -19.972  -19.438  -19.488  -20.222  -21.532  -23.172  -24.781  -25.985  -26.588  -26.672  -26.567  -26.565  -26.695  -27.361
 -34.441  -33.949  -33.196  -31.822  -29.649  -26.676  -23.117  -19.422  -16.085  -13.478  -11.701  -10.652  -10.101   -9.832   -9.656   -9.474   -9.252   -8.992   -8.711   -8.414   -8.118   -7.839   -7.648   -7.647   -8.028   -9.026  -10.821  -13.412  -16.566  -19.816  -22.710  -24.958  -26.501  -27.456  -27.994  -28.261  -28.385  -28.478  -28.614  -28.813  -29.054  -29.312  -29.576  -29.815  -29.998  -30.103  -30.129  -30.105  -30.068  -30.051  -30.078  -30.176  -30.354  -30.564  -30.716  -30.704  -30.427  -29.789  -28.759  -27.433  -26.076  -25.047  -24.591  -24.663  -25.029  -25.404  -25.652  -25.777  -25.854  -25.972  -26.141  -26.348  -26.563  -26.818  -27.216  -27.882  -28.828  -29.873  -30.825  -31.590  -32.194  -32.669  -32.892  -32.687  -31.916  -30.698  -29.390  -28.522  -28.507  -29.512  -31.377  -33.765  -36.172  -38.148  -39.435  -40.186  -40.796  -41.547  -42.323  -43.499
 -43.488  -42.828  -41.604  -39.614  -36.800  -33.188  -28.937  -24.432  -20.215  -16.786  -14.369  -12.882  -12.071  -11.670  -11.450  -11.262  -11.041  -10.794  -10.534  -10.280  -10.049   -9.871   -9.779   -9.848  -10.254  -11.199  -12.890  -15.363  -18.398  -21.612  -24.537  -26.880  -28.512  -29.499  -30.011  -30.230  -30.357  -30.528  -30.852  -31.351  -31.987  -32.678  -33.326  -33.851  -34.196  -34.346  -34.319  -34.166  -33.968  -33.800  -33.702  -33.704  -33.823  -34.050  -34.345  -34.613  -34.755  -34.697  -34.426  -34.017  -33.667  -33.617  -34.006  -34.752  -35.591  -36.262  -36.654  -36.831  -36.916  -36.989  -37.062  -37.121  -37.176  -37.328  -37.751  -38.622  -39.944  -41.491  -42.984  -44.298  -45.465  -46.502  -47.242  -47.421  -46.874  -45.735  -44.485  -43.795  -44.224  -45.961  -48.831  -52.415  -56.163  -59.584  -62.453  -64.965  -67.474  -70.024  -72.106  -73.816
 -56.708  -56.001  -54.246  -51.493  -47.846  -43.365  -38.167  -32.567  -27.161  -22.605  -19.289  -17.158  -15.942  -15.313  -14.989  -14.773  -14.544  -14.304  -14.073  -13.900  -13.788  -13.765  -13.852  -14.087  -14.569  -15.466  -17.007  -19.250  -22.067  -25.108  -27.949  -30.275  -31.924  -32.911  -33.383  -33.560  -33.687  -33.957  -34.518  -35.420  -36.617  -37.967  -39.247  -40.272  -40.937  -41.220  -41.185  -40.922  -40.554  -40.194  -39.899  -39.728  -39.727  -39.988  -40.519  -41.248  -42.048  -42.819  -43.516  -44.172  -44.893  -45.826  -47.043  -48.432  -49.727  -50.686  -51.256  -51.536  -51.663  -51.701  -51.653  -51.533  -51.438  -51.551  -52.112  -53.306  -55.112  -57.258  -59.444  -61.538  -63.559  -65.494  -67.136  -68.215  -68.593  -68.467  -68.378  -69.025  -70.921  -74.204  -78.639  -83.790  -89.155  -94.331  -99.173 -103.816 -108.363 -112.462 -115.271 -116.418
 -72.898  -72.411  -70.249  -66.819  -62.374  -57.013  -50.806  -44.023  -37.307  -31.471  -27.065  -24.118  -22.342  -21.357  -20.835  -20.513  -20.219  -19.929  -19.691  -19.558  -19.580  -19.756  -20.088  -20.540  -21.128  -21.983  -23.316  -25.253  -27.738  -30.495  -33.164  -35.417  -37.041  -38.001  -38.413  -38.526  -38.630  -38.996  -39.818  -41.199  -43.086  -45.254  -47.339  -49.020  -50.108  -50.585  -50.557  -50.194  -49.674  -49.127  -48.637  -48.278  -48.177  -48.513  -49.374  -50.701  -52.306  -54.019  -55.731  -57.420  -59.133  -60.944  -62.887  -64.848  -66.596  -67.935  -68.846  -69.438  -69.840  -70.100  -70.230  -70.287  -70.427  -70.884  -71.922  -73.681  -76.100  -78.904  -81.830  -84.764  -87.713  -90.645  -93.390  -95.754  -97.707  -99.497 -101.606 -104.553 -108.627 -113.777 -119.708 -126.039 -132.421 -138.614 -144.541 -150.207 -155.443 -159.652 -161.836 -161.118
 -89.084  -89.052  -86.739  -82.909  -77.935  -71.945  -64.980  -57.284  -49.514  -42.597  -37.215  -33.487  -31.123  -29.723  -28.911  -28.397  -27.948  -27.523  -27.169  -27.008  -27.116  -27.502  -28.117  -28.833  -29.567  -30.397  -31.520  -33.124  -35.230  -37.669  -40.144  -42.318  -43.929  -44.856  -45.189  -45.206  -45.261  -45.689  -46.745  -48.573  -51.114  -54.054  -56.906  -59.207  -60.703  -61.369  -61.371  -60.954  -60.351  -59.713  -59.129  -58.696  -58.601  -59.106  -60.360  -62.304  -64.686  -67.251  -69.826  -72.341  -74.815  -77.300  -79.814  -82.262  -84.477  -86.324  -87.807  -89.030  -90.103  -91.073  -91.964  -92.845  -93.868  -95.245  -97.171  -99.720 -102.792 -106.171 -109.669 -113.213 -116.819 -120.485 -124.133 -127.698 -131.240 -134.983 -139.243 -144.262 -150.072 -156.492 -163.231 -170.010 -176.619 -182.932 -188.874 -194.309 -198.846 -201.742 -201.940 -198.827
-102.318 -102.797 -100.559  -96.627  -91.463  -85.220  -77.934  -69.844  -61.603  -54.157  -48.245  -44.031  -41.236  -39.469  -38.371  -37.619  -36.951  -36.294  -35.731  -35.423  -35.528  -36.085  -36.987  -38.009  -38.962  -39.842  -40.830  -42.164  -43.970  -46.176  -48.543  -50.723  -52.380  -53.319  -53.598  -53.523  -53.510  -53.950  -55.134  -57.235  -60.179  -63.595  -66.916  -69.605  -71.358  -72.171  -72.242  -71.868  -71.322  -70.768  -70.288  -69.991  -70.094  -70.899  -72.581  -75.057  -78.038  -81.209  -84.355  -87.392  -90.333  -93.235  -96.128  -98.961 -101.639 -104.093 -106.348 -108.494 -110.620 -112.760 -114.924 -117.145 -119.509 -122.133 -125.112 -128.449 -132.058 -135.797 -139.563 -143.340 -147.179 -151.135 -155.235 -159.518 -164.080 -169.070 -174.621 -180.746 -187.301 -194.030 -200.662 -206.997 -212.911 -218.324 -223.118 -227.037 -229.671 -230.406 -228.144 -225.565
-110.717 -111.586 -109.527 -105.700 -100.623  -94.477  -87.320  -79.398  -71.348  -64.063  -58.217  -53.956  -51.019  -49.060  -47.761  -46.793  -45.893  -44.965  -44.111  -43.567  -43.576  -44.231  -45.397  -46.754  -48.007  -49.062  -50.074  -51.331  -53.045  -55.237  -57.699  -60.057  -61.891  -62.953  -63.276  -63.191  -63.147  -63.560  -64.738  -66.841  -69.796  -73.230  -76.574  -79.300  -81.111  -82.004  -82.195  -81.991  -81.664  -81.378  -81.216  -81.285  -81.796  -83.029  -85.136  -88.011  -91.352  -94.832  -98.232 -101.475 -104.592 -107.659 -110.739 -113.843 -116.945 -120.036 -123.157 -126.377 -129.742 -133.245 -136.843 -140.496 -144.197 -147.965 -151.816 -155.727 -159.637 -163.479 -167.223 -170.906 -174.618 -178.468 -182.555 -186.975 -191.819 -197.150 -202.948 -209.085 -215.350 -221.520 -227.441 -233.026 -238.230 -242.986 -247.196 -250.693 -253.212 -254.122 -251.421 -256.170
-113.484 -114.511 -112.620 -108.999 -104.189  -98.402  -91.738  -84.459  -77.159  -70.611  -65.356  -61.464  -58.691  -56.758  -55.393  -54.299  -53.224  -52.062  -50.933  -50.140  -50.002  -50.697  -52.087  -53.791  -55.415  -56.798  -58.076  -59.548  -61.497  -63.991  -66.832  -69.600  -71.817  -73.192  -73.756  -73.830  -73.865  -74.271  -75.330  -77.194  -79.796  -82.814  -85.766  -88.201  -89.873  -90.779  -91.116  -91.156  -91.142  -91.230  -91.502  -92.063  -93.090  -94.795  -97.271 -100.387 -103.853 -107.373 -110.753 -113.942 -116.998 -120.028 -123.140 -126.403 -129.855 -133.533 -137.483 -141.733 -146.263 -150.993 -155.804 -160.584 -165.254 -169.773 -174.119 -178.272 -182.206 -185.913 -189.418 -192.796 -196.169 -199.675 -203.457 -207.637 -212.306 -217.500 -223.178 -229.244 -235.560 -241.976 -248.327 -254.440 -260.157 -265.320 -269.858 -273.596 -276.198 -276.768 -272.701 -284.624
-110.665 -111.585 -109.783 -106.385 -101.929  -96.662  -90.732  -84.415  -78.225  -72.773  -68.426  -65.172  -62.793  -61.077  -59.802  -58.716  -57.588  -56.323  -55.050  -54.103  -53.880  -54.621  -56.228  -58.299  -60.396  -62.306  -64.142  -66.206  -68.790  -71.971  -75.521  -78.974  -81.825  -83.767  -84.822  -85.284  -85.564  -86.031  -86.946  -88.443  -90.487  -92.842  -95.151  -97.086  -98.470  -99.304  -99.733  -99.969 -100.211 -100.597 -101.225 -102.194 -103.643 -105.702 -108.391 -111.557 -114.937 -118.281 -121.442 -124.400 -127.247 -130.124 -133.175 -136.514 -140.225 -144.370 -148.978 -154.022 -159.402 -164.961 -170.519 -175.920 -181.058 -185.875 -190.349 -194.472 -198.253 -201.713 -204.906 -207.928 -210.910 -214.013 -217.399 -221.212 -225.557 -230.480 -235.959 -241.897 -248.136 -254.483 -260.688 -266.564 -271.934 -276.673 -280.632 -283.551 -285.002 -284.049 -278.102 -289.858
-103.014 -103.593 -101.777  -98.560  -94.468  -89.785  -84.704  -79.487  -74.544  -70.301  -66.958  -64.454  -62.599  -61.232  -60.186  -59.257  -58.246  -57.088  -55.910  -55.056  -54.950  -55.884  -57.812  -60.369  -63.122  -65.848  -68.626  -71.723  -75.384  -79.638  -84.203  -88.583  -92.283  -95.009  -96.769  -97.807  -98.471  -99.085  -99.891 -101.028 -102.497 -104.152 -105.767 -107.134 -108.135 -108.772 -109.133 -109.363 -109.619 -110.036 -110.729 -111.805 -113.372 -115.492 -118.123 -121.101 -124.194 -127.201 -130.018 -132.664 -135.256 -137.953 -140.918 -144.282 -148.144 -152.564 -157.539 -162.985 -168.740 -174.599 -180.357 -185.857 -190.999 -195.734 -200.047 -203.939 -207.425 -210.539 -213.346 -215.942 -218.462 -221.068 -223.930 -227.186 -230.938 -235.209 -239.960 -245.058 -250.345 -255.641 -260.800 -265.745 -270.362 -274.597 -278.211 -280.931 -282.242 -281.233 -275.607 -282.203
 -91.937  -92.022  -90.109  -87.014  -83.242  -79.123  -74.875  -70.726  -66.961  -63.835  -61.428  -59.652  -58.359  -57.422  -56.721  -56.103  -55.434  -54.663  -53.933  -53.560  -53.965  -55.441  -58.001  -61.347  -65.102  -69.041  -73.188  -77.720  -82.785  -88.323  -94.014  -99.371 -103.946 -107.487 -109.988 -111.638 -112.715 -113.505 -114.242 -115.079 -116.060 -117.116 -118.115 -118.933 -119.493 -119.787 -119.859 -119.808 -119.764 -119.866 -120.246 -121.029 -122.308 -124.109 -126.358 -128.895 -131.520 -134.076 -136.496 -138.823 -141.182 -143.727 -146.607 -149.939 -153.802 -158.232 -163.193 -168.566 -174.161 -179.768 -185.197 -190.308 -195.022 -199.304 -203.149 -206.563 -209.573 -212.218 -214.564 -216.709 -218.775 -220.910 -223.268 -225.980 -229.136 -232.769 -236.846 -241.281 -245.941 -250.704 -255.463 -260.130 -264.619 -268.787 -272.456 -275.309 -276.918 -276.422 -271.933 -273.172
 -79.399  -78.971  -76.938  -73.926  -70.427  -66.800  -63.275  -60.027  -57.230  -55.009  -53.367  -52.229  -51.478  -51.026  -50.782  -50.666  -50.602  -50.585  -50.752  -51.384  -52.848  -55.415  -59.109  -63.704  -68.872  -74.358  -80.094  -86.139  -92.527  -99.140 -105.670 -111.702 -116.875 -120.989 -124.031 -126.136 -127.522 -128.432 -129.095 -129.678 -130.264 -130.836 -131.323 -131.643 -131.736 -131.582 -131.204 -130.678 -130.119 -129.669 -129.473 -129.666 -130.344 -131.524 -133.135 -135.036 -137.068 -139.111 -141.126 -143.157 -145.314 -147.720 -150.479 -153.667 -157.324 -161.455 -166.002 -170.837 -175.787 -180.668 -185.328 -189.664 -193.626 -197.201 -200.395 -203.224 -205.713 -207.904 -209.854 -211.643 -213.373 -215.174 -217.176 -219.498 -222.231 -225.417 -229.051 -233.081 -237.421 -241.973 -246.636 -251.301 -255.850 -260.118 -263.910 -266.893 -268.681 -268.520 -264.982 -262.585
 -67.684  -66.866  -64.788  -61.901  -58.681  -55.494  -52.558  -50.003  -47.923  -46.368  -45.328  -44.733  -44.507  -44.594  -44.951  -45.557  -46.401  -47.513  -49.017  -51.131  -54.140  -58.252  -63.473  -69.590  -76.266  -83.192  -90.210  -97.281 -104.393 -111.440 -118.191 -124.348 -129.646 -133.933 -137.186 -139.492 -141.011 -141.944 -142.500 -142.853 -143.107 -143.282 -143.340 -143.218 -142.863 -142.249 -141.394 -140.365 -139.273 -138.252 -137.447 -136.993 -136.986 -137.452 -138.340 -139.547 -140.957 -142.485 -144.105 -145.850 -147.793 -150.007 -152.541 -155.420 -158.646 -162.195 -166.001 -169.958 -173.927 -177.777 -181.410 -184.770 -187.838 -190.619 -193.125 -195.369 -197.374 -199.168 -200.796 -202.318 -203.815 -205.389 -207.149 -209.199 -211.615 -214.443 -217.690 -221.328 -225.306 -229.554 -233.996 -238.540 -243.068 -247.416 -251.351 -254.538 -256.547 -256.743 -254.030 -249.782
 -58.982  -58.004  -56.055  -53.449  -50.621  -47.905  -45.498  -43.492  -41.951  -40.901  -40.342  -40.233  -40.538  -41.218  -42.286  -43.768  -45.697  -48.101  -51.052  -54.694  -59.219  -64.761  -71.302  -78.599  -86.282  -94.002 -101.549 -108.859 -115.927 -122.712 -129.087 -134.865 -139.866 -143.973 -147.148 -149.433 -150.937 -151.814 -152.247 -152.398 -152.379 -152.231 -151.937 -151.448 -150.716 -149.720 -148.480 -147.066 -145.579 -144.146 -142.895 -141.949 -141.395 -141.266 -141.535 -142.136 -142.994 -144.056 -145.299 -146.741 -148.411 -150.333 -152.509 -154.921 -157.543 -160.336 -163.237 -166.168 -169.038 -171.773 -174.329 -176.691 -178.868 -180.874 -182.720 -184.419 -185.983 -187.436 -188.808 -190.142 -191.498 -192.949 -194.580 -196.471 -198.682 -201.253 -204.190 -207.481 -211.092 -214.983 -219.101 -223.377 -227.716 -231.969 -235.912 -239.230 -241.482 -242.077 -240.131 -235.468
 -54.868  -54.013  -52.437  -50.355  -48.128  -46.027  -44.190  -42.697  -41.586  -40.914  -40.704  -40.982  -41.712  -42.905  -44.583  -46.807  -49.603  -52.960  -56.872  -61.420  -66.732  -72.924  -79.967  -87.615  -95.485 -103.211 -110.564 -117.474 -123.966 -130.058 -135.711 -140.830 -145.298 -149.021 -151.952 -154.095 -155.510 -156.310 -156.642 -156.650 -156.443 -156.070 -155.530 -154.787 -153.805 -152.570 -151.112 -149.503 -147.840 -146.231 -144.783 -143.595 -142.738 -142.243 -142.099 -142.269 -142.710 -143.388 -144.288 -145.407 -146.747 -148.293 -150.017 -151.878 -153.837 -155.848 -157.861 -159.824 -161.687 -163.424 -165.033 -166.534 -167.949 -169.299 -170.593 -171.836 -173.038 -174.218 -175.397 -176.607 -177.886 -179.284 -180.862 -182.677 -184.774 -187.180 -189.899 -192.918 -196.216 -199.764 -203.527 -207.454 -211.469 -215.451 -219.207 -222.456 -224.798 -225.690 -224.368 -220.094
 -55.834  -55.362  -54.372  -53.043  -51.631  -50.291  -49.098  -48.067  -47.250  -46.722  -46.578  -46.899  -47.693  -48.993  -50.827  -53.247  -56.254  -59.787  -63.784  -68.277  -73.396  -79.273  -85.909  -93.091 -100.443 -107.593 -114.295 -120.470 -126.152 -131.398 -136.229 -140.611 -144.478 -147.759 -150.399 -152.377 -153.714 -154.485 -154.800 -154.780 -154.521 -154.073 -153.445 -152.616 -151.562 -150.283 -148.817 -147.236 -145.627 -144.080 -142.677 -141.488 -140.565 -139.932 -139.586 -139.508 -139.674 -140.068 -140.678 -141.491 -142.489 -143.641 -144.905 -146.236 -147.592 -148.930 -150.215 -151.410 -152.498 -153.482 -154.390 -155.258 -156.120 -156.992 -157.880 -158.784 -159.711 -160.678 -161.704 -162.812 -164.030 -165.388 -166.929 -168.694 -170.715 -173.007 -175.569 -178.384 -181.428 -184.676 -188.102 -191.666 -195.312 -198.942 -202.401 -205.448 -207.735 -208.778 -207.906 -204.267
 -60.869  -60.957  -60.601  -60.050  -59.458  -58.863  -58.236  -57.521  -56.728  -55.972  -55.430  -55.265  -55.559  -56.360  -57.710  -59.639  -62.114  -65.048  -68.342  -72.007  -76.184  -81.040  -86.629  -92.786  -99.167 -105.400 -111.224 -116.542 -121.377 -125.798 -129.856 -133.558 -136.877 -139.765 -142.170 -144.055 -145.412 -146.279 -146.734 -146.868 -146.755 -146.443 -145.943 -145.246 -144.340 -143.237 -141.980 -140.638 -139.283 -137.984 -136.799 -135.775 -134.949 -134.340 -133.947 -133.764 -133.781 -133.993 -134.391 -134.961 -135.674 -136.493 -137.377 -138.284 -139.180 -140.034 -140.812 -141.496 -142.081 -142.587 -143.055 -143.527 -144.034 -144.594 -145.207 -145.870 -146.590 -147.384 -148.271 -149.273 -150.411 -151.709 -153.195 -154.903 -156.857 -159.067 -161.519 -164.187 -167.038 -170.046 -173.184 -176.428 -179.738 -183.042 -186.215 -189.056 -191.263 -192.407 -191.889 -188.882
 -67.591  -68.222  -68.315  -68.277  -68.211  -68.078  -67.745  -67.068  -66.009  -64.692  -63.365  -62.281  -61.613  -61.445  -61.821  -62.756  -64.211  -66.071  -68.225  -70.669  -73.540  -77.031  -81.246  -86.080  -91.244  -96.388 -101.247 -105.704 -109.760 -113.472 -116.896 -120.061 -122.969 -125.598 -127.909 -129.856 -131.409 -132.574 -133.392 -133.918 -134.201 -134.275 -134.147 -133.811 -133.268 -132.539 -131.665 -130.707 -129.721 -128.756 -127.857 -127.059 -126.394 -125.882 -125.528 -125.334 -125.302 -125.433 -125.723 -126.155 -126.694 -127.303 -127.943 -128.582 -129.196 -129.761 -130.252 -130.653 -130.967 -131.217 -131.446 -131.694 -131.992 -132.352 -132.778 -133.265 -133.822 -134.465 -135.216 -136.098 -137.134 -138.348 -139.767 -141.424 -143.336 -145.507 -147.908 -150.493 -153.217 -156.045 -158.959 -161.949 -164.996 -168.053 -171.024 -173.738 -175.924 -177.194 -177.001 -174.567
 -73.130  -74.078  -74.247  -74.252  -74.226  -74.114  -73.715  -72.803  -71.283  -69.263  -67.025  -64.902  -63.141  -61.860  -61.110  -60.895  -61.169  -61.826  -62.753  -63.935  -65.482  -67.590  -70.384  -73.825  -77.701  -81.713  -85.620  -89.296  -92.714  -95.904  -98.903 -101.743 -104.446 -107.017 -109.432 -111.646 -113.611 -115.302 -116.718 -117.871 -118.778 -119.446 -119.872 -120.054 -119.999 -119.734 -119.298 -118.742 -118.110 -117.443 -116.782 -116.169 -115.643 -115.230 -114.947 -114.799 -114.797 -114.948 -115.247 -115.671 -116.178 -116.724 -117.271 -117.796 -118.285 -118.720 -119.083 -119.360 -119.554 -119.688 -119.800 -119.928 -120.098 -120.322 -120.608 -120.956 -121.373 -121.876 -122.487 -123.236 -124.157 -125.285 -126.655 -128.301 -130.237 -132.449 -134.884 -137.468 -140.134 -142.841 -145.583 -148.375 -151.225 -154.116 -156.974 -159.647 -161.885 -163.320 -163.442 -161.523
 -75.202  -76.089  -75.900  -75.432  -74.933  -74.393  -73.597  -72.264  -70.233  -67.575  -64.581  -61.624  -58.988  -56.809  -55.128  -53.940  -53.205  -52.842  -52.752  -52.907  -53.389  -54.370  -55.965  -58.176  -60.880  -63.866  -66.955  -70.031  -73.044  -75.972  -78.823  -81.612  -84.363  -87.098  -89.810  -92.459  -94.987  -97.332  -99.458 -101.329 -102.919 -104.212 -105.196 -105.871 -106.255 -106.378 -106.281 -106.007 -105.593 -105.088 -104.544 -104.019 -103.567 -103.227 -103.023 -102.966 -103.065 -103.330 -103.747 -104.283 -104.880 -105.484 -106.055 -106.572 -107.030 -107.422 -107.738 -107.970 -108.121 -108.207 -108.265 -108.324 -108.409 -108.536 -108.712 -108.941 -109.229 -109.593 -110.055 -110.663 -111.464 -112.518 -113.883 -115.592 -117.651 -120.015 -122.592 -125.266 -127.943 -130.580 -133.189 -135.817 -138.510 -141.284 -144.086 -146.776 -149.107 -150.722 -151.140 -149.677
 -72.624  -73.050  -72.131  -70.764  -69.359  -68.028  -66.597  -64.759  -62.304  -59.254  -55.884  -52.553  -49.545  -46.973  -44.852  -43.153  -41.849  -40.884  -40.201  -39.766  -39.638  -39.929  -40.734  -42.081  -43.926  -46.174  -48.725  -51.492  -54.407  -57.389  -60.397  -63.407  -66.434  -69.489  -72.572  -75.656  -78.682  -81.573  -84.257  -86.665  -88.739  -90.446  -91.774  -92.734  -93.353  -93.667  -93.718  -93.542  -93.180  -92.690  -92.150  -91.634  -91.216  -90.941  -90.835  -90.909  -91.166  -91.604  -92.201  -92.904  -93.640  -94.342  -94.968  -95.498  -95.936  -96.288  -96.559  -96.753  -96.873  -96.934  -96.963  -96.983  -97.017  -97.079  -97.176  -97.309  -97.481  -97.705  -98.012  -98.464  -99.142 -100.142 -101.544 -103.393 -105.675 -108.304 -111.128 -113.981 -116.737 -119.351 -121.860 -124.345 -126.898 -129.571 -132.335 -135.055 -137.485 -139.268 -139.944 -138.880
 -65.413  -65.111  -63.272  -60.793  -58.262  -55.957  -53.796  -51.500  -48.835  -45.777  -42.560  -39.467  -36.726  -34.384  -32.418  -30.784  -29.451  -28.406  -27.607  -27.053  -26.765  -26.814  -27.270  -28.167  -29.546  -31.409  -33.753  -36.523  -39.627  -42.931  -46.316  -49.721  -53.120  -56.503  -59.868  -63.198  -66.453  -69.562  -72.444  -75.014  -77.209  -78.997  -80.377  -81.368  -82.009  -82.335  -82.383  -82.184  -81.784  -81.256  -80.698  -80.202  -79.846  -79.675  -79.707  -79.940  -80.368  -80.970  -81.708  -82.514  -83.316  -84.039  -84.644  -85.117  -85.462  -85.705  -85.870  -85.977  -86.037  -86.061  -86.067  -86.072  -86.089  -86.130  -86.188  -86.261  -86.340  -86.433  -86.579  -86.868  -87.422  -88.375  -89.841  -91.879  -94.451  -97.419 -100.563 -103.661 -106.555 -109.192 -111.627 -113.984 -116.398 -118.962 -121.673 -124.410 -126.920 -128.845 -129.741 -129.020
 -54.779  -53.739  -51.122  -47.715  -44.239  -41.111  -38.382  -35.832  -33.256  -30.599  -28.015  -25.661  -23.659  -21.977  -20.577  -19.402  -18.424  -17.652  -17.077  -16.693  -16.522  -16.600  -16.980  -17.718  -18.897  -20.623  -22.954  -25.881  -29.294  -33.003  -36.819  -40.626  -44.344  -47.941  -51.406  -54.736  -57.917  -60.906  -63.639  -66.039  -68.061  -69.687  -70.934  -71.834  -72.418  -72.717  -72.755  -72.561  -72.184  -71.705  -71.232  -70.861  -70.663  -70.668  -70.873  -71.255  -71.789  -72.445  -73.170  -73.903  -74.582  -75.152  -75.579  -75.855  -75.995  -76.031  -76.006  -75.959  -75.911  -75.873  -75.852  -75.855  -75.891  -75.953  -76.021  -76.077  -76.098  -76.084  -76.085  -76.219  -76.648  -77.563  -79.109  -81.355  -84.243  -87.577  -91.071  -94.442  -97.496 -100.173 -102.541 -104.762 -107.012 -109.432 -112.054 -114.772 -117.332 -119.371 -120.449 -120.017
 -43.008  -41.519  -38.620  -34.907  -31.115  -27.707  -24.798  -22.293  -20.036  -17.983  -16.173  -14.643  -13.400  -12.397  -11.576  -10.887  -10.329   -9.912   -9.622   -9.467   -9.464   -9.630  -10.008  -10.664  -11.730  -13.351  -15.659  -18.680  -22.300  -26.295  -30.422  -34.493  -38.384  -42.032  -45.424  -48.571  -51.492  -54.168  -56.569  -58.654  -60.403  -61.821  -62.944  -63.799  -64.413  -64.802  -64.973  -64.950  -64.774  -64.529  -64.317  -64.221  -64.282  -64.508  -64.872  -65.325  -65.834  -66.361  -66.863  -67.299  -67.639  -67.859  -67.946  -67.900  -67.742  -67.508  -67.244  -67.002  -66.811  -66.688  -66.633  -66.644  -66.717  -66.827  -66.940  -67.016  -67.019  -66.940  -66.837  -66.858  -67.210  -68.124  -69.784  -72.268  -75.480  -79.174  -82.995  -86.604  -89.777  -92.443  -94.693  -96.719  -98.744 -100.956 -103.426 -106.073 -108.643 -110.762 -111.991 -111.801
 -32.866  -31.337  -28.699  -25.334  -21.853  -18.663  -15.912  -13.619  -11.718  -10.182   -8.965   -8.019   -7.260   -6.651   -6.140   -5.750   -5.454   -5.251   -5.149   -5.133   -5.221   -5.416   -5.746   -6.305   -7.201   -8.636  -10.761  -13.652  -17.219  -21.240  -25.430  -29.547  -33.423  -36.963  -40.164  -43.042  -45.641  -47.974  -50.039  -51.833  -53.375  -54.692  -55.820  -56.778  -57.589  -58.252  -58.756  -59.107  -59.336  -59.511  -59.713  -59.990  -60.353  -60.784  -61.227  -61.634  -61.967  -62.193  -62.291  -62.258  -62.105  -61.849  -61.509  -61.094  -60.626  -60.131  -59.654  -59.239  -58.919  -58.714  -58.630  -58.652  -58.756  -58.913  -59.074  -59.188  -59.207  -59.122  -59.001  -59.012  -59.399  -60.425  -62.302  -65.090  -68.650  -72.662  -76.716  -80.436  -83.586  -86.108  -88.117  -89.842  -91.551  -93.476  -95.725  -98.238 -100.766 -102.925 -104.265 -104.272
 -26.296  -24.959  -22.749  -19.889  -16.812  -13.868  -11.284   -9.169   -7.555   -6.400   -5.595   -5.000   -4.487   -4.006   -3.584   -3.257   -3.041   -2.910   -2.868   -2.893   -2.986   -3.149   -3.395   -3.803   -4.493   -5.619   -7.391   -9.887  -13.090  -16.800  -20.752  -24.657  -28.327  -31.643  -34.587  -37.186  -39.495  -41.550  -43.373  -44.992  -46.451  -47.793  -49.053  -50.253  -51.395  -52.469  -53.444  -54.306  -55.068  -55.763  -56.432  -57.092  -57.723  -58.286  -58.720  -58.977  -59.029  -58.855  -58.468  -57.908  -57.234  -56.506  -55.765  -55.035  -54.335  -53.670  -53.071  -52.566  -52.182  -51.939  -51.844  -51.874  -51.999  -52.187  -52.389  -52.556  -52.634  -52.619  -52.597  -52.749  -53.352  -54.684  -56.938  -60.121  -64.018  -68.241  -72.341  -75.948  -78.852  -81.032  -82.644  -83.961  -85.281  -86.862  -88.842  -91.170  -93.605  -95.753  -97.159  -97.322
 -23.229  -22.082  -20.115  -17.462  -14.486  -11.553   -8.970   -6.941   -5.548   -4.711   -4.234   -3.890   -3.519   -3.079   -2.653   -2.306   -2.064   -1.919   -1.868   -1.882   -1.951   -2.054   -2.217   -2.488   -2.937   -3.729   -5.019   -6.940   -9.508  -12.627  -16.046  -19.496  -22.776  -25.768  -28.427  -30.769  -32.860  -34.732  -36.417  -37.968  -39.437  -40.871  -42.315  -43.785  -45.275  -46.769  -48.223  -49.600  -50.883  -52.065  -53.153  -54.128  -54.954  -55.583  -55.954  -56.031  -55.787  -55.233  -54.414  -53.414  -52.328  -51.252  -50.249  -49.348  -48.554  -47.859  -47.264  -46.783  -46.424  -46.211  -46.144  -46.204  -46.359  -46.585  -46.840  -47.078  -47.266  -47.412  -47.619  -48.083  -49.090  -50.906  -53.667  -57.276  -61.416  -65.646  -69.528  -72.749  -75.165  -76.824  -77.932  -78.785  -79.703  -80.949  -82.661  -84.789  -87.093  -89.183  -90.604  -90.882
 -21.809  -20.787  -18.889  -16.249  -13.209  -10.170   -7.532   -5.577   -4.363   -3.773   -3.549   -3.397   -3.138   -2.758   -2.343   -1.981   -1.702   -1.532   -1.465   -1.455   -1.493   -1.548   -1.658   -1.809   -2.086   -2.572   -3.398   -4.696   -6.538   -8.869  -11.544  -14.348  -17.104  -19.667  -22.001  -24.114  -26.031  -27.778  -29.397  -30.930  -32.425  -33.940  -35.519  -37.174  -38.900  -40.681  -42.470  -44.217  -45.871  -47.397  -48.771  -49.958  -50.910  -51.574  -51.896  -51.846  -51.407  -50.612  -49.541  -48.304  -47.032  -45.839  -44.785  -43.901  -43.179  -42.599  -42.135  -41.784  -41.548  -41.442  -41.469  -41.610  -41.837  -42.136  -42.475  -42.820  -43.168  -43.540  -44.060  -44.952  -46.485  -48.867  -52.142  -56.074  -60.260  -64.238  -67.641  -70.247  -72.012  -73.062  -73.644  -74.068  -74.648  -75.628  -77.124  -79.072  -81.230  -83.221  -84.609  -84.959
 -19.927  -19.014  -17.245  -14.746  -11.832   -8.908   -6.377   -4.560   -3.490   -3.062   -2.966   -2.923   -2.756   -2.467   -2.122   -1.799   -1.540   -1.365   -1.274   -1.259   -1.275   -1.314   -1.385   -1.474   -1.617   -1.883   -2.360   -3.130   -4.301   -5.858   -7.749   -9.818  -11.932  -14.001  -15.961  -17.808  -19.541  -21.172  -22.726  -24.242  -25.745  -27.280  -28.882  -30.564  -32.330  -34.169  -36.049  -37.905  -39.689  -41.343  -42.833  -44.107  -45.124  -45.828  -46.170  -46.118  -45.666  -44.863  -43.806  -42.624  -41.455  -40.405  -39.530  -38.846  -38.341  -37.988  -37.746  -37.613  -37.577  -37.657  -37.847  -38.131  -38.493  -38.910  -39.368  -39.851  -40.367  -40.982  -41.844  -43.177  -45.219  -48.099  -51.732  -55.775  -59.764  -63.275  -66.027  -67.918  -69.004  -69.482  -69.622  -69.727  -70.081  -70.889  -72.232  -74.026  -76.030  -77.893  -79.207  -79.585
 -16.540  -15.767  -14.335  -12.284   -9.869   -7.416   -5.284   -3.717   -2.798   -2.427   -2.357   -2.344   -2.251   -2.057   -1.815   -1.580   -1.381   -1.243   -1.169   -1.160   -1.178   -1.210   -1.254   -1.293   -1.360   -1.494   -1.737   -2.164   -2.825   -3.768   -4.960   -6.346   -7.829   -9.356  -10.895  -12.413  -13.917  -15.391  -16.848  -18.310  -19.793  -21.295  -22.831  -24.391  -25.997  -27.649  -29.338  -31.027  -32.668  -34.222  -35.640  -36.892  -37.920  -38.683  -39.134  -39.228  -38.975  -38.424  -37.663  -36.819  -36.010  -35.319  -34.797  -34.439  -34.236  -34.154  -34.180  -34.301  -34.521  -34.842  -35.249  -35.727  -36.254  -36.819  -37.404  -38.006  -38.669  -39.488  -40.633  -42.314  -44.728  -47.906  -51.656  -55.567  -59.170  -62.099  -64.177  -65.403  -65.919  -65.961  -65.808  -65.739  -65.990  -66.710  -67.943  -69.596  -71.443  -73.155  -74.375  -74.746
 -12.033  -11.436  -10.478   -9.096   -7.433   -5.703   -4.139   -2.951   -2.213   -1.878   -1.792   -1.765   -1.719   -1.611   -1.484   -1.343   -1.216   -1.132   -1.103   -1.123   -1.148   -1.175   -1.203   -1.212   -1.243   -1.295   -1.401   -1.613   -1.963   -2.473   -3.171   -4.016   -4.958   -5.992   -7.090   -8.249   -9.447  -10.709  -12.034  -13.421  -14.860  -16.306  -17.714  -19.062  -20.370  -21.663  -22.962  -24.262  -25.554  -26.811  -28.021  -29.143  -30.145  -30.985  -31.613  -31.988  -32.106  -32.003  -31.752  -31.441  -31.146  -30.936  -30.834  -30.836  -30.938  -31.131  -31.412  -31.784  -32.258  -32.818  -33.447  -34.115  -34.799  -35.485  -36.154  -36.830  -37.573  -38.514  -39.826  -41.698  -44.274  -47.506  -51.145  -54.746  -57.880  -60.248  -61.753  -62.469  -62.592  -62.379  -62.096  -61.988  -62.229  -62.925  -64.082  -65.611  -67.306  -68.874  -70.002  -70.362
  -7.611   -7.219   -6.708   -5.957   -5.017   -3.996   -3.021   -2.231   -1.716   -1.442   -1.355   -1.324   -1.312   -1.269   -1.206   -1.143   -1.089   -1.065   -1.087   -1.133   -1.182   -1.207   -1.220   -1.199   -1.177   -1.188   -1.224   -1.319   -1.484   -1.750   -2.131   -2.594   -3.147   -3.780   -4.492   -5.279   -6.172   -7.176   -8.335   -9.616  -10.985  -12.336  -13.580  -14.689  -15.649  -16.524  -17.356  -18.183  -19.036  -19.917  -20.834  -21.778  -22.732  -23.652  -24.490  -25.209  -25.790  -26.229  -26.564  -26.839  -27.095  -27.376  -27.686  -28.025  -28.408  -28.837  -29.329  -29.904  -30.569  -31.304  -32.079  -32.862  -33.624  -34.350  -35.028  -35.701  -36.440  -37.396  -38.737  -40.636  -43.177  -46.269  -49.647  -52.879  -55.578  -57.507  -58.611  -59.012  -58.931  -58.622  -58.338  -58.277  -58.572  -59.289  -60.412  -61.854  -63.436  -64.904  -65.966  -66.332
  -4.346   -4.102   -3.883   -3.551   -3.110   -2.591   -2.073   -1.621   -1.300   -1.129   -1.078   -1.066   -1.087   -1.081   -1.058   -1.042   -1.027   -1.061   -1.132   -1.220   -1.287   -1.302   -1.273   -1.223   -1.158   -1.119   -1.115   -1.150   -1.224   -1.363   -1.546   -1.789   -2.085   -2.434   -2.849   -3.347   -3.936   -4.694   -5.635   -6.748   -7.973   -9.157  -10.205  -11.048  -11.691  -12.200  -12.626  -13.032  -13.477  -13.999  -14.638  -15.400  -16.295  -17.274  -18.314  -19.366  -20.389  -21.345  -22.221  -23.031  -23.797  -24.532  -25.224  -25.885  -26.518  -27.148  -27.797  -28.498  -29.253  -30.045  -30.838  -31.603  -32.312  -32.961  -33.557  -34.135  -34.798  -35.688  -36.955  -38.748  -41.117  -43.975  -47.044  -49.949  -52.330  -53.982  -54.875  -55.144  -55.008  -54.718  -54.505  -54.531  -54.913  -55.683  -56.818  -58.240  -59.780  -61.211  -62.262  -62.658
  -2.457   -2.291   -2.222   -2.085   -1.890   -1.659   -1.417   -1.192   -1.025   -0.950   -0.932   -0.945   -0.978   -1.001   -1.003   -1.005   -1.035   -1.129   -1.249   -1.353   -1.415   -1.400   -1.327   -1.227   -1.131   -1.076   -1.043   -1.046   -1.077   -1.133   -1.224   -1.345   -1.500   -1.671   -1.890   -2.169   -2.544   -3.057   -3.753   -4.621   -5.593   -6.534   -7.325   -7.925   -8.316   -8.556   -8.701   -8.833   -8.995   -9.262   -9.673  -10.280  -11.091  -12.097  -13.271  -14.565  -15.909  -17.243  -18.531  -19.783  -20.991  -22.142  -23.209  -24.179  -25.054  -25.862  -26.625  -27.377  -28.119  -28.844  -29.515  -30.116  -30.651  -31.127  -31.558  -31.998  -32.545  -33.324  -34.480  -36.119  -38.286  -40.895  -43.695  -46.352  -48.552  -50.089  -50.940  -51.229  -51.158  -50.963  -50.857  -50.989  -51.464  -52.306  -53.491  -54.944  -56.508  -57.961  -59.034  -59.467
  -1.566   -1.433   -1.389   -1.342   -1.251   -1.140   -1.038   -0.933   -0.874   -0.840   -0.840   -0.884   -0.938   -0.968   -0.990   -1.011   -1.079   -1.216   -1.392   -1.527   -1.560   -1.480   -1.348   -1.206   -1.081   -1.014   -0.976   -0.964   -0.972   -1.002   -1.044   -1.107   -1.174   -1.261   -1.372   -1.519   -1.729   -2.049   -2.496   -3.087   -3.758   -4.403   -4.937   -5.313   -5.527   -5.615   -5.633   -5.624   -5.641   -5.764   -6.023   -6.486   -7.187   -8.131   -9.308  -10.669  -12.131  -13.661  -15.205  -16.766  -18.331  -19.858  -21.295  -22.583  -23.715  -24.702  -25.563  -26.319  -26.988  -27.555  -28.021  -28.387  -28.688  -28.951  -29.201  -29.509  -29.955  -30.660  -31.729  -33.253  -35.255  -37.657  -40.251  -42.742  -44.850  -46.383  -47.307  -47.727  -47.812  -47.779  -47.812  -48.062  -48.628  -49.541  -50.788  -52.292  -53.901  -55.386  -56.480  -56.931
  -1.199   -1.073   -1.038   -1.003   -0.951   -0.904   -0.851   -0.805   -0.788   -0.772   -0.795   -0.830   -0.881   -0.922   -0.950   -0.990   -1.095   -1.287   -1.502   -1.644   -1.639   -1.500   -1.307   -1.126   -1.005   -0.940   -0.903   -0.890   -0.906   -0.910   -0.937   -0.975   -1.010   -1.057   -1.105   -1.189   -1.297   -1.468   -1.725   -2.064   -2.444   -2.829   -3.127   -3.335   -3.445   -3.479   -3.455   -3.414   -3.401   -3.462   -3.624   -3.952   -4.499   -5.279   -6.306   -7.536   -8.918  -10.407  -12.011  -13.724  -15.532  -17.373  -19.147  -20.759  -22.166  -23.346  -24.308  -25.080  -25.677  -26.093  -26.357  -26.512  -26.610  -26.703  -26.842  -27.081  -27.498  -28.197  -29.247  -30.713  -32.609  -34.839  -37.246  -39.596  -41.626  -43.185  -44.226  -44.828  -45.129  -45.311  -45.522  -45.912  -46.570  -47.560  -48.858  -50.390  -52.017  -53.504  -54.591  -55.014
  -1.029   -0.910   -0.894   -0.852   -0.818   -0.792   -0.765   -0.738   -0.727   -0.733   -0.743   -0.768   -0.813   -0.843   -0.877   -0.940   -1.066   -1.274   -1.507   -1.650   -1.630   -1.456   -1.223   -1.036   -0.921   -0.859   -0.836   -0.832   -0.830   -0.841   -0.860   -0.881   -0.908   -0.931   -0.971   -1.008   -1.066   -1.153   -1.283   -1.443   -1.635   -1.813   -1.967   -2.071   -2.121   -2.141   -2.126   -2.109   -2.094   -2.130   -2.234   -2.449   -2.813   -3.374   -4.127   -5.073   -6.191   -7.477   -8.948  -10.635  -12.524  -14.551  -16.577  -18.477  -20.146  -21.541  -22.648  -23.479  -24.054  -24.401  -24.559  -24.601  -24.605  -24.643  -24.770  -25.034  -25.504  -26.252  -27.331  -28.763  -30.538  -32.574  -34.757  -36.891  -38.781  -40.310  -41.432  -42.197  -42.723  -43.134  -43.551  -44.101  -44.885  -45.952  -47.297  -48.844  -50.450  -51.899  -52.949  -53.312
  -0.948   -0.836   -0.806   -0.777   -0.755   -0.731   -0.715   -0.702   -0.691   -0.684   -0.699   -0.711   -0.739   -0.756   -0.788   -0.849   -0.973   -1.170   -1.397   -1.529   -1.493   -1.319   -1.113   -0.937   -0.835   -0.784   -0.775   -0.767   -0.775   -0.791   -0.808   -0.824   -0.842   -0.860   -0.879   -0.904   -0.943   -0.983   -1.038   -1.118   -1.201   -1.275   -1.344   -1.390   -1.429   -1.435   -1.441   -1.439   -1.451   -1.473   -1.536   -1.650   -1.862   -2.196   -2.674   -3.294   -4.062   -5.014   -6.200   -7.679   -9.461  -11.469  -13.584  -15.647  -17.527  -19.128  -20.399  -21.342  -21.988  -22.371  -22.551  -22.626  -22.665  -22.764  -22.979  -23.359  -23.933  -24.752  -25.837  -27.179  -28.753  -30.517  -32.375  -34.183  -35.827  -37.212  -38.319  -39.176  -39.859  -40.462  -41.071  -41.792  -42.706  -43.870  -45.265  -46.820  -48.398  -49.799  -50.803  -51.121
  -0.903   -0.797   -0.768   -0.741   -0.720   -0.703   -0.689   -0.677   -0.667   -0.659   -0.654   -0.671   -0.679   -0.681   -0.708   -0.765   -0.857   -1.016   -1.182   -1.284   -1.270   -1.133   -0.977   -0.841   -0.765   -0.728   -0.716   -0.722   -0.734   -0.748   -0.762   -0.776   -0.791   -0.807   -0.823   -0.839   -0.855   -0.879   -0.914   -0.946   -0.985   -1.012   -1.048   -1.076   -1.097   -1.111   -1.120   -1.135   -1.138   -1.162   -1.197   -1.264   -1.369   -1.539   -1.787   -2.132   -2.587   -3.197   -4.034   -5.156   -6.627   -8.404  -10.384  -12.426  -14.364  -16.073  -17.467  -18.541  -19.308  -19.819  -20.135  -20.345  -20.536  -20.799  -21.189  -21.724  -22.435  -23.306  -24.329  -25.493  -26.784  -28.164  -29.591  -30.986  -32.278  -33.411  -34.382  -35.216  -35.954  -36.660  -37.398  -38.237  -39.258  -40.484  -41.915  -43.466  -45.010  -46.375  -47.362  -47.690
  -0.872   -0.768   -0.742   -0.717   -0.697   -0.680   -0.667   -0.655   -0.646   -0.638   -0.632   -0.628   -0.630   -0.642   -0.649   -0.684   -0.746   -0.844   -0.952   -1.022   -1.018   -0.931   -0.835   -0.740   -0.697   -0.685   -0.677   -0.688   -0.699   -0.711   -0.723   -0.735   -0.748   -0.761   -0.775   -0.789   -0.803   -0.817   -0.832   -0.852   -0.869   -0.899   -0.916   -0.934   -0.953   -0.965   -0.975   -0.991   -1.006   -1.021   -1.041   -1.069   -1.125   -1.203   -1.312   -1.474   -1.701   -2.042   -2.551   -3.293   -4.351   -5.717   -7.342   -9.111  -10.887  -12.523  -13.920  -15.054  -15.933  -16.596  -17.091  -17.492  -17.901  -18.391  -19.028  -19.780  -20.634  -21.542  -22.463  -23.381  -24.324  -25.262  -26.199  -27.124  -27.994  -28.791  -29.526  -30.220  -30.896  -31.588  -32.334  -33.199  -34.228  -35.443  -36.830  -38.324  -39.804  -41.124  -42.099  -42.486
  -0.844   -0.744   -0.719   -0.695   -0.676   -0.660   -0.647   -0.636   -0.627   -0.620   -0.614   -0.609   -0.605   -0.602   -0.611   -0.628   -0.662   -0.704   -0.767   -0.803   -0.803   -0.764   -0.714   -0.677   -0.654   -0.643   -0.650   -0.659   -0.669   -0.678   -0.689   -0.700   -0.711   -0.722   -0.734   -0.746   -0.758   -0.771   -0.784   -0.796   -0.809   -0.822   -0.835   -0.848   -0.861   -0.874   -0.887   -0.901   -0.914   -0.928   -0.942   -0.963   -0.994   -1.025   -1.079   -1.140   -1.245   -1.408   -1.669   -2.098   -2.748   -3.650   -4.793   -6.117   -7.520   -8.875  -10.112  -11.169  -12.064  -12.804  -13.442  -14.039  -14.678  -15.448  -16.356  -17.373  -18.397  -19.349  -20.160  -20.834  -21.406  -21.899  -22.355  -22.782  -23.199  -23.621  -24.050  -24.513  -25.032  -25.600  -26.248  -27.015  -27.933  -29.006  -30.232  -31.547  -32.879  -34.090  -35.011  -35.476
  -0.820   -0.723   -0.699   -0.676   -0.657   -0.642   -0.629   -0.619   -0.610   -0.603   -0.598   -0.593   -0.589   -0.587   -0.585   -0.586   -0.610   -0.628   -0.650   -0.676   -0.675   -0.657   -0.640   -0.626   -0.613   -0.619   -0.626   -0.634   -0.642   -0.650   -0.660   -0.669   -0.679   -0.688   -0.699   -0.709   -0.720   -0.731   -0.742   -0.753   -0.765   -0.776   -0.788   -0.799   -0.811   -0.822   -0.834   -0.846   -0.858   -0.870   -0.882   -0.895   -0.907   -0.926   -0.950   -0.983   -1.027   -1.097   -1.223   -1.435   -1.775   -2.285   -2.960   -3.792   -4.727   -5.686   -6.599   -7.448   -8.214   -8.920   -9.605  -10.327  -11.160  -12.173  -13.349  -14.604  -15.802  -16.792  -17.512  -17.972  -18.212  -18.318  -18.325  -18.303  -18.284  -18.323  -18.449  -18.662  -18.973  -19.364  -19.842  -20.421  -21.126  -21.956  -22.911  -23.928  -24.985  -25.978  -26.759  -27.269
  -0.799   -0.705   -0.681   -0.659   -0.641   -0.626   -0.614   -0.604   -0.596   -0.589   -0.583   -0.579   -0.575   -0.573   -0.571   -0.570   -0.572   -0.582   -0.597   -0.604   -0.605   -0.604   -0.592   -0.589   -0.593   -0.599   -0.606   -0.612   -0.619   -0.627   -0.634   -0.642   -0.651   -0.660   -0.669   -0.678   -0.687   -0.697   -0.707   -0.716   -0.726   -0.737   -0.747   -0.757   -0.768   -0.778   -0.788   -0.799   -0.810   -0.820   -0.831   -0.843   -0.854   -0.865   -0.877   -0.893   -0.920   -0.952   -1.010   -1.098   -1.254   -1.497   -1.839   -2.280   -2.793   -3.359   -3.928   -4.478   -5.044   -5.609   -6.222   -6.952   -7.857   -8.986  -10.304  -11.680  -12.940  -13.935  -14.569  -14.862  -14.869  -14.679  -14.351  -13.973  -13.602  -13.341  -13.203  -13.216  -13.349  -13.570  -13.877  -14.268  -14.739  -15.303  -15.945  -16.633  -17.360  -18.055  -18.625  -19.118
  -0.782   -0.689   -0.666   -0.645   -0.627   -0.613   -0.602   -0.592   -0.584   -0.577   -0.572   -0.567   -0.564   -0.561   -0.559   -0.558   -0.557   -0.557   -0.559   -0.560   -0.562   -0.565   -0.569   -0.573   -0.577   -0.582   -0.587   -0.593   -0.600   -0.606   -0.613   -0.620   -0.627   -0.635   -0.643   -0.651   -0.659   -0.668   -0.677   -0.686   -0.695   -0.703   -0.712   -0.721   -0.731   -0.740   -0.750   -0.759   -0.769   -0.778   -0.788   -0.798   -0.808   -0.819   -0.830   -0.841   -0.853   -0.868   -0.894   -0.939   -0.995   -1.101   -1.248   -1.449   -1.681   -1.953   -2.246   -2.563   -2.894   -3.275   -3.750   -4.373   -5.202   -6.254   -7.503   -8.782   -9.944  -10.832  -11.344  -11.519  -11.398  -11.048  -10.555   -9.984   -9.445   -9.020   -8.752   -8.642   -8.665   -8.777   -8.962   -9.210   -9.533   -9.900  -10.327  -10.787  -11.254  -11.700  -12.081  -12.501
  -0.767   -0.676   -0.654   -0.633   -0.616   -0.603   -0.592   -0.582   -0.574   -0.568   -0.562   -0.558   -0.554   -0.552   -0.550   -0.548   -0.548   -0.548   -0.548   -0.549   -0.552   -0.554   -0.557   -0.560   -0.564   -0.568   -0.573   -0.578   -0.583   -0.588   -0.594   -0.601   -0.608   -0.615   -0.622   -0.629   -0.636   -0.644   -0.651   -0.659   -0.667   -0.675   -0.684   -0.692   -0.700   -0.708   -0.717   -0.725   -0.734   -0.743   -0.752   -0.761   -0.770   -0.780   -0.789   -0.800   -0.810   -0.821   -0.832   -0.850   -0.883   -0.926   -0.979   -1.051   -1.152   -1.263   -1.388   -1.539   -1.707   -1.932   -2.240   -2.686   -3.326   -4.145   -5.113   -6.115   -7.013   -7.684   -8.059   -8.138   -7.982   -7.637   -7.134   -6.578   -6.063   -5.645   -5.378   -5.243   -5.213   -5.278   -5.395   -5.588   -5.829   -6.149   -6.518   -6.906   -7.297   -7.657   -7.944   -8.306
  -0.755   -0.666   -0.645   -0.624   -0.608   -0.595   -0.584   -0.575   -0.567   -0.561   -0.555   -0.551   -0.547   -0.544   -0.542   -0.541   -0.540   -0.540   -0.540   -0.541   -0.542   -0.544   -0.547   -0.550   -0.553   -0.557   -0.561   -0.565   -0.570   -0.575   -0.580   -0.585   -0.591   -0.597   -0.603   -0.610   -0.617   -0.624   -0.630   -0.637   -0.644   -0.652   -0.659   -0.666   -0.674   -0.681   -0.689   -0.697   -0.705   -0.713   -0.721   -0.729   -0.737   -0.746   -0.755   -0.764   -0.774   -0.783   -0.793   -0.804   -0.815   -0.832   -0.864   -0.890   -0.927   -0.971   -1.017   -1.082   -1.162   -1.282   -1.449   -1.720   -2.119   -2.658   -3.269   -3.910   -4.484   -4.903   -5.125   -5.163   -5.040   -4.778   -4.417   -4.015   -3.638   -3.340   -3.145   -3.037   -3.017   -3.056   -3.158   -3.328   -3.581   -3.935   -4.355   -4.822   -5.282   -5.689   -5.996   -6.325
  -0.748   -0.660   -0.639   -0.618   -0.602   -0.589   -0.579   -0.570   -0.562   -0.556   -0.551   -0.546   -0.543   -0.540   -0.538   -0.536   -0.535   -0.535   -0.535   -0.535   -0.536   -0.538   -0.540   -0.542   -0.545   -0.548   -0.552   -0.556   -0.560   -0.564   -0.569   -0.574   -0.579   -0.584   -0.589   -0.595   -0.601   -0.607   -0.613   -0.620   -0.627   -0.633   -0.639   -0.646   -0.653   -0.660   -0.667   -0.674   -0.681   -0.688   -0.696   -0.703   -0.711   -0.719   -0.727   -0.735   -0.743   -0.752   -0.761   -0.771   -0.780   -0.790   -0.800   -0.816   -0.828   -0.859   -0.875   -0.908   -0.938   -0.997   -1.088   -1.222   -1.436   -1.703   -2.028   -2.362   -2.658   -2.879   -2.990   -3.015   -2.941   -2.789   -2.591   -2.362   -2.157   -1.991   -1.896   -1.843   -1.836   -1.871   -1.961   -2.122   -2.377   -2.762   -3.252   -3.814   -4.383   -4.887   -5.270   -5.618
  -0.744   -0.657   -0.636   -0.616   -0.600   -0.587   -0.576   -0.568   -0.560   -0.554   -0.549   -0.545   -0.541   -0.538   -0.536   -0.534   -0.533   -0.532   -0.532   -0.533   -0.533   -0.535   -0.536   -0.538   -0.541   -0.543   -0.547   -0.550   -0.554   -0.557   -0.562   -0.566   -0.570   -0.575   -0.580   -0.585   -0.590   -0.595   -0.601   -0.607   -0.612   -0.618   -0.624   -0.631   -0.637   -0.643   -0.650   -0.656   -0.663   -0.669   -0.676   -0.683   -0.690   -0.697   -0.704   -0.712   -0.720   -0.728   -0.736   -0.744   -0.753   -0.761   -0.771   -0.780   -0.790   -0.799   -0.810   -0.825   -0.848   -0.877   -0.917   -0.978   -1.070   -1.182   -1.333   -1.479   -1.596   -1.701   -1.746   -1.756   -1.722   -1.667   -1.586   -1.490   -1.406   -1.343   -1.301   -1.280   -1.287   -1.324   -1.388   -1.523   -1.762   -2.139   -2.627   -3.203   -3.831   -4.431   -4.884   -5.253
  -0.747   -0.659   -0.638   -0.618   -0.602   -0.589   -0.579   -0.570   -0.563   -0.556   -0.551   -0.547   -0.543   -0.540   -0.538   -0.536   -0.535   -0.534   -0.534   -0.534   -0.535   -0.535   -0.537   -0.538   -0.540   -0.542   -0.545   -0.548   -0.551   -0.555   -0.559   -0.562   -0.566   -0.571   -0.575   -0.580   -0.584   -0.589   -0.594   -0.599   -0.604   -0.610   -0.615   -0.620   -0.626   -0.632   -0.637   -0.644   -0.650   -0.656   -0.662   -0.669   -0.675   -0.682   -0.688   -0.695   -0.702   -0.709   -0.717   -0.725   -0.733   -0.741   -0.749   -0.757   -0.766   -0.775   -0.784   -0.793   -0.802   -0.814   -0.839   -0.867   -0.905   -0.948   -1.003   -1.053   -1.104   -1.141   -1.153   -1.164   -1.168   -1.153   -1.131   -1.108   -1.087   -1.063   -1.049   -1.057   -1.066   -1.093   -1.139   -1.239   -1.425   -1.721   -2.144   -2.681   -3.294   -3.903   -4.403   -4.796
  -0.757   -0.661   -0.641   -0.621   -0.605   -0.592   -0.581   -0.573   -0.565   -0.559   -0.554   -0.550   -0.546   -0.543   -0.541   -0.539   -0.537   -0.536   -0.536   -0.536   -0.536   -0.537   -0.538   -0.539   -0.541   -0.543   -0.545   -0.547   -0.550   -0.553   -0.556   -0.560   -0.564   -0.567   -0.571   -0.575   -0.580   -0.584   -0.588   -0.593   -0.598   -0.602   -0.607   -0.612   -0.618   -0.623   -0.628   -0.633   -0.640   -0.645   -0.651   -0.657   -0.663   -0.669   -0.675   -0.681   -0.688   -0.694   -0.701   -0.708   -0.715   -0.723   -0.730   -0.738   -0.746   -0.754   -0.762   -0.770   -0.778   -0.787   -0.795   -0.807   -0.831   -0.850   -0.866   -0.893   -0.913   -0.922   -0.931   -0.940   -0.950   -0.960   -0.950   -0.949   -0.952   -0.957   -0.949   -0.952   -0.963   -0.987   -1.028   -1.093   -1.216   -1.433   -1.753   -2.221   -2.784   -3.387   -3.890   -4.303
  -0.967   -0.737   -0.709   -0.686   -0.670   -0.656   -0.646   -0.637   -0.629   -0.622   -0.617   -0.612   -0.608   -0.605   -0.602   -0.600   -0.599   -0.597   -0.596   -0.596   -0.596   -0.596   -0.597   -0.598   -0.599   -0.600   -0.602   -0.604   -0.607   -0.609   -0.612   -0.615   -0.618   -0.622   -0.625   -0.629   -0.633   -0.637   -0.641   -0.645   -0.650   -0.654   -0.659   -0.664   -0.668   -0.673   -0.678   -0.683   -0.689   -0.694   -0.700   -0.706   -0.712   -0.717   -0.723   -0.729   -0.736   -0.742   -0.748   -0.755   -0.762   -0.769   -0.777   -0.784   -0.791   -0.799   -0.807   -0.815   -0.823   -0.831   -0.840   -0.849   -0.857   -0.865   -0.878   -0.891   -0.921   -0.932   -0.941   -0.950   -0.958   -0.949   -0.950   -0.959   -0.964   -0.973   -0.982   -0.991   -1.000   -1.012   -1.051   -1.095   -1.190   -1.369   -1.647   -2.052   -2.592   -3.172   -3.687   -4.271
