DSAA
 100 100
 0.0 400.0
 0.0 400.0
 -159.7883 -0.2867998
 -17.310  -17.489  -17.754  -18.150  -18.683  -19.319  -19.996  -20.631  -21.116  -21.343  -21.200  -20.542  -19.254  -17.336  -14.971  -12.535  -10.498   -9.190   -8.685   -8.825   -9.406  -10.258  -11.307  -12.506  -13.756  -14.869  -15.606  -15.791  -15.382  -14.436  -13.042  -11.352   -9.581   -8.031   -6.985   -6.522   -6.526   -6.766   -7.023   -7.161   -7.144   -7.000   -6.793   -6.610   -6.499   -6.496   -6.597   -6.768   -6.963   -7.176   -7.410   -7.673   -7.941   -8.109   -8.021   -7.525   -6.541   -5.190   -3.721   -2.432   -1.504   -0.936   -0.632   -0.492   -0.441   -0.409   -0.400   -0.391   -0.384   -0.374   -0.370   -0.369   -0.371   -0.373   -0.375   -0.378   -0.371   -0.370   -0.374   -0.390   -0.400   -0.407   -0.417   -0.439   -0.469   -0.519   -0.598   -0.728   -0.930   -1.233   -1.676   -2.247   -2.945   -3.750   -4.684   -5.794   -7.070   -8.376   -9.459  -10.164
 -17.136  -17.290  -17.520  -17.861  -18.319  -18.874  -19.479  -20.045  -20.479  -20.682  -20.541  -19.927  -18.714  -16.892  -14.625  -12.277  -10.281   -8.968   -8.418   -8.499   -9.002   -9.782  -10.764  -11.903  -13.108  -14.200  -14.975  -15.271  -15.037  -14.299  -13.122  -11.597   -9.938   -8.432   -7.329   -6.726   -6.547   -6.617   -6.768   -6.862   -6.846   -6.730   -6.564   -6.414   -6.338   -6.359   -6.473   -6.644   -6.832   -7.031   -7.254   -7.509   -7.779   -7.976   -7.946   -7.536   -6.669   -5.425   -4.030   -2.758   -1.788   -1.155   -0.795   -0.613   -0.525   -0.485   -0.460   -0.441   -0.420   -0.403   -0.387   -0.374   -0.373   -0.372   -0.365   -0.367   -0.368   -0.372   -0.377   -0.384   -0.393   -0.412   -0.429   -0.470   -0.532   -0.636   -0.802   -1.057   -1.420   -1.931   -2.616   -3.467   -4.435   -5.482   -6.620   -7.872   -9.242  -10.599  -11.681  -12.324
 -16.650  -16.768  -16.926  -17.160  -17.473  -17.866  -18.310  -18.731  -19.047  -19.178  -19.032  -18.501  -17.468  -15.899  -13.917  -11.817   -9.973   -8.695   -8.076   -8.033   -8.382   -9.001   -9.822  -10.799  -11.851  -12.847  -13.636  -14.098  -14.172  -13.827  -13.060  -11.924  -10.564   -9.208   -8.068   -7.237   -6.710   -6.436   -6.340   -6.329   -6.330   -6.299   -6.251   -6.223   -6.260   -6.359   -6.495   -6.636   -6.760   -6.893   -7.052   -7.267   -7.514   -7.732   -7.788   -7.548   -6.921   -5.932   -4.735   -3.548   -2.547   -1.810   -1.338   -1.061   -0.917   -0.840   -0.786   -0.737   -0.677   -0.614   -0.571   -0.539   -0.520   -0.511   -0.508   -0.501   -0.496   -0.498   -0.505   -0.518   -0.540   -0.569   -0.616   -0.707   -0.863   -1.132   -1.527   -2.079   -2.809   -3.750   -4.909   -6.246   -7.662   -9.064  -10.436  -11.816  -13.210  -14.508  -15.508  -16.012
 -15.748  -15.813  -15.880  -15.973  -16.102  -16.293  -16.540  -16.788  -16.962  -16.999  -16.841  -16.407  -15.605  -14.388  -12.817  -11.094   -9.517   -8.345   -7.697   -7.525   -7.693   -8.102   -8.694   -9.432  -10.246  -11.057  -11.791  -12.373  -12.742  -12.829  -12.568  -11.955  -11.059  -10.009   -8.917   -7.871   -6.949   -6.251   -5.829   -5.670   -5.682   -5.803   -6.000   -6.260   -6.563   -6.845   -7.041   -7.110   -7.071   -7.004   -6.984   -7.058   -7.224   -7.423   -7.566   -7.522   -7.182   -6.537   -5.648   -4.656   -3.717   -2.937   -2.366   -1.999   -1.783   -1.665   -1.569   -1.467   -1.333   -1.192   -1.073   -1.001   -0.963   -0.946   -0.929   -0.905   -0.884   -0.876   -0.887   -0.922   -0.969   -1.037   -1.152   -1.349   -1.700   -2.266   -3.068   -4.107   -5.362   -6.836   -8.506  -10.284  -12.032  -13.634  -15.058  -16.370  -17.598  -18.694  -19.501  -19.808
 -14.356  -14.347  -14.311  -14.249  -14.189  -14.184  -14.242  -14.320  -14.361  -14.313  -14.147  -13.823  -13.280  -12.465  -11.381  -10.136   -8.929   -7.975   -7.376   -7.133   -7.152   -7.353   -7.686   -8.130   -8.636   -9.173   -9.737  -10.308  -10.851  -11.297  -11.559  -11.575  -11.297  -10.694   -9.752   -8.556   -7.283   -6.171   -5.411   -5.074   -5.101   -5.435   -6.004   -6.741   -7.511   -8.147   -8.488   -8.474   -8.172   -7.750   -7.390   -7.187   -7.154   -7.242   -7.389   -7.487   -7.428   -7.141   -6.627   -5.946   -5.200   -4.508   -3.936   -3.535   -3.295   -3.157   -3.043   -2.881   -2.653   -2.398   -2.190   -2.061   -2.003   -1.975   -1.941   -1.890   -1.841   -1.825   -1.848   -1.922   -2.028   -2.167   -2.379   -2.760   -3.403   -4.394   -5.714   -7.298   -9.072  -10.983  -12.970  -14.937  -16.716  -18.207  -19.414  -20.434  -21.337  -22.116  -22.668  -22.774
 -12.544  -12.456  -12.306  -12.091  -11.854  -11.670  -11.567  -11.516  -11.456  -11.349  -11.195  -10.987  -10.710  -10.308   -9.744   -9.037   -8.289   -7.649   -7.211   -6.985   -6.923   -6.960   -7.064   -7.210   -7.374   -7.573   -7.847   -8.250   -8.802   -9.492  -10.260  -10.986  -11.447  -11.395  -10.690   -9.414   -7.866   -6.409   -5.332   -4.778   -4.770   -5.296   -6.294   -7.612   -9.007  -10.151  -10.773  -10.764  -10.226   -9.425   -8.636   -8.018   -7.622   -7.448   -7.465   -7.596   -7.730   -7.753   -7.605   -7.277   -6.836   -6.354   -5.910   -5.576   -5.386   -5.284   -5.192   -5.016   -4.732   -4.405   -4.129   -3.965   -3.902   -3.880   -3.842   -3.775   -3.709   -3.686   -3.734   -3.858   -4.041   -4.288   -4.647   -5.245   -6.214   -7.615   -9.383  -11.371  -13.458  -15.562  -17.612  -19.483  -21.021  -22.141  -22.910  -23.480  -23.980  -24.426  -24.735  -24.686
 -10.594  -10.416  -10.148   -9.788   -9.397   -9.070   -8.852   -8.715   -8.604   -8.476   -8.343   -8.244   -8.213   -8.213   -8.167   -8.016   -7.769   -7.509   -7.313   -7.199   -7.133   -7.085   -7.022   -6.925   -6.780   -6.627   -6.548   -6.652   -7.050   -7.843   -9.046  -10.465  -11.676  -12.204  -11.800  -10.562   -8.876   -7.198   -5.853   -5.021   -4.828   -5.378   -6.675   -8.526  -10.544  -12.257  -13.287  -13.463  -12.900  -11.899  -10.774   -9.722   -8.852   -8.256   -7.994   -8.038   -8.253   -8.474   -8.589   -8.567   -8.423   -8.199   -7.958   -7.770   -7.692   -7.691   -7.686   -7.578   -7.333   -7.028   -6.770   -6.638   -6.614   -6.625   -6.612   -6.558   -6.501   -6.494   -6.576   -6.758   -7.031   -7.395   -7.906   -8.701   -9.899  -11.544  -13.519  -15.638  -17.772  -19.852  -21.793  -23.437  -24.594  -25.210  -25.421  -25.477  -25.567  -25.721  -25.839  -25.678
  -8.898   -8.633   -8.244   -7.741   -7.226   -6.807   -6.531   -6.366   -6.250   -6.126   -6.022   -6.017   -6.196   -6.551   -6.982   -7.356   -7.603   -7.739   -7.815   -7.855   -7.856   -7.793   -7.650   -7.396   -7.034   -6.594   -6.169   -5.911   -6.031   -6.751   -8.177  -10.072  -11.856  -12.899  -12.857  -11.857  -10.313   -8.658   -7.164   -6.002   -5.403   -5.676   -6.969   -9.092  -11.560  -13.773  -15.260  -15.798  -15.480  -14.578  -13.373  -12.043  -10.742   -9.681   -9.068   -8.943   -9.143   -9.435   -9.673   -9.806   -9.850   -9.823   -9.764   -9.727   -9.776   -9.906  -10.033  -10.069   -9.968   -9.784   -9.643   -9.610   -9.664   -9.737   -9.765   -9.752   -9.731   -9.759   -9.883  -10.122  -10.475  -10.937  -11.566  -12.470  -13.755  -15.424  -17.345  -19.346  -21.333  -23.269  -25.062  -26.469  -27.251  -27.348  -26.985  -26.527  -26.238  -26.150  -26.123  -25.887
  -7.814   -7.467   -6.944   -6.295   -5.682   -5.211   -4.934   -4.801   -4.721   -4.635   -4.569   -4.647   -5.004   -5.654   -6.479   -7.295   -7.968   -8.450   -8.777   -8.969   -9.044   -9.008   -8.842   -8.529   -8.051   -7.430   -6.737   -6.127   -5.874   -6.307   -7.617   -9.594  -11.614  -12.996  -13.383  -12.887  -11.858  -10.595   -9.186   -7.729   -6.561   -6.218   -7.108   -9.146  -11.792  -14.345  -16.231  -17.193  -17.279  -16.704  -15.665  -14.289  -12.759  -11.390  -10.524  -10.261  -10.406  -10.672  -10.879  -10.998  -11.065  -11.102  -11.132  -11.202  -11.361  -11.619  -11.900  -12.109  -12.196  -12.194  -12.209  -12.291  -12.424  -12.536  -12.583  -12.589  -12.605  -12.678  -12.849  -13.140  -13.553  -14.086  -14.774  -15.694  -16.925  -18.457  -20.159  -21.903  -23.648  -25.403  -27.043  -28.249  -28.709  -28.360  -27.496  -26.593  -25.978  -25.680  -25.533  -25.237
  -7.488   -7.051   -6.386   -5.589   -4.873   -4.384   -4.139   -4.071   -4.067   -4.051   -4.060   -4.253   -4.770   -5.654   -6.770   -7.908   -8.879   -9.609  -10.100  -10.393  -10.516  -10.496  -10.329  -10.006   -9.488   -8.770   -7.892   -6.986   -6.331   -6.291   -7.145   -8.767  -10.638  -12.156  -12.994  -13.220  -13.036  -12.495  -11.455   -9.869   -8.133   -7.016   -7.204   -8.827  -11.370  -14.044  -16.183  -17.470  -17.919  -17.702  -16.949  -15.739  -14.261  -12.885  -12.003  -11.727  -11.836  -12.014  -12.093  -12.074  -12.028  -12.002  -12.031  -12.151  -12.399  -12.773  -13.206  -13.590  -13.851  -14.010  -14.141  -14.297  -14.447  -14.523  -14.514  -14.467  -14.473  -14.583  -14.813  -15.169  -15.630  -16.187  -16.850  -17.684  -18.755  -20.058  -21.479  -22.917  -24.382  -25.923  -27.395  -28.420  -28.625  -27.945  -26.721  -25.494  -24.623  -24.131  -23.851  -23.512
  -7.837   -7.332   -6.521   -5.579   -4.769   -4.260   -4.055   -4.053   -4.124   -4.190   -4.325   -4.669   -5.369   -6.428   -7.717   -9.018  -10.144  -10.989  -11.543  -11.846  -11.958  -11.918  -11.739  -11.405  -10.875  -10.108   -9.102   -7.956   -6.922   -6.356   -6.561   -7.548   -8.993  -10.457  -11.689  -12.685  -13.453  -13.774  -13.272  -11.790   -9.703   -7.908   -7.352   -8.392  -10.615  -13.189  -15.362  -16.764  -17.395  -17.419  -16.953  -16.065  -14.914  -13.845  -13.195  -13.032  -13.127  -13.200  -13.124  -12.944  -12.748  -12.610  -12.586  -12.712  -13.022  -13.497  -14.061  -14.592  -14.990  -15.237  -15.396  -15.523  -15.586  -15.522  -15.345  -15.156  -15.091  -15.218  -15.522  -15.943  -16.426  -16.935  -17.471  -18.111  -18.933  -19.951  -21.068  -22.196  -23.375  -24.671  -25.940  -26.780  -26.800  -25.934  -24.537  -23.144  -22.100  -21.423  -20.985  -20.629
  -8.663   -8.115   -7.205   -6.158   -5.277   -4.734   -4.535   -4.552   -4.647   -4.799   -5.082   -5.628   -6.513   -7.700   -9.042  -10.355  -11.474  -12.294  -12.796  -13.020  -13.049  -12.937  -12.706  -12.343  -11.794  -10.984   -9.893   -8.577   -7.243   -6.218   -5.816   -6.146   -7.083   -8.367   -9.845  -11.439  -12.981  -14.040  -14.100  -12.899  -10.780   -8.647   -7.551   -8.023   -9.795  -12.071  -14.064  -15.375  -16.005  -16.141  -15.934  -15.465  -14.838  -14.293  -14.024  -14.030  -14.116  -14.089  -13.904  -13.619  -13.328  -13.110  -13.026  -13.138  -13.467  -13.995  -14.633  -15.239  -15.687  -15.927  -16.011  -15.992  -15.862  -15.567  -15.144  -14.749  -14.569  -14.690  -15.039  -15.493  -15.938  -16.308  -16.625  -16.974  -17.483  -18.187  -19.008  -19.855  -20.766  -21.801  -22.835  -23.493  -23.406  -22.522  -21.160  -19.779  -18.662  -17.832  -17.235  -16.872
  -9.708   -9.172   -8.249   -7.178   -6.262   -5.674   -5.413   -5.367   -5.442   -5.648   -6.089   -6.853   -7.919   -9.179  -10.474  -11.674  -12.646  -13.314  -13.652  -13.714  -13.585  -13.346  -13.024  -12.601  -12.011  -11.177  -10.040   -8.635   -7.139   -5.841   -5.037   -4.912   -5.445   -6.518   -8.023   -9.864  -11.782  -13.268  -13.754  -12.945  -11.098   -9.020   -7.710   -7.760   -9.055  -10.914  -12.603  -13.724  -14.277  -14.468  -14.499  -14.460  -14.410  -14.433  -14.552  -14.707  -14.771  -14.684  -14.474  -14.214  -13.951  -13.723  -13.610  -13.682  -13.964  -14.436  -15.008  -15.547  -15.925  -16.060  -15.976  -15.733  -15.350  -14.800  -14.135  -13.538  -13.231  -13.289  -13.607  -14.010  -14.330  -14.501  -14.542  -14.585  -14.780  -15.206  -15.788  -16.427  -17.122  -17.918  -18.702  -19.183  -19.064  -18.313  -17.171  -15.967  -14.884  -13.962  -13.251  -12.885
 -10.720  -10.237   -9.395   -8.391   -7.485   -6.841   -6.463   -6.297   -6.304   -6.551   -7.137   -8.103   -9.319  -10.612  -11.814  -12.819  -13.558  -13.983  -14.079  -13.911  -13.574  -13.162  -12.713  -12.198  -11.561  -10.717   -9.593   -8.210   -6.715   -5.378   -4.482   -4.197   -4.536   -5.406   -6.721   -8.392  -10.213  -11.742  -12.461  -12.066  -10.704   -8.994   -7.770   -7.600   -8.488   -9.933  -11.326  -12.283  -12.792  -13.039  -13.246  -13.532  -13.922  -14.370  -14.764  -14.993  -15.017  -14.912  -14.789  -14.688  -14.575  -14.431  -14.326  -14.338  -14.499  -14.781  -15.123  -15.431  -15.596  -15.531  -15.231  -14.755  -14.150  -13.424  -12.623  -11.917  -11.505  -11.453  -11.651  -11.895  -12.024  -11.969  -11.770  -11.572  -11.553  -11.803  -12.254  -12.793  -13.364  -13.959  -14.500  -14.793  -14.666  -14.102  -13.255  -12.297  -11.328  -10.409   -9.667   -9.315
 -11.434  -11.048  -10.342   -9.474   -8.620   -7.915   -7.414   -7.117   -7.063   -7.353   -8.081   -9.197  -10.514  -11.801  -12.894  -13.709  -14.214  -14.383  -14.222  -13.801  -13.233  -12.629  -12.031  -11.428  -10.753   -9.924   -8.885   -7.645   -6.328   -5.180   -4.451   -4.274   -4.605   -5.285   -6.228   -7.398   -8.724   -9.949  -10.685  -10.639   -9.828   -8.634   -7.680   -7.470   -8.111   -9.284  -10.496  -11.398  -11.921  -12.195  -12.449  -12.842  -13.402  -14.017  -14.501  -14.711  -14.676  -14.578  -14.596  -14.721  -14.822  -14.816  -14.738  -14.687  -14.698  -14.730  -14.751  -14.731  -14.608  -14.306  -13.798  -13.148  -12.438  -11.694  -10.952  -10.303   -9.883   -9.740   -9.775   -9.824   -9.744   -9.499   -9.149   -8.837   -8.726   -8.897   -9.302   -9.810  -10.305  -10.728  -11.025  -11.105  -10.907  -10.457   -9.829   -9.081   -8.264   -7.439   -6.760   -6.465
 -11.644  -11.353  -10.807  -10.090   -9.324   -8.608   -8.026   -7.663   -7.608   -7.971   -8.799   -9.996  -11.340  -12.589  -13.588  -14.273  -14.617  -14.604  -14.254  -13.642  -12.894  -12.128  -11.406  -10.723  -10.041   -9.283   -8.402   -7.407   -6.399   -5.584   -5.179   -5.259   -5.668   -6.172   -6.641   -7.126   -7.722   -8.395   -8.933   -9.070   -8.690   -7.977   -7.349   -7.246   -7.836   -8.925  -10.109  -11.048  -11.601  -11.850  -12.005  -12.279  -12.745  -13.287  -13.683  -13.784  -13.653  -13.537  -13.643  -13.937  -14.208  -14.303  -14.249  -14.154  -14.050  -13.896  -13.667  -13.380  -13.024  -12.542  -11.903  -11.200  -10.533   -9.968   -9.490   -9.110   -8.863   -8.751   -8.685   -8.559   -8.298   -7.911   -7.481   -7.129   -6.974   -7.076   -7.398   -7.816   -8.186   -8.417   -8.459   -8.296   -7.951   -7.491   -6.954   -6.359   -5.710   -5.054   -4.525   -4.323
 -11.228  -11.001  -10.589  -10.021   -9.365   -8.710   -8.159   -7.830   -7.855   -8.316   -9.210  -10.412  -11.700  -12.882  -13.823  -14.461  -14.761  -14.708  -14.306  -13.639  -12.821  -11.980  -11.200  -10.500   -9.848   -9.212   -8.539   -7.833   -7.171   -6.727   -6.665   -6.989   -7.470   -7.790   -7.794   -7.589   -7.417   -7.439   -7.585   -7.655   -7.467   -7.067   -6.732   -6.820   -7.511   -8.668   -9.929  -10.937  -11.502  -11.661  -11.630  -11.667  -11.898  -12.230  -12.445  -12.389  -12.137  -11.932  -11.991  -12.274  -12.554  -12.648  -12.580  -12.472  -12.353  -12.185  -11.919  -11.574  -11.161  -10.641  -10.008   -9.378   -8.891   -8.638   -8.584   -8.640   -8.740   -8.795   -8.719   -8.443   -7.990   -7.456   -6.946   -6.551   -6.328   -6.284   -6.397   -6.581   -6.714   -6.700   -6.492   -6.110   -5.619   -5.106   -4.622   -4.149   -3.682   -3.243   -2.908   -2.811
 -10.222  -10.024   -9.690   -9.241   -8.714   -8.192   -7.779   -7.598   -7.765   -8.334   -9.247  -10.383  -11.566  -12.663  -13.580  -14.263  -14.651  -14.702  -14.415  -13.856  -13.117  -12.329  -11.580  -10.918  -10.351   -9.854   -9.384   -8.927   -8.547   -8.379   -8.548   -9.007   -9.479   -9.622   -9.264   -8.540   -7.760   -7.173   -6.840   -6.635   -6.405   -6.145   -6.041   -6.360   -7.224   -8.504   -9.845  -10.874  -11.375  -11.380  -11.122  -10.895  -10.863  -10.966  -11.005  -10.824  -10.465  -10.131  -10.014  -10.098  -10.200  -10.179  -10.062   -9.983   -9.979   -9.998   -9.955   -9.818   -9.566   -9.172   -8.671   -8.206   -7.952   -8.027   -8.394   -8.900   -9.360   -9.588   -9.465   -8.988   -8.291   -7.561   -6.959   -6.524   -6.215   -5.981   -5.810   -5.667   -5.510   -5.249   -4.850   -4.339   -3.789   -3.292   -2.886   -2.552   -2.276   -2.044   -1.881   -1.874
  -8.866   -8.649   -8.344   -7.957   -7.561   -7.221   -7.016   -7.048   -7.388   -8.037   -8.919   -9.931  -10.971  -11.971  -12.889  -13.674  -14.242  -14.527  -14.501  -14.189  -13.673  -13.056  -12.432  -11.867  -11.400  -11.017  -10.681  -10.370  -10.125  -10.068  -10.288  -10.717  -11.090  -11.079  -10.523   -9.546   -8.440   -7.472   -6.749   -6.239   -5.882   -5.691   -5.805   -6.367   -7.420   -8.788  -10.114  -11.025  -11.326  -11.061  -10.495   -9.960   -9.658   -9.552   -9.455   -9.213   -8.813   -8.386   -8.072   -7.898   -7.757   -7.585   -7.438   -7.453   -7.678   -8.050   -8.417   -8.666   -8.713   -8.547   -8.244   -7.956   -7.881   -8.153   -8.748   -9.490  -10.104  -10.342  -10.055   -9.305   -8.332   -7.427   -6.754   -6.309   -5.960   -5.597   -5.197   -4.797   -4.402   -3.981   -3.500   -2.983   -2.490   -2.095   -1.817   -1.627   -1.493   -1.417   -1.380   -1.437
  -7.590   -7.325   -6.973   -6.594   -6.288   -6.123   -6.150   -6.391   -6.870   -7.540   -8.320   -9.151  -10.005  -10.883  -11.791  -12.693  -13.486  -14.081  -14.404  -14.451  -14.260  -13.904  -13.475  -13.049  -12.674  -12.346  -12.037  -11.725  -11.456  -11.335  -11.427  -11.676  -11.866  -11.727  -11.131  -10.164   -9.057   -8.024   -7.173   -6.553   -6.186   -6.158   -6.546   -7.392   -8.624  -10.003  -11.169  -11.781  -11.688  -10.983   -9.978   -9.043   -8.403   -8.046   -7.811   -7.531   -7.152   -6.709   -6.303   -5.965   -5.676   -5.438   -5.335   -5.521   -6.053   -6.833   -7.653   -8.301   -8.666   -8.741   -8.620   -8.461   -8.446   -8.703   -9.236   -9.887  -10.362  -10.387   -9.826   -8.806   -7.636   -6.646   -5.987   -5.585   -5.251   -4.852   -4.361   -3.849   -3.365   -2.911   -2.476   -2.067   -1.725   -1.482   -1.339   -1.265   -1.240   -1.250   -1.281   -1.371
  -6.890   -6.550   -6.099   -5.655   -5.376   -5.340   -5.535   -5.924   -6.448   -7.040   -7.636   -8.211   -8.813   -9.511  -10.353  -11.328  -12.334  -13.246  -13.961  -14.426  -14.629  -14.608  -14.426  -14.160  -13.858  -13.526  -13.141  -12.711  -12.284  -11.950  -11.781  -11.746  -11.700  -11.457  -10.921  -10.147   -9.289   -8.484   -7.814   -7.368   -7.238   -7.530   -8.281   -9.448  -10.848  -12.182  -13.085  -13.271  -12.658  -11.399   -9.858   -8.425   -7.358   -6.677   -6.238   -5.887   -5.522   -5.122   -4.726   -4.367   -4.080   -3.900   -3.947   -4.358   -5.189   -6.314   -7.485   -8.439   -9.046   -9.306   -9.331   -9.257   -9.216   -9.309   -9.553   -9.849   -9.953   -9.623   -8.775   -7.579   -6.353   -5.400   -4.811   -4.474   -4.182   -3.815   -3.352   -2.875   -2.441   -2.076   -1.768   -1.523   -1.364   -1.290   -1.266   -1.274   -1.308   -1.361   -1.421   -1.520
  -7.085   -6.670   -6.088   -5.533   -5.220   -5.221   -5.487   -5.898   -6.351   -6.753   -7.063   -7.301   -7.573   -8.012   -8.706   -9.661  -10.792  -11.972  -13.072  -13.972  -14.606  -14.968  -15.086  -15.007  -14.774  -14.396  -13.885  -13.264  -12.600  -11.985  -11.495  -11.130  -10.833  -10.487  -10.042   -9.530   -9.032   -8.620   -8.350   -8.295   -8.565   -9.259  -10.381  -11.824  -13.342  -14.602  -15.248  -15.041  -13.959  -12.221  -10.212   -8.329   -6.835   -5.793   -5.102   -4.612   -4.207   -3.833   -3.479   -3.183   -2.979   -2.943   -3.174   -3.806   -4.855   -6.181   -7.523   -8.617   -9.341   -9.724   -9.875   -9.890   -9.830   -9.743   -9.651   -9.504   -9.160   -8.468   -7.412   -6.162   -5.005   -4.151   -3.630   -3.319   -3.049   -2.734   -2.365   -2.006   -1.710   -1.484   -1.331   -1.262   -1.267   -1.322   -1.387   -1.441   -1.495   -1.566   -1.638   -1.735
  -8.098   -7.640   -6.959   -6.298   -5.914   -5.892   -6.132   -6.459   -6.730   -6.840   -6.787   -6.622   -6.515   -6.621   -7.076   -7.906   -9.048  -10.390  -11.783  -13.079  -14.144  -14.905  -15.346  -15.480  -15.333  -14.923  -14.282  -13.466  -12.559  -11.661  -10.860  -10.199   -9.666   -9.223   -8.851   -8.570   -8.429   -8.445   -8.625   -9.008   -9.664  -10.662  -11.995  -13.542  -15.052  -16.200  -16.646  -16.197  -14.883  -12.947  -10.763   -8.684   -6.954   -5.645   -4.711   -4.051   -3.546   -3.138   -2.804   -2.565   -2.464   -2.568   -2.970   -3.739   -4.866   -6.201   -7.505   -8.553   -9.265   -9.691   -9.948  -10.082  -10.074   -9.894   -9.549   -9.035   -8.322   -7.369   -6.218   -5.018   -3.971   -3.199   -2.701   -2.380   -2.126   -1.870   -1.622   -1.406   -1.254   -1.174   -1.155   -1.212   -1.320   -1.438   -1.536   -1.589   -1.636   -1.701   -1.763   -1.856
  -9.479   -9.037   -8.338   -7.644   -7.232   -7.181   -7.358   -7.548   -7.580   -7.361   -6.914   -6.355   -5.863   -5.641   -5.816   -6.433   -7.456   -8.809  -10.358  -11.927  -13.331  -14.434  -15.167  -15.510  -15.474  -15.079  -14.366  -13.411  -12.315  -11.195  -10.158   -9.277   -8.581   -8.061   -7.731   -7.618   -7.756   -8.130   -8.685   -9.397  -10.264  -11.337  -12.610  -14.006  -15.318  -16.254  -16.536  -16.019  -14.760  -13.001  -11.045   -9.159   -7.496   -6.131   -5.068   -4.256   -3.636   -3.171   -2.830   -2.635   -2.617   -2.826   -3.311   -4.098   -5.137   -6.291   -7.359   -8.185   -8.740   -9.121   -9.434   -9.689   -9.775   -9.586   -9.108   -8.379   -7.453   -6.383   -5.247   -4.170   -3.244   -2.545   -2.067   -1.747   -1.520   -1.349   -1.217   -1.130   -1.102   -1.127   -1.210   -1.330   -1.473   -1.591   -1.653   -1.664   -1.666   -1.695   -1.739   -1.820
 -10.757  -10.384   -9.781   -9.173   -8.817   -8.769   -8.893   -8.953   -8.763   -8.255   -7.493   -6.617   -5.834   -5.341   -5.267   -5.645   -6.473   -7.693   -9.209  -10.843  -12.388  -13.668  -14.575  -15.076  -15.149  -14.815  -14.104  -13.099  -11.911  -10.665   -9.494   -8.496   -7.717   -7.170   -6.874   -6.872   -7.195   -7.802   -8.594   -9.462  -10.350  -11.271  -12.250  -13.261  -14.174  -14.784  -14.903  -14.435  -13.463  -12.178  -10.781   -9.405   -8.105   -6.912   -5.860   -4.984   -4.293   -3.783   -3.446   -3.286   -3.319   -3.556   -4.019   -4.685   -5.489   -6.302   -6.992   -7.469   -7.769   -8.016   -8.316   -8.629   -8.786   -8.624   -8.108   -7.312   -6.345   -5.322   -4.331   -3.438   -2.686   -2.092   -1.668   -1.388   -1.224   -1.141   -1.106   -1.121   -1.180   -1.283   -1.416   -1.563   -1.688   -1.754   -1.739   -1.670   -1.600   -1.576   -1.590   -1.668
 -11.671  -11.413  -10.993  -10.585  -10.357  -10.358  -10.458  -10.434  -10.107   -9.427   -8.481   -7.439   -6.504   -5.864   -5.629   -5.817   -6.424   -7.411   -8.707  -10.156  -11.577  -12.790  -13.684  -14.215  -14.358  -14.098  -13.453  -12.486  -11.298  -10.025   -8.817   -7.787   -6.999   -6.471   -6.227   -6.305   -6.730   -7.449   -8.324   -9.202   -9.989  -10.662  -11.260  -11.805  -12.246  -12.491  -12.447  -12.102  -11.526  -10.840  -10.121   -9.370   -8.551   -7.660   -6.743   -5.887   -5.175   -4.654   -4.326   -4.185   -4.204   -4.381   -4.702   -5.123   -5.579   -5.980   -6.248   -6.360   -6.383   -6.464   -6.686   -6.982   -7.146   -7.007   -6.532   -5.807   -4.973   -4.148   -3.407   -2.771   -2.235   -1.806   -1.487   -1.286   -1.196   -1.180   -1.213   -1.285   -1.396   -1.536   -1.691   -1.831   -1.917   -1.913   -1.815   -1.655   -1.508   -1.431   -1.418   -1.486
 -12.226  -12.099  -11.919  -11.756  -11.709  -11.792  -11.895  -11.841  -11.470  -10.758   -9.780   -8.723   -7.775   -7.109   -6.808   -6.881   -7.292   -8.009   -8.951  -10.012  -11.059  -11.963  -12.647  -13.071  -13.203  -13.001  -12.452  -11.579  -10.466   -9.252   -8.083   -7.080   -6.325   -5.838   -5.641   -5.766   -6.216   -6.934   -7.772   -8.578   -9.231   -9.706  -10.016  -10.206  -10.289  -10.271  -10.161   -9.996   -9.817   -9.661   -9.497   -9.263   -8.862   -8.257   -7.501   -6.704   -5.989   -5.442   -5.082   -4.874   -4.798   -4.824   -4.921   -5.037   -5.133   -5.160   -5.084   -4.928   -4.768   -4.721   -4.857   -5.080   -5.218   -5.109   -4.745   -4.210   -3.636   -3.117   -2.686   -2.331   -2.020   -1.756   -1.554   -1.442   -1.408   -1.435   -1.498   -1.588   -1.700   -1.837   -1.969   -2.060   -2.085   -2.017   -1.858   -1.648   -1.460   -1.354   -1.317   -1.382
 -12.527  -12.539  -12.592  -12.688  -12.826  -12.998  -13.128  -13.081  -12.747  -12.098  -11.204  -10.228   -9.349   -8.719   -8.407   -8.403   -8.668   -9.117   -9.663  -10.245  -10.786  -11.242  -11.595  -11.823  -11.876  -11.702  -11.245  -10.499   -9.521   -8.433   -7.360   -6.424   -5.705   -5.232   -5.034   -5.133   -5.526   -6.148   -6.871   -7.566   -8.121   -8.497   -8.691   -8.745   -8.708   -8.652   -8.644   -8.721   -8.881   -9.090   -9.265   -9.313   -9.148   -8.718   -8.057   -7.282   -6.530   -5.901   -5.426   -5.075   -4.820   -4.641   -4.496   -4.355   -4.186   -3.980   -3.740   -3.494   -3.301   -3.233   -3.321   -3.484   -3.593   -3.552   -3.349   -3.066   -2.787   -2.569   -2.416   -2.282   -2.149   -2.019   -1.925   -1.891   -1.910   -1.965   -2.034   -2.107   -2.171   -2.219   -2.245   -2.237   -2.180   -2.061   -1.885   -1.684   -1.512   -1.416   -1.382   -1.440
 -12.673  -12.796  -13.051  -13.367  -13.669  -13.918  -14.064  -14.031  -13.755  -13.211  -12.455  -11.610  -10.830  -10.236   -9.903   -9.828   -9.944  -10.148  -10.342  -10.469  -10.527  -10.551  -10.572  -10.597  -10.574  -10.424  -10.067   -9.473   -8.683   -7.782   -6.867   -6.017   -5.308   -4.789   -4.504   -4.477   -4.708   -5.151   -5.699   -6.248   -6.723   -7.070   -7.277   -7.377   -7.433   -7.549   -7.790   -8.161   -8.606   -9.033   -9.358   -9.502   -9.402   -9.011   -8.356   -7.545   -6.716   -5.971   -5.331   -4.796   -4.349   -3.985   -3.666   -3.379   -3.105   -2.860   -2.641   -2.466   -2.363   -2.373   -2.480   -2.642   -2.766   -2.813   -2.779   -2.706   -2.647   -2.635   -2.647   -2.646   -2.619   -2.597   -2.620   -2.680   -2.774   -2.869   -2.941   -2.969   -2.927   -2.811   -2.655   -2.468   -2.283   -2.110   -1.952   -1.809   -1.701   -1.651   -1.641   -1.710
 -12.699  -12.893  -13.284  -13.748  -14.152  -14.429  -14.555  -14.504  -14.259  -13.811  -13.189  -12.484  -11.800  -11.243  -10.871  -10.696  -10.652  -10.635  -10.539  -10.327  -10.042   -9.759   -9.558   -9.458   -9.411   -9.323   -9.106   -8.719   -8.184   -7.545   -6.843   -6.119   -5.417   -4.793   -4.317   -4.052   -4.022   -4.198   -4.501   -4.861   -5.222   -5.537   -5.787   -6.001   -6.247   -6.616   -7.152   -7.802   -8.466   -9.029   -9.409   -9.561   -9.438   -9.017   -8.320   -7.457   -6.558   -5.719   -4.966   -4.304   -3.737   -3.265   -2.886   -2.587   -2.360   -2.208   -2.125   -2.099   -2.143   -2.253   -2.429   -2.624   -2.804   -2.949   -3.045   -3.096   -3.137   -3.194   -3.251   -3.290   -3.331   -3.418   -3.581   -3.795   -4.014   -4.183   -4.270   -4.238   -4.051   -3.726   -3.313   -2.903   -2.552   -2.296   -2.137   -2.044   -2.008   -2.020   -2.056   -2.144
 -12.604  -12.836  -13.297  -13.819  -14.239  -14.471  -14.500  -14.356  -14.073  -13.661  -13.148  -12.572  -12.001  -11.491  -11.091  -10.811  -10.602  -10.389  -10.089   -9.678   -9.221   -8.806   -8.520   -8.399   -8.399   -8.443   -8.437   -8.338   -8.139   -7.848   -7.438   -6.902   -6.230   -5.477   -4.752   -4.164   -3.788   -3.621   -3.618   -3.725   -3.912   -4.145   -4.400   -4.698   -5.101   -5.671   -6.413   -7.242   -8.031   -8.660   -9.067   -9.210   -9.056   -8.600   -7.879   -7.003   -6.103   -5.272   -4.535   -3.880   -3.320   -2.868   -2.533   -2.323   -2.226   -2.230   -2.303   -2.417   -2.571   -2.766   -2.989   -3.225   -3.465   -3.685   -3.841   -3.920   -3.949   -3.969   -3.994   -4.033   -4.130   -4.352   -4.703   -5.124   -5.513   -5.788   -5.906   -5.817   -5.493   -4.964   -4.305   -3.651   -3.095   -2.692   -2.466   -2.367   -2.360   -2.403   -2.473   -2.580
 -12.432  -12.672  -13.140  -13.645  -13.997  -14.091  -13.931  -13.600  -13.187  -12.738  -12.279  -11.818  -11.371  -10.946  -10.557  -10.204   -9.867   -9.508   -9.094   -8.615   -8.128   -7.716   -7.459   -7.391   -7.496   -7.713   -7.981   -8.242   -8.462   -8.592   -8.554   -8.266   -7.681   -6.843   -5.891   -4.983   -4.246   -3.710   -3.364   -3.178   -3.141   -3.243   -3.449   -3.764   -4.223   -4.847   -5.617   -6.443   -7.212   -7.825   -8.214   -8.349   -8.194   -7.746   -7.057   -6.243   -5.440   -4.737   -4.156   -3.661   -3.244   -2.928   -2.738   -2.680   -2.755   -2.907   -3.103   -3.300   -3.507   -3.720   -3.944   -4.185   -4.444   -4.677   -4.818   -4.848   -4.783   -4.714   -4.680   -4.721   -4.897   -5.282   -5.852   -6.506   -7.081   -7.475   -7.628   -7.504   -7.089   -6.405   -5.554   -4.672   -3.890   -3.295   -2.913   -2.711   -2.658   -2.689   -2.767   -2.881
 -12.273  -12.501  -12.945  -13.383  -13.606  -13.490  -13.064  -12.458  -11.821  -11.257  -10.791  -10.413  -10.091   -9.777   -9.446   -9.080   -8.681   -8.259   -7.815   -7.363   -6.936   -6.597   -6.407   -6.411   -6.618   -7.016   -7.566   -8.215   -8.885   -9.473   -9.834   -9.842   -9.419   -8.599   -7.529   -6.400   -5.383   -4.543   -3.887   -3.426   -3.176   -3.133   -3.263   -3.532   -3.931   -4.448   -5.046   -5.661   -6.222   -6.680   -6.980   -7.089   -6.949   -6.561   -5.975   -5.304   -4.687   -4.208   -3.879   -3.652   -3.501   -3.415   -3.437   -3.581   -3.818   -4.097   -4.363   -4.586   -4.773   -4.943   -5.121   -5.319   -5.525   -5.700   -5.756   -5.670   -5.496   -5.336   -5.264   -5.338   -5.618   -6.167   -6.940   -7.792   -8.526   -9.016   -9.201   -9.059   -8.589   -7.814   -6.830   -5.763   -4.766   -3.960   -3.395   -3.051   -2.890   -2.873   -2.932   -3.050
 -12.207  -12.422  -12.830  -13.189  -13.260  -12.913  -12.191  -11.260  -10.341   -9.586   -9.054   -8.716   -8.496   -8.297   -8.053   -7.737   -7.355   -6.948   -6.550   -6.173   -5.835   -5.580   -5.444   -5.498   -5.774   -6.301   -7.083   -8.070   -9.150  -10.151  -10.887  -11.199  -11.003  -10.318   -9.284   -8.106   -6.961   -5.942   -5.090   -4.446   -4.047   -3.897   -3.947   -4.126   -4.380   -4.658   -4.922   -5.153   -5.338   -5.495   -5.609   -5.631   -5.506   -5.218   -4.797   -4.346   -3.979   -3.784   -3.766   -3.866   -4.022   -4.220   -4.489   -4.839   -5.223   -5.582   -5.857   -6.046   -6.181   -6.287   -6.386   -6.503   -6.621   -6.698   -6.643   -6.446   -6.178   -5.962   -5.895   -6.027   -6.411   -7.076   -7.960   -8.898   -9.693  -10.198  -10.364  -10.192   -9.687   -8.862   -7.795   -6.604   -5.466   -4.514   -3.806   -3.341   -3.091   -3.016   -3.063   -3.182
 -12.234  -12.446  -12.830  -13.125  -13.068  -12.523  -11.529  -10.283   -9.062   -8.086   -7.444   -7.103   -6.947   -6.842   -6.690   -6.456   -6.155   -5.829   -5.519   -5.234   -4.981   -4.783   -4.688   -4.755   -5.047   -5.636   -6.555   -7.767   -9.141  -10.457  -11.499  -12.090  -12.141  -11.678  -10.822   -9.746   -8.631   -7.593   -6.692   -5.989   -5.533   -5.322   -5.299   -5.362   -5.412   -5.376   -5.230   -4.985   -4.712   -4.483   -4.336   -4.227   -4.104   -3.919   -3.695   -3.503   -3.429   -3.543   -3.848   -4.277   -4.751   -5.234   -5.733   -6.247   -6.723   -7.099   -7.345   -7.484   -7.552   -7.596   -7.638   -7.689   -7.736   -7.722   -7.593   -7.338   -7.044   -6.837   -6.807   -6.988   -7.405   -8.062   -8.886   -9.735  -10.420  -10.810  -10.874  -10.623  -10.070   -9.221   -8.127   -6.909   -5.747   -4.776   -4.044   -3.548   -3.267   -3.187   -3.233   -3.365
 -12.214  -12.428  -12.809  -13.082  -12.954  -12.278  -11.084   -9.591   -8.110   -6.918   -6.150   -5.781   -5.661   -5.630   -5.563   -5.430   -5.239   -5.026   -4.817   -4.621   -4.434   -4.276   -4.204   -4.268   -4.538   -5.103   -6.045   -7.357   -8.892  -10.412  -11.665  -12.478  -12.770  -12.558  -11.937  -11.061  -10.089   -9.153   -8.331   -7.683   -7.247   -7.004   -6.894   -6.810   -6.628   -6.269   -5.716   -5.025   -4.325   -3.738   -3.339   -3.107   -2.975   -2.884   -2.840   -2.891   -3.107   -3.524   -4.124   -4.842   -5.593   -6.316   -6.994   -7.605   -8.106   -8.456   -8.651   -8.736   -8.762   -8.780   -8.805   -8.831   -8.849   -8.813   -8.686   -8.465   -8.228   -8.076   -8.079   -8.253   -8.588   -9.066   -9.633  -10.178  -10.574  -10.718  -10.587  -10.207   -9.591   -8.745   -7.707   -6.589   -5.546   -4.698   -4.071   -3.650   -3.422   -3.371   -3.440   -3.594
 -11.868  -12.094  -12.494  -12.775  -12.643  -11.927  -10.639   -9.002   -7.355   -6.008   -5.146   -4.749   -4.650   -4.668   -4.678   -4.636   -4.565   -4.481   -4.373   -4.252   -4.114   -3.994   -3.939   -3.989   -4.209   -4.703   -5.584   -6.878   -8.459  -10.066  -11.446  -12.418  -12.901  -12.913  -12.521  -11.862  -11.088  -10.326   -9.662   -9.135   -8.751   -8.489   -8.283   -8.035   -7.627   -6.969   -6.077   -5.049   -4.054   -3.254   -2.728   -2.441   -2.317   -2.301   -2.385   -2.617   -3.056   -3.705   -4.540   -5.478   -6.431   -7.326   -8.110   -8.752   -9.223   -9.522   -9.672   -9.727   -9.745   -9.765   -9.805   -9.851   -9.884   -9.876   -9.811   -9.684   -9.547   -9.466   -9.482   -9.583   -9.738   -9.914  -10.073  -10.176  -10.158   -9.966   -9.590   -9.062   -8.391   -7.590   -6.698   -5.798   -5.002   -4.386   -3.952   -3.672   -3.531   -3.540   -3.640   -3.811
 -10.948  -11.170  -11.590  -11.919  -11.842  -11.170   -9.903   -8.257   -6.578   -5.194   -4.304   -3.897   -3.807   -3.849   -3.905   -3.940   -3.970   -3.984   -3.970   -3.913   -3.830   -3.754   -3.715   -3.750   -3.916   -4.324   -5.107   -6.310   -7.831   -9.426  -10.846  -11.904  -12.514  -12.686  -12.484  -12.022  -11.454  -10.896  -10.420  -10.033   -9.714   -9.431   -9.129   -8.729   -8.120   -7.237   -6.118   -4.906   -3.798   -2.969   -2.470   -2.239   -2.176   -2.217   -2.381   -2.718   -3.274   -4.055   -5.009   -6.060   -7.116   -8.095   -8.919   -9.541   -9.954  -10.196  -10.313  -10.358  -10.378  -10.415  -10.478  -10.555  -10.618  -10.659  -10.668  -10.642  -10.602  -10.568  -10.568  -10.569  -10.519  -10.375  -10.118   -9.767   -9.323   -8.794   -8.191   -7.539   -6.857   -6.161   -5.476   -4.848   -4.345   -3.991   -3.771   -3.657   -3.630   -3.697   -3.835   -4.015
  -9.416   -9.609  -10.036  -10.414  -10.431   -9.887   -8.759   -7.243   -5.676   -4.385   -3.552   -3.167   -3.076   -3.108   -3.175   -3.243   -3.317   -3.392   -3.439   -3.447   -3.419   -3.399   -3.391   -3.428   -3.564   -3.907   -4.581   -5.649   -7.018   -8.501   -9.867  -10.928  -11.598  -11.865  -11.790  -11.500  -11.126  -10.778  -10.486  -10.234   -9.979   -9.673   -9.286   -8.756   -8.011   -7.001   -5.791   -4.554   -3.508   -2.799   -2.443   -2.348   -2.393   -2.511   -2.721   -3.091   -3.671   -4.453   -5.402   -6.439   -7.488   -8.456   -9.248   -9.813  -10.156  -10.345  -10.429  -10.461  -10.478  -10.525  -10.602  -10.694  -10.781  -10.860  -10.920  -10.959  -10.972  -10.962  -10.932  -10.842  -10.637  -10.256   -9.696   -9.008   -8.260   -7.497   -6.755   -6.059   -5.424   -4.870   -4.405   -4.042   -3.801   -3.668   -3.633   -3.663   -3.746   -3.887   -4.055   -4.260
  -7.520   -7.664   -8.072   -8.479   -8.606   -8.238   -7.336   -6.066   -4.738   -3.650   -2.946   -2.604   -2.497   -2.496   -2.526   -2.580   -2.655   -2.739   -2.816   -2.878   -2.923   -2.970   -3.021   -3.098   -3.245   -3.552   -4.126   -5.014   -6.165   -7.437   -8.648   -9.631  -10.281  -10.577  -10.580  -10.419  -10.216  -10.055   -9.927   -9.788   -9.578   -9.256   -8.810   -8.208   -7.399   -6.377   -5.218   -4.098   -3.218   -2.703   -2.532   -2.593   -2.757   -2.954   -3.206   -3.563   -4.075   -4.754   -5.572   -6.481   -7.409   -8.270   -8.970   -9.447   -9.716   -9.844   -9.893   -9.903   -9.907   -9.938  -10.009  -10.104  -10.196  -10.286  -10.366  -10.428  -10.454  -10.440  -10.381  -10.243   -9.964   -9.481   -8.793   -7.967   -7.100   -6.260   -5.508   -4.866   -4.349   -3.954   -3.690   -3.531   -3.472   -3.489   -3.575   -3.714   -3.904   -4.119   -4.331   -4.557
  -5.749   -5.830   -6.188   -6.594   -6.802   -6.613   -5.960   -4.990   -3.969   -3.136   -2.593   -2.306   -2.179   -2.130   -2.109   -2.119   -2.165   -2.233   -2.326   -2.431   -2.552   -2.680   -2.812   -2.955   -3.133   -3.430   -3.916   -4.629   -5.530   -6.532   -7.510   -8.332   -8.891   -9.159   -9.197   -9.125   -9.054   -9.035   -9.020   -8.945   -8.758   -8.437   -7.979   -7.374   -6.598   -5.676   -4.687   -3.783   -3.119   -2.791   -2.757   -2.914   -3.157   -3.414   -3.690   -4.016   -4.415   -4.904   -5.494   -6.165   -6.870   -7.542   -8.093   -8.460   -8.651   -8.720   -8.731   -8.710   -8.692   -8.700   -8.753   -8.838   -8.929   -9.010   -9.083   -9.134   -9.140   -9.109   -9.038   -8.898   -8.622   -8.164   -7.506   -6.731   -5.916   -5.162   -4.522   -4.021   -3.664   -3.441   -3.332   -3.312   -3.351   -3.442   -3.592   -3.793   -4.052   -4.331   -4.580   -4.816
  -4.615   -4.621   -4.891   -5.238   -5.465   -5.392   -4.958   -4.273   -3.549   -2.957   -2.565   -2.329   -2.180   -2.075   -2.010   -1.978   -1.994   -2.058   -2.162   -2.309   -2.492   -2.692   -2.902   -3.103   -3.325   -3.633   -4.069   -4.656   -5.353   -6.103   -6.831   -7.442   -7.865   -8.067   -8.104   -8.096   -8.120   -8.179   -8.206   -8.131   -7.948   -7.655   -7.247   -6.723   -6.080   -5.350   -4.605   -3.958   -3.508   -3.309   -3.329   -3.492   -3.738   -4.007   -4.279   -4.547   -4.801   -5.061   -5.348   -5.697   -6.092   -6.498   -6.841   -7.071   -7.176   -7.192   -7.166   -7.120   -7.088   -7.079   -7.121   -7.197   -7.275   -7.346   -7.396   -7.412   -7.388   -7.341   -7.277   -7.168   -6.958   -6.591   -6.072   -5.455   -4.823   -4.256   -3.805   -3.487   -3.301   -3.232   -3.254   -3.319   -3.411   -3.523   -3.675   -3.887   -4.158   -4.453   -4.711   -4.962
  -4.397   -4.338   -4.491   -4.708   -4.870   -4.818   -4.504   -4.018   -3.521   -3.113   -2.818   -2.599   -2.423   -2.282   -2.182   -2.130   -2.140   -2.207   -2.337   -2.516   -2.737   -2.982   -3.230   -3.467   -3.731   -4.062   -4.512   -5.073   -5.690   -6.300   -6.843   -7.272   -7.560   -7.697   -7.746   -7.797   -7.885   -7.962   -7.957   -7.840   -7.645   -7.401   -7.104   -6.733   -6.289   -5.802   -5.327   -4.929   -4.664   -4.543   -4.550   -4.653   -4.826   -5.051   -5.280   -5.460   -5.553   -5.547   -5.492   -5.453   -5.461   -5.524   -5.602   -5.655   -5.660   -5.624   -5.565   -5.507   -5.473   -5.465   -5.506   -5.577   -5.649   -5.714   -5.743   -5.727   -5.678   -5.622   -5.579   -5.515   -5.388   -5.149   -4.801   -4.381   -3.970   -3.621   -3.373   -3.245   -3.222   -3.276   -3.388   -3.509   -3.629   -3.737   -3.858   -4.022   -4.253   -4.512   -4.748   -4.999
  -5.111   -4.989   -5.019   -5.075   -5.079   -4.927   -4.600   -4.183   -3.786   -3.462   -3.204   -2.978   -2.774   -2.611   -2.501   -2.452   -2.473   -2.558   -2.702   -2.897   -3.126   -3.370   -3.614   -3.853   -4.140   -4.530   -5.076   -5.735   -6.425   -7.050   -7.550   -7.901   -8.119   -8.248   -8.346   -8.468   -8.592   -8.649   -8.580   -8.398   -8.191   -8.009   -7.845   -7.651   -7.418   -7.169   -6.946   -6.776   -6.668   -6.599   -6.566   -6.577   -6.660   -6.807   -6.959   -7.038   -6.959   -6.688   -6.275   -5.801   -5.362   -5.013   -4.768   -4.607   -4.489   -4.395   -4.315   -4.247   -4.214   -4.213   -4.255   -4.329   -4.400   -4.462   -4.482   -4.456   -4.403   -4.359   -4.339   -4.326   -4.275   -4.154   -3.959   -3.723   -3.504   -3.342   -3.266   -3.282   -3.378   -3.530   -3.706   -3.871   -4.007   -4.104   -4.189   -4.294   -4.467   -4.677   -4.883   -5.141
  -6.598   -6.436   -6.366   -6.260   -6.049   -5.676   -5.179   -4.668   -4.226   -3.876   -3.592   -3.349   -3.144   -2.993   -2.896   -2.869   -2.905   -2.993   -3.126   -3.301   -3.493   -3.695   -3.890   -4.109   -4.411   -4.886   -5.582   -6.441   -7.340   -8.136   -8.741   -9.138   -9.387   -9.569   -9.751   -9.943  -10.086  -10.111   -9.984   -9.764   -9.559   -9.430   -9.363   -9.310   -9.246   -9.192   -9.173   -9.186   -9.198   -9.182   -9.123   -9.076   -9.090   -9.164   -9.242   -9.218   -8.987   -8.494   -7.763   -6.881   -5.983   -5.195   -4.602   -4.204   -3.957   -3.797   -3.696   -3.620   -3.577   -3.572   -3.606   -3.675   -3.749   -3.812   -3.851   -3.850   -3.822   -3.800   -3.806   -3.826   -3.832   -3.801   -3.717   -3.610   -3.524   -3.487   -3.519   -3.619   -3.785   -3.989   -4.219   -4.430   -4.606   -4.720   -4.798   -4.876   -5.006   -5.193   -5.381   -5.652
  -8.611   -8.450   -8.327   -8.080   -7.638   -6.977   -6.189   -5.426   -4.800   -4.330   -3.980   -3.725   -3.544   -3.437   -3.375   -3.360   -3.393   -3.450   -3.536   -3.639   -3.757   -3.872   -3.999   -4.173   -4.487   -5.045   -5.905   -7.001   -8.169   -9.225  -10.045  -10.593  -10.946  -11.220  -11.480  -11.715  -11.861  -11.860  -11.717  -11.503  -11.318  -11.222  -11.199  -11.217  -11.257  -11.329  -11.439  -11.564  -11.665  -11.694  -11.649  -11.593  -11.584  -11.620  -11.642  -11.546  -11.223  -10.592   -9.646   -8.457   -7.180   -6.022   -5.130   -4.543   -4.196   -3.996   -3.871   -3.782   -3.728   -3.711   -3.734   -3.781   -3.855   -3.934   -3.999   -4.043   -4.067   -4.084   -4.121   -4.170   -4.218   -4.243   -4.226   -4.189   -4.154   -4.151   -4.203   -4.318   -4.499   -4.740   -5.022   -5.318   -5.577   -5.765   -5.875   -5.950   -6.059   -6.230   -6.409   -6.697
 -10.892  -10.742  -10.595  -10.254   -9.603   -8.646   -7.517   -6.430   -5.538   -4.886   -4.443   -4.172   -4.020   -3.947   -3.907   -3.884   -3.883   -3.882   -3.887   -3.897   -3.902   -3.917   -3.958   -4.072   -4.369   -4.978   -5.956   -7.247   -8.672  -10.010  -11.085  -11.832  -12.327  -12.688  -12.996  -13.238  -13.371  -13.361  -13.240  -13.069  -12.922  -12.839  -12.831  -12.871  -12.952  -13.072  -13.226  -13.396  -13.532  -13.590  -13.584  -13.558  -13.567  -13.608  -13.611  -13.488  -13.136  -12.468  -11.436  -10.094   -8.620   -7.267   -6.232   -5.578   -5.215   -5.021   -4.906   -4.824   -4.766   -4.744   -4.760   -4.808   -4.879   -4.978   -5.082   -5.189   -5.289   -5.376   -5.454   -5.534   -5.610   -5.668   -5.674   -5.638   -5.574   -5.512   -5.487   -5.542   -5.700   -5.976   -6.352   -6.784   -7.188   -7.493   -7.654   -7.719   -7.778   -7.891   -8.032   -8.315
 -13.218  -13.069  -12.892  -12.464  -11.652  -10.452   -9.021   -7.613   -6.429   -5.561   -4.996   -4.672   -4.518   -4.443   -4.395   -4.345   -4.288   -4.221   -4.140   -4.054   -3.963   -3.880   -3.831   -3.879   -4.141   -4.751   -5.783   -7.193   -8.806  -10.377  -11.689  -12.642  -13.276  -13.710  -14.028  -14.249  -14.354  -14.351  -14.277  -14.176  -14.085  -14.033  -14.033  -14.078  -14.162  -14.272  -14.403  -14.541  -14.661  -14.729  -14.756  -14.777  -14.830  -14.898  -14.912  -14.795  -14.464  -13.828  -12.834  -11.526  -10.082   -8.779   -7.827   -7.269   -7.004   -6.894   -6.842   -6.797   -6.764   -6.759   -6.801   -6.874   -6.968   -7.093   -7.242   -7.425   -7.628   -7.826   -7.991   -8.121   -8.233   -8.308   -8.315   -8.231   -8.056   -7.829   -7.626   -7.540   -7.645   -7.971   -8.492   -9.123   -9.728  -10.176  -10.393  -10.420  -10.384  -10.390  -10.451  -10.735
 -15.677  -15.493  -15.239  -14.695  -13.725  -12.325  -10.643   -8.941   -7.457   -6.342   -5.608   -5.190   -4.981   -4.876   -4.801   -4.718   -4.617   -4.497   -4.361   -4.213   -4.056   -3.915   -3.812   -3.813   -4.036   -4.618   -5.641   -7.089   -8.804  -10.531  -12.017  -13.137  -13.895  -14.382  -14.693  -14.874  -14.954  -14.972  -14.963  -14.952  -14.950  -14.961  -15.001  -15.067  -15.142  -15.220  -15.290  -15.358  -15.417  -15.461  -15.500  -15.557  -15.648  -15.744  -15.785  -15.702  -15.428  -14.892  -14.048  -12.949  -11.767  -10.750  -10.083   -9.779   -9.718   -9.757   -9.797   -9.814   -9.824   -9.862   -9.942  -10.057  -10.184  -10.333  -10.527  -10.797  -11.139  -11.496  -11.803  -12.040  -12.220  -12.340  -12.363  -12.222  -11.898  -11.432  -10.962  -10.669  -10.697  -11.099  -11.818  -12.718  -13.602  -14.263  -14.593  -14.640  -14.582  -14.581  -14.652  -15.017
 -18.903  -18.634  -18.220  -17.466  -16.274  -14.641  -12.688  -10.660   -8.828   -7.397   -6.423   -5.847   -5.544   -5.396   -5.300   -5.200   -5.078   -4.936   -4.781   -4.619   -4.456   -4.302   -4.198   -4.197   -4.407   -4.954   -5.939   -7.361   -9.093  -10.876  -12.465  -13.698  -14.546  -15.070  -15.365  -15.512  -15.580  -15.631  -15.706  -15.814  -15.947  -16.089  -16.234  -16.365  -16.465  -16.522  -16.537  -16.524  -16.503  -16.494  -16.509  -16.563  -16.661  -16.776  -16.859  -16.852  -16.700  -16.351  -15.785  -15.057  -14.312  -13.748  -13.498  -13.537  -13.737  -13.944  -14.080  -14.148  -14.190  -14.255  -14.348  -14.462  -14.580  -14.719  -14.938  -15.304  -15.823  -16.396  -16.919  -17.339  -17.670  -17.931  -18.053  -17.941  -17.518  -16.849  -16.131  -15.655  -15.647  -16.199  -17.222  -18.533  -19.854  -20.939  -21.645  -22.057  -22.392  -22.804  -23.230  -23.875
 -23.869  -23.507  -22.836  -21.743  -20.198  -18.216  -15.883  -13.410  -11.095   -9.213   -7.887   -7.070   -6.625   -6.405   -6.285   -6.181   -6.061   -5.925   -5.782   -5.642   -5.516   -5.418   -5.368   -5.405   -5.628   -6.147   -7.075   -8.432  -10.098  -11.862  -13.468  -14.754  -15.649  -16.191  -16.472  -16.592  -16.662  -16.756  -16.934  -17.207  -17.557  -17.936  -18.292  -18.579  -18.769  -18.852  -18.837  -18.753  -18.644  -18.552  -18.498  -18.499  -18.565  -18.689  -18.851  -18.998  -19.076  -19.044  -18.895  -18.671  -18.479  -18.451  -18.665  -19.074  -19.535  -19.903  -20.119  -20.216  -20.262  -20.302  -20.342  -20.374  -20.405  -20.488  -20.721  -21.198  -21.924  -22.774  -23.592  -24.314  -24.954  -25.524  -25.930  -26.028  -25.728  -25.103  -24.417  -24.038  -24.273  -25.227  -26.801  -28.769  -30.827  -32.703  -34.279  -35.657  -37.034  -38.434  -39.576  -40.516
 -31.126  -30.738  -29.774  -28.263  -26.262  -23.802  -20.949  -17.875  -14.908  -12.408  -10.587   -9.418   -8.750   -8.405   -8.227   -8.108   -7.983   -7.851   -7.724   -7.629   -7.568   -7.555   -7.603   -7.732   -7.996   -8.489   -9.335  -10.566  -12.112  -13.781  -15.341  -16.617  -17.522  -18.064  -18.323  -18.420  -18.490  -18.638  -18.946  -19.441  -20.098  -20.839  -21.541  -22.104  -22.469  -22.625  -22.605  -22.461  -22.259  -22.061  -21.900  -21.806  -21.805  -21.949  -22.240  -22.640  -23.079  -23.502  -23.885  -24.245  -24.640  -25.153  -25.821  -26.583  -27.294  -27.820  -28.133  -28.286  -28.357  -28.377  -28.351  -28.285  -28.233  -28.295  -28.603  -29.258  -30.249  -31.427  -32.628  -33.776  -34.886  -35.948  -36.849  -37.441  -37.649  -37.579  -37.531  -37.886  -38.927  -40.728  -43.163  -45.990  -48.935  -51.776  -54.433  -56.981  -59.477  -61.728  -63.269  -63.899
 -40.011  -39.744  -38.558  -36.675  -34.235  -31.293  -27.886  -24.163  -20.477  -17.273  -14.855  -13.238  -12.263  -11.722  -11.436  -11.259  -11.098  -10.939  -10.808  -10.735  -10.747  -10.843  -11.026  -11.274  -11.596  -12.066  -12.797  -13.861  -15.224  -16.738  -18.203  -19.439  -20.331  -20.858  -21.084  -21.145  -21.203  -21.404  -21.855  -22.613  -23.648  -24.838  -25.983  -26.906  -27.503  -27.764  -27.749  -27.550  -27.265  -26.965  -26.696  -26.499  -26.443  -26.627  -27.100  -27.828  -28.709  -29.649  -30.589  -31.516  -32.456  -33.450  -34.517  -35.593  -36.552  -37.288  -37.787  -38.113  -38.333  -38.476  -38.547  -38.579  -38.655  -38.906  -39.476  -40.442  -41.769  -43.308  -44.914  -46.524  -48.143  -49.753  -51.259  -52.557  -53.629  -54.611  -55.768  -57.386  -59.622  -62.449  -65.705  -69.179  -72.682  -76.082  -79.335  -82.445  -85.319  -87.629  -88.828  -88.433
 -48.896  -48.878  -47.608  -45.506  -42.776  -39.488  -35.666  -31.442  -27.177  -23.380  -20.426  -18.380  -17.083  -16.314  -15.868  -15.586  -15.340  -15.106  -14.912  -14.824  -14.883  -15.095  -15.433  -15.826  -16.229  -16.684  -17.301  -18.181  -19.337  -20.675  -22.034  -23.227  -24.111  -24.620  -24.804  -24.812  -24.842  -25.078  -25.657  -26.660  -28.055  -29.669  -31.234  -32.497  -33.318  -33.684  -33.685  -33.456  -33.125  -32.775  -32.454  -32.217  -32.165  -32.441  -33.130  -34.196  -35.504  -36.912  -38.325  -39.706  -41.064  -42.428  -43.808  -45.151  -46.367  -47.380  -48.195  -48.866  -49.455  -49.988  -50.477  -50.960  -51.521  -52.277  -53.335  -54.734  -56.420  -58.275  -60.194  -62.140  -64.118  -66.130  -68.133  -70.090  -72.034  -74.088  -76.426  -79.181  -82.370  -85.894  -89.593  -93.314  -96.941 -100.406 -103.668 -106.651 -109.141 -110.730 -110.839 -109.131
 -56.160  -56.422  -55.194  -53.036  -50.202  -46.775  -42.776  -38.335  -33.811  -29.725  -26.481  -24.167  -22.634  -21.664  -21.061  -20.648  -20.281  -19.921  -19.612  -19.443  -19.500  -19.806  -20.301  -20.862  -21.385  -21.868  -22.410  -23.143  -24.134  -25.345  -26.644  -27.840  -28.750  -29.265  -29.418  -29.377  -29.370  -29.612  -30.261  -31.415  -33.030  -34.905  -36.729  -38.204  -39.167  -39.613  -39.651  -39.446  -39.147  -38.842  -38.579  -38.416  -38.473  -38.915  -39.838  -41.197  -42.833  -44.574  -46.300  -47.967  -49.581  -51.174  -52.762  -54.317  -55.787  -57.134  -58.371  -59.550  -60.716  -61.891  -63.078  -64.298  -65.595  -67.035  -68.670  -70.502  -72.483  -74.535  -76.602  -78.675  -80.783  -82.953  -85.204  -87.555  -90.059  -92.798  -95.845  -99.207 -102.805 -106.497 -110.138 -113.615 -116.861 -119.832 -122.463 -124.615 -126.060 -126.463 -125.222 -123.806
 -60.770  -61.246  -60.116  -58.016  -55.229  -51.856  -47.928  -43.579  -39.161  -35.162  -31.954  -29.615  -28.003  -26.928  -26.215  -25.683  -25.190  -24.680  -24.212  -23.913  -23.918  -24.277  -24.917  -25.662  -26.350  -26.929  -27.485  -28.174  -29.114  -30.318  -31.669  -32.964  -33.970  -34.553  -34.731  -34.684  -34.660  -34.887  -35.533  -36.687  -38.309  -40.194  -42.029  -43.525  -44.519  -45.010  -45.114  -45.002  -44.823  -44.666  -44.578  -44.615  -44.896  -45.573  -46.729  -48.307  -50.141  -52.051  -53.917  -55.697  -57.408  -59.091  -60.782  -62.485  -64.188  -65.885  -67.597  -69.365  -71.212  -73.134  -75.109  -77.114  -79.145  -81.214  -83.328  -85.474  -87.620  -89.729  -91.784  -93.806  -95.843  -97.956 -100.199 -102.626 -105.284 -108.210 -111.393 -114.761 -118.200 -121.586 -124.836 -127.902 -130.758 -133.368 -135.679 -137.599 -138.981 -139.480 -137.998 -140.605
 -62.287  -62.851  -61.814  -59.827  -57.187  -54.010  -50.352  -46.357  -42.350  -38.756  -35.872  -33.736  -32.214  -31.153  -30.404  -29.803  -29.213  -28.575  -27.955  -27.520  -27.445  -27.826  -28.589  -29.525  -30.416  -31.175  -31.876  -32.684  -33.754  -35.123  -36.682  -38.201  -39.418  -40.173  -40.483  -40.523  -40.542  -40.765  -41.347  -42.369  -43.798  -45.455  -47.075  -48.411  -49.329  -49.826  -50.011  -50.033  -50.026  -50.073  -50.223  -50.531  -51.095  -52.030  -53.389  -55.100  -57.002  -58.934  -60.789  -62.540  -64.217  -65.880  -67.588  -69.379  -71.274  -73.293  -75.461  -77.793  -80.280  -82.876  -85.516  -88.140  -90.703  -93.184  -95.569  -97.848 -100.008 -102.043 -103.966 -105.820 -107.672 -109.596 -111.672 -113.966 -116.529 -119.380 -122.496 -125.826 -129.293 -132.814 -136.300 -139.655 -142.793 -145.627 -148.117 -150.170 -151.598 -151.910 -149.678 -156.223
 -60.740  -61.246  -60.257  -58.392  -55.946  -53.055  -49.800  -46.333  -42.935  -39.943  -37.557  -35.771  -34.466  -33.524  -32.823  -32.227  -31.608  -30.914  -30.216  -29.695  -29.573  -29.979  -30.862  -31.999  -33.150  -34.198  -35.205  -36.339  -37.757  -39.503  -41.452  -43.346  -44.912  -45.977  -46.556  -46.810  -46.964  -47.220  -47.722  -48.544  -49.666  -50.958  -52.226  -53.288  -54.048  -54.505  -54.741  -54.871  -55.003  -55.215  -55.559  -56.092  -56.887  -58.017  -59.493  -61.230  -63.086  -64.921  -66.656  -68.280  -69.842  -71.422  -73.096  -74.929  -76.965  -79.241  -81.770  -84.538  -87.492  -90.543  -93.593  -96.558  -99.378 -102.021 -104.477 -106.741 -108.816 -110.715 -112.467 -114.126 -115.763 -117.466 -119.325 -121.417 -123.802 -126.504 -129.511 -132.770 -136.195 -139.679 -143.084 -146.310 -149.257 -151.858 -154.031 -155.633 -156.429 -155.907 -152.643 -159.095
 -56.542  -56.859  -55.862  -54.097  -51.851  -49.280  -46.491  -43.628  -40.915  -38.587  -36.752  -35.377  -34.359  -33.608  -33.034  -32.524  -31.970  -31.334  -30.687  -30.218  -30.160  -30.673  -31.731  -33.135  -34.646  -36.142  -37.666  -39.367  -41.376  -43.711  -46.217  -48.621  -50.651  -52.148  -53.113  -53.683  -54.048  -54.385  -54.827  -55.451  -56.258  -57.166  -58.053  -58.802  -59.353  -59.702  -59.900  -60.026  -60.167  -60.396  -60.776  -61.367  -62.227  -63.390  -64.835  -66.469  -68.167  -69.817  -71.363  -72.816  -74.238  -75.719  -77.346  -79.193  -81.312  -83.738  -86.469  -89.458  -92.617  -95.832  -98.993 -102.012 -104.834 -107.433 -109.800 -111.936 -113.850 -115.559 -117.099 -118.525 -119.907 -121.338 -122.909 -124.696 -126.755 -129.100 -131.707 -134.506 -137.407 -140.314 -143.146 -145.860 -148.394 -150.718 -152.702 -154.195 -154.915 -154.361 -151.273 -154.893
 -50.462  -50.509  -49.459  -47.759  -45.689  -43.428  -41.097  -38.819  -36.754  -35.037  -33.716  -32.741  -32.031  -31.517  -31.133  -30.793  -30.426  -30.003  -29.602  -29.398  -29.620  -30.430  -31.835  -33.672  -35.733  -37.895  -40.171  -42.658  -45.438  -48.478  -51.601  -54.542  -57.053  -58.996  -60.369  -61.275  -61.866  -62.300  -62.704  -63.164  -63.702  -64.282  -64.830  -65.279  -65.586  -65.747  -65.787  -65.759  -65.735  -65.791  -66.000  -66.429  -67.132  -68.120  -69.355  -70.747  -72.188  -73.591  -74.919  -76.197  -77.491  -78.888  -80.469  -82.297  -84.417  -86.849  -89.572  -92.521  -95.592  -98.670 -101.649 -104.455 -107.042 -109.392 -111.503 -113.377 -115.029 -116.481 -117.768 -118.945 -120.080 -121.252 -122.546 -124.034 -125.767 -127.761 -129.998 -132.433 -134.990 -137.604 -140.217 -142.778 -145.242 -147.529 -149.543 -151.109 -151.992 -151.720 -149.256 -149.936
 -43.580  -43.345  -42.229  -40.576  -38.656  -36.665  -34.730  -32.947  -31.412  -30.193  -29.292  -28.667  -28.255  -28.007  -27.873  -27.809  -27.774  -27.765  -27.856  -28.204  -29.007  -30.416  -32.443  -34.966  -37.802  -40.813  -43.962  -47.279  -50.785  -54.415  -57.999  -61.310  -64.150  -66.407  -68.077  -69.233  -69.993  -70.493  -70.856  -71.177  -71.498  -71.812  -72.080  -72.255  -72.306  -72.222  -72.015  -71.726  -71.419  -71.172  -71.064  -71.170  -71.542  -72.190  -73.074  -74.117  -75.232  -76.354  -77.460  -78.575  -79.759  -81.079  -82.594  -84.343  -86.351  -88.618  -91.114  -93.768  -96.484  -99.164 -101.722 -104.101 -106.276 -108.238 -109.991 -111.544 -112.910 -114.113 -115.183 -116.165 -117.115 -118.103 -119.202 -120.477 -121.977 -123.725 -125.720 -127.932 -130.313 -132.812 -135.371 -137.932 -140.429 -142.772 -144.852 -146.490 -147.471 -147.383 -145.442 -144.125
 -37.150  -36.701  -35.560  -33.975  -32.208  -30.459  -28.847  -27.446  -26.304  -25.450  -24.879  -24.553  -24.429  -24.476  -24.673  -25.005  -25.468  -26.079  -26.904  -28.064  -29.716  -31.973  -34.839  -38.196  -41.860  -45.662  -49.513  -53.395  -57.298  -61.166  -64.872  -68.251  -71.160  -73.512  -75.297  -76.563  -77.397  -77.909  -78.214  -78.408  -78.548  -78.644  -78.675  -78.608  -78.414  -78.077  -77.607  -77.043  -76.443  -75.883  -75.440  -75.191  -75.188  -75.444  -75.931  -76.593  -77.367  -78.206  -79.095  -80.053  -81.119  -82.334  -83.725  -85.306  -87.077  -89.024  -91.114  -93.285  -95.463  -97.577  -99.571 -101.415 -103.099 -104.625 -106.000 -107.233 -108.333 -109.318 -110.211 -111.046 -111.868 -112.732 -113.699 -114.823 -116.149 -117.702 -119.484 -121.481 -123.664 -125.996 -128.434 -130.928 -133.413 -135.800 -137.959 -139.709 -140.812 -140.919 -139.430 -137.098
 -32.373  -31.837  -30.767  -29.336  -27.785  -26.294  -24.973  -23.872  -23.026  -22.450  -22.142  -22.083  -22.250  -22.623  -23.209  -24.023  -25.082  -26.402  -28.021  -30.020  -32.504  -35.546  -39.135  -43.141  -47.358  -51.595  -55.738  -59.750  -63.629  -67.354  -70.852  -74.024  -76.769  -79.023  -80.765  -82.020  -82.845  -83.327  -83.564  -83.647  -83.636  -83.555  -83.394  -83.126  -82.724  -82.177  -81.497  -80.720  -79.905  -79.117  -78.431  -77.911  -77.608  -77.537  -77.685  -78.014  -78.486  -79.068  -79.751  -80.542  -81.459  -82.514  -83.708  -85.032  -86.471  -88.004  -89.596  -91.205  -92.780  -94.282  -95.684  -96.981  -98.176  -99.276 -100.290 -101.222 -102.081 -102.878 -103.632 -104.364 -105.108 -105.904 -106.799 -107.837 -109.051 -110.462 -112.074 -113.880 -115.862 -117.998 -120.258 -122.606 -124.987 -127.321 -129.485 -131.307 -132.543 -132.869 -131.801 -129.241
 -30.115  -29.646  -28.781  -27.639  -26.416  -25.263  -24.255  -23.435  -22.825  -22.456  -22.342  -22.494  -22.895  -23.549  -24.471  -25.691  -27.225  -29.068  -31.216  -33.712  -36.627  -40.026  -43.891  -48.090  -52.409  -56.650  -60.685  -64.478  -68.041  -71.385  -74.488  -77.298  -79.750  -81.794  -83.402  -84.579  -85.355  -85.794  -85.976  -85.981  -85.867  -85.662  -85.366  -84.958  -84.419  -83.742  -82.941  -82.058  -81.145  -80.262  -79.467  -78.815  -78.345  -78.074  -77.994  -78.087  -78.329  -78.702  -79.195  -79.810  -80.545  -81.394  -82.340  -83.362  -84.437  -85.541  -86.646  -87.723  -88.745  -89.699  -90.582  -91.405  -92.183  -92.924  -93.634  -94.316  -94.976  -95.623  -96.271  -96.934  -97.637  -98.404  -99.270 -100.267 -101.418 -102.738 -104.230 -105.887 -107.697 -109.645 -111.710 -113.866 -116.070 -118.255 -120.317 -122.100 -123.385 -123.874 -123.149 -120.803
 -30.646  -30.387  -29.843  -29.114  -28.339  -27.604  -26.949  -26.383  -25.934  -25.644  -25.565  -25.741  -26.177  -26.891  -27.898  -29.226  -30.876  -32.816  -35.009  -37.476  -40.285  -43.511  -47.153  -51.095  -55.130  -59.055  -62.733  -66.123  -69.241  -72.121  -74.772  -77.177  -79.300  -81.101  -82.550  -83.635  -84.370  -84.792  -84.965  -84.955  -84.812  -84.566  -84.222  -83.767  -83.188  -82.486  -81.681  -80.814  -79.931  -79.082  -78.311  -77.659  -77.152  -76.805  -76.615  -76.572  -76.663  -76.879  -77.214  -77.660  -78.208  -78.841  -79.534  -80.265  -81.009  -81.743  -82.449  -83.105  -83.702  -84.242  -84.740  -85.217  -85.690  -86.169  -86.656  -87.152  -87.661  -88.191  -88.755  -89.363  -90.031  -90.777  -91.623  -92.591  -93.701  -94.959  -96.365  -97.910  -99.581 -101.364 -103.244 -105.200 -107.201 -109.193 -111.092 -112.764 -114.020 -114.593 -114.114 -112.117
 -33.409  -33.458  -33.262  -32.960  -32.635  -32.308  -31.964  -31.572  -31.136  -30.721  -30.424  -30.334  -30.495  -30.935  -31.675  -32.734  -34.092  -35.703  -37.511  -39.523  -41.815  -44.480  -47.548  -50.928  -54.430  -57.851  -61.048  -63.967  -66.621  -69.047  -71.274  -73.306  -75.128  -76.713  -78.034  -79.068  -79.813  -80.289  -80.538  -80.611  -80.550  -80.378  -80.104  -79.721  -79.224  -78.619  -77.929  -77.192  -76.449  -75.736  -75.085  -74.523  -74.070  -73.735  -73.520  -73.419  -73.429  -73.545  -73.764  -74.076  -74.468  -74.917  -75.402  -75.900  -76.392  -76.860  -77.288  -77.663  -77.984  -78.262  -78.519  -78.778  -79.056  -79.364  -79.700  -80.064  -80.459  -80.895  -81.382  -81.932  -82.557  -83.269  -84.085  -85.022  -86.095  -87.307  -88.654  -90.118  -91.682  -93.334  -95.056  -96.836  -98.653 -100.467 -102.208 -103.768 -104.979 -105.608 -105.323 -103.672
 -37.098  -37.445  -37.497  -37.475  -37.439  -37.366  -37.184  -36.812  -36.231  -35.508  -34.780  -34.184  -33.818  -33.725  -33.932  -34.445  -35.243  -36.264  -37.446  -38.788  -40.364  -42.281  -44.593  -47.247  -50.081  -52.905  -55.572  -58.018  -60.244  -62.282  -64.161  -65.898  -67.494  -68.937  -70.206  -71.274  -72.127  -72.766  -73.215  -73.503  -73.659  -73.700  -73.629  -73.445  -73.147  -72.747  -72.268  -71.742  -71.200  -70.671  -70.177  -69.739  -69.374  -69.093  -68.899  -68.793  -68.775  -68.846  -69.006  -69.242  -69.539  -69.873  -70.224  -70.575  -70.912  -71.222  -71.492  -71.712  -71.884  -72.021  -72.147  -72.283  -72.447  -72.645  -72.878  -73.145  -73.451  -73.804  -74.216  -74.701  -75.269  -75.935  -76.714  -77.624  -78.673  -79.864  -81.183  -82.602  -84.097  -85.649  -87.249  -88.889  -90.562  -92.240  -93.870  -95.360  -96.560  -97.257  -97.151  -95.815
 -40.139  -40.659  -40.752  -40.754  -40.740  -40.679  -40.460  -39.959  -39.126  -38.017  -36.788  -35.623  -34.656  -33.953  -33.541  -33.424  -33.574  -33.934  -34.443  -35.092  -35.941  -37.098  -38.632  -40.520  -42.648  -44.850  -46.995  -49.012  -50.888  -52.639  -54.285  -55.844  -57.328  -58.739  -60.064  -61.279  -62.358  -63.286  -64.063  -64.696  -65.194  -65.561  -65.794  -65.894  -65.864  -65.719  -65.480  -65.174  -64.827  -64.461  -64.098  -63.762  -63.473  -63.246  -63.091  -63.010  -63.009  -63.092  -63.256  -63.489  -63.767  -64.066  -64.367  -64.655  -64.923  -65.162  -65.361  -65.513  -65.621  -65.694  -65.755  -65.825  -65.918  -66.041  -66.199  -66.389  -66.618  -66.894  -67.229  -67.641  -68.146  -68.765  -69.517  -70.421  -71.483  -72.697  -74.034  -75.452  -76.915  -78.402  -79.907  -81.438  -83.003  -84.590  -86.159  -87.626  -88.854  -89.641  -89.709  -88.655
 -41.276  -41.763  -41.660  -41.403  -41.128  -40.832  -40.395  -39.664  -38.549  -37.091  -35.447  -33.824  -32.377  -31.181  -30.259  -29.606  -29.203  -29.003  -28.954  -29.039  -29.304  -29.842  -30.717  -31.931  -33.415  -35.054  -36.750  -38.438  -40.092  -41.699  -43.264  -44.794  -46.304  -47.806  -49.294  -50.748  -52.136  -53.423  -54.589  -55.616  -56.489  -57.199  -57.739  -58.110  -58.320  -58.388  -58.335  -58.184  -57.957  -57.680  -57.381  -57.093  -56.845  -56.658  -56.546  -56.515  -56.570  -56.715  -56.944  -57.238  -57.566  -57.897  -58.211  -58.494  -58.746  -58.961  -59.134  -59.262  -59.344  -59.392  -59.423  -59.456  -59.503  -59.573  -59.669  -59.795  -59.953  -60.152  -60.407  -60.740  -61.179  -61.758  -62.507  -63.445  -64.576  -65.873  -67.287  -68.755  -70.225  -71.672  -73.104  -74.546  -76.024  -77.547  -79.085  -80.561  -81.840  -82.727  -82.956  -82.153
 -39.861  -40.095  -39.591  -38.841  -38.070  -37.339  -36.553  -35.544  -34.197  -32.523  -30.673  -28.845  -27.193  -25.783  -24.618  -23.685  -22.969  -22.440  -22.065  -21.826  -21.756  -21.916  -22.358  -23.097  -24.110  -25.343  -26.744  -28.262  -29.863  -31.500  -33.151  -34.802  -36.464  -38.140  -39.833  -41.525  -43.186  -44.773  -46.246  -47.568  -48.706  -49.643  -50.372  -50.899  -51.239  -51.412  -51.440  -51.343  -51.144  -50.875  -50.579  -50.296  -50.066  -49.915  -49.857  -49.897  -50.038  -50.279  -50.607  -50.992  -51.396  -51.782  -52.125  -52.417  -52.657  -52.850  -52.999  -53.105  -53.171  -53.204  -53.220  -53.231  -53.250  -53.284  -53.338  -53.410  -53.505  -53.628  -53.796  -54.044  -54.417  -54.965  -55.735  -56.750  -58.002  -59.445  -60.995  -62.561  -64.073  -65.509  -66.886  -68.250  -69.651  -71.118  -72.635  -74.128  -75.462  -76.440  -76.812  -76.228
 -35.903  -35.737  -34.728  -33.368  -31.979  -30.714  -29.527  -28.267  -26.804  -25.126  -23.360  -21.663  -20.158  -18.872  -17.793  -16.897  -16.165  -15.592  -15.153  -14.848  -14.691  -14.717  -14.968  -15.460  -16.216  -17.240  -18.526  -20.046  -21.750  -23.563  -25.422  -27.290  -29.156  -31.013  -32.860  -34.688  -36.474  -38.181  -39.763  -41.173  -42.378  -43.359  -44.117  -44.660  -45.013  -45.192  -45.218  -45.108  -44.889  -44.599  -44.293  -44.021  -43.825  -43.731  -43.749  -43.877  -44.112  -44.442  -44.847  -45.290  -45.730  -46.127  -46.459  -46.718  -46.908  -47.041  -47.131  -47.190  -47.223  -47.237  -47.240  -47.242  -47.252  -47.275  -47.306  -47.346  -47.390  -47.440  -47.521  -47.679  -47.984  -48.506  -49.311  -50.430  -51.842  -53.470  -55.196  -56.897  -58.485  -59.932  -61.269  -62.563  -63.888  -65.295  -66.783  -68.285  -69.663  -70.720  -71.211  -70.815
 -30.067  -29.496  -28.060  -26.190  -24.281  -22.565  -21.067  -19.667  -18.253  -16.795  -15.377  -14.085  -12.986  -12.062  -11.294  -10.649  -10.112   -9.689   -9.373   -9.162   -9.068   -9.111   -9.320   -9.725  -10.372  -11.319  -12.599  -14.205  -16.078  -18.115  -20.209  -22.298  -24.339  -26.314  -28.215  -30.043  -31.789  -33.430  -34.930  -36.247  -37.356  -38.250  -38.934  -39.428  -39.748  -39.912  -39.933  -39.827  -39.620  -39.357  -39.097  -38.894  -38.785  -38.788  -38.900  -39.109  -39.403  -39.763  -40.161  -40.563  -40.936  -41.249  -41.483  -41.635  -41.712  -41.731  -41.718  -41.692  -41.665  -41.645  -41.633  -41.635  -41.655  -41.689  -41.726  -41.756  -41.768  -41.760  -41.761  -41.834  -42.070  -42.572  -43.421  -44.654  -46.238  -48.068  -49.986  -51.836  -53.513  -54.982  -56.282  -57.501  -58.736  -60.064  -61.503  -62.995  -64.401  -65.519  -66.111  -65.874
 -23.606  -22.788  -21.197  -19.160  -17.078  -15.208  -13.610  -12.236  -10.997   -9.871   -8.877   -8.038   -7.355   -6.805   -6.354   -5.976   -5.670   -5.440   -5.281   -5.196   -5.194   -5.285   -5.493   -5.853   -6.438   -7.328   -8.595  -10.253  -12.240  -14.433  -16.698  -18.932  -21.068  -23.070  -24.932  -26.659  -28.262  -29.731  -31.049  -32.193  -33.154  -33.932  -34.549  -35.017  -35.355  -35.568  -35.662  -35.649  -35.553  -35.418  -35.302  -35.249  -35.283  -35.407  -35.607  -35.855  -36.135  -36.424  -36.699  -36.939  -37.125  -37.246  -37.293  -37.269  -37.181  -37.053  -36.908  -36.775  -36.670  -36.603  -36.573  -36.579  -36.619  -36.680  -36.741  -36.783  -36.785  -36.741  -36.685  -36.697  -36.890  -37.391  -38.303  -39.666  -41.429  -43.456  -45.554  -47.535  -49.276  -50.740  -51.974  -53.086  -54.198  -55.412  -56.768  -58.220  -59.631  -60.795  -61.469  -61.364
 -18.039  -17.200  -15.752  -13.906  -11.994  -10.243   -8.734   -7.475   -6.432   -5.589   -4.920   -4.401   -3.985   -3.650   -3.370   -3.156   -2.994   -2.882   -2.826   -2.817   -2.866   -2.973   -3.154   -3.461   -3.952   -4.740   -5.906   -7.493   -9.451  -11.658  -13.958  -16.217  -18.345  -20.288  -22.045  -23.624  -25.051  -26.331  -27.465  -28.450  -29.296  -30.019  -30.638  -31.164  -31.609  -31.973  -32.250  -32.443  -32.568  -32.664  -32.775  -32.927  -33.126  -33.363  -33.606  -33.830  -34.012  -34.136  -34.190  -34.172  -34.088  -33.947  -33.760  -33.533  -33.276  -33.004  -32.742  -32.514  -32.339  -32.227  -32.181  -32.193  -32.249  -32.336  -32.424  -32.487  -32.497  -32.450  -32.384  -32.390  -32.602  -33.165  -34.196  -35.726  -37.680  -39.882  -42.107  -44.149  -45.878  -47.262  -48.365  -49.312  -50.250  -51.306  -52.541  -53.920  -55.308  -56.493  -57.228  -57.232
 -14.433  -13.699  -12.486  -10.917   -9.227   -7.612   -6.193   -5.033   -4.146   -3.513   -3.071   -2.744   -2.463   -2.199   -1.967   -1.788   -1.669   -1.597   -1.574   -1.588   -1.638   -1.728   -1.863   -2.087   -2.466   -3.084   -4.057   -5.427   -7.185   -9.221  -11.390  -13.534  -15.548  -17.368  -18.984  -20.411  -21.678  -22.806  -23.806  -24.695  -25.495  -26.232  -26.924  -27.582  -28.209  -28.798  -29.334  -29.807  -30.225  -30.607  -30.974  -31.336  -31.683  -31.992  -32.229  -32.371  -32.399  -32.304  -32.092  -31.784  -31.414  -31.015  -30.608  -30.207  -29.823  -29.458  -29.129  -28.852  -28.641  -28.508  -28.455  -28.472  -28.540  -28.644  -28.754  -28.847  -28.889  -28.881  -28.868  -28.953  -29.283  -30.014  -31.252  -32.999  -35.137  -37.455  -39.706  -41.686  -43.279  -44.476  -45.361  -46.084  -46.808  -47.676  -48.763  -50.040  -51.378  -52.556  -53.328  -53.417
 -12.750  -12.120  -11.040   -9.584   -7.951   -6.341   -4.923   -3.810   -3.045   -2.586   -2.324   -2.135   -1.931   -1.690   -1.456   -1.266   -1.133   -1.054   -1.026   -1.033   -1.071   -1.127   -1.216   -1.366   -1.612   -2.046   -2.755   -3.809   -5.218   -6.931   -8.807  -10.701  -12.501  -14.143  -15.603  -16.889  -18.036  -19.063  -19.988  -20.839  -21.646  -22.433  -23.226  -24.032  -24.850  -25.670  -26.468  -27.224  -27.928  -28.577  -29.174  -29.709  -30.163  -30.508  -30.711  -30.754  -30.620  -30.316  -29.866  -29.317  -28.721  -28.131  -27.580  -27.086  -26.650  -26.269  -25.942  -25.678  -25.481  -25.364  -25.327  -25.361  -25.445  -25.570  -25.709  -25.840  -25.943  -26.023  -26.136  -26.391  -26.944  -27.941  -29.457  -31.438  -33.710  -36.031  -38.162  -39.930  -41.256  -42.166  -42.774  -43.242  -43.747  -44.430  -45.370  -46.538  -47.803  -48.950  -49.730  -49.883
 -11.970  -11.410  -10.368   -8.919   -7.250   -5.582   -4.135   -3.061   -2.394   -2.071   -1.948   -1.864   -1.722   -1.513   -1.286   -1.087   -0.934   -0.841   -0.804   -0.798   -0.819   -0.850   -0.910   -0.993   -1.145   -1.412   -1.865   -2.577   -3.588   -4.869   -6.336   -7.875   -9.388  -10.795  -12.076  -13.236  -14.288  -15.247  -16.135  -16.977  -17.797  -18.629  -19.496  -20.404  -21.351  -22.329  -23.310  -24.270  -25.177  -26.015  -26.769  -27.421  -27.943  -28.307  -28.484  -28.457  -28.216  -27.779  -27.192  -26.513  -25.815  -25.159  -24.581  -24.096  -23.699  -23.382  -23.127  -22.933  -22.804  -22.746  -22.761  -22.839  -22.963  -23.127  -23.313  -23.502  -23.693  -23.898  -24.184  -24.673  -25.515  -26.821  -28.619  -30.778  -33.075  -35.259  -37.126  -38.557  -39.526  -40.101  -40.421  -40.654  -40.972  -41.510  -42.331  -43.401  -44.585  -45.677  -46.439  -46.631
 -10.937  -10.436   -9.465   -8.094   -6.494   -4.889   -3.500   -2.503   -1.916   -1.680   -1.628   -1.604   -1.513   -1.354   -1.165   -0.987   -0.845   -0.749   -0.699   -0.691   -0.700   -0.721   -0.761   -0.809   -0.888   -1.033   -1.295   -1.718   -2.361   -3.215   -4.253   -5.389   -6.549   -7.685   -8.760   -9.774  -10.725  -11.621  -12.473  -13.306  -14.130  -14.973  -15.853  -16.776  -17.745  -18.755  -19.786  -20.805  -21.784  -22.692  -23.510  -24.210  -24.767  -25.154  -25.341  -25.313  -25.065  -24.624  -24.044  -23.396  -22.753  -22.177  -21.697  -21.322  -21.044  -20.850  -20.718  -20.644  -20.625  -20.669  -20.773  -20.929  -21.127  -21.356  -21.608  -21.873  -22.156  -22.494  -22.967  -23.699  -24.819  -26.400  -28.394  -30.613  -32.803  -34.729  -36.240  -37.278  -37.874  -38.137  -38.214  -38.272  -38.466  -38.909  -39.646  -40.631  -41.730  -42.753  -43.475  -43.682
  -9.078   -8.654   -7.868   -6.742   -5.417   -4.070   -2.900   -2.040   -1.536   -1.332   -1.294   -1.286   -1.235   -1.129   -0.996   -0.867   -0.758   -0.683   -0.641   -0.637   -0.647   -0.664   -0.688   -0.710   -0.747   -0.820   -0.953   -1.188   -1.550   -2.068   -2.722   -3.483   -4.298   -5.135   -5.980   -6.813   -7.638   -8.448   -9.247  -10.049  -10.863  -11.689  -12.531  -13.387  -14.269  -15.176  -16.103  -17.030  -17.931  -18.783  -19.562  -20.249  -20.813  -21.232  -21.479  -21.531  -21.393  -21.090  -20.672  -20.209  -19.765  -19.386  -19.099  -18.902  -18.791  -18.746  -18.760  -18.827  -18.947  -19.124  -19.347  -19.610  -19.899  -20.209  -20.530  -20.861  -21.224  -21.674  -22.302  -23.225  -24.550  -26.294  -28.353  -30.499  -32.476  -34.085  -35.225  -35.897  -36.181  -36.204  -36.120  -36.082  -36.220  -36.615  -37.292  -38.199  -39.213  -40.152  -40.822  -41.027
  -6.604   -6.277   -5.751   -4.993   -4.080   -3.130   -2.271   -1.620   -1.214   -1.031   -0.983   -0.969   -0.943   -0.885   -0.814   -0.737   -0.668   -0.621   -0.606   -0.617   -0.630   -0.645   -0.660   -0.665   -0.682   -0.711   -0.769   -0.886   -1.078   -1.358   -1.741   -2.204   -2.721   -3.289   -3.891   -4.528   -5.185   -5.878   -6.605   -7.366   -8.156   -8.950   -9.723  -10.462  -11.181  -11.890  -12.603  -13.317  -14.025  -14.716  -15.380  -15.996  -16.546  -17.007  -17.351  -17.557  -17.622  -17.566  -17.427  -17.257  -17.096  -16.980  -16.924  -16.925  -16.981  -17.087  -17.242  -17.445  -17.705  -18.013  -18.358  -18.724  -19.100  -19.477  -19.844  -20.215  -20.623  -21.139  -21.859  -22.886  -24.301  -26.075  -28.072  -30.049  -31.769  -33.069  -33.894  -34.288  -34.355  -34.238  -34.083  -34.024  -34.156  -34.538  -35.173  -36.012  -36.943  -37.803  -38.422  -38.619
  -4.178   -3.962   -3.681   -3.270   -2.754   -2.193   -1.658   -1.224   -0.942   -0.792   -0.744   -0.726   -0.720   -0.696   -0.661   -0.627   -0.598   -0.584   -0.597   -0.621   -0.649   -0.663   -0.670   -0.658   -0.646   -0.652   -0.671   -0.724   -0.814   -0.961   -1.169   -1.424   -1.728   -2.075   -2.466   -2.898   -3.388   -3.939   -4.575   -5.278   -6.029   -6.771   -7.454   -8.062   -8.590   -9.070   -9.526   -9.980  -10.449  -10.932  -11.435  -11.954  -12.477  -12.982  -13.442  -13.836  -14.155  -14.397  -14.580  -14.732  -14.871  -15.026  -15.196  -15.382  -15.592  -15.828  -16.098  -16.414  -16.778  -17.182  -17.607  -18.037  -18.456  -18.854  -19.226  -19.595  -20.001  -20.525  -21.262  -22.304  -23.699  -25.396  -27.249  -29.024  -30.505  -31.564  -32.170  -32.390  -32.346  -32.176  -32.020  -31.987  -32.149  -32.542  -33.158  -33.950  -34.818  -35.624  -36.207  -36.407
  -2.386   -2.251   -2.131   -1.949   -1.707   -1.422   -1.138   -0.890   -0.714   -0.620   -0.592   -0.585   -0.596   -0.593   -0.581   -0.572   -0.564   -0.583   -0.621   -0.670   -0.706   -0.715   -0.698   -0.671   -0.636   -0.614   -0.612   -0.631   -0.672   -0.748   -0.849   -0.982   -1.145   -1.336   -1.564   -1.837   -2.160   -2.576   -3.093   -3.704   -4.376   -5.026   -5.601   -6.064   -6.417   -6.696   -6.930   -7.153   -7.398   -7.684   -8.034   -8.452   -8.944   -9.481  -10.052  -10.630  -11.191  -11.715  -12.197  -12.640  -13.062  -13.465  -13.845  -14.208  -14.555  -14.901  -15.257  -15.642  -16.056  -16.490  -16.926  -17.346  -17.735  -18.091  -18.418  -18.735  -19.100  -19.588  -20.284  -21.267  -22.568  -24.136  -25.821  -27.416  -28.722  -29.629  -30.119  -30.267  -30.192  -30.033  -29.916  -29.930  -30.140  -30.563  -31.186  -31.966  -32.812  -33.597  -34.174  -34.391
  -1.349   -1.258   -1.219   -1.144   -1.037   -0.910   -0.778   -0.654   -0.563   -0.522   -0.511   -0.519   -0.537   -0.550   -0.551   -0.552   -0.568   -0.620   -0.685   -0.743   -0.777   -0.769   -0.728   -0.673   -0.621   -0.591   -0.573   -0.575   -0.591   -0.622   -0.672   -0.738   -0.824   -0.918   -1.037   -1.191   -1.396   -1.678   -2.060   -2.536   -3.070   -3.587   -4.020   -4.350   -4.565   -4.697   -4.775   -4.848   -4.937   -5.084   -5.309   -5.642   -6.088   -6.640   -7.284   -7.994   -8.732   -9.464  -10.172  -10.858  -11.521  -12.153  -12.739  -13.271  -13.751  -14.195  -14.614  -15.026  -15.434  -15.832  -16.200  -16.530  -16.823  -17.085  -17.322  -17.563  -17.863  -18.291  -18.925  -19.825  -21.014  -22.447  -23.983  -25.441  -26.649  -27.492  -27.960  -28.118  -28.079  -27.972  -27.914  -27.987  -28.247  -28.710  -29.360  -30.157  -31.016  -31.814  -32.402  -32.640
  -0.859   -0.786   -0.762   -0.736   -0.687   -0.626   -0.570   -0.512   -0.480   -0.461   -0.461   -0.485   -0.515   -0.531   -0.543   -0.555   -0.593   -0.667   -0.764   -0.838   -0.856   -0.812   -0.740   -0.662   -0.594   -0.557   -0.536   -0.529   -0.534   -0.550   -0.573   -0.608   -0.645   -0.692   -0.753   -0.834   -0.949   -1.125   -1.370   -1.695   -2.063   -2.416   -2.709   -2.916   -3.034   -3.082   -3.091   -3.086   -3.096   -3.164   -3.306   -3.560   -3.944   -4.462   -5.109   -5.856   -6.658   -7.498   -8.346   -9.202  -10.062  -10.899  -11.688  -12.395  -13.017  -13.559  -14.031  -14.446  -14.813  -15.124  -15.380  -15.581  -15.746  -15.890  -16.027  -16.197  -16.441  -16.829  -17.415  -18.252  -19.350  -20.669  -22.092  -23.459  -24.617  -25.458  -25.966  -26.196  -26.243  -26.224  -26.243  -26.380  -26.691  -27.192  -27.876  -28.701  -29.584  -30.400  -31.000  -31.248
  -0.658   -0.589   -0.570   -0.551   -0.522   -0.496   -0.467   -0.441   -0.432   -0.424   -0.437   -0.455   -0.483   -0.506   -0.522   -0.543   -0.601   -0.707   -0.825   -0.902   -0.899   -0.823   -0.717   -0.618   -0.552   -0.516   -0.495   -0.489   -0.497   -0.499   -0.514   -0.535   -0.554   -0.580   -0.606   -0.653   -0.712   -0.806   -0.947   -1.133   -1.341   -1.553   -1.717   -1.830   -1.891   -1.910   -1.897   -1.874   -1.867   -1.901   -1.989   -2.169   -2.470   -2.898   -3.461   -4.136   -4.895   -5.712   -6.593   -7.532   -8.525   -9.535  -10.509  -11.394  -12.166  -12.814  -13.342  -13.766  -14.093  -14.322  -14.467  -14.552  -14.606  -14.657  -14.732  -14.864  -15.093  -15.476  -16.053  -16.857  -17.899  -19.122  -20.444  -21.733  -22.847  -23.704  -24.274  -24.605  -24.770  -24.870  -24.986  -25.200  -25.561  -26.104  -26.817  -27.658  -28.551  -29.367  -29.963  -30.196
  -0.565   -0.500   -0.491   -0.468   -0.449   -0.435   -0.420   -0.405   -0.399   -0.403   -0.408   -0.422   -0.446   -0.463   -0.481   -0.516   -0.585   -0.699   -0.827   -0.906   -0.895   -0.799   -0.671   -0.569   -0.505   -0.472   -0.459   -0.457   -0.455   -0.462   -0.472   -0.484   -0.498   -0.511   -0.533   -0.553   -0.585   -0.633   -0.705   -0.792   -0.897   -0.995   -1.079   -1.136   -1.164   -1.175   -1.167   -1.158   -1.149   -1.169   -1.226   -1.344   -1.544   -1.852   -2.266   -2.785   -3.398   -4.104   -4.911   -5.837   -6.874   -7.987   -9.099  -10.141  -11.057  -11.823  -12.431  -12.887  -13.202  -13.393  -13.480  -13.503  -13.505  -13.526  -13.595  -13.741  -13.999  -14.409  -15.001  -15.787  -16.762  -17.879  -19.077  -20.249  -21.286  -22.125  -22.741  -23.161  -23.449  -23.675  -23.904  -24.206  -24.637  -25.222  -25.960  -26.809  -27.690  -28.486  -29.062  -29.262
  -0.520   -0.459   -0.443   -0.426   -0.414   -0.401   -0.392   -0.386   -0.380   -0.376   -0.384   -0.390   -0.405   -0.415   -0.432   -0.466   -0.534   -0.642   -0.766   -0.839   -0.820   -0.724   -0.611   -0.514   -0.459   -0.431   -0.426   -0.421   -0.426   -0.434   -0.443   -0.452   -0.462   -0.472   -0.482   -0.496   -0.517   -0.540   -0.570   -0.613   -0.659   -0.700   -0.738   -0.763   -0.784   -0.788   -0.791   -0.790   -0.797   -0.808   -0.843   -0.906   -1.022   -1.205   -1.468   -1.808   -2.229   -2.752   -3.403   -4.215   -5.193   -6.295   -7.456   -8.588   -9.621  -10.499  -11.196  -11.714  -12.069  -12.279  -12.377  -12.419  -12.440  -12.495  -12.613  -12.821  -13.136  -13.585  -14.181  -14.918  -15.782  -16.750  -17.769  -18.762  -19.664  -20.425  -21.032  -21.502  -21.877  -22.208  -22.543  -22.939  -23.440  -24.079  -24.845  -25.699  -26.564  -27.334  -27.884  -28.059
  -0.496   -0.437   -0.422   -0.407   -0.396   -0.386   -0.378   -0.372   -0.366   -0.362   -0.359   -0.369   -0.373   -0.374   -0.389   -0.419   -0.471   -0.558   -0.649   -0.705   -0.697   -0.622   -0.536   -0.462   -0.420   -0.400   -0.394   -0.396   -0.403   -0.411   -0.418   -0.426   -0.434   -0.443   -0.451   -0.460   -0.469   -0.483   -0.502   -0.519   -0.541   -0.555   -0.575   -0.591   -0.602   -0.610   -0.615   -0.623   -0.624   -0.638   -0.657   -0.694   -0.751   -0.845   -0.981   -1.170   -1.420   -1.755   -2.214   -2.830   -3.638   -4.612   -5.699   -6.820   -7.884   -8.822   -9.588  -10.177  -10.598  -10.878  -11.051  -11.167  -11.272  -11.416  -11.630  -11.924  -12.314  -12.792  -13.353  -13.992  -14.701  -15.458  -16.242  -17.008  -17.717  -18.339  -18.871  -19.330  -19.735  -20.122  -20.527  -20.987  -21.548  -22.221  -23.005  -23.857  -24.705  -25.455  -25.996  -26.176
  -0.479   -0.422   -0.408   -0.393   -0.382   -0.373   -0.365   -0.359   -0.354   -0.350   -0.346   -0.345   -0.346   -0.352   -0.357   -0.376   -0.409   -0.463   -0.522   -0.561   -0.558   -0.511   -0.459   -0.406   -0.382   -0.376   -0.372   -0.378   -0.384   -0.390   -0.397   -0.403   -0.411   -0.418   -0.425   -0.433   -0.441   -0.449   -0.457   -0.468   -0.477   -0.493   -0.502   -0.513   -0.523   -0.529   -0.535   -0.544   -0.552   -0.561   -0.571   -0.587   -0.618   -0.660   -0.719   -0.809   -0.934   -1.121   -1.400   -1.807   -2.388   -3.138   -4.030   -5.001   -5.976   -6.873   -7.641   -8.263   -8.746   -9.109   -9.381   -9.601   -9.826  -10.094  -10.443  -10.856  -11.326  -11.824  -12.329  -12.834  -13.351  -13.865  -14.380  -14.888  -15.365  -15.803  -16.206  -16.587  -16.958  -17.337  -17.748  -18.222  -18.786  -19.453  -20.215  -21.036  -21.847  -22.572  -23.107  -23.320
  -0.463   -0.409   -0.394   -0.381   -0.370   -0.362   -0.355   -0.349   -0.344   -0.340   -0.336   -0.334   -0.332   -0.331   -0.335   -0.345   -0.363   -0.386   -0.421   -0.441   -0.440   -0.419   -0.392   -0.372   -0.359   -0.353   -0.357   -0.362   -0.367   -0.372   -0.378   -0.384   -0.390   -0.396   -0.403   -0.410   -0.416   -0.423   -0.430   -0.437   -0.444   -0.451   -0.458   -0.466   -0.473   -0.480   -0.487   -0.494   -0.502   -0.509   -0.517   -0.529   -0.545   -0.563   -0.592   -0.625   -0.683   -0.773   -0.916   -1.151   -1.509   -2.003   -2.631   -3.358   -4.128   -4.872   -5.550   -6.130   -6.622   -7.028   -7.378   -7.706   -8.056   -8.479   -8.977   -9.536  -10.097  -10.620  -11.066  -11.435  -11.749  -12.019  -12.270  -12.504  -12.733  -12.965  -13.200  -13.454  -13.740  -14.051  -14.407  -14.828  -15.332  -15.921  -16.594  -17.315  -18.046  -18.711  -19.216  -19.472
  -0.450   -0.397   -0.383   -0.370   -0.360   -0.352   -0.345   -0.340   -0.335   -0.331   -0.328   -0.325   -0.323   -0.322   -0.321   -0.321   -0.334   -0.345   -0.356   -0.371   -0.371   -0.360   -0.351   -0.344   -0.336   -0.340   -0.344   -0.348   -0.352   -0.357   -0.362   -0.367   -0.373   -0.378   -0.384   -0.389   -0.395   -0.401   -0.407   -0.413   -0.420   -0.426   -0.432   -0.438   -0.445   -0.452   -0.458   -0.464   -0.471   -0.477   -0.484   -0.491   -0.498   -0.509   -0.522   -0.539   -0.564   -0.602   -0.671   -0.788   -0.974   -1.254   -1.625   -2.081   -2.594   -3.121   -3.622   -4.088   -4.508   -4.896   -5.272   -5.669   -6.125   -6.681   -7.326   -8.016   -8.673   -9.217   -9.611   -9.864   -9.996  -10.054  -10.058  -10.046  -10.035  -10.057  -10.126  -10.243  -10.413  -10.628  -10.891  -11.208  -11.595  -12.051  -12.575  -13.134  -13.713  -14.259  -14.687  -14.967
  -0.438   -0.387   -0.374   -0.362   -0.352   -0.344   -0.337   -0.332   -0.327   -0.323   -0.320   -0.318   -0.316   -0.314   -0.313   -0.313   -0.314   -0.319   -0.328   -0.332   -0.332   -0.332   -0.325   -0.323   -0.326   -0.329   -0.332   -0.336   -0.340   -0.344   -0.348   -0.353   -0.357   -0.362   -0.367   -0.372   -0.377   -0.383   -0.388   -0.394   -0.399   -0.404   -0.410   -0.416   -0.421   -0.427   -0.432   -0.438   -0.444   -0.451   -0.457   -0.463   -0.469   -0.475   -0.482   -0.491   -0.505   -0.522   -0.554   -0.602   -0.689   -0.822   -1.009   -1.252   -1.533   -1.844   -2.156   -2.458   -2.768   -3.079   -3.416   -3.816   -4.312   -4.932   -5.655   -6.411   -7.102   -7.648   -7.996   -8.158   -8.161   -8.057   -7.877   -7.669   -7.466   -7.322   -7.247   -7.254   -7.326   -7.448   -7.617   -7.831   -8.090   -8.399   -8.752   -9.129   -9.528   -9.910  -10.223  -10.493
  -0.429   -0.378   -0.366   -0.354   -0.344   -0.337   -0.330   -0.325   -0.321   -0.317   -0.314   -0.311   -0.309   -0.308   -0.307   -0.306   -0.306   -0.306   -0.306   -0.307   -0.309   -0.311   -0.312   -0.315   -0.317   -0.320   -0.323   -0.326   -0.329   -0.333   -0.336   -0.340   -0.344   -0.348   -0.353   -0.357   -0.362   -0.367   -0.371   -0.376   -0.381   -0.386   -0.391   -0.396   -0.401   -0.406   -0.412   -0.417   -0.422   -0.427   -0.432   -0.438   -0.443   -0.449   -0.455   -0.462   -0.468   -0.476   -0.491   -0.516   -0.546   -0.604   -0.685   -0.795   -0.923   -1.072   -1.233   -1.406   -1.589   -1.797   -2.058   -2.400   -2.855   -3.433   -4.118   -4.820   -5.458   -5.945   -6.226   -6.323   -6.256   -6.064   -5.794   -5.480   -5.184   -4.951   -4.804   -4.744   -4.756   -4.817   -4.919   -5.056   -5.232   -5.433   -5.668   -5.921   -6.177   -6.422   -6.631   -6.861
  -0.421   -0.371   -0.359   -0.348   -0.338   -0.331   -0.325   -0.320   -0.315   -0.312   -0.309   -0.306   -0.304   -0.303   -0.302   -0.301   -0.301   -0.301   -0.301   -0.302   -0.302   -0.304   -0.305   -0.307   -0.309   -0.312   -0.315   -0.317   -0.320   -0.323   -0.327   -0.330   -0.334   -0.337   -0.341   -0.345   -0.349   -0.353   -0.357   -0.362   -0.366   -0.370   -0.375   -0.379   -0.384   -0.388   -0.393   -0.398   -0.403   -0.408   -0.413   -0.418   -0.423   -0.428   -0.433   -0.439   -0.444   -0.450   -0.457   -0.467   -0.484   -0.508   -0.537   -0.576   -0.632   -0.693   -0.762   -0.845   -0.937   -1.061   -1.230   -1.474   -1.825   -2.275   -2.806   -3.356   -3.849   -4.217   -4.423   -4.466   -4.381   -4.192   -3.915   -3.610   -3.328   -3.099   -2.952   -2.878   -2.861   -2.896   -2.961   -3.067   -3.199   -3.375   -3.577   -3.790   -4.005   -4.203   -4.360   -4.559
  -0.415   -0.366   -0.354   -0.343   -0.334   -0.326   -0.320   -0.315   -0.311   -0.308   -0.305   -0.302   -0.300   -0.299   -0.298   -0.297   -0.296   -0.296   -0.296   -0.297   -0.298   -0.299   -0.300   -0.302   -0.303   -0.305   -0.307   -0.310   -0.313   -0.315   -0.318   -0.322   -0.325   -0.328   -0.331   -0.335   -0.339   -0.342   -0.346   -0.350   -0.354   -0.358   -0.361   -0.366   -0.370   -0.374   -0.378   -0.382   -0.387   -0.391   -0.395   -0.400   -0.404   -0.410   -0.415   -0.420   -0.425   -0.430   -0.435   -0.441   -0.447   -0.457   -0.474   -0.488   -0.509   -0.533   -0.558   -0.595   -0.638   -0.703   -0.796   -0.944   -1.163   -1.459   -1.794   -2.146   -2.461   -2.691   -2.813   -2.834   -2.766   -2.623   -2.424   -2.204   -1.996   -1.834   -1.726   -1.667   -1.656   -1.677   -1.733   -1.826   -1.965   -2.160   -2.390   -2.646   -2.899   -3.123   -3.291   -3.471
  -0.410   -0.362   -0.351   -0.339   -0.331   -0.323   -0.318   -0.313   -0.309   -0.305   -0.302   -0.300   -0.298   -0.296   -0.295   -0.294   -0.294   -0.293   -0.293   -0.294   -0.294   -0.295   -0.296   -0.298   -0.299   -0.301   -0.303   -0.305   -0.307   -0.309   -0.312   -0.315   -0.318   -0.320   -0.324   -0.327   -0.330   -0.334   -0.337   -0.340   -0.344   -0.347   -0.351   -0.355   -0.358   -0.362   -0.366   -0.370   -0.374   -0.377   -0.382   -0.386   -0.390   -0.394   -0.399   -0.403   -0.408   -0.413   -0.418   -0.423   -0.428   -0.434   -0.439   -0.448   -0.455   -0.472   -0.480   -0.499   -0.515   -0.547   -0.597   -0.671   -0.788   -0.934   -1.113   -1.297   -1.459   -1.580   -1.641   -1.655   -1.614   -1.530   -1.422   -1.296   -1.184   -1.092   -1.041   -1.012   -1.007   -1.027   -1.076   -1.165   -1.305   -1.516   -1.785   -2.094   -2.405   -2.682   -2.893   -3.083
  -0.409   -0.361   -0.349   -0.338   -0.329   -0.322   -0.316   -0.312   -0.308   -0.304   -0.301   -0.299   -0.297   -0.295   -0.294   -0.293   -0.293   -0.292   -0.292   -0.292   -0.293   -0.293   -0.294   -0.295   -0.297   -0.298   -0.300   -0.301   -0.303   -0.306   -0.308   -0.310   -0.313   -0.315   -0.318   -0.321   -0.324   -0.327   -0.330   -0.333   -0.336   -0.340   -0.343   -0.346   -0.350   -0.353   -0.356   -0.360   -0.364   -0.367   -0.371   -0.375   -0.378   -0.382   -0.386   -0.390   -0.395   -0.399   -0.403   -0.408   -0.413   -0.418   -0.423   -0.428   -0.433   -0.438   -0.444   -0.453   -0.465   -0.481   -0.503   -0.537   -0.588   -0.649   -0.732   -0.812   -0.876   -0.934   -0.958   -0.964   -0.945   -0.915   -0.870   -0.818   -0.771   -0.737   -0.714   -0.702   -0.706   -0.727   -0.762   -0.836   -0.967   -1.174   -1.442   -1.758   -2.103   -2.433   -2.681   -2.883
  -0.410   -0.362   -0.350   -0.339   -0.330   -0.323   -0.318   -0.313   -0.309   -0.305   -0.303   -0.300   -0.298   -0.297   -0.295   -0.294   -0.294   -0.293   -0.293   -0.293   -0.293   -0.294   -0.295   -0.295   -0.296   -0.298   -0.299   -0.301   -0.302   -0.304   -0.306   -0.308   -0.311   -0.313   -0.315   -0.318   -0.320   -0.323   -0.326   -0.329   -0.332   -0.334   -0.337   -0.340   -0.344   -0.347   -0.350   -0.354   -0.357   -0.360   -0.364   -0.367   -0.370   -0.374   -0.378   -0.381   -0.385   -0.389   -0.393   -0.397   -0.402   -0.406   -0.411   -0.415   -0.420   -0.425   -0.430   -0.435   -0.440   -0.447   -0.460   -0.475   -0.496   -0.520   -0.550   -0.578   -0.606   -0.626   -0.633   -0.639   -0.641   -0.633   -0.621   -0.608   -0.596   -0.583   -0.576   -0.581   -0.585   -0.600   -0.626   -0.680   -0.782   -0.945   -1.177   -1.471   -1.808   -2.143   -2.417   -2.633
  -0.416   -0.363   -0.352   -0.341   -0.332   -0.325   -0.319   -0.314   -0.310   -0.307   -0.304   -0.302   -0.300   -0.298   -0.297   -0.296   -0.295   -0.294   -0.294   -0.294   -0.294   -0.295   -0.295   -0.296   -0.297   -0.298   -0.299   -0.300   -0.302   -0.303   -0.305   -0.307   -0.309   -0.311   -0.313   -0.315   -0.318   -0.320   -0.323   -0.325   -0.328   -0.330   -0.333   -0.336   -0.339   -0.342   -0.345   -0.348   -0.351   -0.354   -0.357   -0.361   -0.364   -0.367   -0.370   -0.374   -0.377   -0.381   -0.385   -0.388   -0.392   -0.396   -0.400   -0.405   -0.409   -0.413   -0.418   -0.422   -0.427   -0.432   -0.436   -0.443   -0.456   -0.467   -0.475   -0.490   -0.501   -0.506   -0.511   -0.516   -0.521   -0.527   -0.521   -0.521   -0.523   -0.525   -0.521   -0.523   -0.529   -0.542   -0.564   -0.600   -0.667   -0.787   -0.962   -1.218   -1.528   -1.859   -2.135   -2.362
  -0.531   -0.404   -0.389   -0.377   -0.368   -0.360   -0.354   -0.349   -0.345   -0.342   -0.339   -0.336   -0.334   -0.332   -0.331   -0.329   -0.329   -0.328   -0.327   -0.327   -0.327   -0.327   -0.328   -0.328   -0.329   -0.330   -0.331   -0.332   -0.333   -0.334   -0.336   -0.337   -0.339   -0.341   -0.343   -0.345   -0.347   -0.349   -0.352   -0.354   -0.356   -0.359   -0.361   -0.364   -0.367   -0.369   -0.372   -0.375   -0.378   -0.381   -0.384   -0.387   -0.391   -0.394   -0.397   -0.400   -0.404   -0.407   -0.411   -0.414   -0.418   -0.422   -0.426   -0.430   -0.434   -0.438   -0.443   -0.447   -0.451   -0.456   -0.461   -0.465   -0.470   -0.475   -0.482   -0.489   -0.506   -0.511   -0.516   -0.521   -0.526   -0.521   -0.521   -0.527   -0.529   -0.534   -0.539   -0.544   -0.549   -0.555   -0.576   -0.601   -0.653   -0.752   -0.904   -1.126   -1.422   -1.741   -2.024   -2.344
