DSAA
 100 100
 0.0 400.0
 0.0 400.0
 -186.0548 -0.3339452
 -20.156  -20.364  -20.672  -21.133  -21.754  -22.495  -23.282  -24.022  -24.587  -24.851  -24.685  -23.918  -22.420  -20.186  -17.432  -14.596  -12.223  -10.701  -10.112  -10.276  -10.953  -11.944  -13.166  -14.562  -16.018  -17.313  -18.172  -18.387  -17.910  -16.808  -15.185  -13.218  -11.156   -9.352   -8.133   -7.594   -7.599   -7.878   -8.177   -8.338   -8.319   -8.151   -7.910   -7.697   -7.567   -7.563   -7.681   -7.880   -8.107   -8.356   -8.627   -8.934   -9.246   -9.442   -9.340   -8.762   -7.617   -6.042   -4.333   -2.832   -1.751   -1.090   -0.735   -0.573   -0.513   -0.476   -0.466   -0.455   -0.447   -0.436   -0.430   -0.430   -0.431   -0.434   -0.437   -0.440   -0.432   -0.430   -0.435   -0.453   -0.466   -0.474   -0.486   -0.511   -0.546   -0.605   -0.696   -0.847   -1.083   -1.435   -1.951   -2.616   -3.430   -4.366   -5.454   -6.747   -8.232   -9.754  -11.014  -11.835
 -19.954  -20.132  -20.400  -20.797  -21.330  -21.977  -22.681  -23.340  -23.846  -24.082  -23.917  -23.203  -21.790  -19.669  -17.029  -14.295  -11.971  -10.442   -9.802   -9.896  -10.482  -11.390  -12.533  -13.860  -15.262  -16.534  -17.438  -17.781  -17.509  -16.650  -15.279  -13.503  -11.572   -9.818   -8.534   -7.832   -7.623   -7.705   -7.880   -7.990   -7.972   -7.836   -7.642   -7.468   -7.380   -7.404   -7.536   -7.736   -7.955   -8.187   -8.446   -8.744   -9.057   -9.287   -9.252   -8.775   -7.765   -6.316   -4.693   -3.212   -2.082   -1.345   -0.926   -0.713   -0.612   -0.565   -0.536   -0.514   -0.489   -0.469   -0.451   -0.435   -0.435   -0.432   -0.425   -0.427   -0.428   -0.433   -0.439   -0.447   -0.457   -0.480   -0.500   -0.547   -0.619   -0.741   -0.935   -1.231   -1.653   -2.249   -3.047   -4.037   -5.164   -6.383   -7.708   -9.166  -10.762  -12.341  -13.601  -14.349
 -19.388  -19.524  -19.708  -19.981  -20.345  -20.803  -21.320  -21.810  -22.178  -22.331  -22.160  -21.542  -20.339  -18.512  -16.205  -13.760  -11.613  -10.124   -9.404   -9.353   -9.760  -10.480  -11.437  -12.574  -13.799  -14.959  -15.877  -16.415  -16.501  -16.100  -15.206  -13.884  -12.301  -10.722   -9.395   -8.427   -7.813   -7.494   -7.382   -7.370   -7.370   -7.333   -7.279   -7.246   -7.289   -7.405   -7.564   -7.728   -7.871   -8.027   -8.211   -8.462   -8.749   -9.002   -9.068   -8.789   -8.059   -6.907   -5.514   -4.132   -2.966   -2.107   -1.558   -1.236   -1.068   -0.979   -0.915   -0.858   -0.789   -0.715   -0.665   -0.627   -0.606   -0.596   -0.591   -0.582   -0.577   -0.580   -0.587   -0.603   -0.629   -0.663   -0.717   -0.824   -1.005   -1.318   -1.778   -2.421   -3.271   -4.366   -5.716   -7.273   -8.922  -10.553  -12.151  -13.759  -15.382  -16.892  -18.058  -18.645
 -18.336  -18.413  -18.491  -18.598  -18.749  -18.971  -19.259  -19.547  -19.750  -19.793  -19.610  -19.105  -18.170  -16.754  -14.925  -12.918  -11.082   -9.717   -8.962   -8.762   -8.958   -9.433  -10.123  -10.983  -11.931  -12.875  -13.730  -14.406  -14.837  -14.937  -14.634  -13.920  -12.877  -11.654  -10.384   -9.164   -8.091   -7.279   -6.787   -6.601   -6.615   -6.756   -6.985   -7.288   -7.642   -7.971   -8.199   -8.279   -8.233   -8.154   -8.132   -8.218   -8.412   -8.643   -8.808   -8.759   -8.363   -7.612   -6.576   -5.421   -4.328   -3.420   -2.755   -2.328   -2.076   -1.939   -1.827   -1.709   -1.552   -1.388   -1.250   -1.166   -1.121   -1.101   -1.082   -1.055   -1.030   -1.020   -1.032   -1.075   -1.129   -1.208   -1.340   -1.570   -1.979   -2.638   -3.573   -4.782   -6.243   -7.959   -9.904  -11.974  -14.011  -15.875  -17.534  -19.060  -20.490  -21.768  -22.707  -23.064
 -16.716  -16.706  -16.664  -16.591  -16.522  -16.516  -16.583  -16.674  -16.721  -16.667  -16.472  -16.095  -15.463  -14.514  -13.251  -11.802  -10.397   -9.286   -8.589   -8.305   -8.327   -8.562   -8.950   -9.467  -10.056  -10.680  -11.338  -12.002  -12.636  -13.154  -13.460  -13.478  -13.154  -12.453  -11.355   -9.963   -8.480   -7.186   -6.300   -5.908   -5.939   -6.329   -6.992   -7.849   -8.746   -9.486   -9.883   -9.867   -9.515   -9.024   -8.606   -8.369   -8.330   -8.432   -8.603   -8.718   -8.649   -8.314   -7.715   -6.924   -6.055   -5.248   -4.583   -4.115   -3.837   -3.676   -3.543   -3.355   -3.089   -2.793   -2.550   -2.399   -2.332   -2.299   -2.260   -2.200   -2.145   -2.124   -2.152   -2.238   -2.360   -2.524   -2.770   -3.213   -3.963   -5.116   -6.654   -8.497  -10.564  -12.788  -15.103  -17.391  -19.463  -21.200  -22.606  -23.793  -24.844  -25.752  -26.393  -26.517
 -14.606  -14.503  -14.328  -14.079  -13.802  -13.587  -13.468  -13.409  -13.339  -13.214  -13.036  -12.793  -12.470  -12.003  -11.346  -10.522   -9.651   -8.906   -8.396   -8.134   -8.060   -8.105   -8.225   -8.395   -8.585   -8.818   -9.137   -9.606  -10.249  -11.053  -11.946  -12.792  -13.329  -13.268  -12.446  -10.962   -9.159   -7.462   -6.209   -5.563   -5.553   -6.166   -7.328   -8.863  -10.487  -11.820  -12.544  -12.533  -11.906  -10.975  -10.055   -9.336   -8.876   -8.672   -8.693   -8.844   -9.000   -9.027   -8.855   -8.474   -7.959   -7.398   -6.882   -6.493   -6.270   -6.152   -6.045   -5.841   -5.510   -5.129   -4.807   -4.617   -4.544   -4.518   -4.474   -4.395   -4.319   -4.291   -4.348   -4.493   -4.705   -4.994   -5.411   -6.108   -7.236   -8.866  -10.926  -13.241  -15.672  -18.120  -20.507  -22.686  -24.477  -25.780  -26.677  -27.340  -27.923  -28.440  -28.800  -28.744
 -12.336  -12.128  -11.817  -11.397  -10.943  -10.561  -10.307  -10.147  -10.018   -9.869   -9.714   -9.599   -9.563   -9.563   -9.510   -9.334   -9.047   -8.744   -8.516   -8.383   -8.306   -8.250   -8.177   -8.063   -7.895   -7.716   -7.624   -7.745   -8.209   -9.133  -10.532  -12.186  -13.595  -14.210  -13.739  -12.297  -10.335   -8.381   -6.816   -5.847   -5.621   -6.263   -7.772   -9.927  -12.278  -14.272  -15.470  -15.676  -15.021  -13.855  -12.545  -11.320  -10.308   -9.614   -9.309   -9.359   -9.610   -9.867  -10.001   -9.975   -9.808   -9.548   -9.266   -9.047   -8.957   -8.955   -8.949   -8.823   -8.538   -8.183   -7.883   -7.730   -7.701   -7.714   -7.699   -7.636   -7.569   -7.561   -7.656   -7.869   -8.187   -8.610   -9.206  -10.131  -11.525  -13.442  -15.741  -18.210  -20.694  -23.115  -25.375  -27.289  -28.637  -29.355  -29.599  -29.666  -29.769  -29.950  -30.086  -29.898
 -10.361  -10.053   -9.599   -9.013   -8.414   -7.927   -7.604   -7.411   -7.278   -7.133   -7.012   -7.007   -7.215   -7.628   -8.130   -8.565   -8.852   -9.011   -9.100   -9.146   -9.148   -9.073   -8.907   -8.612   -8.191   -7.678   -7.184   -6.883   -7.022   -7.861   -9.520  -11.727  -13.804  -15.019  -14.971  -13.806  -12.008  -10.082   -8.342   -6.988   -6.292   -6.609   -8.115  -10.587  -13.460  -16.038  -17.769  -18.395  -18.024  -16.975  -15.571  -14.023  -12.508  -11.272  -10.558  -10.413  -10.646  -10.986  -11.263  -11.418  -11.469  -11.437  -11.368  -11.326  -11.383  -11.534  -11.683  -11.724  -11.607  -11.393  -11.228  -11.189  -11.252  -11.337  -11.370  -11.355  -11.330  -11.363  -11.508  -11.786  -12.196  -12.734  -13.467  -14.520  -16.017  -17.959  -20.196  -22.526  -24.840  -27.094  -29.181  -30.820  -31.732  -31.844  -31.421  -30.887  -30.552  -30.448  -30.417  -30.142
  -9.100   -8.695   -8.085   -7.331   -6.617   -6.067   -5.746   -5.591   -5.496   -5.397   -5.320   -5.411   -5.826   -6.584   -7.544   -8.494   -9.278   -9.839  -10.219  -10.443  -10.531  -10.488  -10.295   -9.931   -9.374   -8.651   -7.845   -7.134   -6.839   -7.344   -8.870  -11.170  -13.523  -15.132  -15.583  -15.005  -13.806  -12.336  -10.695   -9.000   -7.640   -7.241   -8.277  -10.650  -13.730  -16.703  -18.899  -20.019  -20.119  -19.450  -18.239  -16.638  -14.856  -13.262  -12.254  -11.949  -12.116  -12.426  -12.668  -12.806  -12.884  -12.928  -12.962  -13.043  -13.229  -13.528  -13.856  -14.099  -14.201  -14.199  -14.215  -14.312  -14.466  -14.597  -14.653  -14.659  -14.677  -14.762  -14.962  -15.300  -15.781  -16.401  -17.202  -18.275  -19.707  -21.491  -23.473  -25.503  -27.535  -29.578  -31.488  -32.893  -33.429  -33.022  -32.016  -30.964  -30.248  -29.901  -29.730  -29.386
  -8.719   -8.211   -7.436   -6.508   -5.674   -5.104   -4.819   -4.741   -4.736   -4.717   -4.727   -4.953   -5.554   -6.583   -7.883   -9.207  -10.339  -11.189  -11.760  -12.102  -12.244  -12.221  -12.027  -11.651  -11.047  -10.212   -9.190   -8.134   -7.372   -7.325   -8.320  -10.208  -12.387  -14.154  -15.130  -15.393  -15.178  -14.550  -13.338  -11.491   -9.470   -8.169   -8.389  -10.278  -13.239  -16.353  -18.842  -20.342  -20.865  -20.612  -19.735  -18.326  -16.605  -15.002  -13.976  -13.655  -13.782  -13.989  -14.080  -14.059  -14.006  -13.975  -14.009  -14.148  -14.437  -14.872  -15.377  -15.824  -16.129  -16.313  -16.465  -16.648  -16.822  -16.910  -16.899  -16.845  -16.852  -16.980  -17.249  -17.663  -18.199  -18.849  -19.620  -20.590  -21.839  -23.355  -25.010  -26.684  -28.390  -30.185  -31.898  -33.092  -33.330  -32.539  -31.114  -29.685  -28.671  -28.098  -27.771  -27.377
  -9.125   -8.537   -7.594   -6.496   -5.553   -4.961   -4.722   -4.719   -4.802   -4.878   -5.035   -5.437   -6.252   -7.485   -8.985  -10.499  -11.811  -12.795  -13.441  -13.792  -13.923  -13.877  -13.668  -13.279  -12.663  -11.769  -10.598   -9.264   -8.060   -7.401   -7.640   -8.790  -10.471  -12.175  -13.610  -14.770  -15.664  -16.037  -15.454  -13.728  -11.297   -9.207   -8.561   -9.772  -12.359  -15.358  -17.886  -19.520  -20.255  -20.282  -19.740  -18.705  -17.366  -16.121  -15.363  -15.174  -15.286  -15.371  -15.281  -15.072  -14.843  -14.683  -14.655  -14.801  -15.163  -15.716  -16.373  -16.990  -17.454  -17.741  -17.927  -18.074  -18.148  -18.074  -17.868  -17.648  -17.572  -17.719  -18.073  -18.564  -19.126  -19.719  -20.343  -21.088  -22.045  -23.231  -24.532  -25.845  -27.218  -28.727  -30.204  -31.182  -31.205  -30.197  -28.570  -26.948  -25.732  -24.945  -24.435  -24.021
 -10.087   -9.448   -8.390   -7.170   -6.144   -5.511   -5.281   -5.301   -5.411   -5.588   -5.916   -6.553   -7.585   -8.965  -10.529  -12.058  -13.360  -14.315  -14.900  -15.160  -15.195  -15.063  -14.794  -14.372  -13.732  -12.790  -11.518   -9.987   -8.434   -7.240   -6.772   -7.155   -8.246   -9.743  -11.464  -13.319  -15.116  -16.348  -16.418  -15.020  -12.552  -10.068   -8.792   -9.342  -11.406  -14.055  -16.376  -17.903  -18.636  -18.794  -18.554  -18.007  -17.277  -16.643  -16.329  -16.336  -16.437  -16.405  -16.190  -15.858  -15.519  -15.264  -15.167  -15.299  -15.680  -16.295  -17.038  -17.745  -18.266  -18.545  -18.643  -18.621  -18.469  -18.126  -17.633  -17.174  -16.963  -17.104  -17.511  -18.040  -18.558  -18.989  -19.357  -19.764  -20.357  -21.176  -22.133  -23.119  -24.180  -25.384  -26.589  -27.355  -27.253  -26.224  -24.639  -23.031  -21.730  -20.763  -20.069  -19.646
 -11.304  -10.680   -9.604   -8.358   -7.291   -6.606   -6.303   -6.249   -6.336   -6.577   -7.091   -7.979   -9.220  -10.687  -12.196  -13.593  -14.724  -15.502  -15.897  -15.968  -15.819  -15.540  -15.165  -14.672  -13.985  -13.015  -11.691  -10.055   -8.312   -6.801   -5.865   -5.720   -6.340   -7.590   -9.342  -11.485  -13.719  -15.450  -16.014  -15.073  -12.922  -10.503   -8.977   -9.036  -10.543  -12.708  -14.675  -15.980  -16.624  -16.847  -16.882  -16.837  -16.780  -16.805  -16.944  -17.124  -17.199  -17.097  -16.853  -16.551  -16.244  -15.979  -15.847  -15.931  -16.259  -16.809  -17.476  -18.103  -18.543  -18.700  -18.602  -18.319  -17.873  -17.233  -16.458  -15.764  -15.406  -15.473  -15.844  -16.313  -16.686  -16.884  -16.933  -16.982  -17.209  -17.706  -18.384  -19.127  -19.937  -20.863  -21.777  -22.336  -22.198  -21.324  -19.993  -18.591  -17.331  -16.256  -15.430  -15.003
 -12.482  -11.920  -10.939   -9.770   -8.716   -7.967   -7.525   -7.333   -7.340   -7.627   -8.310   -9.435  -10.850  -12.356  -13.756  -14.927  -15.787  -16.281  -16.393  -16.198  -15.805  -15.325  -14.802  -14.203  -13.462  -12.478  -11.169   -9.559   -7.818   -6.262   -5.219   -4.887   -5.282   -6.295   -7.826   -9.771  -11.892  -13.673  -14.509  -14.049  -12.464  -10.473   -9.048   -8.849   -9.883  -11.566  -13.187  -14.302  -14.894  -15.183  -15.423  -15.756  -16.211  -16.732  -17.191  -17.457  -17.485  -17.363  -17.220  -17.103  -16.970  -16.803  -16.680  -16.695  -16.883  -17.210  -17.608  -17.967  -18.160  -18.084  -17.735  -17.181  -16.476  -15.630  -14.698  -13.877  -13.397  -13.335  -13.566  -13.850  -14.000  -13.937  -13.705  -13.475  -13.453  -13.743  -14.268  -14.895  -15.561  -16.254  -16.884  -17.225  -17.078  -16.421  -15.434  -14.318  -13.190  -12.120  -11.256  -10.847
 -13.314  -12.864  -12.042  -11.031  -10.038   -9.215   -8.633   -8.287   -8.224   -8.563   -9.409  -10.709  -12.242  -13.741  -15.014  -15.962  -16.550  -16.748  -16.560  -16.070  -15.408  -14.705  -14.008  -13.307  -12.520  -11.556  -10.345   -8.902   -7.369   -6.031   -5.182   -4.976   -5.361   -6.154   -7.251   -8.614  -10.159  -11.584  -12.442  -12.387  -11.443  -10.053   -8.942   -8.698   -9.445  -10.810  -12.221  -13.271  -13.880  -14.200  -14.495  -14.953  -15.604  -16.321  -16.885  -17.129  -17.088  -16.974  -16.995  -17.141  -17.259  -17.251  -17.161  -17.101  -17.113  -17.151  -17.176  -17.153  -17.010  -16.658  -16.067  -15.310  -14.483  -13.616  -12.752  -11.997  -11.507  -11.341  -11.381  -11.439  -11.346  -11.061  -10.653  -10.290  -10.160  -10.361  -10.831  -11.422  -11.999  -12.491  -12.838  -12.931  -12.700  -12.176  -11.444  -10.574   -9.622   -8.663   -7.871   -7.528
 -13.558  -13.220  -12.584  -11.749  -10.856  -10.024   -9.345   -8.922   -8.859   -9.282  -10.246  -11.639  -13.205  -14.659  -15.822  -16.619  -17.019  -17.005  -16.597  -15.885  -15.014  -14.121  -13.281  -12.486  -11.692  -10.809   -9.783   -8.624   -7.451   -6.502   -6.030   -6.124   -6.600   -7.186   -7.732   -8.297   -8.991   -9.774  -10.402  -10.561  -10.119   -9.288   -8.557   -8.438   -9.124  -10.392  -11.771  -12.864  -13.508  -13.798  -13.978  -14.298  -14.840  -15.471  -15.932  -16.050  -15.897  -15.762  -15.886  -16.228  -16.543  -16.653  -16.591  -16.480  -16.360  -16.180  -15.913  -15.579  -15.165  -14.603  -13.860  -13.041  -12.265  -11.607  -11.050  -10.608  -10.321  -10.189  -10.112   -9.966   -9.663   -9.211   -8.711   -8.300   -8.120   -8.240   -8.615   -9.102   -9.531   -9.801   -9.850   -9.660   -9.258   -8.723   -8.097   -7.404   -6.649   -5.885   -5.269   -5.033
 -13.074  -12.809  -12.329  -11.668  -10.905  -10.141   -9.500   -9.117   -9.146   -9.683  -10.724  -12.123  -13.622  -14.999  -16.096  -16.839  -17.188  -17.127  -16.659  -15.882  -14.928  -13.950  -13.041  -12.226  -11.467  -10.726   -9.943   -9.120   -8.350   -7.832   -7.760   -8.138   -8.698   -9.070   -9.076   -8.837   -8.637   -8.662   -8.832   -8.913   -8.694   -8.229   -7.839   -7.942   -8.746  -10.093  -11.561  -12.735  -13.393  -13.577  -13.542  -13.585  -13.854  -14.240  -14.491  -14.425  -14.132  -13.894  -13.962  -14.292  -14.617  -14.727  -14.648  -14.522  -14.385  -14.189  -13.878  -13.477  -12.996  -12.390  -11.653  -10.918  -10.353  -10.057   -9.995  -10.061  -10.176  -10.241  -10.153   -9.830   -9.304   -8.681   -8.088   -7.628   -7.367   -7.318   -7.448   -7.663   -7.817   -7.802   -7.559   -7.115   -6.543   -5.945   -5.381   -4.832   -4.287   -3.776   -3.387   -3.274
 -11.902  -11.671  -11.283  -10.760  -10.146   -9.539   -9.058   -8.847   -9.041   -9.704  -10.767  -12.090  -13.467  -14.745  -15.812  -16.608  -17.059  -17.119  -16.785  -16.133  -15.274  -14.355  -13.484  -12.713  -12.053  -11.473  -10.927  -10.394   -9.952   -9.756   -9.953  -10.488  -11.038  -11.204  -10.786   -9.944   -9.036   -8.353   -7.965   -7.726   -7.459   -7.155   -7.034   -7.405   -8.411   -9.902  -11.463  -12.662  -13.245  -13.251  -12.951  -12.686  -12.648  -12.768  -12.814  -12.603  -12.186  -11.797  -11.661  -11.758  -11.877  -11.853  -11.716  -11.624  -11.619  -11.641  -11.591  -11.433  -11.138  -10.680  -10.096   -9.555   -9.259   -9.346   -9.774  -10.364  -10.899  -11.165  -11.021  -10.466   -9.653   -8.804   -8.103   -7.596   -7.237   -6.964   -6.765   -6.598   -6.415   -6.111   -5.648   -5.052   -4.412   -3.832   -3.361   -2.971   -2.650   -2.381   -2.190   -2.182
 -10.323  -10.072   -9.715   -9.265   -8.804   -8.408   -8.170   -8.207   -8.602   -9.359  -10.386  -11.564  -12.774  -13.939  -15.007  -15.921  -16.583  -16.915  -16.885  -16.522  -15.921  -15.202  -14.476  -13.818  -13.274  -12.829  -12.437  -12.074  -11.791  -11.723  -11.979  -12.479  -12.913  -12.900  -12.253  -11.115   -9.827   -8.700   -7.858   -7.264   -6.848   -6.627   -6.759   -7.414   -8.640  -10.232  -11.776  -12.837  -13.188  -12.879  -12.220  -11.598  -11.246  -11.122  -11.009  -10.727  -10.262   -9.764   -9.399   -9.197   -9.032   -8.832   -8.661   -8.679   -8.940   -9.373   -9.801  -10.090  -10.145   -9.953   -9.599   -9.264   -9.177   -9.493  -10.186  -11.050  -11.765  -12.041  -11.708  -10.836   -9.702   -8.648   -7.864   -7.346   -6.939   -6.517   -6.051   -5.586   -5.126   -4.635   -4.075   -3.474   -2.899   -2.440   -2.116   -1.894   -1.739   -1.650   -1.606   -1.674
  -8.838   -8.529   -8.119   -7.678   -7.321   -7.130   -7.161   -7.442   -8.000   -8.779   -9.689  -10.656  -11.649  -12.672  -13.729  -14.779  -15.703  -16.395  -16.771  -16.827  -16.604  -16.190  -15.690  -15.193  -14.758  -14.375  -14.016  -13.652  -13.339  -13.198  -13.304  -13.595  -13.816  -13.655  -12.962  -11.835  -10.546   -9.343   -8.353   -7.630   -7.204   -7.170   -7.622   -8.607  -10.042  -11.648  -13.005  -13.718  -13.609  -12.788  -11.619  -10.529   -9.784   -9.369   -9.095   -8.769   -8.328   -7.812   -7.339   -6.946   -6.609   -6.331   -6.212   -6.429   -7.048   -7.956   -8.910   -9.666  -10.091  -10.178  -10.036   -9.852   -9.835  -10.133  -10.755  -11.513  -12.066  -12.094  -11.441  -10.253   -8.892   -7.738   -6.970   -6.503   -6.113   -5.649   -5.079   -4.482   -3.918   -3.389   -2.884   -2.407   -2.009   -1.726   -1.559   -1.474   -1.444   -1.456   -1.492   -1.596
  -8.022   -7.626   -7.101   -6.584   -6.260   -6.218   -6.445   -6.897   -7.508   -8.197   -8.891   -9.561  -10.261  -11.074  -12.055  -13.190  -14.362  -15.423  -16.255  -16.798  -17.033  -17.009  -16.798  -16.488  -16.137  -15.750  -15.302  -14.801  -14.303  -13.914  -13.718  -13.677  -13.624  -13.340  -12.716  -11.815  -10.816   -9.878   -9.099   -8.578   -8.427   -8.768   -9.642  -11.001  -12.631  -14.185  -15.237  -15.453  -14.739  -13.272  -11.479   -9.810   -8.568   -7.774   -7.264   -6.854   -6.430   -5.964   -5.503   -5.084   -4.750   -4.541   -4.596   -5.075   -6.042   -7.352   -8.715   -9.827  -10.534  -10.836  -10.864  -10.778  -10.732  -10.838  -11.123  -11.468  -11.589  -11.205  -10.217   -8.824   -7.398   -6.288   -5.602   -5.210   -4.870   -4.442   -3.902   -3.348   -2.842   -2.417   -2.058   -1.773   -1.588   -1.502   -1.475   -1.483   -1.523   -1.585   -1.654   -1.770
  -8.249   -7.767   -7.090   -6.443   -6.078   -6.079   -6.389   -6.868   -7.395   -7.863   -8.224   -8.501   -8.817   -9.329  -10.137  -11.248  -12.566  -13.940  -15.221  -16.268  -17.006  -17.429  -17.566  -17.474  -17.203  -16.763  -16.167  -15.444  -14.672  -13.955  -13.385  -12.960  -12.613  -12.211  -11.693  -11.097  -10.516  -10.038   -9.723   -9.659   -9.973  -10.781  -12.088  -13.768  -15.535  -17.003  -17.754  -17.514  -16.253  -14.229  -11.890   -9.699   -7.960   -6.746   -5.941   -5.371   -4.899   -4.463   -4.051   -3.706   -3.468   -3.426   -3.696   -4.432   -5.653   -7.197   -8.759  -10.033  -10.877  -11.323  -11.498  -11.516  -11.445  -11.344  -11.237  -11.066  -10.666   -9.860   -8.630   -7.176   -5.828   -4.833   -4.227   -3.864   -3.549   -3.184   -2.753   -2.336   -1.991   -1.728   -1.551   -1.470   -1.475   -1.539   -1.615   -1.678   -1.741   -1.824   -1.908   -2.020
  -9.429   -8.895   -8.103   -7.333   -6.886   -6.860   -7.140   -7.521   -7.836   -7.964   -7.903   -7.711   -7.586   -7.710   -8.239   -9.206  -10.536  -12.097  -13.721  -15.229  -16.469  -17.355  -17.869  -18.024  -17.853  -17.377  -16.629  -15.680  -14.624  -13.578  -12.645  -11.875  -11.255  -10.739  -10.306   -9.979   -9.814   -9.833  -10.043  -10.488  -11.253  -12.415  -13.967  -15.768  -17.527  -18.863  -19.382  -18.860  -17.330  -15.076  -12.532  -10.112   -8.097   -6.573   -5.486   -4.717   -4.129   -3.654   -3.266   -2.987   -2.869   -2.991   -3.458   -4.354   -5.666   -7.220   -8.739   -9.959  -10.788  -11.284  -11.584  -11.740  -11.730  -11.520  -11.118  -10.520   -9.690   -8.581   -7.239   -5.843   -4.624   -3.725   -3.146   -2.771   -2.476   -2.178   -1.889   -1.638   -1.460   -1.367   -1.345   -1.410   -1.537   -1.675   -1.789   -1.850   -1.906   -1.981   -2.053   -2.161
 -11.036  -10.522   -9.709   -8.900   -8.421   -8.360   -8.568   -8.788   -8.826   -8.571   -8.051   -7.400   -6.827   -6.569   -6.771   -7.491   -8.682  -10.258  -12.061  -13.888  -15.523  -16.807  -17.660  -18.059  -18.017  -17.558  -16.727  -15.616  -14.338  -13.035  -11.828  -10.802   -9.992   -9.386   -9.003   -8.871   -9.031   -9.466  -10.113  -10.942  -11.952  -13.202  -14.683  -16.308  -17.836  -18.927  -19.255  -18.652  -17.187  -15.137  -12.860  -10.665   -8.728   -7.139   -5.901   -4.955   -4.234   -3.693   -3.295   -3.069   -3.047   -3.290   -3.855   -4.771   -5.981   -7.325   -8.568   -9.530  -10.176  -10.620  -10.984  -11.282  -11.382  -11.162  -10.605   -9.756   -8.678   -7.432   -6.110   -4.855   -3.777   -2.962   -2.408   -2.034   -1.771   -1.571   -1.417   -1.316   -1.283   -1.313   -1.410   -1.549   -1.715   -1.853   -1.925   -1.939   -1.940   -1.974   -2.025   -2.120
 -12.525  -12.091  -11.388  -10.681  -10.266  -10.210  -10.354  -10.424  -10.203   -9.612   -8.724   -7.705   -6.793   -6.219   -6.133   -6.573   -7.537   -8.957  -10.722  -12.626  -14.424  -15.915  -16.971  -17.554  -17.640  -17.250  -16.422  -15.252  -13.869  -12.417  -11.055   -9.893   -8.985   -8.349   -8.005   -8.002   -8.378   -9.085  -10.007  -11.018  -12.052  -13.124  -14.264  -15.440  -16.504  -17.214  -17.352  -16.808  -15.676  -14.180  -12.553  -10.952   -9.437   -8.048   -6.823   -5.803   -4.999   -4.404   -4.012   -3.827   -3.865   -4.141   -4.680   -5.455   -6.392   -7.337   -8.142   -8.698   -9.046   -9.334   -9.683  -10.048  -10.230  -10.043   -9.441   -8.513   -7.388   -6.197   -5.042   -4.003   -3.128   -2.436   -1.942   -1.616   -1.425   -1.329   -1.287   -1.306   -1.374   -1.494   -1.650   -1.819   -1.965   -2.042   -2.025   -1.944   -1.863   -1.835   -1.851   -1.942
 -13.589  -13.289  -12.800  -12.325  -12.060  -12.061  -12.177  -12.150  -11.769  -10.977   -9.876   -8.662   -7.574   -6.828   -6.554   -6.774   -7.480   -8.629  -10.137  -11.827  -13.480  -14.892  -15.934  -16.552  -16.719  -16.416  -15.665  -14.538  -13.155  -11.674  -10.267   -9.067   -8.149   -7.535   -7.251   -7.342   -7.837   -8.673   -9.693  -10.715  -11.631  -12.415  -13.111  -13.745  -14.258  -14.544  -14.493  -14.092  -13.420  -12.622  -11.784  -10.911   -9.957   -8.919   -7.852   -6.854   -6.026   -5.419   -5.038   -4.873   -4.896   -5.101   -5.476   -5.966   -6.496   -6.963   -7.275   -7.406   -7.432   -7.527   -7.785   -8.130   -8.321   -8.159   -7.606   -6.761   -5.791   -4.830   -3.967   -3.227   -2.603   -2.103   -1.732   -1.498   -1.393   -1.374   -1.412   -1.496   -1.625   -1.789   -1.969   -2.132   -2.232   -2.227   -2.114   -1.927   -1.757   -1.665   -1.652   -1.730
 -14.236  -14.088  -13.879  -13.688  -13.633  -13.730  -13.851  -13.786  -13.355  -12.525  -11.387  -10.157   -9.053   -8.278   -7.926   -8.012   -8.491   -9.325  -10.422  -11.658  -12.876  -13.930  -14.725  -15.220  -15.372  -15.138  -14.499  -13.482  -12.187  -10.773   -9.412   -8.244   -7.364   -6.798   -6.568   -6.713   -7.237   -8.073   -9.049   -9.988  -10.749  -11.301  -11.662  -11.883  -11.980  -11.959  -11.831  -11.639  -11.430  -11.249  -11.059  -10.786  -10.319   -9.615   -8.734   -7.806   -6.973   -6.337   -5.917   -5.675   -5.587   -5.617   -5.730   -5.865   -5.976   -6.008   -5.919   -5.739   -5.551   -5.497   -5.654   -5.916   -6.076   -5.950   -5.525   -4.902   -4.234   -3.629   -3.128   -2.715   -2.352   -2.045   -1.810   -1.679   -1.640   -1.670   -1.745   -1.848   -1.979   -2.138   -2.292   -2.398   -2.429   -2.348   -2.164   -1.919   -1.700   -1.577   -1.534   -1.610
 -14.587  -14.600  -14.662  -14.774  -14.935  -15.134  -15.286  -15.231  -14.842  -14.086  -13.047  -11.910  -10.886  -10.152   -9.788   -9.784  -10.092  -10.615  -11.252  -11.929  -12.559  -13.090  -13.501  -13.767  -13.828  -13.625  -13.094  -12.225  -11.087   -9.819   -8.570   -7.480   -6.643   -6.092   -5.861   -5.977   -6.434   -7.158   -8.001   -8.809   -9.456   -9.894  -10.119  -10.182  -10.138  -10.075  -10.065  -10.155  -10.341  -10.584  -10.788  -10.843  -10.652  -10.152   -9.381   -8.479   -7.604   -6.871   -6.317   -5.909   -5.613   -5.404   -5.235   -5.071   -4.874   -4.634   -4.354   -4.069   -3.843   -3.764   -3.867   -4.056   -4.184   -4.136   -3.899   -3.570   -3.245   -2.992   -2.813   -2.657   -2.503   -2.351   -2.241   -2.201   -2.224   -2.288   -2.368   -2.453   -2.529   -2.584   -2.615   -2.605   -2.538   -2.399   -2.195   -1.961   -1.760   -1.649   -1.609   -1.676
 -14.757  -14.899  -15.196  -15.564  -15.916  -16.205  -16.376  -16.338  -16.016  -15.383  -14.502  -13.518  -12.610  -11.918  -11.531  -11.444  -11.578  -11.816  -12.042  -12.190  -12.258  -12.286  -12.310  -12.340  -12.312  -12.137  -11.722  -11.030  -10.111   -9.061   -7.996   -7.006   -6.181   -5.577   -5.245   -5.213   -5.482   -5.998   -6.635   -7.274   -7.828   -8.232   -8.473   -8.590   -8.656   -8.789   -9.071   -9.503  -10.021  -10.518  -10.896  -11.065  -10.948  -10.492   -9.730   -8.785   -7.820   -6.952   -6.207   -5.584   -5.063   -4.640   -4.269   -3.934   -3.616   -3.329   -3.075   -2.871   -2.751   -2.763   -2.888   -3.076   -3.221   -3.275   -3.236   -3.151   -3.082   -3.069   -3.083   -3.081   -3.050   -3.024   -3.050   -3.121   -3.229   -3.341   -3.426   -3.458   -3.408   -3.273   -3.092   -2.873   -2.658   -2.457   -2.272   -2.106   -1.980   -1.922   -1.911   -1.991
 -14.786  -15.012  -15.467  -16.009  -16.478  -16.802  -16.947  -16.888  -16.603  -16.080  -15.358  -14.536  -13.740  -13.091  -12.657  -12.454  -12.404  -12.383  -12.272  -12.025  -11.693  -11.364  -11.129  -11.012  -10.957  -10.855  -10.602  -10.153   -9.529   -8.786   -7.968   -7.125   -6.308   -5.581   -5.026   -4.717   -4.683   -4.889   -5.240   -5.660   -6.081   -6.447   -6.738   -6.987   -7.274   -7.703   -8.328   -9.084   -9.858  -10.513  -10.956  -11.132  -10.989  -10.499   -9.687   -8.683   -7.636   -6.659   -5.783   -5.011   -4.351   -3.802   -3.361   -3.013   -2.748   -2.571   -2.474   -2.444   -2.495   -2.623   -2.828   -3.055   -3.265   -3.434   -3.545   -3.605   -3.653   -3.720   -3.786   -3.831   -3.878   -3.980   -4.170   -4.418   -4.673   -4.870   -4.972   -4.935   -4.717   -4.338   -3.858   -3.380   -2.972   -2.674   -2.489   -2.380   -2.339   -2.351   -2.394   -2.496
 -14.676  -14.947  -15.482  -16.091  -16.579  -16.850  -16.883  -16.716  -16.386  -15.907  -15.309  -14.639  -13.974  -13.381  -12.914  -12.588  -12.345  -12.097  -11.748  -11.269  -10.736  -10.254   -9.920   -9.779   -9.780   -9.831   -9.824   -9.708   -9.477   -9.138   -8.661   -8.037   -7.254   -6.378   -5.533   -4.849   -4.411   -4.217   -4.212   -4.337   -4.555   -4.826   -5.123   -5.470   -5.939   -6.604   -7.467   -8.433   -9.351  -10.084  -10.558  -10.725  -10.544  -10.013   -9.175   -8.155   -7.105   -6.139   -5.280   -4.518   -3.866   -3.339   -2.950   -2.705   -2.592   -2.597   -2.681   -2.814   -2.993   -3.221   -3.480   -3.755   -4.034   -4.291   -4.472   -4.565   -4.598   -4.621   -4.651   -4.695   -4.809   -5.067   -5.476   -5.967   -6.419   -6.740   -6.877   -6.773   -6.396   -5.780   -5.012   -4.251   -3.603   -3.134   -2.871   -2.756   -2.747   -2.799   -2.880   -3.004
 -14.475  -14.755  -15.301  -15.888  -16.298  -16.407  -16.221  -15.836  -15.355  -14.831  -14.297  -13.760  -13.241  -12.745  -12.292  -11.881  -11.489  -11.071  -10.589  -10.032   -9.464   -8.984   -8.685   -8.606   -8.728   -8.981   -9.293   -9.596   -9.853  -10.004   -9.960   -9.624   -8.943   -7.967   -6.859   -5.802   -4.944   -4.320   -3.917   -3.700   -3.658   -3.776   -4.016   -4.383   -4.917   -5.644   -6.541   -7.502   -8.397   -9.111   -9.564   -9.722   -9.541   -9.019   -8.217   -7.270   -6.334   -5.515   -4.839   -4.263   -3.777   -3.410   -3.188   -3.121   -3.208   -3.385   -3.613   -3.843   -4.083   -4.330   -4.592   -4.873   -5.175   -5.446   -5.610   -5.644   -5.570   -5.489   -5.450   -5.497   -5.702   -6.150   -6.814   -7.575   -8.245   -8.704   -8.882   -8.737   -8.255   -7.458   -6.467   -5.440   -4.529   -3.837   -3.392   -3.157   -3.094   -3.132   -3.221   -3.354
 -14.290  -14.556  -15.073  -15.583  -15.843  -15.707  -15.211  -14.506  -13.764  -13.108  -12.564  -12.125  -11.750  -11.384  -10.998  -10.572  -10.108   -9.617   -9.100   -8.573   -8.075   -7.681   -7.460   -7.465   -7.706   -8.169   -8.810   -9.565  -10.345  -11.030  -11.450  -11.460  -10.967  -10.013   -8.766   -7.452   -6.268   -5.289   -4.526   -3.989   -3.697   -3.648   -3.800   -4.112   -4.577   -5.179   -5.876   -6.592   -7.245   -7.779   -8.128   -8.254   -8.092   -7.639   -6.957   -6.177   -5.457   -4.899   -4.516   -4.252   -4.077   -3.977   -4.002   -4.170   -4.447   -4.771   -5.080   -5.340   -5.558   -5.756   -5.963   -6.194   -6.433   -6.637   -6.702   -6.602   -6.400   -6.213   -6.130   -6.215   -6.541   -7.181   -8.081   -9.073   -9.927  -10.498  -10.714  -10.547  -10.001   -9.099   -7.953   -6.710   -5.550   -4.612   -3.953   -3.553   -3.366   -3.346   -3.414   -3.552
 -14.214  -14.464  -14.940  -15.357  -15.439  -15.036  -14.195  -13.111  -12.041  -11.162  -10.542  -10.149   -9.893   -9.661   -9.376   -9.008   -8.564   -8.090   -7.627   -7.188   -6.795   -6.497   -6.339   -6.402   -6.723   -7.337   -8.247   -9.397  -10.654  -11.819  -12.676  -13.040  -12.811  -12.013  -10.810   -9.439   -8.106   -6.918   -5.927   -5.176   -4.713   -4.538   -4.596   -4.805   -5.101   -5.424   -5.731   -5.999   -6.216   -6.398   -6.531   -6.556   -6.412   -6.075   -5.585   -5.060   -4.632   -4.406   -4.386   -4.501   -4.683   -4.914   -5.227   -5.634   -6.082   -6.499   -6.820   -7.040   -7.197   -7.320   -7.436   -7.572   -7.710   -7.799   -7.735   -7.505   -7.194   -6.942   -6.864   -7.018   -7.465   -8.239   -9.268  -10.360  -11.287  -11.875  -12.067  -11.867  -11.280  -10.319   -9.076   -7.690   -6.364   -5.257   -4.431   -3.890   -3.600   -3.511   -3.566   -3.706
 -14.245  -14.493  -14.940  -15.282  -15.217  -14.582  -13.424  -11.973  -10.552   -9.415   -8.668   -8.270   -8.089   -7.967   -7.789   -7.517   -7.166   -6.788   -6.426   -6.094   -5.800   -5.570   -5.459   -5.537   -5.877   -6.563   -7.632   -9.043  -10.644  -12.176  -13.390  -14.077  -14.136  -13.598  -12.601  -11.348  -10.050   -8.841   -7.792   -6.974   -6.443   -6.198   -6.171   -6.243   -6.301   -6.260   -6.089   -5.805   -5.487   -5.219   -5.049   -4.921   -4.779   -4.564   -4.303   -4.079   -3.992   -4.125   -4.481   -4.980   -5.532   -6.095   -6.675   -7.274   -7.828   -8.267   -8.553   -8.714   -8.794   -8.844   -8.894   -8.953   -9.008   -8.991   -8.841   -8.544   -8.201   -7.962   -7.926   -8.136   -8.622   -9.387  -10.347  -11.335  -12.133  -12.588  -12.661  -12.369  -11.725  -10.737   -9.463   -8.044   -6.692   -5.561   -4.709   -4.132   -3.804   -3.711   -3.765   -3.919
 -14.222  -14.471  -14.915  -15.233  -15.084  -14.296  -12.905  -11.168   -9.442   -8.055   -7.161   -6.731   -6.591   -6.555   -6.478   -6.322   -6.100   -5.852   -5.609   -5.381   -5.164   -4.979   -4.895   -4.969   -5.284   -5.942   -7.039   -8.566  -10.355  -12.123  -13.583  -14.529  -14.869  -14.622  -13.899  -12.879  -11.747  -10.657   -9.702   -8.946   -8.438   -8.156   -8.027   -7.930   -7.718   -7.299   -6.656   -5.851   -5.036   -4.353   -3.888   -3.618   -3.463   -3.358   -3.308   -3.366   -3.617   -4.103   -4.801   -5.638   -6.512   -7.354   -8.144   -8.855   -9.439   -9.846  -10.073  -10.173  -10.202  -10.224  -10.253  -10.284  -10.303  -10.262  -10.114   -9.857   -9.581   -9.403   -9.407   -9.609  -10.000  -10.556  -11.216  -11.852  -12.312  -12.480  -12.327  -11.885  -11.168  -10.183   -8.973   -7.672   -6.458   -5.470   -4.740   -4.250   -3.984   -3.925   -4.005   -4.185
 -13.819  -14.083  -14.547  -14.875  -14.722  -13.888  -12.388  -10.481   -8.564   -6.995   -5.993   -5.530   -5.414   -5.436   -5.447   -5.398   -5.315   -5.218   -5.092   -4.950   -4.791   -4.650   -4.587   -4.645   -4.902   -5.475   -6.502   -8.008   -9.850  -11.720  -13.327  -14.460  -15.022  -15.035  -14.579  -13.812  -12.911  -12.024  -11.250  -10.637  -10.190   -9.885   -9.644   -9.356   -8.880   -8.114   -7.076   -5.879   -4.720   -3.789   -3.177   -2.842   -2.698   -2.679   -2.777   -3.047   -3.559   -4.314   -5.286   -6.378   -7.489   -8.530   -9.443  -10.191  -10.739  -11.087  -11.262  -11.327  -11.347  -11.370  -11.416  -11.470  -11.509  -11.499  -11.424  -11.275  -11.116  -11.022  -11.040  -11.158  -11.338  -11.544  -11.728  -11.849  -11.828  -11.605  -11.166  -10.553   -9.770   -8.838   -7.799   -6.750   -5.824   -5.106   -4.601   -4.276   -4.112   -4.122   -4.239   -4.437
 -12.748  -13.007  -13.495  -13.879  -13.788  -13.007  -11.531   -9.615   -7.659   -6.048   -5.011   -4.537   -4.433   -4.482   -4.546   -4.587   -4.623   -4.638   -4.622   -4.556   -4.460   -4.371   -4.325   -4.367   -4.559   -5.035   -5.947   -7.347   -9.119  -10.976  -12.628  -13.860  -14.571  -14.772  -14.536  -13.999  -13.337  -12.687  -12.133  -11.683  -11.311  -10.981  -10.629  -10.164   -9.455   -8.427   -7.124   -5.712   -4.423   -3.458   -2.876   -2.606   -2.533   -2.582   -2.772   -3.164   -3.812   -4.721   -5.833   -7.056   -8.286   -9.427  -10.385  -11.110  -11.590  -11.873  -12.009  -12.061  -12.084  -12.126  -12.201  -12.290  -12.363  -12.412  -12.422  -12.391  -12.344  -12.305  -12.305  -12.306  -12.248  -12.080  -11.781  -11.372  -10.856  -10.239   -9.537   -8.779   -7.984   -7.173   -6.376   -5.645   -5.059   -4.647   -4.391   -4.258   -4.227   -4.304   -4.465   -4.675
 -10.964  -11.189  -11.685  -12.125  -12.146  -11.513  -10.199   -8.433   -6.609   -5.106   -4.136   -3.687   -3.581   -3.618   -3.697   -3.776   -3.863   -3.950   -4.005   -4.014   -3.981   -3.958   -3.948   -3.992   -4.150   -4.548   -5.334   -6.577   -8.172   -9.898  -11.488  -12.725  -13.504  -13.815  -13.729  -13.391  -12.955  -12.549  -12.210  -11.916  -11.619  -11.263  -10.812  -10.195   -9.328   -8.152   -6.743   -5.303   -4.084   -3.259   -2.844   -2.734   -2.786   -2.924   -3.168   -3.599   -4.275   -5.185   -6.290   -7.497   -8.718   -9.847  -10.769  -11.427  -11.826  -12.045  -12.143  -12.180  -12.200  -12.255  -12.344  -12.452  -12.553  -12.645  -12.715  -12.760  -12.776  -12.764  -12.728  -12.624  -12.386  -11.942  -11.290  -10.489   -9.618   -8.730   -7.865   -7.055   -6.315   -5.670   -5.129   -4.707   -4.426   -4.271   -4.231   -4.265   -4.362   -4.526   -4.721   -4.960
  -8.756   -8.923   -9.399   -9.872  -10.021   -9.593   -8.542   -7.063   -5.517   -4.250   -3.430   -3.033   -2.908   -2.907   -2.942   -3.004   -3.092   -3.190   -3.279   -3.351   -3.403   -3.458   -3.518   -3.607   -3.778   -4.135   -4.804   -5.838   -7.178   -8.660  -10.069  -11.215  -11.971  -12.316  -12.320  -12.132  -11.896  -11.709  -11.559  -11.397  -11.152  -10.778  -10.259   -9.557   -8.615   -7.425   -6.075   -4.772   -3.747   -3.146   -2.948   -3.019   -3.210   -3.440   -3.732   -4.148   -4.745   -5.535   -6.487   -7.546   -8.627   -9.630  -10.444  -11.000  -11.313  -11.462  -11.520  -11.530  -11.535  -11.572  -11.654  -11.765  -11.872  -11.977  -12.070  -12.142  -12.173  -12.157  -12.088  -11.927  -11.602  -11.039  -10.239   -9.278   -8.267   -7.290   -6.413   -5.666   -5.064   -4.604   -4.297   -4.111   -4.043   -4.063   -4.163   -4.324   -4.545   -4.796   -5.043   -5.306
  -6.694   -6.788   -7.205   -7.678   -7.920   -7.700   -6.940   -5.810   -4.622   -3.651   -3.020   -2.685   -2.537   -2.480   -2.456   -2.467   -2.521   -2.600   -2.708   -2.831   -2.971   -3.121   -3.274   -3.441   -3.648   -3.994   -4.560   -5.390   -6.439   -7.606   -8.745   -9.702  -10.352  -10.665  -10.709  -10.625  -10.543  -10.520  -10.502  -10.415  -10.197   -9.824   -9.290   -8.586   -7.683   -6.609   -5.458   -4.405   -3.632   -3.250   -3.210   -3.393   -3.676   -3.975   -4.296   -4.676   -5.140   -5.710   -6.396   -7.179   -8.000   -8.782   -9.423   -9.851  -10.073  -10.154  -10.167  -10.141  -10.120  -10.130  -10.191  -10.291  -10.396  -10.491  -10.576  -10.635  -10.642  -10.606  -10.524  -10.361  -10.040   -9.506   -8.739   -7.837   -6.889   -6.010   -5.265   -4.681   -4.266   -4.007   -3.880   -3.857   -3.902   -4.008   -4.183   -4.416   -4.718   -5.043   -5.333   -5.608
  -5.373   -5.382   -5.694   -6.099   -6.363   -6.278   -5.773   -4.975   -4.132   -3.443   -2.987   -2.711   -2.538   -2.417   -2.340   -2.303   -2.322   -2.396   -2.518   -2.689   -2.903   -3.135   -3.379   -3.614   -3.872   -4.230   -4.738   -5.421   -6.234   -7.106   -7.955   -8.665   -9.158   -9.393   -9.437   -9.426   -9.455   -9.524   -9.555   -9.467   -9.255   -8.914   -8.438   -7.828   -7.079   -6.229   -5.362   -4.609   -4.085   -3.853   -3.876   -4.067   -4.353   -4.666   -4.983   -5.294   -5.590   -5.893   -6.228   -6.633   -7.094   -7.565   -7.966   -8.234   -8.355   -8.374   -8.344   -8.290   -8.252   -8.242   -8.292   -8.380   -8.471   -8.553   -8.612   -8.631   -8.603   -8.547   -8.473   -8.346   -8.102   -7.674   -7.070   -6.352   -5.616   -4.955   -4.430   -4.061   -3.843   -3.764   -3.789   -3.864   -3.972   -4.102   -4.279   -4.525   -4.841   -5.185   -5.486   -5.777
  -5.120   -5.051   -5.230   -5.482   -5.670   -5.611   -5.244   -4.679   -4.101   -3.624   -3.282   -3.026   -2.821   -2.657   -2.540   -2.481   -2.492   -2.570   -2.722   -2.930   -3.188   -3.472   -3.760   -4.037   -4.344   -4.729   -5.253   -5.906   -6.626   -7.336   -7.968   -8.468   -8.802   -8.963   -9.019   -9.078   -9.181   -9.271   -9.265   -9.129   -8.902   -8.618   -8.271   -7.840   -7.323   -6.755   -6.203   -5.739   -5.431   -5.290   -5.298   -5.418   -5.620   -5.881   -6.148   -6.357   -6.465   -6.459   -6.395   -6.349   -6.358   -6.432   -6.522   -6.584   -6.591   -6.548   -6.479   -6.412   -6.372   -6.363   -6.411   -6.494   -6.578   -6.653   -6.687   -6.669   -6.611   -6.546   -6.496   -6.421   -6.273   -5.995   -5.590   -5.102   -4.623   -4.216   -3.928   -3.778   -3.752   -3.815   -3.945   -4.086   -4.225   -4.352   -4.492   -4.683   -4.952   -5.254   -5.528   -5.820
  -5.951   -5.810   -5.843   -5.909   -5.915   -5.738   -5.356   -4.871   -4.408   -4.031   -3.731   -3.467   -3.230   -3.040   -2.912   -2.855   -2.880   -2.979   -3.146   -3.373   -3.640   -3.924   -4.209   -4.487   -4.820   -5.275   -5.911   -6.678   -7.481   -8.209   -8.791   -9.200   -9.454   -9.603   -9.718   -9.860  -10.004  -10.070   -9.990   -9.779   -9.538   -9.326   -9.134   -8.908   -8.637   -8.347   -8.087   -7.890   -7.764   -7.684   -7.645   -7.658   -7.755   -7.926   -8.102   -8.194   -8.103   -7.787   -7.306   -6.755   -6.244   -5.838   -5.552   -5.364   -5.227   -5.117   -5.024   -4.945   -4.907   -4.906   -4.955   -5.041   -5.124   -5.196   -5.219   -5.188   -5.128   -5.076   -5.052   -5.037   -4.978   -4.836   -4.610   -4.335   -4.080   -3.892   -3.803   -3.821   -3.934   -4.110   -4.316   -4.508   -4.667   -4.779   -4.878   -5.000   -5.201   -5.446   -5.686   -5.986
  -7.683   -7.493   -7.413   -7.288   -7.043   -6.609   -6.031   -5.435   -4.921   -4.512   -4.182   -3.900   -3.661   -3.484   -3.373   -3.340   -3.382   -3.485   -3.639   -3.843   -4.067   -4.303   -4.530   -4.784   -5.136   -5.690   -6.499   -7.500   -8.547   -9.474  -10.178  -10.640  -10.930  -11.142  -11.354  -11.577  -11.745  -11.773  -11.626  -11.369  -11.131  -10.980  -10.902  -10.840  -10.765  -10.703  -10.681  -10.695  -10.710  -10.691  -10.623  -10.568  -10.584  -10.670  -10.761  -10.733  -10.464   -9.890   -9.039   -8.012   -6.967   -6.049   -5.358   -4.896   -4.607   -4.422   -4.304   -4.215   -4.166   -4.159   -4.199   -4.279   -4.365   -4.439   -4.484   -4.482   -4.451   -4.425   -4.431   -4.455   -4.463   -4.427   -4.328   -4.204   -4.103   -4.061   -4.098   -4.214   -4.407   -4.645   -4.912   -5.159   -5.363   -5.496   -5.587   -5.677   -5.830   -6.047   -6.265   -6.581
 -10.027   -9.838   -9.695   -9.408   -8.894   -8.123   -7.206   -6.318   -5.589   -5.041   -4.635   -4.337   -4.127   -4.002   -3.930   -3.912   -3.951   -4.018   -4.117   -4.238   -4.374   -4.509   -4.657   -4.859   -5.224   -5.874   -6.875   -8.152   -9.512  -10.741  -11.696  -12.335  -12.746  -13.064  -13.367  -13.640  -13.811  -13.810  -13.643  -13.394  -13.179  -13.067  -13.040  -13.061  -13.107  -13.191  -13.319  -13.465  -13.583  -13.616  -13.563  -13.499  -13.488  -13.530  -13.556  -13.444  -13.067  -12.333  -11.232   -9.847   -8.361   -7.012   -5.973   -5.289   -4.886   -4.653   -4.508   -4.403   -4.342   -4.321   -4.348   -4.403   -4.488   -4.580   -4.656   -4.708   -4.736   -4.755   -4.798   -4.856   -4.911   -4.940   -4.921   -4.877   -4.838   -4.833   -4.894   -5.027   -5.238   -5.518   -5.848   -6.193   -6.493   -6.713   -6.841   -6.928   -7.055   -7.254   -7.463   -7.797
 -12.683  -12.508  -12.336  -11.939  -11.181  -10.068   -8.753   -7.487   -6.448   -5.689   -5.174   -4.857   -4.681   -4.596   -4.549   -4.523   -4.521   -4.520   -4.525   -4.538   -4.543   -4.560   -4.609   -4.742   -5.087   -5.796   -6.935   -8.439  -10.098  -11.656  -12.907  -13.777  -14.354  -14.774  -15.132  -15.414  -15.569  -15.557  -15.416  -15.217  -15.046  -14.950  -14.940  -14.987  -15.082  -15.221  -15.400  -15.598  -15.756  -15.825  -15.817  -15.787  -15.797  -15.845  -15.848  -15.704  -15.296  -14.517  -13.316  -11.753  -10.037   -8.462   -7.257   -6.494   -6.073   -5.847   -5.712   -5.616   -5.549   -5.523   -5.542   -5.599   -5.681   -5.796   -5.917   -6.042   -6.159   -6.259   -6.351   -6.444   -6.533   -6.600   -6.606   -6.564   -6.490   -6.418   -6.389   -6.452   -6.637   -6.958   -7.395   -7.900   -8.369   -8.725   -8.912   -8.988   -9.056   -9.188   -9.353   -9.682
 -15.390  -15.217  -15.010  -14.514  -13.567  -12.170  -10.504   -8.865   -7.486   -6.475   -5.818   -5.440   -5.261   -5.173   -5.117   -5.059   -4.993   -4.915   -4.820   -4.721   -4.614   -4.518   -4.461   -4.517   -4.822   -5.531   -6.733   -8.376  -10.254  -12.083  -13.611  -14.720  -15.458  -15.964  -16.333  -16.591  -16.713  -16.710  -16.624  -16.507  -16.400  -16.340  -16.339  -16.392  -16.490  -16.619  -16.771  -16.931  -17.071  -17.150  -17.182  -17.206  -17.267  -17.347  -17.364  -17.227  -16.842  -16.101  -14.943  -13.420  -11.740  -10.222   -9.113   -8.464   -8.155   -8.027   -7.966   -7.914   -7.876   -7.870   -7.919   -8.003   -8.113   -8.260   -8.432   -8.645   -8.882   -9.112   -9.304   -9.457   -9.586   -9.674   -9.682   -9.584   -9.380   -9.115   -8.879   -8.779   -8.902   -9.282   -9.887  -10.623  -11.328  -11.849  -12.101  -12.133  -12.091  -12.098  -12.169  -12.500
 -18.254  -18.040  -17.744  -17.111  -15.981  -14.351  -12.392  -10.411   -8.683   -7.384   -6.529   -6.043   -5.800   -5.677   -5.591   -5.493   -5.375   -5.237   -5.078   -4.906   -4.723   -4.558   -4.439   -4.441   -4.700   -5.377   -6.568   -8.254  -10.252  -12.261  -13.993  -15.297  -16.179  -16.746  -17.108  -17.319  -17.413  -17.433  -17.422  -17.410  -17.407  -17.421  -17.467  -17.544  -17.630  -17.721  -17.803  -17.882  -17.951  -18.003  -18.047  -18.114  -18.220  -18.333  -18.380  -18.283  -17.964  -17.340  -16.357  -15.077  -13.701  -12.517  -11.741  -11.387  -11.316  -11.360  -11.408  -11.427  -11.439  -11.483  -11.576  -11.710  -11.859  -12.032  -12.257  -12.572  -12.970  -13.386  -13.744  -14.019  -14.229  -14.369  -14.396  -14.231  -13.854  -13.311  -12.765  -12.423  -12.455  -12.924  -13.761  -14.809  -15.837  -16.607  -16.992  -17.046  -16.979  -16.978  -17.060  -17.486
 -22.011  -21.697  -21.215  -20.337  -18.948  -17.048  -14.774  -12.412  -10.280   -8.614   -7.478   -6.807   -6.455   -6.284   -6.171   -6.055   -5.913   -5.747   -5.567   -5.377   -5.188   -5.009   -4.888   -4.887   -5.130   -5.769   -6.915   -8.572  -10.587  -12.664  -14.513  -15.951  -16.937  -17.547  -17.891  -18.062  -18.141  -18.200  -18.287  -18.414  -18.568  -18.733  -18.902  -19.055  -19.172  -19.238  -19.255  -19.240  -19.216  -19.206  -19.223  -19.286  -19.399  -19.534  -19.630  -19.622  -19.446  -19.038  -18.380  -17.532  -16.665  -16.008  -15.716  -15.762  -15.996  -16.236  -16.394  -16.474  -16.523  -16.599  -16.707  -16.839  -16.976  -17.140  -17.393  -17.819  -18.424  -19.092  -19.700  -20.189  -20.575  -20.879  -21.021  -20.890  -20.397  -19.619  -18.783  -18.229  -18.219  -18.861  -20.053  -21.579  -23.118  -24.381  -25.203  -25.683  -26.073  -26.553  -27.049  -27.800
 -27.793  -27.371  -26.590  -25.318  -23.519  -21.210  -18.493  -15.614  -12.919  -10.728   -9.183   -8.233   -7.715   -7.458   -7.318   -7.198   -7.057   -6.899   -6.732   -6.570   -6.422   -6.308   -6.250   -6.294   -6.554   -7.157   -8.238   -9.819  -11.758  -13.812  -15.681  -17.179  -18.222  -18.853  -19.180  -19.320  -19.401  -19.510  -19.718  -20.036  -20.443  -20.884  -21.299  -21.634  -21.855  -21.951  -21.933  -21.835  -21.709  -21.601  -21.539  -21.541  -21.616  -21.762  -21.950  -22.121  -22.212  -22.174  -22.001  -21.740  -21.517  -21.485  -21.733  -22.210  -22.747  -23.175  -23.426  -23.539  -23.593  -23.640  -23.686  -23.724  -23.759  -23.856  -24.127  -24.683  -25.528  -26.517  -27.471  -28.310  -29.056  -29.719  -30.192  -30.306  -29.957  -29.229  -28.430  -27.990  -28.263  -29.374  -31.207  -33.498  -35.894  -38.079  -39.914  -41.519  -43.122  -44.752  -46.083  -47.175
 -36.242  -35.790  -34.668  -32.909  -30.579  -27.714  -24.392  -20.813  -17.359  -14.447  -12.328  -10.966  -10.189   -9.787   -9.579   -9.441   -9.295   -9.142   -8.994   -8.883   -8.812   -8.798   -8.853   -9.003   -9.311   -9.884  -10.869  -12.303  -14.103  -16.047  -17.862  -19.349  -20.402  -21.033  -21.335  -21.448  -21.529  -21.702  -22.060  -22.637  -23.402  -24.264  -25.083  -25.738  -26.163  -26.344  -26.321  -26.154  -25.918  -25.688  -25.499  -25.390  -25.389  -25.556  -25.895  -26.362  -26.872  -27.366  -27.811  -28.230  -28.691  -29.287  -30.065  -30.953  -31.780  -32.394  -32.757  -32.936  -33.018  -33.041  -33.011  -32.935  -32.874  -32.946  -33.305  -34.067  -35.222  -36.594  -37.991  -39.329  -40.620  -41.856  -42.906  -43.596  -43.837  -43.757  -43.701  -44.114  -45.325  -47.423  -50.258  -53.550  -56.979  -60.287  -63.382  -66.349  -69.254  -71.874  -73.670  -74.403
 -46.589  -46.278  -44.896  -42.704  -39.863  -36.437  -32.470  -28.136  -23.843  -20.113  -17.296  -15.413  -14.278  -13.650  -13.315  -13.110  -12.921  -12.737  -12.584  -12.500  -12.514  -12.626  -12.838  -13.127  -13.503  -14.049  -14.901  -16.139  -17.727  -19.490  -21.195  -22.634  -23.673  -24.286  -24.550  -24.621  -24.688  -24.922  -25.448  -26.330  -27.536  -28.922  -30.254  -31.328  -32.024  -32.329  -32.311  -32.079  -31.747  -31.397  -31.084  -30.855  -30.790  -31.004  -31.555  -32.403  -33.429  -34.523  -35.618  -36.697  -37.792  -38.949  -40.191  -41.444  -42.561  -43.417  -43.999  -44.378  -44.635  -44.800  -44.884  -44.920  -45.010  -45.302  -45.965  -47.089  -48.635  -50.427  -52.297  -54.172  -56.057  -57.931  -59.685  -61.196  -62.445  -63.588  -64.936  -66.820  -69.423  -72.714  -76.506  -80.552  -84.630  -88.588  -92.376  -95.997  -99.344 -102.033 -103.429 -102.970
 -56.934  -56.913  -55.434  -52.987  -49.808  -45.980  -41.529  -36.610  -31.645  -27.224  -23.784  -21.402  -19.891  -18.996  -18.477  -18.148  -17.862  -17.590  -17.364  -17.261  -17.330  -17.576  -17.969  -18.427  -18.897  -19.426  -20.145  -21.170  -22.515  -24.074  -25.656  -27.045  -28.075  -28.667  -28.880  -28.891  -28.926  -29.200  -29.875  -31.043  -32.667  -34.546  -36.368  -37.839  -38.795  -39.220  -39.222  -38.956  -38.570  -38.162  -37.789  -37.512  -37.452  -37.774  -38.576  -39.818  -41.340  -42.980  -44.625  -46.233  -47.814  -49.402  -51.009  -52.573  -53.989  -55.169  -56.117  -56.899  -57.584  -58.205  -58.774  -59.337  -59.990  -60.871  -62.102  -63.731  -65.695  -67.854  -70.089  -72.354  -74.659  -77.001  -79.333  -81.612  -83.875  -86.267  -88.989  -92.197  -95.911 -100.013 -104.321 -108.653 -112.877 -116.912 -120.709 -124.182 -127.082 -128.933 -129.059 -127.070
 -65.391  -65.697  -64.267  -61.754  -58.454  -54.464  -49.807  -44.637  -39.370  -34.611  -30.833  -28.140  -26.354  -25.225  -24.522  -24.043  -23.615  -23.195  -22.836  -22.639  -22.706  -23.062  -23.638  -24.292  -24.900  -25.463  -26.094  -26.947  -28.101  -29.511  -31.024  -32.417  -33.476  -34.076  -34.254  -34.207  -34.198  -34.479  -35.236  -36.579  -38.460  -40.643  -42.766  -44.484  -45.605  -46.124  -46.169  -45.931  -45.582  -45.227  -44.921  -44.731  -44.797  -45.312  -46.386  -47.969  -49.874  -51.901  -53.911  -55.852  -57.732  -59.586  -61.435  -63.246  -64.958  -66.526  -67.966  -69.339  -70.697  -72.064  -73.447  -74.867  -76.378  -78.055  -79.959  -82.092  -84.398  -86.787  -89.194  -91.609  -94.062  -96.590  -99.210 -101.947 -104.863 -108.053 -111.600 -115.515 -119.704 -124.004 -128.243 -132.291 -136.071 -139.530 -142.594 -145.099 -146.783 -147.252 -145.806 -144.158
 -70.759  -71.314  -69.998  -67.553  -64.308  -60.380  -55.806  -50.744  -45.599  -40.942  -37.207  -34.483  -32.606  -31.354  -30.524  -29.906  -29.330  -28.737  -28.191  -27.844  -27.849  -28.268  -29.014  -29.881  -30.681  -31.355  -32.002  -32.805  -33.901  -35.302  -36.875  -38.382  -39.554  -40.233  -40.440  -40.385  -40.357  -40.622  -41.374  -42.718  -44.607  -46.801  -48.938  -50.681  -51.837  -52.409  -52.531  -52.400  -52.191  -52.009  -51.905  -51.949  -52.276  -53.064  -54.411  -56.248  -58.383  -60.607  -62.780  -64.852  -66.845  -68.805  -70.773  -72.757  -74.740  -76.715  -78.709  -80.767  -82.918  -85.157  -87.456  -89.791  -92.156  -94.564  -97.026  -99.525 -102.023 -104.479 -106.872 -109.225 -111.598 -114.059 -116.670 -119.495 -122.591 -125.997 -129.704 -133.626 -137.630 -141.573 -145.357 -148.927 -152.252 -155.292 -157.982 -160.217 -161.827 -162.409 -160.682 -163.718
 -72.527  -73.183  -71.975  -69.661  -66.587  -62.889  -58.629  -53.977  -49.312  -45.127  -41.769  -39.281  -37.509  -36.274  -35.401  -34.702  -34.016  -33.272  -32.551  -32.044  -31.956  -32.400  -33.288  -34.378  -35.416  -36.299  -37.116  -38.057  -39.302  -40.897  -42.712  -44.481  -45.897  -46.777  -47.138  -47.185  -47.207  -47.466  -48.143  -49.334  -50.997  -52.927  -54.813  -56.369  -57.438  -58.017  -58.232  -58.257  -58.249  -58.305  -58.479  -58.837  -59.494  -60.583  -62.166  -64.157  -66.373  -68.622  -70.782  -72.820  -74.773  -76.710  -78.699  -80.784  -82.990  -85.341  -87.865  -90.582  -93.476  -96.499  -99.575 -102.629 -105.613 -108.501 -111.279 -113.933 -116.448 -118.816 -121.056 -123.216 -125.370 -127.611 -130.028 -132.701 -135.684 -139.004 -142.633 -146.510 -150.546 -154.646 -158.705 -162.612 -166.266 -169.565 -172.466 -174.854 -176.517 -176.882 -174.283 -181.903
 -70.725  -71.314  -70.162  -67.990  -65.142  -61.776  -57.987  -53.949  -49.993  -46.509  -43.731  -41.651  -40.131  -39.034  -38.219  -37.525  -36.804  -35.996  -35.182  -34.577  -34.434  -34.908  -35.935  -37.258  -38.599  -39.819  -40.993  -42.312  -43.963  -45.997  -48.266  -50.472  -52.294  -53.535  -54.210  -54.505  -54.684  -54.983  -55.567  -56.524  -57.830  -59.335  -60.810  -62.047  -62.932  -63.465  -63.739  -63.890  -64.045  -64.291  -64.692  -65.312  -66.238  -67.554  -69.272  -71.295  -73.456  -75.593  -77.613  -79.504  -81.323  -83.162  -85.112  -87.246  -89.618  -92.267  -95.212  -98.435 -101.873 -105.426 -108.979 -112.430 -115.713 -118.792 -121.651 -124.287 -126.703 -128.914 -130.955 -132.886 -134.792 -136.775 -138.939 -141.376 -144.153 -147.300 -150.801 -154.596 -158.584 -162.640 -166.604 -170.361 -173.793 -176.821 -179.352 -181.217 -182.144 -181.535 -177.735 -185.248
 -65.836  -66.206  -65.045  -62.990  -60.374  -57.381  -54.134  -50.800  -47.641  -44.929  -42.793  -41.192  -40.007  -39.133  -38.465  -37.871  -37.225  -36.485  -35.732  -35.186  -35.118  -35.715  -36.948  -38.581  -40.341  -42.083  -43.859  -45.837  -48.178  -50.896  -53.814  -56.614  -58.978  -60.720  -61.845  -62.508  -62.933  -63.325  -63.840  -64.567  -65.505  -66.563  -67.595  -68.469  -69.109  -69.516  -69.747  -69.893  -70.057  -70.324  -70.766  -71.455  -72.456  -73.810  -75.492  -77.395  -79.372  -81.294  -83.094  -84.786  -86.442  -88.165  -90.060  -92.211  -94.679  -97.503 -100.683 -104.163 -107.841 -111.585 -115.266 -118.781 -122.067 -125.093 -127.850 -130.337 -132.565 -134.555 -136.349 -138.008 -139.618 -141.284 -143.113 -145.194 -147.592 -150.322 -153.358 -156.616 -159.995 -163.380 -166.677 -169.837 -172.787 -175.494 -177.804 -179.542 -180.380 -179.735 -176.140 -180.355
 -58.757  -58.811  -57.588  -55.611  -53.200  -50.567  -47.853  -45.200  -42.795  -40.797  -39.258  -38.123  -37.297  -36.698  -36.250  -35.855  -35.428  -34.935  -34.468  -34.230  -34.489  -35.432  -37.068  -39.207  -41.607  -44.124  -46.775  -49.670  -52.907  -56.447  -60.084  -63.508  -66.432  -68.695  -70.293  -71.347  -72.036  -72.541  -73.012  -73.547  -74.174  -74.848  -75.487  -76.010  -76.368  -76.555  -76.602  -76.569  -76.541  -76.606  -76.849  -77.349  -78.167  -79.318  -80.755  -82.377  -84.055  -85.688  -87.234  -88.722  -90.229  -91.856  -93.696  -95.825  -98.294 -101.126 -104.296 -107.730 -111.306 -114.890 -118.359 -121.625 -124.638 -127.375 -129.832 -132.014 -133.937 -135.628 -137.127 -138.498 -139.819 -141.184 -142.690 -144.423 -146.441 -148.762 -151.367 -154.202 -157.180 -160.225 -163.266 -166.248 -169.117 -171.781 -174.126 -175.949 -176.978 -176.660 -173.792 -174.584
 -50.744  -50.469  -49.171  -47.245  -45.010  -42.692  -40.439  -38.363  -36.575  -35.156  -34.107  -33.379  -32.899  -32.610  -32.455  -32.381  -32.340  -32.329  -32.435  -32.840  -33.775  -35.416  -37.776  -40.714  -44.016  -47.522  -51.188  -55.051  -59.133  -63.360  -67.533  -71.389  -74.695  -77.324  -79.268  -80.613  -81.499  -82.081  -82.504  -82.877  -83.251  -83.617  -83.928  -84.133  -84.193  -84.094  -83.853  -83.516  -83.159  -82.871  -82.746  -82.869  -83.303  -84.057  -85.086  -86.301  -87.599  -88.906  -90.193  -91.492  -92.870  -94.407  -96.171  -98.208 -100.546 -103.186 -106.091 -109.182 -112.345 -115.465 -118.443 -121.214 -123.746 -126.031 -128.072 -129.880 -131.471 -132.871 -134.117 -135.260 -136.366 -137.517 -138.797 -140.281 -142.027 -144.063 -146.386 -148.961 -151.735 -154.644 -157.624 -160.606 -163.513 -166.241 -168.664 -170.571 -171.713 -171.610 -169.350 -167.818
 -43.257  -42.733  -41.406  -39.560  -37.503  -35.466  -33.590  -31.957  -30.628  -29.634  -28.969  -28.589  -28.445  -28.500  -28.728  -29.115  -29.655  -30.366  -31.327  -32.678  -34.601  -37.229  -40.566  -44.475  -48.741  -53.168  -57.653  -62.172  -66.717  -71.221  -75.535  -79.470  -82.856  -85.596  -87.675  -89.149  -90.120  -90.716  -91.072  -91.297  -91.459  -91.571  -91.608  -91.530  -91.304  -90.911  -90.365  -89.707  -89.009  -88.357  -87.842  -87.552  -87.547  -87.846  -88.413  -89.185  -90.085  -91.062  -92.097  -93.213  -94.454  -95.869  -97.488  -99.329 -101.391 -103.658 -106.091 -108.620 -111.156 -113.617 -115.939 -118.086 -120.047 -121.824 -123.425 -124.860 -126.141 -127.287 -128.328 -129.301 -130.258 -131.264 -132.389 -133.698 -135.242 -137.050 -139.125 -141.450 -143.993 -146.708 -149.546 -152.451 -155.344 -158.123 -160.638 -162.675 -163.959 -164.084 -162.350 -159.635
 -37.695  -37.070  -35.824  -34.159  -32.352  -30.616  -29.078  -27.796  -26.810  -26.140  -25.782  -25.713  -25.907  -26.342  -27.024  -27.972  -29.205  -30.741  -32.627  -34.955  -37.847  -41.389  -45.569  -50.232  -55.143  -60.077  -64.900  -69.572  -74.089  -78.425  -82.499  -86.192  -89.389  -92.013  -94.042  -95.503  -96.464  -97.025  -97.301  -97.397  -97.385  -97.290  -97.102  -96.790  -96.323  -95.686  -94.894  -93.989  -93.039  -92.123  -91.324  -90.719  -90.365  -90.283  -90.455  -90.839  -91.387  -92.066  -92.860  -93.782  -94.850  -96.078  -97.468  -99.010 -100.685 -102.470 -104.324 -106.197 -108.032 -109.780 -111.413 -112.923 -114.314 -115.596 -116.776 -117.862 -118.862 -119.790 -120.667 -121.519 -122.386 -123.313 -124.355 -125.564 -126.978 -128.620 -130.497 -132.600 -134.908 -137.395 -140.027 -142.760 -145.533 -148.251 -150.771 -152.892 -154.331 -154.711 -153.467 -150.487
 -35.066  -34.519  -33.512  -32.181  -30.759  -29.415  -28.242  -27.287  -26.578  -26.148  -26.014  -26.192  -26.658  -27.420  -28.493  -29.914  -31.701  -33.846  -36.347  -39.254  -42.648  -46.606  -51.106  -55.994  -61.024  -65.962  -70.661  -75.077  -79.226  -83.120  -86.733  -90.004  -92.860  -95.239  -97.112  -98.482  -99.386  -99.897 -100.109 -100.115  -99.982  -99.744  -99.399  -98.924  -98.296  -97.507  -96.576  -95.547  -94.484  -93.456  -92.531  -91.772  -91.224  -90.907  -90.815  -90.924  -91.205  -91.639  -92.214  -92.929  -93.786  -94.774  -95.875  -97.065  -98.317  -99.602 -100.889 -102.143 -103.334 -104.444 -105.472 -106.431 -107.336 -108.198 -109.025 -109.820 -110.588 -111.342 -112.096 -112.869 -113.686 -114.580 -115.588 -116.749 -118.089 -119.627 -121.364 -123.293 -125.401 -127.669 -130.074 -132.584 -135.150 -137.694 -140.094 -142.171 -143.668 -144.238 -143.393 -140.662
 -35.683  -35.382  -34.749  -33.901  -32.997  -32.141  -31.378  -30.720  -30.197  -29.860  -29.767  -29.973  -30.480  -31.311  -32.483  -34.030  -35.952  -38.210  -40.764  -43.636  -46.907  -50.663  -54.905  -59.494  -64.193  -68.762  -73.046  -76.992  -80.623  -83.977  -87.064  -89.864  -92.335  -94.432  -96.120  -97.384  -98.238  -98.731  -98.932  -98.920  -98.754  -98.467  -98.066  -97.536  -96.863  -96.045  -95.109  -94.098  -93.070  -92.081  -91.184  -90.425  -89.835  -89.430  -89.209  -89.159  -89.265  -89.517  -89.907  -90.427  -91.064  -91.801  -92.608  -93.459  -94.325  -95.181  -96.002  -96.766  -97.461  -98.090  -98.670  -99.225  -99.776 -100.334 -100.901 -101.478 -102.071 -102.689 -103.344 -104.053 -104.831 -105.699 -106.684 -107.812 -109.103 -110.569 -112.206 -114.004 -115.950 -118.027 -120.216 -122.493 -124.823 -127.144 -129.354 -131.302 -132.763 -133.430 -132.873 -130.547
 -38.902  -38.958  -38.730  -38.378  -38.000  -37.619  -37.219  -36.761  -36.255  -35.771  -35.425  -35.319  -35.508  -36.020  -36.882  -38.115  -39.697  -41.572  -43.677  -46.019  -48.689  -51.792  -55.364  -59.300  -63.377  -67.361  -71.083  -74.482  -77.572  -80.398  -82.991  -85.357  -87.478  -89.323  -90.860  -92.065  -92.933  -93.487  -93.777  -93.863  -93.791  -93.591  -93.272  -92.826  -92.247  -91.542  -90.739  -89.881  -89.016  -88.185  -87.428  -86.773  -86.246  -85.856  -85.605  -85.488  -85.499  -85.634  -85.889  -86.253  -86.709  -87.232  -87.797  -88.377  -88.950  -89.495  -89.993  -90.430  -90.804  -91.128  -91.426  -91.727  -92.052  -92.410  -92.801  -93.225  -93.686  -94.193  -94.760  -95.400  -96.128  -96.957  -97.907  -98.998 -100.247 -101.659 -103.227 -104.932 -106.754 -108.676 -110.682 -112.754 -114.870 -116.982 -119.010 -120.825 -122.236 -122.967 -122.636 -120.714
 -43.197  -43.601  -43.660  -43.636  -43.593  -43.508  -43.295  -42.863  -42.187  -41.345  -40.496  -39.804  -39.377  -39.270  -39.510  -40.107  -41.037  -42.226  -43.602  -45.164  -46.999  -49.231  -51.924  -55.013  -58.314  -61.601  -64.707  -67.555  -70.147  -72.520  -74.708  -76.731  -78.589  -80.269  -81.746  -82.991  -83.983  -84.728  -85.250  -85.586  -85.768  -85.815  -85.733  -85.518  -85.171  -84.705  -84.147  -83.534  -82.904  -82.288  -81.713  -81.203  -80.778  -80.451  -80.225  -80.101  -80.080  -80.163  -80.350  -80.625  -80.970  -81.359  -81.768  -82.176  -82.569  -82.930  -83.244  -83.500  -83.700  -83.860  -84.007  -84.165  -84.356  -84.586  -84.858  -85.169  -85.525  -85.936  -86.416  -86.980  -87.642  -88.417  -89.325  -90.384  -91.606  -92.993  -94.528  -96.180  -97.921  -99.729 -101.591 -103.502 -105.449 -107.403 -109.301 -111.035 -112.433 -113.244 -113.120 -111.565
 -46.738  -47.343  -47.451  -47.454  -47.438  -47.366  -47.111  -46.528  -45.557  -44.266  -42.836  -41.479  -40.353  -39.535  -39.055  -38.918  -39.093  -39.513  -40.105  -40.861  -41.849  -43.196  -44.982  -47.181  -49.658  -52.222  -54.720  -57.069  -59.253  -61.292  -63.209  -65.024  -66.752  -68.394  -69.938  -71.352  -72.609  -73.689  -74.594  -75.331  -75.911  -76.338  -76.610  -76.726  -76.691  -76.521  -76.243  -75.888  -75.484  -75.057  -74.635  -74.243  -73.907  -73.643  -73.462  -73.368  -73.367  -73.463  -73.654  -73.925  -74.249  -74.598  -74.948  -75.283  -75.596  -75.874  -76.106  -76.283  -76.407  -76.493  -76.564  -76.646  -76.754  -76.898  -77.080  -77.303  -77.569  -77.891  -78.281  -78.760  -79.349  -80.069  -80.945  -81.997  -83.234  -84.648  -86.204  -87.855  -89.559  -91.289  -93.042  -94.826  -96.648  -98.495 -100.321 -102.030 -103.460 -104.377 -104.455 -103.229
 -48.062  -48.628  -48.508  -48.209  -47.890  -47.544  -47.035  -46.184  -44.885  -43.187  -41.274  -39.384  -37.699  -36.306  -35.232  -34.473  -34.004  -33.772  -33.714  -33.812  -34.121  -34.748  -35.767  -37.180  -38.908  -40.817  -42.791  -44.756  -46.682  -48.554  -50.376  -52.158  -53.916  -55.664  -57.397  -59.090  -60.706  -62.205  -63.563  -64.759  -65.775  -66.601  -67.230  -67.662  -67.907  -67.986  -67.924  -67.748  -67.484  -67.161  -66.814  -66.478  -66.189  -65.972  -65.842  -65.805  -65.869  -66.037  -66.305  -66.647  -67.029  -67.415  -67.780  -68.110  -68.403  -68.653  -68.855  -69.003  -69.100  -69.155  -69.192  -69.230  -69.284  -69.365  -69.478  -69.624  -69.808  -70.040  -70.336  -70.725  -71.236  -71.910  -72.782  -73.875  -75.190  -76.702  -78.348  -80.057  -81.768  -83.453  -85.121  -86.800  -88.522  -90.294  -92.085  -93.804  -95.294  -96.326  -96.593  -95.658
 -46.414  -46.686  -46.099  -45.225  -44.328  -43.476  -42.562  -41.387  -39.818  -37.870  -35.715  -33.586  -31.664  -30.021  -28.665  -27.579  -26.745  -26.129  -25.693  -25.414  -25.332  -25.518  -26.033  -26.894  -28.073  -29.510  -31.140  -32.908  -34.772  -36.677  -38.600  -40.523  -42.458  -44.410  -46.381  -48.352  -50.285  -52.133  -53.848  -55.388  -56.713  -57.804  -58.653  -59.266  -59.662  -59.863  -59.895  -59.783  -59.551  -59.238  -58.893  -58.563  -58.296  -58.120  -58.052  -58.100  -58.264  -58.544  -58.926  -59.374  -59.845  -60.294  -60.694  -61.033  -61.313  -61.537  -61.711  -61.835  -61.911  -61.950  -61.969  -61.981  -62.004  -62.043  -62.105  -62.190  -62.300  -62.443  -62.639  -62.928  -63.362  -64.001  -64.896  -66.078  -67.537  -69.217  -71.021  -72.845  -74.606  -76.277  -77.880  -79.469  -81.100  -82.809  -84.575  -86.314  -87.866  -89.006  -89.438  -88.758
 -41.806  -41.612  -40.437  -38.853  -37.235  -35.762  -34.381  -32.914  -31.211  -29.256  -27.200  -25.223  -23.472  -21.975  -20.718  -19.674  -18.822  -18.154  -17.644  -17.289  -17.106  -17.137  -17.428  -18.002  -18.882  -20.073  -21.571  -23.342  -25.325  -27.437  -29.601  -31.777  -33.949  -36.111  -38.261  -40.390  -42.470  -44.457  -46.299  -47.941  -49.344  -50.487  -51.369  -52.003  -52.412  -52.621  -52.650  -52.523  -52.268  -51.931  -51.574  -51.257  -51.029  -50.920  -50.940  -51.089  -51.363  -51.748  -52.219  -52.735  -53.247  -53.709  -54.096  -54.398  -54.619  -54.774  -54.879  -54.948  -54.986  -55.002  -55.005  -55.009  -55.020  -55.046  -55.082  -55.129  -55.180  -55.238  -55.332  -55.518  -55.871  -56.480  -57.417  -58.720  -60.364  -62.260  -64.270  -66.250  -68.099  -69.784  -71.340  -72.847  -74.390  -76.028  -77.761  -79.510  -81.114  -82.345  -82.917  -82.457
 -35.009  -34.344  -32.672  -30.495  -28.273  -26.274  -24.530  -22.900  -21.254  -19.556  -17.904  -16.400  -15.120  -14.045  -13.151  -12.399  -11.774  -11.281  -10.914  -10.668  -10.559  -10.609  -10.852  -11.324  -12.077  -13.180  -14.670  -16.540  -18.722  -21.092  -23.532  -25.964  -28.340  -30.639  -32.854  -34.982  -37.015  -38.925  -40.672  -42.205  -43.497  -44.537  -45.334  -45.909  -46.282  -46.473  -46.498  -46.374  -46.133  -45.827  -45.524  -45.287  -45.161  -45.164  -45.295  -45.539  -45.880  -46.299  -46.763  -47.231  -47.665  -48.029  -48.303  -48.479  -48.568  -48.591  -48.575  -48.545  -48.514  -48.491  -48.477  -48.479  -48.502  -48.541  -48.584  -48.620  -48.634  -48.625  -48.626  -48.711  -48.986  -49.570  -50.559  -51.994  -53.839  -55.970  -58.203  -60.357  -62.310  -64.020  -65.534  -66.953  -68.392  -69.938  -71.613  -73.350  -74.987  -76.289  -76.979  -76.703
 -27.486  -26.534  -24.682  -22.309  -19.885  -17.707  -15.848  -14.247  -12.805  -11.493  -10.337   -9.359   -8.564   -7.923   -7.398   -6.958   -6.601   -6.335   -6.149   -6.051   -6.048   -6.154   -6.396   -6.815   -7.497   -8.533  -10.007  -11.939  -14.252  -16.805  -19.442  -22.044  -24.531  -26.862  -29.031  -31.042  -32.908  -34.619  -36.153  -37.485  -38.604  -39.510  -40.227  -40.774  -41.166  -41.415  -41.524  -41.509  -41.397  -41.240  -41.105  -41.044  -41.082  -41.227  -41.460  -41.749  -42.075  -42.411  -42.732  -43.011  -43.228  -43.369  -43.424  -43.395  -43.294  -43.144  -42.975  -42.821  -42.699  -42.620  -42.586  -42.592  -42.639  -42.708  -42.781  -42.829  -42.831  -42.781  -42.716  -42.728  -42.954  -43.538  -44.599  -46.187  -48.239  -50.600  -53.042  -55.348  -57.376  -59.080  -60.518  -61.813  -63.107  -64.521  -66.099  -67.791  -69.434  -70.788  -71.573  -71.452
 -21.005  -20.027  -18.341  -16.191  -13.966  -11.928  -10.169   -8.704   -7.488   -6.508   -5.729   -5.125   -4.640   -4.251   -3.924   -3.674   -3.486   -3.356   -3.291   -3.281   -3.336   -3.461   -3.672   -4.029   -4.602   -5.519   -6.877   -8.725  -11.005  -13.574  -16.252  -18.883  -21.360  -23.623  -25.668  -27.508  -29.170  -30.660  -31.980  -33.126  -34.112  -34.953  -35.674  -36.287  -36.805  -37.228  -37.551  -37.775  -37.921  -38.033  -38.163  -38.340  -38.572  -38.847  -39.130  -39.390  -39.603  -39.747  -39.810  -39.789  -39.691  -39.527  -39.310  -39.045  -38.746  -38.430  -38.125  -37.859  -37.655  -37.524  -37.470  -37.484  -37.551  -37.651  -37.754  -37.827  -37.839  -37.784  -37.707  -37.715  -37.962  -38.618  -39.817  -41.599  -43.874  -46.439  -49.029  -51.407  -53.419  -55.031  -56.316  -57.418  -58.510  -59.740  -61.178  -62.784  -64.399  -65.779  -66.635  -66.640
 -16.806  -15.951  -14.538  -12.711  -10.744   -8.863   -7.211   -5.860   -4.828   -4.090   -3.576   -3.195   -2.868   -2.560   -2.290   -2.082   -1.943   -1.860   -1.832   -1.849   -1.908   -2.013   -2.170   -2.431   -2.872   -3.591   -4.724   -6.319   -8.366  -10.737  -13.263  -15.758  -18.104  -20.222  -22.105  -23.766  -25.241  -26.555  -27.720  -28.754  -29.687  -30.545  -31.350  -32.116  -32.846  -33.532  -34.156  -34.707  -35.194  -35.638  -36.066  -36.487  -36.891  -37.251  -37.527  -37.692  -37.725  -37.614  -37.367  -37.009  -36.578  -36.113  -35.640  -35.172  -34.725  -34.300  -33.917  -33.595  -33.350  -33.194  -33.133  -33.152  -33.232  -33.353  -33.481  -33.589  -33.638  -33.629  -33.614  -33.712  -34.097  -34.948  -36.389  -38.423  -40.913  -43.613  -46.233  -48.538  -50.393  -51.787  -52.818  -53.659  -54.503  -55.513  -56.779  -58.266  -59.823  -61.196  -62.094  -62.198
 -14.846  -14.113  -12.855  -11.160   -9.258   -7.384   -5.733   -4.436   -3.545   -3.011   -2.706   -2.486   -2.249   -1.968   -1.695   -1.473   -1.319   -1.226   -1.194   -1.203   -1.247   -1.312   -1.416   -1.590   -1.877   -2.383   -3.208   -4.435   -6.076   -8.070  -10.255  -12.460  -14.556  -16.469  -18.168  -19.665  -21.000  -22.197  -23.275  -24.266  -25.204  -26.121  -27.044  -27.983  -28.935  -29.890  -30.819  -31.699  -32.520  -33.274  -33.970  -34.593  -35.121  -35.523  -35.760  -35.809  -35.653  -35.299  -34.776  -34.137  -33.443  -32.755  -32.114  -31.538  -31.030  -30.587  -30.207  -29.899  -29.670  -29.533  -29.490  -29.529  -29.628  -29.773  -29.936  -30.087  -30.208  -30.302  -30.433  -30.730  -31.373  -32.534  -34.298  -36.605  -39.251  -41.954  -44.435  -46.494  -48.037  -49.098  -49.806  -50.351  -50.938  -51.734  -52.828  -54.188  -55.661  -56.997  -57.905  -58.083
 -13.939  -13.285  -12.073  -10.385   -8.442   -6.499   -4.814   -3.564   -2.788   -2.411   -2.268   -2.171   -2.006   -1.763   -1.497   -1.266   -1.088   -0.979   -0.937   -0.930   -0.954   -0.990   -1.060   -1.156   -1.333   -1.643   -2.172   -3.001   -4.179   -5.668   -7.377   -9.170  -10.931  -12.569  -14.061  -15.412  -16.636  -17.753  -18.787  -19.768  -20.723  -21.691  -22.700  -23.758  -24.861  -25.999  -27.143  -28.259  -29.316  -30.291  -31.169  -31.928  -32.537  -32.961  -33.167  -33.135  -32.853  -32.346  -31.662  -30.871  -30.058  -29.295  -28.622  -28.057  -27.595  -27.226  -26.929  -26.704  -26.553  -26.486  -26.503  -26.593  -26.738  -26.928  -27.146  -27.366  -27.588  -27.826  -28.159  -28.729  -29.708  -31.231  -33.323  -35.837  -38.512  -41.054  -43.229  -44.894  -46.022  -46.694  -47.066  -47.336  -47.707  -48.333  -49.290  -50.535  -51.914  -53.186  -54.073  -54.297
 -12.736  -12.152  -11.022   -9.424   -7.562   -5.693   -4.076   -2.915   -2.231   -1.956   -1.896   -1.868   -1.761   -1.577   -1.356   -1.150   -0.984   -0.872   -0.814   -0.804   -0.815   -0.840   -0.885   -0.942   -1.034   -1.204   -1.508   -2.000   -2.749   -3.743   -4.952   -6.275   -7.626   -8.948  -10.201  -11.381  -12.489  -13.531  -14.524  -15.493  -16.453  -17.434  -18.459  -19.534  -20.662  -21.837  -23.039  -24.225  -25.365  -26.422  -27.374  -28.189  -28.839  -29.289  -29.507  -29.474  -29.185  -28.672  -27.997  -27.241  -26.494  -25.823  -25.264  -24.827  -24.504  -24.277  -24.124  -24.038  -24.015  -24.067  -24.188  -24.369  -24.600  -24.867  -25.159  -25.469  -25.798  -26.192  -26.743  -27.594  -28.899  -30.740  -33.062  -35.646  -38.195  -40.438  -42.197  -43.406  -44.100  -44.406  -44.496  -44.562  -44.789  -45.306  -46.163  -47.310  -48.590  -49.781  -50.621  -50.862
 -10.571  -10.077   -9.161   -7.851   -6.307   -4.739   -3.377   -2.376   -1.789   -1.551   -1.506   -1.498   -1.438   -1.314   -1.160   -1.009   -0.882   -0.794   -0.747   -0.741   -0.753   -0.773   -0.801   -0.826   -0.869   -0.954   -1.110   -1.383   -1.806   -2.408   -3.170   -4.056   -5.004   -5.979   -6.963   -7.933   -8.894   -9.837  -10.768  -11.702  -12.650  -13.610  -14.592  -15.588  -16.614  -17.670  -18.750  -19.829  -20.878  -21.871  -22.778  -23.578  -24.234  -24.723  -25.010  -25.071  -24.909  -24.557  -24.070  -23.531  -23.014  -22.573  -22.239  -22.010  -21.880  -21.828  -21.844  -21.922  -22.062  -22.267  -22.528  -22.834  -23.170  -23.531  -23.905  -24.289  -24.713  -25.237  -25.968  -27.043  -28.585  -30.617  -33.013  -35.513  -37.815  -39.688  -41.015  -41.798  -42.128  -42.156  -42.058  -42.014  -42.174  -42.634  -43.422  -44.479  -45.659  -46.753  -47.533  -47.770
  -7.690   -7.309   -6.696   -5.813   -4.751   -3.645   -2.645   -1.886   -1.414   -1.200   -1.145   -1.128   -1.098   -1.030   -0.948   -0.858   -0.777   -0.723   -0.705   -0.718   -0.734   -0.751   -0.769   -0.774   -0.795   -0.828   -0.895   -1.031   -1.254   -1.581   -2.027   -2.567   -3.168   -3.830   -4.531   -5.272   -6.037   -6.844   -7.691   -8.577   -9.497  -10.421  -11.321  -12.183  -13.019  -13.844  -14.674  -15.506  -16.332  -17.135  -17.908  -18.625  -19.266  -19.803  -20.204  -20.443  -20.519  -20.453  -20.292  -20.094  -19.906  -19.771  -19.706  -19.707  -19.772  -19.896  -20.076  -20.313  -20.616  -20.974  -21.375  -21.802  -22.240  -22.679  -23.106  -23.538  -24.013  -24.614  -25.452  -26.649  -28.295  -30.361  -32.687  -34.988  -36.991  -38.504  -39.466  -39.924  -40.002  -39.866  -39.686  -39.617  -39.770  -40.215  -40.955  -41.932  -43.015  -44.017  -44.738  -44.968
  -4.864   -4.613   -4.287   -3.807   -3.207   -2.554   -1.931   -1.426   -1.096   -0.922   -0.866   -0.847   -0.839   -0.812   -0.770   -0.730   -0.696   -0.680   -0.694   -0.724   -0.755   -0.771   -0.779   -0.766   -0.752   -0.759   -0.782   -0.843   -0.948   -1.118   -1.362   -1.658   -2.011   -2.416   -2.871   -3.374   -3.945   -4.587   -5.327   -6.146   -7.021   -7.884   -8.679   -9.388  -10.001  -10.561  -11.092  -11.620  -12.166  -12.729  -13.315  -13.918  -14.529  -15.116  -15.651  -16.111  -16.482  -16.763  -16.977  -17.153  -17.316  -17.496  -17.694  -17.910  -18.155  -18.430  -18.744  -19.111  -19.536  -20.007  -20.502  -21.002  -21.489  -21.953  -22.386  -22.816  -23.289  -23.899  -24.757  -25.970  -27.594  -29.570  -31.729  -33.795  -35.520  -36.753  -37.458  -37.714  -37.663  -37.465  -37.284  -37.245  -37.434  -37.891  -38.609  -39.530  -40.542  -41.481  -42.159  -42.393
  -2.778   -2.622   -2.481   -2.269   -1.988   -1.656   -1.325   -1.036   -0.831   -0.722   -0.689   -0.682   -0.695   -0.691   -0.676   -0.666   -0.656   -0.678   -0.724   -0.780   -0.822   -0.832   -0.813   -0.782   -0.740   -0.715   -0.712   -0.735   -0.782   -0.871   -0.988   -1.144   -1.333   -1.556   -1.821   -2.139   -2.515   -3.000   -3.601   -4.313   -5.095   -5.852   -6.521   -7.061   -7.472   -7.796   -8.069   -8.329   -8.614   -8.947   -9.355   -9.842  -10.414  -11.040  -11.705  -12.377  -13.031  -13.642  -14.202  -14.719  -15.209  -15.678  -16.121  -16.543  -16.947  -17.350  -17.765  -18.213  -18.696  -19.201  -19.708  -20.198  -20.650  -21.066  -21.446  -21.815  -22.240  -22.808  -23.618  -24.763  -26.278  -28.104  -30.066  -31.922  -33.444  -34.500  -35.070  -35.242  -35.155  -34.970  -34.834  -34.851  -35.094  -35.587  -36.313  -37.220  -38.205  -39.120  -39.791  -40.044
  -1.570   -1.464   -1.420   -1.333   -1.208   -1.061   -0.906   -0.762   -0.655   -0.607   -0.595   -0.604   -0.625   -0.640   -0.641   -0.642   -0.661   -0.721   -0.798   -0.866   -0.905   -0.894   -0.848   -0.784   -0.723   -0.688   -0.667   -0.669   -0.688   -0.724   -0.782   -0.859   -0.958   -1.068   -1.208   -1.386   -1.626   -1.953   -2.398   -2.953   -3.575   -4.176   -4.681   -5.065   -5.315   -5.469   -5.560   -5.645   -5.749   -5.919   -6.182   -6.570   -7.088   -7.731   -8.481   -9.308  -10.167  -11.020  -11.843  -12.643  -13.415  -14.151  -14.833  -15.453  -16.012  -16.528  -17.016  -17.496  -17.971  -18.435  -18.862  -19.247  -19.589  -19.893  -20.169  -20.450  -20.799  -21.298  -22.036  -23.084  -24.469  -26.137  -27.926  -29.624  -31.029  -32.011  -32.556  -32.740  -32.695  -32.571  -32.503  -32.587  -32.890  -33.429  -34.186  -35.114  -36.115  -37.043  -37.729  -38.005
  -1.001   -0.915   -0.888   -0.857   -0.799   -0.729   -0.664   -0.597   -0.559   -0.537   -0.537   -0.564   -0.600   -0.618   -0.633   -0.646   -0.689   -0.777   -0.889   -0.976   -0.997   -0.945   -0.862   -0.770   -0.691   -0.648   -0.624   -0.616   -0.621   -0.640   -0.667   -0.707   -0.751   -0.806   -0.877   -0.971   -1.105   -1.309   -1.595   -1.973   -2.401   -2.814   -3.155   -3.395   -3.532   -3.589   -3.600   -3.594   -3.605   -3.683   -3.850   -4.145   -4.593   -5.196   -5.949   -6.819   -7.753   -8.731   -9.717  -10.715  -11.715  -12.691  -13.610  -14.433  -15.157  -15.787  -16.337  -16.820  -17.248  -17.610  -17.908  -18.142  -18.335  -18.502  -18.662  -18.859  -19.144  -19.595  -20.278  -21.252  -22.531  -24.066  -25.724  -27.316  -28.664  -29.643  -30.234  -30.502  -30.557  -30.535  -30.556  -30.717  -31.077  -31.662  -32.458  -33.420  -34.447  -35.396  -36.097  -36.384
  -0.766   -0.686   -0.663   -0.641   -0.607   -0.578   -0.544   -0.514   -0.503   -0.494   -0.508   -0.531   -0.563   -0.590   -0.607   -0.633   -0.700   -0.823   -0.960   -1.051   -1.047   -0.959   -0.836   -0.719   -0.643   -0.601   -0.577   -0.569   -0.579   -0.581   -0.598   -0.623   -0.646   -0.675   -0.706   -0.760   -0.829   -0.938   -1.103   -1.319   -1.562   -1.808   -1.999   -2.131   -2.202   -2.224   -2.209   -2.182   -2.173   -2.213   -2.316   -2.526   -2.876   -3.374   -4.030   -4.816   -5.699   -6.651   -7.676   -8.771   -9.926  -11.103  -12.236  -13.267  -14.166  -14.921  -15.535  -16.029  -16.410  -16.675  -16.845  -16.944  -17.006  -17.066  -17.154  -17.307  -17.575  -18.021  -18.692  -19.629  -20.841  -22.265  -23.804  -25.305  -26.603  -27.599  -28.265  -28.650  -28.842  -28.957  -29.093  -29.342  -29.763  -30.395  -31.225  -32.204  -33.244  -34.194  -34.889  -35.159
  -0.657   -0.582   -0.571   -0.544   -0.523   -0.506   -0.489   -0.471   -0.464   -0.469   -0.475   -0.491   -0.519   -0.539   -0.560   -0.601   -0.681   -0.814   -0.963   -1.055   -1.042   -0.930   -0.782   -0.662   -0.589   -0.549   -0.534   -0.532   -0.531   -0.537   -0.550   -0.563   -0.580   -0.595   -0.620   -0.644   -0.681   -0.737   -0.820   -0.922   -1.044   -1.159   -1.257   -1.323   -1.355   -1.368   -1.359   -1.348   -1.338   -1.362   -1.428   -1.565   -1.798   -2.156   -2.638   -3.242   -3.957   -4.779   -5.719   -6.797   -8.004   -9.300  -10.595  -11.808  -12.875  -13.767  -14.474  -15.006  -15.373  -15.594  -15.696  -15.722  -15.725  -15.750  -15.830  -15.999  -16.300  -16.777  -17.467  -18.382  -19.517  -20.818  -22.213  -23.577  -24.786  -25.762  -26.479  -26.969  -27.304  -27.566  -27.834  -28.185  -28.686  -29.368  -30.228  -31.216  -32.242  -33.169  -33.839  -34.072
  -0.605   -0.534   -0.515   -0.497   -0.483   -0.467   -0.456   -0.449   -0.442   -0.437   -0.447   -0.454   -0.472   -0.484   -0.503   -0.543   -0.622   -0.747   -0.892   -0.977   -0.954   -0.843   -0.711   -0.599   -0.533   -0.501   -0.495   -0.491   -0.495   -0.505   -0.516   -0.527   -0.538   -0.549   -0.562   -0.578   -0.602   -0.628   -0.664   -0.715   -0.767   -0.815   -0.859   -0.888   -0.913   -0.917   -0.921   -0.920   -0.927   -0.941   -0.981   -1.054   -1.190   -1.404   -1.709   -2.105   -2.596   -3.204   -3.963   -4.908   -6.046   -7.329   -8.682  -10.000  -11.202  -12.225  -13.037  -13.640  -14.053  -14.297  -14.412  -14.460  -14.485  -14.548  -14.686  -14.929  -15.295  -15.819  -16.512  -17.370  -18.376  -19.503  -20.691  -21.846  -22.897  -23.782  -24.490  -25.037  -25.474  -25.859  -26.249  -26.709  -27.293  -28.037  -28.928  -29.923  -30.930  -31.827  -32.468  -32.671
  -0.577   -0.509   -0.491   -0.474   -0.461   -0.450   -0.441   -0.433   -0.427   -0.421   -0.418   -0.429   -0.434   -0.436   -0.452   -0.488   -0.547   -0.649   -0.755   -0.821   -0.812   -0.724   -0.624   -0.538   -0.489   -0.466   -0.458   -0.462   -0.470   -0.478   -0.487   -0.496   -0.505   -0.516   -0.526   -0.536   -0.547   -0.562   -0.585   -0.604   -0.630   -0.647   -0.670   -0.687   -0.701   -0.710   -0.715   -0.726   -0.727   -0.743   -0.765   -0.808   -0.875   -0.984   -1.142   -1.363   -1.653   -2.043   -2.578   -3.295   -4.235   -5.371   -6.636   -7.941   -9.180  -10.272  -11.164  -11.850  -12.340  -12.666  -12.868  -13.003  -13.125  -13.293  -13.542  -13.884  -14.338  -14.895  -15.548  -16.293  -17.118  -18.000  -18.912  -19.804  -20.629  -21.353  -21.973  -22.507  -22.978  -23.429  -23.901  -24.437  -25.090  -25.874  -26.788  -27.779  -28.766  -29.639  -30.269  -30.478
  -0.557   -0.491   -0.474   -0.458   -0.446   -0.435   -0.426   -0.419   -0.413   -0.408   -0.403   -0.401   -0.402   -0.411   -0.415   -0.438   -0.477   -0.539   -0.608   -0.653   -0.651   -0.595   -0.534   -0.472   -0.446   -0.438   -0.433   -0.440   -0.447   -0.454   -0.462   -0.470   -0.478   -0.487   -0.495   -0.504   -0.513   -0.522   -0.532   -0.545   -0.555   -0.575   -0.585   -0.597   -0.609   -0.616   -0.624   -0.633   -0.643   -0.653   -0.665   -0.684   -0.719   -0.769   -0.838   -0.942   -1.087   -1.305   -1.631   -2.104   -2.780   -3.654   -4.692   -5.823   -6.958   -8.003   -8.897   -9.621  -10.183  -10.607  -10.923  -11.179  -11.440  -11.753  -12.161  -12.641  -13.187  -13.768  -14.356  -14.943  -15.545  -16.145  -16.743  -17.335  -17.891  -18.400  -18.870  -19.314  -19.745  -20.187  -20.665  -21.217  -21.875  -22.652  -23.538  -24.493  -25.438  -26.282  -26.906  -27.153
  -0.540   -0.476   -0.460   -0.444   -0.432   -0.421   -0.413   -0.406   -0.400   -0.396   -0.392   -0.388   -0.386   -0.385   -0.391   -0.401   -0.422   -0.450   -0.490   -0.513   -0.513   -0.488   -0.456   -0.433   -0.418   -0.411   -0.416   -0.422   -0.428   -0.434   -0.440   -0.447   -0.454   -0.462   -0.469   -0.477   -0.485   -0.493   -0.501   -0.509   -0.517   -0.526   -0.534   -0.542   -0.550   -0.559   -0.567   -0.576   -0.584   -0.593   -0.602   -0.616   -0.635   -0.656   -0.690   -0.728   -0.796   -0.900   -1.067   -1.341   -1.756   -2.332   -3.063   -3.909   -4.806   -5.672   -6.462   -7.138   -7.711   -8.183   -8.591   -8.972   -9.381   -9.872  -10.452  -11.103  -11.757  -12.366  -12.885  -13.315  -13.680  -13.995  -14.288  -14.560  -14.826  -15.096  -15.371  -15.666  -15.998  -16.361  -16.775  -17.265  -17.852  -18.538  -19.321  -20.162  -21.013  -21.787  -22.375  -22.673
  -0.524   -0.462   -0.446   -0.431   -0.420   -0.410   -0.402   -0.395   -0.390   -0.385   -0.382   -0.379   -0.376   -0.374   -0.373   -0.375   -0.389   -0.402   -0.415   -0.432   -0.432   -0.419   -0.409   -0.401   -0.391   -0.395   -0.400   -0.405   -0.410   -0.416   -0.422   -0.428   -0.434   -0.440   -0.447   -0.453   -0.460   -0.467   -0.474   -0.482   -0.489   -0.496   -0.503   -0.511   -0.518   -0.526   -0.533   -0.540   -0.548   -0.556   -0.564   -0.572   -0.580   -0.592   -0.607   -0.628   -0.656   -0.701   -0.782   -0.917   -1.134   -1.460   -1.892   -2.424   -3.021   -3.634   -4.217   -4.760   -5.249   -5.701   -6.139   -6.600   -7.132   -7.780   -8.531   -9.333  -10.099  -10.732  -11.191  -11.486  -11.640  -11.706  -11.712  -11.697  -11.685  -11.710  -11.791  -11.927  -12.125  -12.375  -12.681  -13.051  -13.502  -14.032  -14.642  -15.293  -15.968  -16.603  -17.102  -17.428
  -0.510   -0.450   -0.435   -0.421   -0.410   -0.400   -0.393   -0.386   -0.381   -0.377   -0.373   -0.370   -0.368   -0.366   -0.365   -0.364   -0.365   -0.372   -0.381   -0.386   -0.387   -0.386   -0.379   -0.376   -0.379   -0.383   -0.387   -0.391   -0.395   -0.400   -0.406   -0.411   -0.416   -0.422   -0.428   -0.433   -0.439   -0.446   -0.452   -0.458   -0.464   -0.471   -0.477   -0.484   -0.490   -0.497   -0.504   -0.511   -0.518   -0.524   -0.531   -0.538   -0.546   -0.553   -0.561   -0.570   -0.588   -0.608   -0.645   -0.701   -0.801   -0.956   -1.175   -1.457   -1.785   -2.146   -2.510   -2.861   -3.223   -3.585   -3.977   -4.442   -5.021   -5.743   -6.585   -7.465   -8.270   -8.906   -9.311   -9.499   -9.502   -9.381   -9.172   -8.930   -8.693   -8.526   -8.439   -8.446   -8.530   -8.672   -8.869   -9.119   -9.420   -9.780  -10.191  -10.630  -11.095  -11.539  -11.903  -12.218
  -0.499   -0.440   -0.426   -0.412   -0.401   -0.392   -0.385   -0.379   -0.373   -0.369   -0.365   -0.363   -0.360   -0.359   -0.357   -0.357   -0.356   -0.356   -0.357   -0.358   -0.360   -0.361   -0.364   -0.367   -0.369   -0.372   -0.376   -0.379   -0.383   -0.387   -0.392   -0.396   -0.401   -0.406   -0.411   -0.416   -0.422   -0.427   -0.433   -0.438   -0.444   -0.450   -0.455   -0.461   -0.467   -0.473   -0.479   -0.485   -0.491   -0.497   -0.503   -0.510   -0.517   -0.524   -0.531   -0.538   -0.545   -0.554   -0.572   -0.601   -0.636   -0.703   -0.797   -0.926   -1.075   -1.249   -1.435   -1.638   -1.849   -2.092   -2.396   -2.794   -3.324   -3.997   -4.795   -5.613   -6.355   -6.922   -7.250   -7.362   -7.284   -7.061   -6.746   -6.381   -6.036   -5.765   -5.593   -5.523   -5.537   -5.610   -5.727   -5.887   -6.093   -6.327   -6.599   -6.894   -7.193   -7.478   -7.721   -7.989
  -0.490   -0.432   -0.418   -0.405   -0.394   -0.385   -0.378   -0.372   -0.367   -0.363   -0.359   -0.357   -0.354   -0.353   -0.351   -0.350   -0.350   -0.350   -0.350   -0.351   -0.352   -0.354   -0.355   -0.358   -0.360   -0.363   -0.366   -0.370   -0.373   -0.376   -0.380   -0.384   -0.388   -0.393   -0.397   -0.402   -0.407   -0.411   -0.416   -0.421   -0.426   -0.431   -0.437   -0.442   -0.447   -0.452   -0.458   -0.464   -0.469   -0.475   -0.480   -0.486   -0.492   -0.498   -0.504   -0.511   -0.517   -0.525   -0.531   -0.544   -0.564   -0.592   -0.626   -0.672   -0.736   -0.808   -0.888   -0.984   -1.091   -1.235   -1.432   -1.716   -2.125   -2.649   -3.268   -3.908   -4.482   -4.911   -5.150   -5.201   -5.101   -4.881   -4.559   -4.204   -3.875   -3.608   -3.437   -3.350   -3.332   -3.373   -3.448   -3.571   -3.725   -3.930   -4.165   -4.414   -4.664   -4.894   -5.077   -5.308
  -0.483   -0.426   -0.412   -0.399   -0.389   -0.380   -0.373   -0.367   -0.362   -0.358   -0.355   -0.352   -0.350   -0.348   -0.347   -0.346   -0.345   -0.345   -0.345   -0.346   -0.347   -0.348   -0.349   -0.351   -0.353   -0.356   -0.358   -0.361   -0.364   -0.367   -0.371   -0.374   -0.378   -0.382   -0.386   -0.390   -0.394   -0.398   -0.403   -0.407   -0.412   -0.416   -0.421   -0.426   -0.431   -0.435   -0.440   -0.445   -0.450   -0.455   -0.460   -0.466   -0.471   -0.477   -0.482   -0.488   -0.494   -0.500   -0.507   -0.513   -0.520   -0.532   -0.552   -0.569   -0.593   -0.621   -0.650   -0.692   -0.743   -0.820   -0.927   -1.099   -1.354   -1.699   -2.089   -2.499   -2.866   -3.134   -3.275   -3.300   -3.221   -3.053   -2.823   -2.566   -2.325   -2.135   -2.010   -1.941   -1.929   -1.953   -2.018   -2.127   -2.288   -2.515   -2.783   -3.082   -3.376   -3.636   -3.832   -4.042
  -0.478   -0.422   -0.408   -0.395   -0.385   -0.377   -0.370   -0.364   -0.359   -0.355   -0.352   -0.349   -0.347   -0.345   -0.344   -0.343   -0.342   -0.342   -0.342   -0.342   -0.343   -0.344   -0.345   -0.346   -0.348   -0.350   -0.352   -0.355   -0.358   -0.360   -0.363   -0.367   -0.370   -0.373   -0.377   -0.381   -0.384   -0.388   -0.392   -0.396   -0.400   -0.404   -0.408   -0.413   -0.417   -0.422   -0.426   -0.430   -0.435   -0.440   -0.444   -0.449   -0.454   -0.459   -0.464   -0.469   -0.475   -0.481   -0.486   -0.492   -0.498   -0.505   -0.511   -0.521   -0.529   -0.549   -0.559   -0.580   -0.600   -0.637   -0.696   -0.780   -0.918   -1.088   -1.296   -1.510   -1.699   -1.840   -1.911   -1.927   -1.880   -1.783   -1.655   -1.509   -1.379   -1.272   -1.212   -1.178   -1.173   -1.196   -1.253   -1.356   -1.519   -1.765   -2.078   -2.438   -2.801   -3.123   -3.368   -3.590
  -0.476   -0.420   -0.406   -0.393   -0.383   -0.375   -0.368   -0.363   -0.358   -0.354   -0.351   -0.348   -0.346   -0.344   -0.342   -0.341   -0.341   -0.340   -0.340   -0.340   -0.341   -0.342   -0.343   -0.344   -0.345   -0.347   -0.349   -0.351   -0.353   -0.356   -0.359   -0.361   -0.364   -0.367   -0.371   -0.374   -0.377   -0.381   -0.384   -0.388   -0.392   -0.395   -0.399   -0.403   -0.407   -0.411   -0.415   -0.419   -0.423   -0.428   -0.432   -0.436   -0.441   -0.445   -0.450   -0.455   -0.460   -0.465   -0.470   -0.475   -0.481   -0.487   -0.492   -0.498   -0.504   -0.510   -0.517   -0.527   -0.542   -0.560   -0.586   -0.625   -0.684   -0.755   -0.852   -0.945   -1.020   -1.087   -1.116   -1.123   -1.101   -1.065   -1.013   -0.952   -0.899   -0.858   -0.831   -0.818   -0.822   -0.847   -0.887   -0.974   -1.127   -1.366   -1.679   -2.047   -2.449   -2.832   -3.121   -3.357
  -0.478   -0.421   -0.408   -0.395   -0.385   -0.376   -0.370   -0.364   -0.360   -0.356   -0.352   -0.350   -0.347   -0.345   -0.344   -0.343   -0.342   -0.341   -0.341   -0.341   -0.342   -0.342   -0.343   -0.344   -0.345   -0.347   -0.348   -0.350   -0.352   -0.354   -0.357   -0.359   -0.362   -0.364   -0.367   -0.370   -0.373   -0.376   -0.380   -0.383   -0.386   -0.390   -0.393   -0.397   -0.400   -0.404   -0.408   -0.411   -0.415   -0.419   -0.423   -0.427   -0.431   -0.435   -0.440   -0.444   -0.449   -0.453   -0.458   -0.463   -0.468   -0.473   -0.478   -0.484   -0.489   -0.495   -0.501   -0.507   -0.512   -0.521   -0.536   -0.554   -0.578   -0.606   -0.641   -0.673   -0.705   -0.729   -0.737   -0.744   -0.746   -0.736   -0.722   -0.708   -0.694   -0.679   -0.670   -0.676   -0.681   -0.699   -0.728   -0.791   -0.911   -1.099   -1.370   -1.714   -2.106   -2.495   -2.814   -3.065
  -0.484   -0.423   -0.410   -0.397   -0.386   -0.378   -0.372   -0.366   -0.361   -0.357   -0.354   -0.351   -0.349   -0.347   -0.346   -0.344   -0.343   -0.343   -0.343   -0.342   -0.343   -0.343   -0.344   -0.344   -0.346   -0.347   -0.348   -0.350   -0.351   -0.353   -0.355   -0.357   -0.360   -0.362   -0.365   -0.367   -0.370   -0.373   -0.376   -0.379   -0.382   -0.385   -0.388   -0.391   -0.395   -0.398   -0.401   -0.405   -0.409   -0.412   -0.416   -0.420   -0.423   -0.427   -0.431   -0.435   -0.439   -0.444   -0.448   -0.452   -0.457   -0.462   -0.466   -0.471   -0.476   -0.481   -0.486   -0.492   -0.497   -0.503   -0.508   -0.516   -0.530   -0.544   -0.553   -0.570   -0.584   -0.589   -0.595   -0.601   -0.607   -0.613   -0.607   -0.606   -0.608   -0.611   -0.607   -0.609   -0.616   -0.632   -0.657   -0.699   -0.777   -0.916   -1.121   -1.419   -1.779   -2.165   -2.486   -2.751
  -0.618   -0.471   -0.453   -0.439   -0.428   -0.420   -0.413   -0.407   -0.402   -0.398   -0.394   -0.391   -0.389   -0.387   -0.385   -0.384   -0.383   -0.382   -0.381   -0.381   -0.381   -0.381   -0.381   -0.382   -0.383   -0.384   -0.385   -0.386   -0.388   -0.389   -0.391   -0.393   -0.395   -0.397   -0.399   -0.402   -0.404   -0.407   -0.409   -0.412   -0.415   -0.418   -0.421   -0.424   -0.427   -0.430   -0.433   -0.437   -0.440   -0.444   -0.447   -0.451   -0.455   -0.458   -0.462   -0.466   -0.470   -0.474   -0.478   -0.482   -0.487   -0.491   -0.496   -0.501   -0.505   -0.510   -0.515   -0.521   -0.526   -0.531   -0.537   -0.542   -0.547   -0.553   -0.561   -0.569   -0.588   -0.595   -0.601   -0.607   -0.612   -0.606   -0.607   -0.613   -0.616   -0.622   -0.628   -0.634   -0.639   -0.647   -0.671   -0.700   -0.761   -0.875   -1.053   -1.311   -1.657   -2.027   -2.355   -2.730
