DSAA
 100 100
 0.0 400.0
 0.0 400.0
 -80.98858 -0.1453645
  -8.774   -8.865   -8.999   -9.199   -9.469   -9.792  -10.135  -10.457  -10.702  -10.818  -10.745  -10.412   -9.759   -8.787   -7.588   -6.354   -5.321   -4.658   -4.402   -4.473   -4.768   -5.200   -5.731   -6.339   -6.973   -7.536   -7.910   -8.003   -7.796   -7.317   -6.610   -5.753   -4.856   -4.071   -3.540   -3.306   -3.308   -3.430   -3.559   -3.630   -3.621   -3.548   -3.444   -3.350   -3.294   -3.292   -3.344   -3.430   -3.529   -3.637   -3.755   -3.889   -4.025   -4.110   -4.066   -3.814   -3.316   -2.630   -1.886   -1.233   -0.762   -0.474   -0.320   -0.249   -0.223   -0.207   -0.203   -0.198   -0.195   -0.190   -0.187   -0.187   -0.188   -0.189   -0.190   -0.192   -0.188   -0.187   -0.190   -0.197   -0.203   -0.207   -0.211   -0.223   -0.237   -0.263   -0.303   -0.369   -0.472   -0.625   -0.850   -1.139   -1.493   -1.900   -2.375   -2.937   -3.583   -4.245   -4.794   -5.152
  -8.686   -8.763   -8.879   -9.053   -9.285   -9.566   -9.873  -10.160  -10.380  -10.483  -10.411  -10.100   -9.485   -8.562   -7.412   -6.223   -5.211   -4.545   -4.267   -4.308   -4.562   -4.958   -5.455   -6.033   -6.643   -7.197   -7.591   -7.740   -7.622   -7.248   -6.651   -5.877   -5.037   -4.274   -3.715   -3.409   -3.319   -3.354   -3.430   -3.478   -3.470   -3.411   -3.327   -3.251   -3.213   -3.223   -3.281   -3.368   -3.463   -3.563   -3.676   -3.806   -3.943   -4.043   -4.027   -3.820   -3.380   -2.750   -2.043   -1.398   -0.906   -0.585   -0.403   -0.311   -0.266   -0.246   -0.233   -0.223   -0.212   -0.205   -0.196   -0.190   -0.189   -0.188   -0.185   -0.186   -0.186   -0.189   -0.191   -0.195   -0.199   -0.209   -0.217   -0.239   -0.270   -0.323   -0.407   -0.535   -0.720   -0.979   -1.326   -1.758   -2.248   -2.779   -3.355   -3.990   -4.685   -5.372   -5.921   -6.246
  -8.439   -8.499   -8.578   -8.698   -8.857   -9.055   -9.280   -9.494   -9.654   -9.721   -9.647   -9.377   -8.853   -8.058   -7.054   -5.990   -5.055   -4.407   -4.093   -4.071   -4.249   -4.562   -4.978   -5.474   -6.006   -6.512   -6.911   -7.145   -7.183   -7.008   -6.619   -6.043   -5.354   -4.667   -4.089   -3.669   -3.401   -3.262   -3.213   -3.208   -3.208   -3.192   -3.168   -3.154   -3.173   -3.223   -3.292   -3.364   -3.426   -3.494   -3.574   -3.684   -3.809   -3.919   -3.947   -3.826   -3.508   -3.007   -2.400   -1.799   -1.290   -0.918   -0.678   -0.538   -0.464   -0.426   -0.398   -0.374   -0.343   -0.311   -0.290   -0.273   -0.264   -0.259   -0.257   -0.253   -0.251   -0.252   -0.256   -0.263   -0.274   -0.289   -0.312   -0.358   -0.437   -0.574   -0.774   -1.053   -1.423   -1.901   -2.488   -3.166   -3.884   -4.593   -5.289   -5.989   -6.696   -7.353   -7.861   -8.116
  -7.981   -8.015   -8.049   -8.096   -8.161   -8.258   -8.383   -8.509   -8.597   -8.616   -8.536   -8.316   -7.910   -7.293   -6.497   -5.623   -4.824   -4.229   -3.901   -3.814   -3.900   -4.106   -4.406   -4.781   -5.193   -5.604   -5.976   -6.271   -6.458   -6.502   -6.370   -6.059   -5.605   -5.073   -4.520   -3.989   -3.522   -3.169   -2.954   -2.874   -2.880   -2.941   -3.041   -3.173   -3.327   -3.470   -3.569   -3.604   -3.584   -3.550   -3.540   -3.577   -3.662   -3.762   -3.835   -3.813   -3.640   -3.313   -2.863   -2.360   -1.884   -1.489   -1.199   -1.013   -0.904   -0.844   -0.796   -0.744   -0.675   -0.604   -0.544   -0.507   -0.488   -0.479   -0.471   -0.459   -0.448   -0.444   -0.449   -0.468   -0.491   -0.526   -0.584   -0.683   -0.862   -1.148   -1.555   -2.081   -2.718   -3.465   -4.311   -5.213   -6.099   -6.910   -7.632   -8.297   -8.919   -9.475   -9.884  -10.040
  -7.276   -7.272   -7.253   -7.221   -7.192   -7.189   -7.219   -7.258   -7.279   -7.255   -7.170   -7.006   -6.731   -6.318   -5.768   -5.137   -4.526   -4.042   -3.739   -3.615   -3.625   -3.727   -3.896   -4.121   -4.377   -4.649   -4.936   -5.225   -5.500   -5.726   -5.859   -5.866   -5.726   -5.420   -4.943   -4.337   -3.692   -3.128   -2.743   -2.572   -2.585   -2.755   -3.043   -3.417   -3.807   -4.129   -4.302   -4.295   -4.141   -3.928   -3.746   -3.643   -3.626   -3.670   -3.745   -3.795   -3.765   -3.619   -3.358   -3.014   -2.636   -2.285   -1.995   -1.792   -1.670   -1.600   -1.542   -1.460   -1.345   -1.216   -1.110   -1.045   -1.015   -1.001   -0.984   -0.958   -0.934   -0.925   -0.936   -0.974   -1.027   -1.098   -1.206   -1.399   -1.725   -2.227   -2.896   -3.699   -4.598   -5.567   -6.574   -7.571   -8.472   -9.228   -9.840  -10.357  -10.814  -11.210  -11.489  -11.543
  -6.358   -6.314   -6.237   -6.129   -6.007   -5.915   -5.863   -5.837   -5.807   -5.752   -5.675   -5.569   -5.428   -5.225   -4.939   -4.580   -4.201   -3.876   -3.655   -3.540   -3.509   -3.528   -3.581   -3.655   -3.737   -3.839   -3.977   -4.182   -4.461   -4.811   -5.200   -5.568   -5.802   -5.775   -5.418   -4.771   -3.987   -3.248   -2.703   -2.421   -2.417   -2.684   -3.190   -3.858   -4.565   -5.145   -5.460   -5.456   -5.183   -4.777   -4.377   -4.064   -3.864   -3.775   -3.784   -3.850   -3.918   -3.930   -3.854   -3.688   -3.464   -3.220   -2.995   -2.826   -2.730   -2.678   -2.632   -2.542   -2.399   -2.232   -2.093   -2.010   -1.978   -1.967   -1.947   -1.913   -1.880   -1.868   -1.892   -1.956   -2.048   -2.174   -2.356   -2.659   -3.150   -3.859   -4.756   -5.763   -6.822   -7.887   -8.927   -9.875  -10.655  -11.222  -11.612  -11.900  -12.155  -12.381  -12.536  -12.512
  -5.370   -5.279   -5.144   -4.961   -4.763   -4.597   -4.487   -4.417   -4.361   -4.296   -4.228   -4.178   -4.163   -4.163   -4.140   -4.063   -3.938   -3.806   -3.707   -3.649   -3.615   -3.591   -3.559   -3.510   -3.436   -3.358   -3.318   -3.372   -3.573   -3.976   -4.585   -5.304   -5.918   -6.186   -5.980   -5.353   -4.499   -3.648   -2.967   -2.545   -2.447   -2.726   -3.383   -4.321   -5.344   -6.213   -6.734   -6.823   -6.539   -6.031   -5.461   -4.928   -4.487   -4.185   -4.052   -4.074   -4.183   -4.295   -4.353   -4.342   -4.270   -4.156   -4.034   -3.938   -3.899   -3.898   -3.895   -3.840   -3.716   -3.562   -3.431   -3.364   -3.353   -3.358   -3.352   -3.324   -3.295   -3.291   -3.333   -3.425   -3.564   -3.748   -4.007   -4.410   -5.017   -5.851   -6.852   -7.926   -9.008  -10.062  -11.046  -11.879  -12.466  -12.778  -12.884  -12.913  -12.958  -13.037  -13.097  -13.015
  -4.510   -4.376   -4.179   -3.924   -3.662   -3.451   -3.310   -3.226   -3.168   -3.106   -3.052   -3.050   -3.140   -3.320   -3.539   -3.729   -3.854   -3.923   -3.961   -3.981   -3.982   -3.950   -3.877   -3.749   -3.565   -3.342   -3.127   -2.996   -3.057   -3.422   -4.144   -5.105   -6.009   -6.538   -6.517   -6.010   -5.227   -4.389   -3.631   -3.042   -2.739   -2.877   -3.532   -4.608   -5.859   -6.981   -7.735   -8.007   -7.846   -7.389   -6.778   -6.104   -5.445   -4.907   -4.596   -4.533   -4.634   -4.782   -4.903   -4.970   -4.992   -4.978   -4.949   -4.931   -4.955   -5.020   -5.085   -5.103   -5.052   -4.959   -4.887   -4.871   -4.898   -4.935   -4.949   -4.943   -4.932   -4.946   -5.009   -5.130   -5.309   -5.543   -5.862   -6.321   -6.972   -7.818   -8.791   -9.805  -10.813  -11.795  -12.702  -13.415  -13.812  -13.861  -13.677  -13.445  -13.299  -13.254  -13.241  -13.120
  -3.961   -3.785   -3.520   -3.190   -2.880   -2.641   -2.501   -2.433   -2.393   -2.350   -2.316   -2.355   -2.537   -2.866   -3.284   -3.697   -4.038   -4.283   -4.449   -4.546   -4.584   -4.565   -4.481   -4.323   -4.080   -3.766   -3.415   -3.105   -2.977   -3.197   -3.861   -4.862   -5.887   -6.587   -6.783   -6.532   -6.010   -5.370   -4.656   -3.918   -3.325   -3.152   -3.602   -4.636   -5.977   -7.271   -8.227   -8.714   -8.758   -8.467   -7.939   -7.242   -6.467   -5.773   -5.334   -5.201   -5.274   -5.409   -5.514   -5.574   -5.608   -5.627   -5.642   -5.677   -5.758   -5.889   -6.031   -6.137   -6.181   -6.181   -6.188   -6.230   -6.297   -6.354   -6.378   -6.381   -6.389   -6.426   -6.513   -6.660   -6.869   -7.139   -7.488   -7.955   -8.578   -9.355  -10.218  -11.102  -11.986  -12.875  -13.707  -14.318  -14.551  -14.374  -13.936  -13.479  -13.166  -13.016  -12.941  -12.792
  -3.795   -3.574   -3.237   -2.833   -2.470   -2.222   -2.098   -2.063   -2.061   -2.054   -2.058   -2.156   -2.418   -2.865   -3.431   -4.008   -4.500   -4.870   -5.120   -5.268   -5.330   -5.319   -5.235   -5.071   -4.809   -4.445   -4.000   -3.541   -3.209   -3.189   -3.621   -4.444   -5.392   -6.161   -6.586   -6.701   -6.607   -6.333   -5.806   -5.002   -4.122   -3.556   -3.652   -4.474   -5.763   -7.118   -8.202   -8.855   -9.082   -8.972   -8.591   -7.977   -7.228   -6.530   -6.084   -5.944   -5.999   -6.089   -6.129   -6.120   -6.097   -6.083   -6.098   -6.159   -6.284   -6.474   -6.693   -6.888   -7.021   -7.101   -7.167   -7.247   -7.323   -7.361   -7.356   -7.333   -7.335   -7.392   -7.508   -7.688   -7.921   -8.205   -8.541   -8.963   -9.506  -10.166  -10.887  -11.615  -12.358  -13.139  -13.885  -14.405  -14.508  -14.164  -13.544  -12.922  -12.481  -12.231  -12.089  -11.917
  -3.972   -3.716   -3.305   -2.828   -2.417   -2.159   -2.056   -2.054   -2.091   -2.124   -2.192   -2.366   -2.721   -3.259   -3.911   -4.570   -5.141   -5.570   -5.851   -6.004   -6.061   -6.041   -5.950   -5.780   -5.512   -5.123   -4.613   -4.033   -3.508   -3.222   -3.326   -3.826   -4.558   -5.300   -5.924   -6.429   -6.819   -6.981   -6.727   -5.976   -4.918   -4.008   -3.727   -4.253   -5.380   -6.685   -7.786   -8.497   -8.817   -8.828   -8.593   -8.142   -7.560   -7.017   -6.688   -6.605   -6.653   -6.690   -6.652   -6.560   -6.461   -6.391   -6.379   -6.443   -6.600   -6.841   -7.127   -7.396   -7.598   -7.722   -7.804   -7.868   -7.899   -7.867   -7.778   -7.682   -7.649   -7.713   -7.867   -8.080   -8.326   -8.583   -8.855   -9.180   -9.596  -10.112  -10.679  -11.250  -11.848  -12.505  -13.148  -13.574  -13.583  -13.145  -12.436  -11.731  -11.201  -10.858  -10.636  -10.456
  -4.391   -4.113   -3.652   -3.121   -2.675   -2.399   -2.299   -2.307   -2.355   -2.433   -2.575   -2.853   -3.301   -3.902   -4.583   -5.249   -5.816   -6.231   -6.486   -6.599   -6.614   -6.557   -6.440   -6.256   -5.978   -5.567   -5.014   -4.347   -3.671   -3.152   -2.948   -3.115   -3.589   -4.241   -4.990   -5.798   -6.580   -7.116   -7.147   -6.538   -5.464   -4.382   -3.827   -4.066   -4.965   -6.118   -7.129   -7.793   -8.112   -8.181   -8.077   -7.838   -7.521   -7.245   -7.108   -7.111   -7.155   -7.141   -7.047   -6.903   -6.755   -6.645   -6.602   -6.660   -6.825   -7.093   -7.416   -7.724   -7.951   -8.073   -8.115   -8.105   -8.039   -7.890   -7.675   -7.475   -7.384   -7.445   -7.623   -7.852   -8.078   -8.266   -8.426   -8.603   -8.862   -9.218   -9.634  -10.064  -10.525  -11.050  -11.574  -11.907  -11.863  -11.415  -10.725  -10.025   -9.459   -9.038   -8.736   -8.551
  -4.921   -4.649   -4.181   -3.638   -3.173   -2.876   -2.743   -2.720   -2.759   -2.863   -3.087   -3.473   -4.014   -4.652   -5.309   -5.917   -6.410   -6.748   -6.920   -6.951   -6.885   -6.764   -6.602   -6.387   -6.088   -5.665   -5.089   -4.377   -3.618   -2.960   -2.553   -2.490   -2.760   -3.303   -4.067   -5.000   -5.972   -6.725   -6.971   -6.561   -5.625   -4.572   -3.907   -3.933   -4.589   -5.532   -6.388   -6.956   -7.236   -7.334   -7.348   -7.329   -7.304   -7.315   -7.376   -7.454   -7.487   -7.443   -7.336   -7.205   -7.071   -6.956   -6.898   -6.935   -7.078   -7.317   -7.607   -7.880   -8.071   -8.140   -8.098   -7.975   -7.780   -7.502   -7.164   -6.862   -6.706   -6.735   -6.897   -7.101   -7.263   -7.349   -7.371   -7.393   -7.491   -7.707   -8.003   -8.326   -8.678   -9.081   -9.479   -9.723   -9.663   -9.282   -8.703   -8.093   -7.544   -7.077   -6.716   -6.531
  -5.434   -5.189   -4.762   -4.253   -3.794   -3.467   -3.276   -3.192   -3.195   -3.320   -3.618   -4.107   -4.723   -5.378   -5.988   -6.498   -6.872   -7.087   -7.136   -7.051   -6.880   -6.671   -6.443   -6.183   -5.860   -5.432   -4.862   -4.161   -3.404   -2.726   -2.271   -2.127   -2.299   -2.740   -3.406   -4.253   -5.176   -5.952   -6.316   -6.115   -5.425   -4.559   -3.939   -3.852   -4.302   -5.035   -5.740   -6.226   -6.483   -6.609   -6.713   -6.859   -7.057   -7.284   -7.483   -7.599   -7.611   -7.558   -7.496   -7.445   -7.387   -7.315   -7.261   -7.267   -7.349   -7.491   -7.665   -7.821   -7.905   -7.872   -7.720   -7.478   -7.172   -6.804   -6.398   -6.040   -5.831   -5.805   -5.905   -6.029   -6.095   -6.067   -5.966   -5.865   -5.856   -5.982   -6.211   -6.484   -6.773   -7.075   -7.349   -7.498   -7.433   -7.148   -6.718   -6.232   -5.741   -5.276   -4.900   -4.722
  -5.795   -5.600   -5.242   -4.802   -4.369   -4.012   -3.758   -3.607   -3.580   -3.727   -4.096   -4.662   -5.329   -5.981   -6.536   -6.948   -7.204   -7.290   -7.208   -6.995   -6.707   -6.401   -6.098   -5.792   -5.450   -5.031   -4.503   -3.875   -3.208   -2.625   -2.256   -2.166   -2.333   -2.679   -3.156   -3.750   -4.422   -5.043   -5.416   -5.392   -4.981   -4.376   -3.893   -3.786   -4.111   -4.706   -5.320   -5.777   -6.042   -6.181   -6.309   -6.508   -6.793   -7.104   -7.350   -7.456   -7.438   -7.389   -7.398   -7.461   -7.513   -7.509   -7.470   -7.444   -7.449   -7.466   -7.476   -7.467   -7.404   -7.251   -6.994   -6.664   -6.304   -5.927   -5.551   -5.222   -5.009   -4.937   -4.954   -4.980   -4.939   -4.815   -4.637   -4.479   -4.422   -4.510   -4.715   -4.972   -5.224   -5.437   -5.588   -5.629   -5.528   -5.301   -4.982   -4.603   -4.189   -3.770   -3.426   -3.277
  -5.901   -5.755   -5.477   -5.114   -4.726   -4.363   -4.068   -3.884   -3.856   -4.041   -4.460   -5.067   -5.748   -6.381   -6.887   -7.234   -7.408   -7.402   -7.224   -6.915   -6.535   -6.147   -5.781   -5.435   -5.089   -4.705   -4.258   -3.754   -3.244   -2.831   -2.625   -2.665   -2.873   -3.128   -3.366   -3.612   -3.914   -4.255   -4.528   -4.597   -4.405   -4.043   -3.725   -3.673   -3.971   -4.523   -5.124   -5.599   -5.880   -6.006   -6.085   -6.224   -6.460   -6.734   -6.936   -6.986   -6.919   -6.861   -6.915   -7.064   -7.201   -7.249   -7.222   -7.174   -7.121   -7.043   -6.927   -6.782   -6.602   -6.357   -6.033   -5.677   -5.339   -5.052   -4.810   -4.617   -4.492   -4.436   -4.402   -4.338   -4.206   -4.009   -3.792   -3.613   -3.535   -3.586   -3.750   -3.962   -4.149   -4.266   -4.287   -4.205   -4.030   -3.797   -3.524   -3.223   -2.894   -2.562   -2.294   -2.191
  -5.691   -5.576   -5.367   -5.079   -4.747   -4.414   -4.136   -3.969   -3.981   -4.215   -4.668   -5.277   -5.930   -6.529   -7.006   -7.330   -7.482   -7.455   -7.251   -6.913   -6.498   -6.072   -5.677   -5.322   -4.991   -4.669   -4.328   -3.970   -3.635   -3.409   -3.378   -3.542   -3.786   -3.948   -3.950   -3.846   -3.759   -3.770   -3.844   -3.880   -3.784   -3.582   -3.412   -3.457   -3.807   -4.393   -5.032   -5.544   -5.830   -5.910   -5.895   -5.914   -6.030   -6.199   -6.308   -6.280   -6.152   -6.048   -6.078   -6.221   -6.363   -6.410   -6.376   -6.321   -6.261   -6.176   -6.041   -5.867   -5.657   -5.393   -5.072   -4.753   -4.506   -4.378   -4.351   -4.379   -4.429   -4.458   -4.419   -4.279   -4.050   -3.779   -3.520   -3.321   -3.207   -3.185   -3.242   -3.336   -3.403   -3.396   -3.290   -3.097   -2.848   -2.588   -2.342   -2.103   -1.866   -1.643   -1.474   -1.425
  -5.181   -5.081   -4.912   -4.684   -4.417   -4.152   -3.943   -3.851   -3.935   -4.224   -4.687   -5.263   -5.862   -6.418   -6.883   -7.230   -7.426   -7.452   -7.306   -7.022   -6.648   -6.249   -5.869   -5.534   -5.246   -4.994   -4.756   -4.525   -4.332   -4.247   -4.332   -4.565   -4.805   -4.877   -4.696   -4.328   -3.933   -3.636   -3.467   -3.363   -3.247   -3.115   -3.061   -3.224   -3.661   -4.310   -4.990   -5.511   -5.765   -5.768   -5.638   -5.522   -5.506   -5.558   -5.578   -5.486   -5.305   -5.135   -5.076   -5.118   -5.170   -5.160   -5.100   -5.060   -5.058   -5.067   -5.046   -4.976   -4.848   -4.649   -4.395   -4.159   -4.030   -4.068   -4.254   -4.511   -4.744   -4.860   -4.798   -4.556   -4.202   -3.832   -3.527   -3.307   -3.150   -3.031   -2.945   -2.872   -2.792   -2.661   -2.459   -2.199   -1.920   -1.669   -1.463   -1.293   -1.153   -1.036   -0.954   -0.949
  -4.494   -4.384   -4.229   -4.033   -3.832   -3.660   -3.556   -3.573   -3.744   -4.074   -4.521   -5.034   -5.561   -6.067   -6.532   -6.930   -7.219   -7.363   -7.350   -7.192   -6.931   -6.617   -6.301   -6.015   -5.778   -5.584   -5.414   -5.256   -5.132   -5.103   -5.214   -5.432   -5.621   -5.616   -5.333   -4.838   -4.278   -3.787   -3.421   -3.162   -2.981   -2.885   -2.942   -3.227   -3.761   -4.454   -5.126   -5.588   -5.741   -5.606   -5.319   -5.049   -4.895   -4.842   -4.792   -4.670   -4.467   -4.250   -4.091   -4.003   -3.932   -3.844   -3.770   -3.778   -3.892   -4.080   -4.266   -4.392   -4.416   -4.332   -4.179   -4.033   -3.995   -4.132   -4.434   -4.810   -5.122   -5.242   -5.097   -4.717   -4.223   -3.765   -3.423   -3.198   -3.021   -2.837   -2.634   -2.431   -2.231   -2.018   -1.774   -1.512   -1.262   -1.061   -0.921   -0.825   -0.757   -0.718   -0.699   -0.729
  -3.847   -3.712   -3.535   -3.342   -3.187   -3.104   -3.117   -3.239   -3.482   -3.822   -4.217   -4.639   -5.071   -5.516   -5.976   -6.433   -6.836   -7.136   -7.300   -7.324   -7.228   -7.047   -6.830   -6.614   -6.424   -6.257   -6.101   -5.943   -5.806   -5.745   -5.791   -5.918   -6.014   -5.944   -5.642   -5.152   -4.590   -4.067   -3.636   -3.322   -3.136   -3.121   -3.318   -3.747   -4.371   -5.070   -5.661   -5.972   -5.924   -5.567   -5.058   -4.583   -4.259   -4.078   -3.959   -3.817   -3.625   -3.400   -3.195   -3.023   -2.877   -2.756   -2.704   -2.798   -3.068   -3.463   -3.878   -4.207   -4.392   -4.430   -4.369   -4.288   -4.281   -4.411   -4.681   -5.011   -5.252   -5.265   -4.980   -4.463   -3.871   -3.369   -3.034   -2.831   -2.661   -2.460   -2.211   -1.951   -1.705   -1.475   -1.255   -1.048   -0.875   -0.751   -0.679   -0.642   -0.629   -0.634   -0.650   -0.695
  -3.492   -3.320   -3.092   -2.866   -2.725   -2.707   -2.806   -3.003   -3.268   -3.568   -3.870   -4.162   -4.467   -4.820   -5.247   -5.742   -6.252   -6.713   -7.076   -7.312   -7.414   -7.404   -7.312   -7.177   -7.024   -6.856   -6.661   -6.443   -6.226   -6.057   -5.972   -5.954   -5.930   -5.807   -5.535   -5.143   -4.708   -4.300   -3.961   -3.734   -3.668   -3.817   -4.197   -4.789   -5.498   -6.175   -6.632   -6.727   -6.416   -5.777   -4.997   -4.270   -3.730   -3.384   -3.162   -2.984   -2.799   -2.596   -2.395   -2.213   -2.068   -1.977   -2.001   -2.209   -2.630   -3.200   -3.793   -4.278   -4.585   -4.717   -4.729   -4.692   -4.672   -4.718   -4.842   -4.992   -5.044   -4.878   -4.447   -3.841   -3.220   -2.737   -2.439   -2.268   -2.120   -1.934   -1.699   -1.457   -1.238   -1.052   -0.896   -0.772   -0.692   -0.654   -0.642   -0.646   -0.663   -0.690   -0.720   -0.770
  -3.591   -3.381   -3.086   -2.805   -2.645   -2.646   -2.781   -2.990   -3.219   -3.423   -3.580   -3.701   -3.838   -4.061   -4.413   -4.896   -5.470   -6.069   -6.625   -7.082   -7.403   -7.586   -7.646   -7.606   -7.488   -7.297   -7.038   -6.723   -6.386   -6.075   -5.826   -5.641   -5.490   -5.315   -5.090   -4.830   -4.577   -4.369   -4.233   -4.205   -4.341   -4.693   -5.262   -5.993   -6.762   -7.401   -7.728   -7.624   -7.075   -6.194   -5.176   -4.222   -3.465   -2.936   -2.586   -2.338   -2.132   -1.943   -1.764   -1.613   -1.510   -1.491   -1.609   -1.929   -2.461   -3.133   -3.813   -4.368   -4.735   -4.929   -5.005   -5.013   -4.982   -4.938   -4.891   -4.817   -4.643   -4.292   -3.756   -3.124   -2.537   -2.104   -1.841   -1.682   -1.545   -1.386   -1.198   -1.017   -0.867   -0.752   -0.675   -0.640   -0.642   -0.670   -0.703   -0.730   -0.758   -0.794   -0.830   -0.879
  -4.105   -3.872   -3.527   -3.192   -2.997   -2.986   -3.108   -3.274   -3.411   -3.466   -3.440   -3.356   -3.302   -3.356   -3.587   -4.008   -4.586   -5.266   -5.973   -6.629   -7.169   -7.555   -7.778   -7.846   -7.771   -7.564   -7.239   -6.825   -6.366   -5.911   -5.504   -5.169   -4.899   -4.675   -4.486   -4.344   -4.272   -4.280   -4.372   -4.566   -4.898   -5.404   -6.080   -6.864   -7.630   -8.211   -8.437   -8.209   -7.543   -6.562   -5.456   -4.402   -3.525   -2.861   -2.388   -2.053   -1.797   -1.590   -1.421   -1.301   -1.249   -1.302   -1.505   -1.895   -2.466   -3.143   -3.804   -4.335   -4.696   -4.912   -5.043   -5.110   -5.106   -5.014   -4.840   -4.579   -4.218   -3.735   -3.151   -2.543   -2.013   -1.621   -1.369   -1.206   -1.077   -0.948   -0.822   -0.713   -0.636   -0.595   -0.586   -0.614   -0.669   -0.729   -0.778   -0.805   -0.830   -0.862   -0.894   -0.941
  -4.804   -4.580   -4.226   -3.874   -3.666   -3.639   -3.730   -3.825   -3.842   -3.731   -3.504   -3.221   -2.972   -2.859   -2.948   -3.260   -3.779   -4.465   -5.250   -6.045   -6.757   -7.316   -7.687   -7.861   -7.843   -7.643   -7.281   -6.797   -6.242   -5.674   -5.149   -4.702   -4.350   -4.086   -3.919   -3.861   -3.931   -4.121   -4.402   -4.763   -5.203   -5.746   -6.391   -7.099   -7.764   -8.238   -8.382   -8.119   -7.481   -6.589   -5.598   -4.642   -3.799   -3.108   -2.569   -2.157   -1.843   -1.607   -1.435   -1.336   -1.326   -1.433   -1.678   -2.077   -2.603   -3.188   -3.730   -4.148   -4.430   -4.623   -4.781   -4.911   -4.955   -4.859   -4.617   -4.247   -3.777   -3.235   -2.660   -2.114   -1.644   -1.290   -1.048   -0.886   -0.771   -0.684   -0.617   -0.572   -0.558   -0.571   -0.614   -0.674   -0.746   -0.807   -0.838   -0.844   -0.844   -0.859   -0.881   -0.923
  -5.452   -5.263   -4.957   -4.650   -4.469   -4.445   -4.507   -4.538   -4.441   -4.184   -3.798   -3.354   -2.957   -2.707   -2.669   -2.861   -3.281   -3.899   -4.667   -5.496   -6.278   -6.928   -7.387   -7.642   -7.678   -7.509   -7.149   -6.639   -6.037   -5.405   -4.812   -4.306   -3.911   -3.634   -3.484   -3.483   -3.647   -3.955   -4.356   -4.796   -5.246   -5.713   -6.209   -6.721   -7.184   -7.493   -7.553   -7.317   -6.823   -6.172   -5.464   -4.767   -4.108   -3.503   -2.970   -2.526   -2.176   -1.917   -1.746   -1.666   -1.682   -1.803   -2.037   -2.374   -2.782   -3.194   -3.544   -3.786   -3.938   -4.063   -4.215   -4.374   -4.453   -4.371   -4.110   -3.706   -3.216   -2.697   -2.195   -1.742   -1.361   -1.060   -0.845   -0.704   -0.621   -0.579   -0.560   -0.568   -0.598   -0.651   -0.718   -0.792   -0.855   -0.889   -0.881   -0.846   -0.811   -0.799   -0.806   -0.846
  -5.915   -5.785   -5.572   -5.365   -5.250   -5.251   -5.301   -5.289   -5.123   -4.778   -4.298   -3.770   -3.297   -2.972   -2.853   -2.949   -3.256   -3.757   -4.413   -5.148   -5.868   -6.482   -6.936   -7.205   -7.277   -7.146   -6.819   -6.329   -5.726   -5.081   -4.469   -3.947   -3.548   -3.280   -3.156   -3.196   -3.411   -3.776   -4.219   -4.664   -5.063   -5.404   -5.707   -5.984   -6.207   -6.331   -6.309   -6.134   -5.842   -5.494   -5.130   -4.749   -4.334   -3.882   -3.418   -2.984   -2.623   -2.359   -2.193   -2.121   -2.131   -2.221   -2.384   -2.597   -2.827   -3.031   -3.167   -3.224   -3.235   -3.277   -3.389   -3.539   -3.622   -3.552   -3.311   -2.943   -2.521   -2.103   -1.727   -1.405   -1.133   -0.916   -0.754   -0.652   -0.606   -0.598   -0.615   -0.651   -0.707   -0.779   -0.857   -0.928   -0.971   -0.970   -0.920   -0.839   -0.765   -0.725   -0.719   -0.753
  -6.197   -6.132   -6.041   -5.959   -5.935   -5.977   -6.029   -6.001   -5.814   -5.452   -4.957   -4.421   -3.940   -3.603   -3.450   -3.487   -3.697   -4.059   -4.537   -5.075   -5.605   -6.063   -6.410   -6.625   -6.692   -6.589   -6.311   -5.869   -5.305   -4.690   -4.097   -3.589   -3.205   -2.959   -2.859   -2.922   -3.150   -3.514   -3.939   -4.347   -4.679   -4.920   -5.076   -5.173   -5.215   -5.206   -5.150   -5.067   -4.976   -4.897   -4.814   -4.695   -4.492   -4.186   -3.802   -3.398   -3.035   -2.758   -2.576   -2.470   -2.432   -2.445   -2.494   -2.553   -2.601   -2.615   -2.577   -2.498   -2.416   -2.393   -2.461   -2.575   -2.645   -2.590   -2.405   -2.134   -1.843   -1.580   -1.361   -1.182   -1.024   -0.890   -0.787   -0.731   -0.714   -0.727   -0.760   -0.805   -0.861   -0.931   -0.998   -1.044   -1.057   -1.022   -0.942   -0.836   -0.740   -0.686   -0.668   -0.701
  -6.350   -6.355   -6.383   -6.431   -6.501   -6.588   -6.654   -6.630   -6.460   -6.131   -5.679   -5.184   -4.739   -4.419   -4.261   -4.259   -4.393   -4.620   -4.897   -5.193   -5.467   -5.698   -5.877   -5.993   -6.019   -5.931   -5.700   -5.321   -4.826   -4.274   -3.731   -3.256   -2.892   -2.652   -2.551   -2.602   -2.801   -3.116   -3.483   -3.834   -4.116   -4.306   -4.405   -4.432   -4.413   -4.385   -4.381   -4.420   -4.501   -4.607   -4.696   -4.720   -4.637   -4.419   -4.084   -3.691   -3.310   -2.991   -2.750   -2.573   -2.444   -2.352   -2.279   -2.207   -2.122   -2.017   -1.895   -1.772   -1.673   -1.638   -1.683   -1.766   -1.821   -1.801   -1.697   -1.554   -1.412   -1.302   -1.225   -1.157   -1.090   -1.023   -0.975   -0.958   -0.968   -0.996   -1.031   -1.068   -1.101   -1.125   -1.138   -1.134   -1.105   -1.044   -0.955   -0.853   -0.766   -0.718   -0.701   -0.730
  -6.424   -6.486   -6.614   -6.775   -6.928   -7.054   -7.128   -7.112   -6.971   -6.696   -6.312   -5.884   -5.489   -5.188   -5.020   -4.982   -5.040   -5.143   -5.242   -5.306   -5.336   -5.348   -5.359   -5.371   -5.360   -5.283   -5.103   -4.801   -4.401   -3.944   -3.481   -3.050   -2.690   -2.427   -2.283   -2.269   -2.387   -2.611   -2.888   -3.167   -3.407   -3.583   -3.689   -3.739   -3.768   -3.826   -3.949   -4.136   -4.362   -4.579   -4.743   -4.817   -4.766   -4.567   -4.235   -3.824   -3.404   -3.026   -2.702   -2.431   -2.204   -2.020   -1.858   -1.713   -1.574   -1.449   -1.338   -1.250   -1.198   -1.203   -1.257   -1.339   -1.402   -1.426   -1.409   -1.372   -1.341   -1.336   -1.342   -1.341   -1.328   -1.316   -1.327   -1.359   -1.406   -1.454   -1.491   -1.505   -1.484   -1.425   -1.346   -1.251   -1.157   -1.069   -0.989   -0.917   -0.862   -0.837   -0.832   -0.867
  -6.436   -6.535   -6.733   -6.968   -7.173   -7.313   -7.377   -7.351   -7.227   -7.000   -6.685   -6.328   -5.981   -5.699   -5.510   -5.421   -5.399   -5.390   -5.342   -5.234   -5.090   -4.947   -4.845   -4.793   -4.770   -4.726   -4.615   -4.420   -4.148   -3.824   -3.468   -3.101   -2.746   -2.429   -2.188   -2.053   -2.038   -2.128   -2.281   -2.464   -2.647   -2.807   -2.933   -3.041   -3.166   -3.353   -3.625   -3.954   -4.291   -4.576   -4.769   -4.846   -4.784   -4.570   -4.217   -3.780   -3.324   -2.899   -2.518   -2.181   -1.894   -1.655   -1.463   -1.312   -1.196   -1.119   -1.077   -1.064   -1.086   -1.142   -1.231   -1.330   -1.421   -1.495   -1.543   -1.570   -1.590   -1.619   -1.648   -1.668   -1.688   -1.732   -1.815   -1.923   -2.034   -2.120   -2.164   -2.149   -2.053   -1.889   -1.679   -1.471   -1.293   -1.164   -1.084   -1.036   -1.018   -1.023   -1.042   -1.087
  -6.388   -6.506   -6.739   -7.004   -7.217   -7.334   -7.349   -7.277   -7.133   -6.924   -6.664   -6.372   -6.082   -5.824   -5.621   -5.480   -5.374   -5.266   -5.114   -4.905   -4.673   -4.464   -4.318   -4.257   -4.257   -4.279   -4.277   -4.226   -4.125   -3.978   -3.770   -3.498   -3.158   -2.776   -2.409   -2.111   -1.920   -1.835   -1.833   -1.888   -1.983   -2.101   -2.230   -2.381   -2.585   -2.875   -3.250   -3.671   -4.070   -4.390   -4.596   -4.668   -4.590   -4.359   -3.994   -3.550   -3.093   -2.672   -2.298   -1.967   -1.683   -1.454   -1.284   -1.177   -1.129   -1.131   -1.167   -1.225   -1.303   -1.402   -1.515   -1.635   -1.756   -1.868   -1.947   -1.987   -2.002   -2.012   -2.025   -2.044   -2.093   -2.206   -2.384   -2.597   -2.794   -2.934   -2.994   -2.948   -2.784   -2.516   -2.182   -1.851   -1.569   -1.364   -1.250   -1.200   -1.196   -1.219   -1.253   -1.308
  -6.301   -6.423   -6.660   -6.916   -7.094   -7.142   -7.061   -6.893   -6.684   -6.456   -6.224   -5.990   -5.764   -5.548   -5.351   -5.172   -5.001   -4.819   -4.609   -4.367   -4.120   -3.911   -3.781   -3.746   -3.799   -3.909   -4.045   -4.177   -4.289   -4.354   -4.335   -4.189   -3.893   -3.468   -2.985   -2.525   -2.152   -1.880   -1.705   -1.610   -1.592   -1.644   -1.748   -1.908   -2.140   -2.457   -2.847   -3.266   -3.655   -3.966   -4.163   -4.232   -4.153   -3.926   -3.577   -3.164   -2.757   -2.401   -2.106   -1.856   -1.644   -1.484   -1.388   -1.358   -1.396   -1.473   -1.573   -1.673   -1.777   -1.885   -1.999   -2.121   -2.252   -2.370   -2.442   -2.457   -2.424   -2.389   -2.372   -2.393   -2.482   -2.677   -2.966   -3.298   -3.588   -3.789   -3.866   -3.803   -3.593   -3.246   -2.815   -2.368   -1.972   -1.670   -1.477   -1.374   -1.347   -1.363   -1.403   -1.460
  -6.221   -6.336   -6.561   -6.784   -6.896   -6.837   -6.621   -6.315   -5.991   -5.706   -5.469   -5.278   -5.115   -4.956   -4.788   -4.602   -4.400   -4.186   -3.961   -3.732   -3.515   -3.343   -3.247   -3.250   -3.355   -3.556   -3.835   -4.164   -4.503   -4.801   -4.984   -4.988   -4.774   -4.359   -3.816   -3.244   -2.728   -2.302   -1.970   -1.737   -1.610   -1.588   -1.654   -1.790   -1.992   -2.254   -2.558   -2.869   -3.154   -3.386   -3.538   -3.593   -3.522   -3.325   -3.028   -2.688   -2.375   -2.133   -1.966   -1.851   -1.774   -1.731   -1.742   -1.815   -1.936   -2.076   -2.211   -2.325   -2.419   -2.505   -2.596   -2.696   -2.800   -2.889   -2.918   -2.874   -2.786   -2.704   -2.668   -2.705   -2.848   -3.125   -3.518   -3.950   -4.321   -4.570   -4.663   -4.591   -4.353   -3.960   -3.462   -2.921   -2.416   -2.007   -1.721   -1.547   -1.465   -1.456   -1.486   -1.546
  -6.188   -6.296   -6.503   -6.685   -6.721   -6.545   -6.179   -5.707   -5.241   -4.859   -4.589   -4.418   -4.306   -4.205   -4.081   -3.922   -3.728   -3.521   -3.320   -3.129   -2.958   -2.828   -2.759   -2.787   -2.926   -3.194   -3.590   -4.090   -4.638   -5.144   -5.518   -5.676   -5.576   -5.229   -4.706   -4.109   -3.528   -3.012   -2.580   -2.254   -2.051   -1.975   -2.000   -2.091   -2.220   -2.361   -2.495   -2.612   -2.706   -2.785   -2.842   -2.854   -2.791   -2.645   -2.431   -2.202   -2.016   -1.918   -1.909   -1.959   -2.039   -2.139   -2.275   -2.453   -2.648   -2.829   -2.969   -3.064   -3.133   -3.186   -3.237   -3.296   -3.356   -3.395   -3.367   -3.267   -3.131   -3.022   -2.988   -3.055   -3.249   -3.586   -4.035   -4.510   -4.913   -5.169   -5.253   -5.166   -4.910   -4.492   -3.950   -3.347   -2.770   -2.288   -1.929   -1.693   -1.567   -1.528   -1.552   -1.613
  -6.201   -6.308   -6.503   -6.652   -6.624   -6.347   -5.843   -5.212   -4.593   -4.098   -3.774   -3.600   -3.521   -3.468   -3.391   -3.272   -3.120   -2.954   -2.797   -2.653   -2.525   -2.424   -2.377   -2.410   -2.558   -2.857   -3.322   -3.936   -4.633   -5.300   -5.829   -6.128   -6.154   -5.919   -5.485   -4.940   -4.374   -3.848   -3.392   -3.036   -2.805   -2.698   -2.686   -2.718   -2.743   -2.725   -2.650   -2.527   -2.388   -2.272   -2.198   -2.143   -2.080   -1.987   -1.873   -1.775   -1.738   -1.796   -1.951   -2.168   -2.408   -2.653   -2.906   -3.166   -3.408   -3.598   -3.723   -3.793   -3.828   -3.850   -3.871   -3.897   -3.921   -3.914   -3.849   -3.719   -3.570   -3.466   -3.450   -3.542   -3.753   -4.086   -4.504   -4.934   -5.281   -5.479   -5.511   -5.384   -5.104   -4.674   -4.119   -3.502   -2.913   -2.421   -2.049   -1.798   -1.656   -1.616   -1.639   -1.706
  -6.191   -6.299   -6.493   -6.630   -6.566   -6.223   -5.618   -4.861   -4.110   -3.506   -3.117   -2.930   -2.869   -2.853   -2.820   -2.752   -2.655   -2.548   -2.442   -2.342   -2.248   -2.167   -2.131   -2.163   -2.300   -2.587   -3.064   -3.729   -4.507   -5.277   -5.912   -6.325   -6.472   -6.365   -6.050   -5.606   -5.113   -4.639   -4.223   -3.894   -3.673   -3.550   -3.494   -3.452   -3.359   -3.177   -2.897   -2.547   -2.192   -1.895   -1.692   -1.575   -1.508   -1.462   -1.440   -1.465   -1.575   -1.786   -2.090   -2.454   -2.835   -3.201   -3.545   -3.855   -4.108   -4.286   -4.385   -4.428   -4.441   -4.450   -4.463   -4.476   -4.485   -4.467   -4.402   -4.291   -4.170   -4.093   -4.095   -4.183   -4.353   -4.595   -4.883   -5.159   -5.359   -5.432   -5.366   -5.173   -4.861   -4.433   -3.906   -3.339   -2.811   -2.381   -2.063   -1.850   -1.735   -1.708   -1.743   -1.822
  -6.015   -6.130   -6.333   -6.475   -6.409   -6.046   -5.392   -4.563   -3.728   -3.045   -2.609   -2.407   -2.357   -2.366   -2.371   -2.350   -2.314   -2.271   -2.217   -2.155   -2.085   -2.024   -1.997   -2.022   -2.134   -2.383   -2.831   -3.486   -4.288   -5.102   -5.801   -6.294   -6.539   -6.545   -6.346   -6.012   -5.620   -5.234   -4.897   -4.630   -4.435   -4.303   -4.198   -4.072   -3.865   -3.532   -3.080   -2.559   -2.054   -1.649   -1.383   -1.237   -1.174   -1.166   -1.209   -1.327   -1.549   -1.878   -2.301   -2.776   -3.259   -3.713   -4.111   -4.437   -4.675   -4.826   -4.902   -4.931   -4.939   -4.949   -4.969   -4.993   -5.010   -5.006   -4.973   -4.908   -4.839   -4.798   -4.806   -4.857   -4.936   -5.025   -5.105   -5.158   -5.149   -5.052   -4.860   -4.593   -4.253   -3.847   -3.395   -2.938   -2.535   -2.223   -2.003   -1.861   -1.790   -1.795   -1.845   -1.931
  -5.549   -5.662   -5.875   -6.041   -6.002   -5.661   -5.019   -4.185   -3.334   -2.633   -2.181   -1.975   -1.930   -1.951   -1.979   -1.996   -2.012   -2.019   -2.012   -1.983   -1.941   -1.902   -1.883   -1.901   -1.984   -2.192   -2.589   -3.198   -3.969   -4.778   -5.497   -6.033   -6.342   -6.430   -6.327   -6.094   -5.806   -5.523   -5.281   -5.085   -4.924   -4.780   -4.627   -4.425   -4.115   -3.668   -3.101   -2.486   -1.925   -1.505   -1.252   -1.134   -1.103   -1.124   -1.207   -1.377   -1.659   -2.055   -2.539   -3.071   -3.607   -4.103   -4.520   -4.836   -5.045   -5.168   -5.227   -5.250   -5.260   -5.279   -5.311   -5.350   -5.382   -5.403   -5.407   -5.394   -5.374   -5.357   -5.357   -5.357   -5.331   -5.259   -5.128   -4.950   -4.725   -4.457   -4.152   -3.821   -3.475   -3.123   -2.775   -2.457   -2.202   -2.023   -1.911   -1.854   -1.839   -1.874   -1.944   -2.035
  -4.773   -4.870   -5.087   -5.278   -5.287   -5.012   -4.440   -3.671   -2.877   -2.222   -1.800   -1.605   -1.559   -1.575   -1.609   -1.644   -1.681   -1.719   -1.743   -1.748   -1.733   -1.723   -1.719   -1.737   -1.806   -1.980   -2.322   -2.863   -3.557   -4.309   -5.001   -5.539   -5.878   -6.014   -5.976   -5.829   -5.639   -5.463   -5.315   -5.187   -5.058   -4.903   -4.707   -4.438   -4.060   -3.549   -2.935   -2.309   -1.778   -1.418   -1.238   -1.190   -1.213   -1.273   -1.379   -1.566   -1.861   -2.257   -2.738   -3.263   -3.795   -4.286   -4.687   -4.974   -5.148   -5.243   -5.286   -5.302   -5.311   -5.334   -5.373   -5.420   -5.465   -5.504   -5.535   -5.554   -5.561   -5.556   -5.540   -5.495   -5.392   -5.198   -4.914   -4.566   -4.186   -3.800   -3.424   -3.071   -2.749   -2.468   -2.233   -2.049   -1.927   -1.859   -1.842   -1.856   -1.899   -1.971   -2.055   -2.159
  -3.812   -3.884   -4.091   -4.297   -4.362   -4.176   -3.719   -3.075   -2.401   -1.850   -1.493   -1.320   -1.266   -1.266   -1.281   -1.307   -1.346   -1.388   -1.427   -1.458   -1.481   -1.505   -1.531   -1.570   -1.644   -1.800   -2.091   -2.542   -3.124   -3.770   -4.383   -4.882   -5.211   -5.361   -5.363   -5.281   -5.178   -5.097   -5.031   -4.961   -4.854   -4.691   -4.466   -4.160   -3.750   -3.232   -2.645   -2.077   -1.631   -1.370   -1.283   -1.314   -1.397   -1.498   -1.625   -1.805   -2.066   -2.409   -2.824   -3.285   -3.755   -4.192   -4.546   -4.788   -4.925   -4.989   -5.014   -5.019   -5.021   -5.037   -5.073   -5.121   -5.168   -5.214   -5.254   -5.285   -5.299   -5.292   -5.262   -5.192   -5.050   -4.805   -4.457   -4.038   -3.599   -3.173   -2.791   -2.466   -2.204   -2.005   -1.870   -1.790   -1.760   -1.769   -1.812   -1.882   -1.978   -2.087   -2.195   -2.310
  -2.914   -2.955   -3.136   -3.342   -3.447   -3.351   -3.021   -2.530   -2.012   -1.589   -1.314   -1.169   -1.104   -1.080   -1.069   -1.074   -1.097   -1.132   -1.179   -1.232   -1.293   -1.358   -1.425   -1.498   -1.588   -1.739   -1.985   -2.346   -2.803   -3.311   -3.807   -4.223   -4.506   -4.642   -4.661   -4.625   -4.589   -4.579   -4.572   -4.534   -4.439   -4.276   -4.044   -3.737   -3.344   -2.877   -2.376   -1.917   -1.581   -1.415   -1.397   -1.477   -1.600   -1.731   -1.870   -2.036   -2.237   -2.485   -2.784   -3.125   -3.482   -3.823   -4.102   -4.288   -4.385   -4.420   -4.426   -4.415   -4.405   -4.409   -4.436   -4.480   -4.526   -4.567   -4.603   -4.630   -4.632   -4.617   -4.581   -4.510   -4.370   -4.138   -3.804   -3.411   -2.999   -2.617   -2.292   -2.038   -1.857   -1.744   -1.689   -1.679   -1.698   -1.745   -1.821   -1.923   -2.053   -2.195   -2.321   -2.441
  -2.339   -2.342   -2.479   -2.655   -2.770   -2.733   -2.513   -2.166   -1.798   -1.499   -1.300   -1.180   -1.105   -1.052   -1.019   -1.002   -1.010   -1.043   -1.096   -1.170   -1.263   -1.365   -1.471   -1.573   -1.686   -1.842   -2.062   -2.360   -2.714   -3.093   -3.462   -3.772   -3.986   -4.089   -4.108   -4.104   -4.116   -4.146   -4.159   -4.121   -4.029   -3.880   -3.673   -3.408   -3.081   -2.712   -2.334   -2.006   -1.778   -1.677   -1.687   -1.770   -1.895   -2.031   -2.169   -2.304   -2.433   -2.565   -2.711   -2.887   -3.088   -3.293   -3.468   -3.584   -3.637   -3.645   -3.632   -3.609   -3.592   -3.588   -3.609   -3.648   -3.687   -3.723   -3.749   -3.757   -3.745   -3.720   -3.689   -3.633   -3.527   -3.340   -3.077   -2.765   -2.445   -2.157   -1.928   -1.767   -1.673   -1.638   -1.649   -1.682   -1.729   -1.786   -1.863   -1.970   -2.108   -2.257   -2.388   -2.515
  -2.229   -2.199   -2.276   -2.386   -2.468   -2.442   -2.283   -2.037   -1.785   -1.578   -1.428   -1.317   -1.228   -1.157   -1.106   -1.080   -1.085   -1.119   -1.185   -1.275   -1.388   -1.511   -1.637   -1.758   -1.891   -2.059   -2.287   -2.571   -2.884   -3.193   -3.469   -3.686   -3.832   -3.902   -3.926   -3.952   -3.996   -4.036   -4.033   -3.974   -3.875   -3.751   -3.600   -3.413   -3.188   -2.941   -2.700   -2.498   -2.364   -2.303   -2.306   -2.359   -2.446   -2.560   -2.676   -2.767   -2.814   -2.812   -2.783   -2.764   -2.768   -2.799   -2.840   -2.866   -2.869   -2.850   -2.820   -2.791   -2.774   -2.770   -2.790   -2.827   -2.864   -2.896   -2.911   -2.903   -2.877   -2.849   -2.828   -2.795   -2.731   -2.610   -2.433   -2.220   -2.013   -1.835   -1.710   -1.644   -1.633   -1.661   -1.718   -1.778   -1.839   -1.895   -1.956   -2.038   -2.156   -2.287   -2.407   -2.534
  -2.591   -2.529   -2.543   -2.572   -2.574   -2.498   -2.332   -2.120   -1.919   -1.755   -1.624   -1.509   -1.406   -1.323   -1.268   -1.243   -1.254   -1.297   -1.369   -1.468   -1.585   -1.708   -1.832   -1.953   -2.098   -2.296   -2.573   -2.907   -3.256   -3.573   -3.827   -4.005   -4.115   -4.180   -4.230   -4.292   -4.355   -4.384   -4.349   -4.257   -4.152   -4.059   -3.976   -3.878   -3.760   -3.633   -3.520   -3.435   -3.380   -3.345   -3.328   -3.333   -3.376   -3.450   -3.527   -3.567   -3.527   -3.390   -3.180   -2.940   -2.718   -2.541   -2.417   -2.335   -2.275   -2.227   -2.187   -2.153   -2.136   -2.136   -2.157   -2.194   -2.230   -2.261   -2.272   -2.259   -2.232   -2.209   -2.199   -2.192   -2.167   -2.105   -2.007   -1.887   -1.776   -1.694   -1.655   -1.663   -1.712   -1.789   -1.878   -1.962   -2.031   -2.080   -2.124   -2.176   -2.264   -2.371   -2.475   -2.606
  -3.344   -3.262   -3.226   -3.173   -3.066   -2.877   -2.625   -2.366   -2.142   -1.965   -1.821   -1.697   -1.593   -1.516   -1.468   -1.454   -1.473   -1.517   -1.584   -1.673   -1.771   -1.873   -1.972   -2.083   -2.236   -2.477   -2.829   -3.265   -3.720   -4.124   -4.430   -4.632   -4.758   -4.850   -4.942   -5.039   -5.113   -5.124   -5.061   -4.949   -4.845   -4.780   -4.746   -4.719   -4.686   -4.659   -4.649   -4.656   -4.662   -4.654   -4.624   -4.600   -4.607   -4.645   -4.684   -4.672   -4.555   -4.305   -3.934   -3.488   -3.033   -2.633   -2.333   -2.131   -2.006   -1.925   -1.873   -1.835   -1.813   -1.811   -1.828   -1.862   -1.900   -1.932   -1.952   -1.951   -1.937   -1.926   -1.929   -1.939   -1.942   -1.927   -1.884   -1.830   -1.786   -1.767   -1.783   -1.834   -1.918   -2.022   -2.139   -2.246   -2.334   -2.392   -2.432   -2.471   -2.538   -2.632   -2.727   -2.865
  -4.365   -4.283   -4.221   -4.096   -3.871   -3.536   -3.137   -2.750   -2.433   -2.194   -2.017   -1.888   -1.796   -1.742   -1.711   -1.703   -1.720   -1.749   -1.792   -1.845   -1.904   -1.962   -2.027   -2.115   -2.274   -2.557   -2.993   -3.549   -4.141   -4.675   -5.091   -5.369   -5.548   -5.687   -5.819   -5.938   -6.012   -6.011   -5.939   -5.830   -5.736   -5.688   -5.676   -5.686   -5.705   -5.742   -5.797   -5.861   -5.913   -5.927   -5.904   -5.876   -5.871   -5.890   -5.901   -5.852   -5.688   -5.369   -4.889   -4.286   -3.640   -3.052   -2.600   -2.303   -2.127   -2.025   -1.962   -1.917   -1.890   -1.881   -1.893   -1.916   -1.954   -1.994   -2.027   -2.050   -2.062   -2.070   -2.089   -2.114   -2.138   -2.151   -2.142   -2.123   -2.105   -2.104   -2.130   -2.189   -2.280   -2.402   -2.546   -2.696   -2.827   -2.922   -2.978   -3.016   -3.071   -3.158   -3.249   -3.394
  -5.521   -5.445   -5.370   -5.197   -4.867   -4.382   -3.810   -3.258   -2.807   -2.477   -2.252   -2.114   -2.038   -2.000   -1.980   -1.969   -1.968   -1.968   -1.970   -1.975   -1.977   -1.985   -2.006   -2.064   -2.214   -2.523   -3.019   -3.673   -4.395   -5.073   -5.619   -5.997   -6.248   -6.431   -6.587   -6.709   -6.777   -6.772   -6.711   -6.624   -6.550   -6.508   -6.503   -6.523   -6.565   -6.626   -6.704   -6.790   -6.858   -6.888   -6.885   -6.872   -6.876   -6.897   -6.899   -6.836   -6.658   -6.319   -5.796   -5.116   -4.369   -3.683   -3.159   -2.827   -2.644   -2.545   -2.486   -2.445   -2.415   -2.404   -2.413   -2.437   -2.473   -2.523   -2.576   -2.630   -2.681   -2.725   -2.765   -2.805   -2.844   -2.873   -2.876   -2.857   -2.825   -2.794   -2.781   -2.809   -2.889   -3.029   -3.219   -3.439   -3.643   -3.798   -3.879   -3.912   -3.942   -3.999   -4.071   -4.214
  -6.700   -6.624   -6.534   -6.318   -5.906   -5.298   -4.572   -3.859   -3.258   -2.818   -2.532   -2.368   -2.290   -2.252   -2.227   -2.202   -2.174   -2.139   -2.098   -2.055   -2.008   -1.966   -1.942   -1.966   -2.099   -2.408   -2.931   -3.646   -4.463   -5.260   -5.925   -6.408   -6.729   -6.949   -7.110   -7.222   -7.275   -7.274   -7.236   -7.185   -7.139   -7.112   -7.112   -7.135   -7.178   -7.234   -7.300   -7.370   -7.431   -7.465   -7.479   -7.490   -7.516   -7.551   -7.558   -7.499   -7.331   -7.009   -6.505   -5.842   -5.110   -4.449   -3.967   -3.685   -3.550   -3.494   -3.468   -3.445   -3.429   -3.426   -3.447   -3.484   -3.532   -3.595   -3.671   -3.763   -3.867   -3.967   -4.050   -4.116   -4.172   -4.211   -4.214   -4.172   -4.083   -3.968   -3.865   -3.822   -3.875   -4.040   -4.304   -4.624   -4.931   -5.158   -5.267   -5.281   -5.263   -5.267   -5.297   -5.441
  -7.946   -7.852   -7.724   -7.448   -6.956   -6.247   -5.394   -4.531   -3.780   -3.214   -2.842   -2.630   -2.525   -2.471   -2.433   -2.391   -2.340   -2.280   -2.211   -2.136   -2.056   -1.984   -1.932   -1.933   -2.045   -2.340   -2.859   -3.593   -4.463   -5.337   -6.091   -6.658   -7.043   -7.290   -7.447   -7.539   -7.580   -7.589   -7.584   -7.579   -7.577   -7.583   -7.603   -7.637   -7.674   -7.714   -7.750   -7.784   -7.814   -7.837   -7.856   -7.885   -7.931   -7.980   -8.001   -7.958   -7.820   -7.548   -7.120   -6.563   -5.964   -5.448   -5.111   -4.957   -4.926   -4.945   -4.966   -4.974   -4.979   -4.998   -5.039   -5.098   -5.162   -5.237   -5.336   -5.473   -5.646   -5.827   -5.982   -6.102   -6.194   -6.255   -6.267   -6.195   -6.031   -5.794   -5.557   -5.408   -5.422   -5.626   -5.990   -6.446   -6.894   -7.229   -7.397   -7.420   -7.390   -7.390   -7.426   -7.612
  -9.581   -9.444   -9.235   -8.853   -8.248   -7.421   -6.431   -5.403   -4.475   -3.749   -3.255   -2.963   -2.810   -2.735   -2.686   -2.635   -2.574   -2.502   -2.423   -2.341   -2.258   -2.181   -2.127   -2.127   -2.233   -2.511   -3.010   -3.731   -4.609   -5.513   -6.318   -6.943   -7.372   -7.638   -7.788   -7.862   -7.897   -7.923   -7.960   -8.016   -8.083   -8.155   -8.228   -8.294   -8.345   -8.374   -8.382   -8.375   -8.364   -8.360   -8.368   -8.395   -8.444   -8.503   -8.545   -8.542   -8.465   -8.287   -8.001   -7.631   -7.254   -6.968   -6.841   -6.861   -6.963   -7.067   -7.136   -7.171   -7.193   -7.225   -7.272   -7.330   -7.390   -7.461   -7.571   -7.757   -8.020   -8.311   -8.576   -8.788   -8.956   -9.089   -9.151   -9.094   -8.879   -8.540   -8.176   -7.934   -7.931   -8.210   -8.729   -9.393  -10.063  -10.613  -10.971  -11.179  -11.349  -11.558  -11.774  -12.101
 -12.098  -11.915  -11.574  -11.020  -10.238   -9.233   -8.050   -6.797   -5.623   -4.670   -3.997   -3.584   -3.358   -3.247   -3.185   -3.133   -3.072   -3.003   -2.930   -2.860   -2.796   -2.746   -2.720   -2.740   -2.853   -3.115   -3.586   -4.274   -5.118   -6.013   -6.826   -7.478   -7.932   -8.207   -8.349   -8.410   -8.445   -8.493   -8.583   -8.721   -8.898   -9.091   -9.271   -9.417   -9.513   -9.555   -9.547   -9.505   -9.450   -9.403   -9.376   -9.376   -9.410   -9.473   -9.555   -9.629   -9.669   -9.653   -9.577   -9.463   -9.366   -9.352   -9.460   -9.667   -9.901  -10.088  -10.197  -10.246  -10.270  -10.290  -10.310  -10.327  -10.342  -10.384  -10.502  -10.744  -11.112  -11.542  -11.958  -12.323  -12.648  -12.936  -13.143  -13.192  -13.040  -12.724  -12.375  -12.184  -12.303  -12.786  -13.585  -14.582  -15.624  -16.575  -17.374  -18.073  -18.771  -19.480  -20.059  -20.535
 -15.776  -15.579  -15.091  -14.325  -13.311  -12.064  -10.618   -9.060   -7.556   -6.289   -5.366   -4.773   -4.435   -4.260   -4.170   -4.110   -4.046   -3.979   -3.915   -3.867   -3.836   -3.830   -3.853   -3.919   -4.053   -4.302   -4.731   -5.356   -6.139   -6.985   -7.776   -8.422   -8.881   -9.156   -9.287   -9.336   -9.372   -9.446   -9.603   -9.853  -10.186  -10.562  -10.918  -11.203  -11.388  -11.467  -11.458  -11.384  -11.282  -11.182  -11.100  -11.052  -11.052  -11.125  -11.272  -11.475  -11.697  -11.912  -12.106  -12.289  -12.489  -12.748  -13.087  -13.473  -13.834  -14.101  -14.259  -14.337  -14.373  -14.383  -14.370  -14.336  -14.310  -14.341  -14.497  -14.830  -15.332  -15.929  -16.537  -17.120  -17.682  -18.220  -18.677  -18.977  -19.082  -19.047  -19.023  -19.203  -19.730  -20.643  -21.877  -23.310  -24.803  -26.243  -27.590  -28.881  -30.146  -31.286  -32.068  -32.387
 -20.280  -20.144  -19.543  -18.588  -17.352  -15.861  -14.134  -12.247  -10.379   -8.755   -7.529   -6.709   -6.216   -5.942   -5.796   -5.707   -5.625   -5.544   -5.478   -5.441   -5.447   -5.496   -5.588   -5.714   -5.878   -6.116   -6.486   -7.025   -7.717   -8.484   -9.226   -9.852  -10.305  -10.572  -10.686  -10.718  -10.746  -10.849  -11.077  -11.461  -11.986  -12.589  -13.169  -13.637  -13.940  -14.072  -14.065  -13.963  -13.819  -13.667  -13.530  -13.431  -13.402  -13.496  -13.736  -14.105  -14.551  -15.028  -15.504  -15.974  -16.451  -16.954  -17.495  -18.041  -18.527  -18.899  -19.153  -19.318  -19.429  -19.501  -19.538  -19.554  -19.592  -19.720  -20.008  -20.498  -21.170  -21.951  -22.764  -23.581  -24.401  -25.217  -25.981  -26.638  -27.182  -27.680  -28.266  -29.086  -30.220  -31.652  -33.303  -35.064  -36.839  -38.562  -40.211  -41.787  -43.244  -44.415  -45.022  -44.822
 -24.783  -24.774  -24.130  -23.065  -21.681  -20.015  -18.077  -15.936  -13.775  -11.850  -10.353   -9.316   -8.658   -8.269   -8.043   -7.900   -7.775   -7.657   -7.558   -7.514   -7.543   -7.651   -7.822   -8.021   -8.226   -8.456   -8.769   -9.215   -9.801  -10.480  -11.168  -11.773  -12.221  -12.479  -12.572  -12.576  -12.591  -12.711  -13.004  -13.513  -14.220  -15.038  -15.831  -16.471  -16.887  -17.072  -17.073  -16.957  -16.789  -16.612  -16.450  -16.329  -16.302  -16.443  -16.792  -17.333  -17.995  -18.709  -19.425  -20.125  -20.813  -21.505  -22.204  -22.885  -23.501  -24.015  -24.428  -24.768  -25.066  -25.336  -25.584  -25.829  -26.114  -26.497  -27.033  -27.741  -28.596  -29.537  -30.510  -31.495  -32.499  -33.518  -34.533  -35.525  -36.510  -37.552  -38.737  -40.133  -41.749  -43.536  -45.410  -47.296  -49.135  -50.891  -52.544  -54.056  -55.318  -56.124  -56.179  -55.313
 -28.464  -28.598  -27.975  -26.881  -25.445  -23.708  -21.681  -19.430  -17.138  -15.066  -13.421  -12.249  -11.472  -10.980  -10.674  -10.465  -10.279  -10.097   -9.940   -9.855   -9.884  -10.038  -10.290  -10.574  -10.839  -11.084  -11.358  -11.730  -12.232  -12.846  -13.505  -14.111  -14.572  -14.833  -14.911  -14.890  -14.886  -15.009  -15.338  -15.923  -16.741  -17.692  -18.616  -19.364  -19.852  -20.078  -20.097  -19.994  -19.842  -19.687  -19.554  -19.471  -19.500  -19.724  -20.192  -20.881  -21.710  -22.592  -23.467  -24.312  -25.130  -25.937  -26.743  -27.531  -28.275  -28.958  -29.585  -30.183  -30.774  -31.369  -31.971  -32.589  -33.247  -33.977  -34.806  -35.734  -36.738  -37.778  -38.826  -39.877  -40.944  -42.045  -43.186  -44.377  -45.646  -47.034  -48.579  -50.283  -52.106  -53.978  -55.824  -57.585  -59.231  -60.737  -62.070  -63.161  -63.894  -64.098  -63.469  -62.751
 -30.801  -31.043  -30.470  -29.405  -27.993  -26.283  -24.292  -22.088  -19.849  -17.822  -16.196  -15.010  -14.193  -13.648  -13.287  -13.018  -12.767  -12.509  -12.271  -12.120  -12.123  -12.305  -12.629  -13.006  -13.355  -13.649  -13.931  -14.280  -14.757  -15.367  -16.051  -16.708  -17.218  -17.514  -17.603  -17.579  -17.567  -17.682  -18.010  -18.595  -19.417  -20.372  -21.303  -22.061  -22.565  -22.813  -22.866  -22.810  -22.719  -22.639  -22.594  -22.613  -22.755  -23.098  -23.685  -24.485  -25.414  -26.382  -27.328  -28.230  -29.097  -29.950  -30.807  -31.671  -32.534  -33.393  -34.262  -35.157  -36.094  -37.068  -38.069  -39.085  -40.115  -41.163  -42.235  -43.322  -44.410  -45.479  -46.521  -47.546  -48.578  -49.649  -50.786  -52.016  -53.363  -54.846  -56.460  -58.167  -59.909  -61.626  -63.273  -64.827  -66.274  -67.598  -68.769  -69.742  -70.443  -70.695  -69.944  -71.266
 -31.570  -31.856  -31.331  -30.323  -28.985  -27.375  -25.521  -23.496  -21.465  -19.644  -18.182  -17.099  -16.328  -15.789  -15.410  -15.106  -14.807  -14.483  -14.170  -13.949  -13.910  -14.103  -14.490  -14.964  -15.416  -15.801  -16.157  -16.566  -17.108  -17.802  -18.592  -19.362  -19.979  -20.362  -20.519  -20.539  -20.549  -20.662  -20.957  -21.475  -22.199  -23.039  -23.860  -24.537  -25.002  -25.254  -25.348  -25.359  -25.355  -25.379  -25.456  -25.612  -25.897  -26.372  -27.061  -27.927  -28.891  -29.871  -30.811  -31.698  -32.548  -33.391  -34.257  -35.165  -36.125  -37.148  -38.247  -39.430  -40.690  -42.005  -43.344  -44.673  -45.973  -47.230  -48.439  -49.594  -50.689  -51.720  -52.695  -53.635  -54.573  -55.548  -56.601  -57.764  -59.062  -60.507  -62.087  -63.775  -65.532  -67.317  -69.083  -70.784  -72.375  -73.811  -75.073  -76.113  -76.837  -76.995  -75.864  -79.181
 -30.786  -31.043  -30.541  -29.595  -28.356  -26.891  -25.241  -23.484  -21.762  -20.245  -19.036  -18.131  -17.469  -16.991  -16.637  -16.335  -16.020  -15.669  -15.314  -15.051  -14.989  -15.195  -15.643  -16.219  -16.802  -17.333  -17.844  -18.418  -19.137  -20.022  -21.010  -21.970  -22.763  -23.303  -23.597  -23.726  -23.804  -23.933  -24.188  -24.604  -25.173  -25.828  -26.470  -27.009  -27.394  -27.626  -27.745  -27.811  -27.878  -27.986  -28.160  -28.430  -28.833  -29.406  -30.154  -31.034  -31.975  -32.905  -33.784  -34.608  -35.400  -36.200  -37.049  -37.978  -39.010  -40.163  -41.445  -42.848  -44.345  -45.892  -47.438  -48.940  -50.370  -51.710  -52.954  -54.101  -55.153  -56.115  -57.004  -57.845  -58.674  -59.537  -60.480  -61.540  -62.749  -64.119  -65.643  -67.295  -69.031  -70.796  -72.522  -74.157  -75.651  -76.970  -78.071  -78.883  -79.286  -79.021  -77.367  -80.637
 -28.658  -28.819  -28.314  -27.419  -26.281  -24.978  -23.564  -22.113  -20.738  -19.557  -18.628  -17.931  -17.415  -17.035  -16.743  -16.485  -16.204  -15.881  -15.554  -15.316  -15.287  -15.546  -16.083  -16.794  -17.561  -18.319  -19.091  -19.953  -20.972  -22.155  -23.425  -24.644  -25.673  -26.431  -26.921  -27.209  -27.394  -27.565  -27.789  -28.105  -28.514  -28.975  -29.424  -29.804  -30.083  -30.260  -30.360  -30.424  -30.495  -30.611  -30.805  -31.104  -31.539  -32.129  -32.861  -33.690  -34.550  -35.387  -36.170  -36.907  -37.628  -38.378  -39.202  -40.139  -41.213  -42.443  -43.827  -45.342  -46.943  -48.573  -50.175  -51.704  -53.135  -54.452  -55.652  -56.735  -57.704  -58.571  -59.352  -60.074  -60.775  -61.500  -62.296  -63.202  -64.246  -65.434  -66.756  -68.174  -69.645  -71.118  -72.553  -73.929  -75.213  -76.391  -77.397  -78.154  -78.519  -78.238  -76.673  -78.508
 -25.577  -25.600  -25.068  -24.207  -23.157  -22.012  -20.830  -19.676  -18.628  -17.759  -17.089  -16.595  -16.235  -15.975  -15.780  -15.608  -15.422  -15.207  -15.004  -14.900  -15.013  -15.423  -16.136  -17.066  -18.111  -19.207  -20.361  -21.621  -23.030  -24.571  -26.154  -27.645  -28.917  -29.902  -30.598  -31.057  -31.357  -31.577  -31.781  -32.015  -32.287  -32.581  -32.859  -33.087  -33.243  -33.324  -33.344  -33.330  -33.318  -33.346  -33.452  -33.669  -34.025  -34.527  -35.152  -35.858  -36.588  -37.300  -37.973  -38.620  -39.276  -39.984  -40.785  -41.712  -42.787  -44.019  -45.400  -46.894  -48.451  -50.011  -51.521  -52.943  -54.254  -55.445  -56.515  -57.465  -58.302  -59.038  -59.691  -60.288  -60.862  -61.456  -62.112  -62.866  -63.745  -64.756  -65.889  -67.123  -68.420  -69.745  -71.069  -72.367  -73.616  -74.775  -75.796  -76.590  -77.037  -76.899  -75.651  -75.995
 -22.088  -21.969  -21.404  -20.566  -19.593  -18.583  -17.603  -16.699  -15.921  -15.303  -14.847  -14.530  -14.321  -14.195  -14.127  -14.095  -14.077  -14.073  -14.119  -14.295  -14.702  -15.416  -16.444  -17.722  -19.160  -20.686  -22.282  -23.963  -25.740  -27.580  -29.397  -31.075  -32.514  -33.659  -34.505  -35.090  -35.476  -35.729  -35.913  -36.076  -36.239  -36.398  -36.534  -36.622  -36.648  -36.606  -36.500  -36.354  -36.199  -36.073  -36.019  -36.072  -36.261  -36.590  -37.037  -37.566  -38.132  -38.700  -39.260  -39.826  -40.425  -41.095  -41.863  -42.749  -43.767  -44.916  -46.181  -47.526  -48.903  -50.261  -51.558  -52.764  -53.866  -54.860  -55.749  -56.536  -57.228  -57.838  -58.380  -58.878  -59.360  -59.860  -60.418  -61.064  -61.824  -62.710  -63.721  -64.842  -66.050  -67.316  -68.613  -69.911  -71.176  -72.364  -73.419  -74.249  -74.746  -74.701  -73.717  -73.050
 -18.829  -18.602  -18.024  -17.220  -16.325  -15.438  -14.622  -13.911  -13.332  -12.900  -12.610  -12.445  -12.382  -12.406  -12.505  -12.674  -12.908  -13.218  -13.636  -14.225  -15.061  -16.205  -17.658  -19.360  -21.217  -23.144  -25.096  -27.063  -29.041  -31.002  -32.880  -34.593  -36.067  -37.259  -38.164  -38.806  -39.229  -39.488  -39.643  -39.741  -39.812  -39.861  -39.877  -39.843  -39.744  -39.573  -39.335  -39.049  -38.745  -38.461  -38.237  -38.111  -38.109  -38.239  -38.486  -38.821  -39.213  -39.639  -40.089  -40.575  -41.115  -41.731  -42.436  -43.237  -44.135  -45.122  -46.181  -47.281  -48.386  -49.457  -50.468  -51.402  -52.256  -53.029  -53.726  -54.351  -54.908  -55.407  -55.860  -56.284  -56.701  -57.138  -57.628  -58.198  -58.870  -59.657  -60.560  -61.572  -62.679  -63.861  -65.097  -66.360  -67.621  -68.830  -69.925  -70.811  -71.370  -71.425  -70.670  -69.488
 -16.408  -16.136  -15.594  -14.869  -14.083  -13.327  -12.658  -12.099  -11.670  -11.378  -11.223  -11.193  -11.277  -11.467  -11.764  -12.176  -12.713  -13.381  -14.203  -15.215  -16.475  -18.016  -19.836  -21.866  -24.003  -26.151  -28.250  -30.284  -32.251  -34.138  -35.912  -37.519  -38.910  -40.052  -40.936  -41.572  -41.990  -42.234  -42.354  -42.396  -42.391  -42.350  -42.268  -42.132  -41.929  -41.651  -41.306  -40.913  -40.500  -40.101  -39.753  -39.490  -39.336  -39.299  -39.374  -39.541  -39.781  -40.076  -40.422  -40.823  -41.287  -41.822  -42.428  -43.099  -43.828  -44.604  -45.412  -46.227  -47.026  -47.787  -48.498  -49.154  -49.760  -50.318  -50.832  -51.304  -51.740  -52.144  -52.525  -52.897  -53.274  -53.677  -54.131  -54.657  -55.272  -55.988  -56.805  -57.720  -58.725  -59.808  -60.953  -62.143  -63.349  -64.533  -65.630  -66.553  -67.179  -67.345  -66.804  -65.506
 -15.264  -15.026  -14.587  -14.009  -13.389  -12.805  -12.294  -11.878  -11.569  -11.382  -11.324  -11.401  -11.604  -11.935  -12.403  -13.021  -13.799  -14.733  -15.822  -17.087  -18.564  -20.287  -22.246  -24.374  -26.564  -28.713  -30.759  -32.681  -34.487  -36.182  -37.755  -39.178  -40.421  -41.457  -42.273  -42.868  -43.262  -43.485  -43.577  -43.579  -43.522  -43.418  -43.268  -43.061  -42.788  -42.444  -42.039  -41.591  -41.128  -40.681  -40.278  -39.948  -39.709  -39.571  -39.532  -39.579  -39.701  -39.890  -40.140  -40.452  -40.824  -41.254  -41.734  -42.252  -42.796  -43.356  -43.916  -44.462  -44.981  -45.464  -45.911  -46.329  -46.722  -47.098  -47.458  -47.804  -48.138  -48.467  -48.795  -49.132  -49.487  -49.876  -50.315  -50.820  -51.404  -52.073  -52.829  -53.669  -54.586  -55.574  -56.620  -57.713  -58.830  -59.937  -60.982  -61.886  -62.538  -62.786  -62.418  -61.229
 -15.533  -15.401  -15.126  -14.757  -14.364  -13.991  -13.659  -13.372  -13.145  -12.998  -12.957  -13.047  -13.268  -13.630  -14.140  -14.813  -15.649  -16.633  -17.744  -18.995  -20.418  -22.053  -23.899  -25.897  -27.943  -29.932  -31.796  -33.514  -35.095  -36.555  -37.898  -39.117  -40.193  -41.106  -41.840  -42.391  -42.763  -42.977  -43.064  -43.059  -42.987  -42.862  -42.687  -42.457  -42.164  -41.808  -41.400  -40.960  -40.513  -40.083  -39.692  -39.361  -39.105  -38.928  -38.833  -38.810  -38.857  -38.966  -39.136  -39.362  -39.640  -39.960  -40.312  -40.682  -41.059  -41.432  -41.789  -42.122  -42.424  -42.698  -42.950  -43.192  -43.432  -43.674  -43.922  -44.173  -44.431  -44.700  -44.985  -45.293  -45.632  -46.010  -46.439  -46.930  -47.492  -48.130  -48.842  -49.626  -50.472  -51.376  -52.329  -53.321  -54.335  -55.345  -56.307  -57.155  -57.791  -58.081  -57.839  -56.826
 -16.934  -16.958  -16.859  -16.706  -16.541  -16.376  -16.201  -16.002  -15.782  -15.571  -15.421  -15.374  -15.456  -15.679  -16.055  -16.591  -17.280  -18.096  -19.013  -20.032  -21.194  -22.545  -24.100  -25.813  -27.588  -29.322  -30.942  -32.421  -33.767  -34.997  -36.125  -37.155  -38.079  -38.882  -39.551  -40.075  -40.453  -40.694  -40.821  -40.858  -40.827  -40.740  -40.601  -40.407  -40.155  -39.848  -39.498  -39.125  -38.748  -38.386  -38.057  -37.772  -37.542  -37.373  -37.264  -37.213  -37.217  -37.276  -37.387  -37.546  -37.744  -37.972  -38.218  -38.470  -38.719  -38.957  -39.173  -39.364  -39.526  -39.667  -39.797  -39.928  -40.070  -40.226  -40.396  -40.580  -40.781  -41.002  -41.248  -41.527  -41.844  -42.205  -42.618  -43.093  -43.637  -44.252  -44.934  -45.676  -46.469  -47.306  -48.179  -49.081  -50.002  -50.921  -51.804  -52.595  -53.209  -53.527  -53.383  -52.546
 -18.803  -18.979  -19.005  -18.995  -18.976  -18.939  -18.847  -18.658  -18.363  -17.997  -17.628  -17.327  -17.140  -17.094  -17.198  -17.459  -17.863  -18.381  -18.979  -19.660  -20.459  -21.430  -22.602  -23.947  -25.384  -26.814  -28.166  -29.406  -30.535  -31.567  -32.520  -33.400  -34.209  -34.941  -35.584  -36.125  -36.557  -36.882  -37.109  -37.255  -37.334  -37.355  -37.319  -37.226  -37.074  -36.872  -36.629  -36.362  -36.088  -35.819  -35.569  -35.347  -35.162  -35.020  -34.921  -34.867  -34.859  -34.895  -34.975  -35.096  -35.245  -35.415  -35.593  -35.771  -35.942  -36.099  -36.236  -36.347  -36.434  -36.504  -36.568  -36.636  -36.719  -36.820  -36.938  -37.074  -37.229  -37.408  -37.617  -37.862  -38.150  -38.487  -38.883  -39.343  -39.875  -40.479  -41.147  -41.866  -42.625  -43.411  -44.222  -45.053  -45.901  -46.752  -47.578  -48.333  -48.941  -49.295  -49.241  -48.564
 -20.345  -20.608  -20.655  -20.656  -20.649  -20.618  -20.507  -20.254  -19.831  -19.269  -18.646  -18.056  -17.566  -17.209  -17.001  -16.940  -17.017  -17.199  -17.458  -17.786  -18.217  -18.803  -19.581  -20.538  -21.616  -22.732  -23.819  -24.842  -25.793  -26.680  -27.514  -28.304  -29.057  -29.771  -30.443  -31.059  -31.606  -32.077  -32.471  -32.791  -33.043  -33.229  -33.348  -33.398  -33.383  -33.310  -33.188  -33.034  -32.858  -32.672  -32.488  -32.318  -32.171  -32.057  -31.978  -31.937  -31.936  -31.978  -32.061  -32.179  -32.320  -32.472  -32.624  -32.770  -32.906  -33.028  -33.128  -33.205  -33.259  -33.297  -33.328  -33.363  -33.410  -33.473  -33.553  -33.649  -33.766  -33.905  -34.075  -34.283  -34.540  -34.854  -35.235  -35.693  -36.231  -36.847  -37.524  -38.243  -38.985  -39.738  -40.501  -41.277  -42.070  -42.874  -43.669  -44.413  -45.035  -45.435  -45.469  -44.935
 -20.921  -21.168  -21.115  -20.985  -20.846  -20.696  -20.474  -20.104  -19.538  -18.799  -17.966  -17.143  -16.411  -15.804  -15.336  -15.006  -14.801  -14.701  -14.675  -14.718  -14.853  -15.125  -15.569  -16.184  -16.936  -17.767  -18.627  -19.482  -20.321  -21.135  -21.928  -22.704  -23.469  -24.231  -24.985  -25.722  -26.425  -27.078  -27.669  -28.189  -28.631  -28.991  -29.265  -29.453  -29.560  -29.594  -29.567  -29.491  -29.375  -29.235  -29.084  -28.938  -28.812  -28.717  -28.661  -28.645  -28.672  -28.746  -28.862  -29.011  -29.177  -29.345  -29.504  -29.648  -29.775  -29.884  -29.972  -30.037  -30.079  -30.103  -30.119  -30.135  -30.159  -30.194  -30.243  -30.307  -30.387  -30.488  -30.617  -30.786  -31.009  -31.302  -31.682  -32.157  -32.730  -33.387  -34.105  -34.849  -35.593  -36.327  -37.052  -37.783  -38.533  -39.305  -40.084  -40.832  -41.481  -41.930  -42.046  -41.639
 -20.204  -20.322  -20.066  -19.686  -19.295  -18.925  -18.526  -18.016  -17.333  -16.484  -15.547  -14.620  -13.783  -13.068  -12.478  -12.005  -11.642  -11.374  -11.184  -11.063  -11.027  -11.108  -11.332  -11.707  -12.220  -12.846  -13.555  -14.325  -15.136  -15.965  -16.802  -17.640  -18.482  -19.331  -20.189  -21.047  -21.889  -22.693  -23.440  -24.110  -24.687  -25.162  -25.531  -25.798  -25.971  -26.058  -26.072  -26.023  -25.922  -25.786  -25.636  -25.493  -25.376  -25.299  -25.270  -25.290  -25.362  -25.484  -25.650  -25.845  -26.050  -26.246  -26.420  -26.567  -26.689  -26.787  -26.862  -26.916  -26.950  -26.967  -26.975  -26.980  -26.990  -27.007  -27.034  -27.070  -27.119  -27.181  -27.266  -27.393  -27.581  -27.859  -28.249  -28.763  -29.398  -30.130  -30.916  -31.709  -32.475  -33.203  -33.901  -34.592  -35.302  -36.046  -36.815  -37.572  -38.247  -38.744  -38.932  -38.636
 -18.198  -18.113  -17.602  -16.912  -16.208  -15.567  -14.966  -14.327  -13.586  -12.735  -11.841  -10.980  -10.217   -9.566   -9.018   -8.564   -8.193   -7.902   -7.680   -7.526   -7.446   -7.460   -7.587   -7.836   -8.219   -8.738   -9.390  -10.161  -11.024  -11.943  -12.885  -13.832  -14.777  -15.719  -16.655  -17.582  -18.487  -19.352  -20.153  -20.868  -21.479  -21.976  -22.361  -22.636  -22.815  -22.906  -22.918  -22.863  -22.752  -22.605  -22.450  -22.312  -22.213  -22.165  -22.174  -22.239  -22.358  -22.525  -22.731  -22.955  -23.178  -23.379  -23.548  -23.679  -23.775  -23.843  -23.889  -23.919  -23.935  -23.942  -23.943  -23.945  -23.950  -23.961  -23.977  -23.998  -24.019  -24.045  -24.086  -24.166  -24.320  -24.586  -24.994  -25.560  -26.276  -27.102  -27.976  -28.838  -29.643  -30.377  -31.054  -31.710  -32.381  -33.095  -33.849  -34.611  -35.309  -35.844  -36.094  -35.892
 -15.239  -14.950  -14.222  -13.274  -12.307  -11.437  -10.677   -9.969   -9.251   -8.513   -7.794   -7.139   -6.582   -6.114   -5.725   -5.397   -5.126   -4.911   -4.750   -4.644   -4.596   -4.618   -4.724   -4.929   -5.257   -5.737   -6.386   -7.200   -8.149   -9.181  -10.243  -11.302  -12.337  -13.337  -14.301  -15.227  -16.112  -16.944  -17.704  -18.372  -18.934  -19.386  -19.734  -19.984  -20.146  -20.230  -20.240  -20.186  -20.081  -19.948  -19.816  -19.713  -19.658  -19.660  -19.717  -19.823  -19.971  -20.154  -20.356  -20.560  -20.748  -20.907  -21.026  -21.103  -21.141  -21.152  -21.145  -21.131  -21.118  -21.108  -21.102  -21.103  -21.112  -21.130  -21.148  -21.164  -21.170  -21.166  -21.166  -21.204  -21.323  -21.578  -22.008  -22.633  -23.436  -24.363  -25.335  -26.273  -27.123  -27.867  -28.527  -29.145  -29.770  -30.443  -31.173  -31.929  -32.641  -33.209  -33.508  -33.389
 -11.965  -11.550  -10.744   -9.711   -8.656   -7.708   -6.899   -6.202   -5.574   -5.003   -4.499   -4.074   -3.728   -3.449   -3.220   -3.029   -2.873   -2.758   -2.676   -2.634   -2.633   -2.679   -2.784   -2.967   -3.263   -3.714   -4.357   -5.197   -6.204   -7.315   -8.463   -9.596  -10.678  -11.693  -12.637  -13.512  -14.325  -15.069  -15.737  -16.317  -16.804  -17.199  -17.511  -17.749  -17.919  -18.027  -18.075  -18.069  -18.020  -17.951  -17.893  -17.866  -17.883  -17.946  -18.047  -18.173  -18.315  -18.461  -18.601  -18.723  -18.817  -18.878  -18.902  -18.890  -18.846  -18.780  -18.707  -18.640  -18.586  -18.552  -18.537  -18.540  -18.560  -18.591  -18.623  -18.643  -18.644  -18.622  -18.594  -18.600  -18.698  -18.952  -19.414  -20.105  -20.998  -22.026  -23.089  -24.093  -24.975  -25.717  -26.343  -26.906  -27.470  -28.085  -28.773  -29.509  -30.224  -30.814  -31.156  -31.102
  -9.143   -8.718   -7.984   -7.048   -6.079   -5.192   -4.427   -3.789   -3.260   -2.832   -2.494   -2.231   -2.020   -1.850   -1.708   -1.600   -1.517   -1.461   -1.432   -1.428   -1.452   -1.507   -1.598   -1.754   -2.003   -2.402   -2.994   -3.798   -4.790   -5.909   -7.074   -8.220   -9.298  -10.283  -11.173  -11.974  -12.697  -13.346  -13.920  -14.420  -14.849  -15.215  -15.529  -15.795  -16.021  -16.206  -16.346  -16.444  -16.507  -16.556  -16.612  -16.689  -16.790  -16.910  -17.033  -17.146  -17.239  -17.302  -17.330  -17.320  -17.277  -17.206  -17.111  -16.996  -16.866  -16.728  -16.595  -16.480  -16.391  -16.334  -16.311  -16.317  -16.346  -16.389  -16.434  -16.466  -16.471  -16.447  -16.414  -16.417  -16.524  -16.810  -17.332  -18.108  -19.098  -20.214  -21.342  -22.377  -23.253  -23.955  -24.514  -24.993  -25.470  -26.004  -26.631  -27.329  -28.032  -28.633  -29.006  -29.008
  -7.316   -6.943   -6.329   -5.533   -4.676   -3.858   -3.139   -2.551   -2.102   -1.780   -1.556   -1.391   -1.249   -1.115   -0.997   -0.906   -0.846   -0.809   -0.798   -0.805   -0.831   -0.876   -0.944   -1.058   -1.250   -1.563   -2.056   -2.751   -3.642   -4.674   -5.773   -6.860   -7.881   -8.803   -9.622  -10.345  -10.988  -11.559  -12.066  -12.517  -12.922  -13.296  -13.646  -13.980  -14.298  -14.596  -14.868  -15.108  -15.320  -15.513  -15.699  -15.883  -16.058  -16.215  -16.335  -16.407  -16.422  -16.373  -16.266  -16.110  -15.922  -15.719  -15.514  -15.310  -15.116  -14.931  -14.764  -14.624  -14.517  -14.450  -14.423  -14.431  -14.466  -14.518  -14.575  -14.621  -14.642  -14.638  -14.632  -14.675  -14.842  -15.213  -15.840  -16.725  -17.810  -18.984  -20.125  -21.128  -21.936  -22.542  -22.991  -23.358  -23.725  -24.164  -24.715  -25.363  -26.040  -26.638  -27.029  -27.075
  -6.462   -6.143   -5.596   -4.858   -4.030   -3.214   -2.495   -1.931   -1.543   -1.310   -1.178   -1.082   -0.979   -0.856   -0.738   -0.642   -0.574   -0.534   -0.519   -0.524   -0.543   -0.571   -0.617   -0.692   -0.817   -1.037   -1.396   -1.930   -2.645   -3.513   -4.464   -5.424   -6.336   -7.169   -7.908   -8.560   -9.141   -9.662  -10.131  -10.563  -10.971  -11.370  -11.772  -12.181  -12.595  -13.011  -13.415  -13.799  -14.156  -14.484  -14.787  -15.058  -15.288  -15.463  -15.566  -15.587  -15.520  -15.366  -15.138  -14.859  -14.558  -14.258  -13.979  -13.728  -13.508  -13.314  -13.149  -13.015  -12.915  -12.856  -12.837  -12.854  -12.897  -12.960  -13.031  -13.097  -13.149  -13.190  -13.248  -13.377  -13.656  -14.162  -14.930  -15.934  -17.086  -18.262  -19.342  -20.238  -20.911  -21.372  -21.680  -21.917  -22.173  -22.520  -22.996  -23.588  -24.229  -24.811  -25.205  -25.283
  -6.067   -5.783   -5.255   -4.520   -3.675   -2.829   -2.095   -1.552   -1.214   -1.050   -0.987   -0.945   -0.873   -0.767   -0.652   -0.551   -0.474   -0.426   -0.407   -0.405   -0.415   -0.430   -0.461   -0.503   -0.580   -0.716   -0.946   -1.307   -1.819   -2.467   -3.211   -3.991   -4.758   -5.471   -6.120   -6.709   -7.242   -7.728   -8.178   -8.605   -9.020   -9.442   -9.881  -10.342  -10.822  -11.317  -11.815  -12.301  -12.761  -13.185  -13.568  -13.898  -14.163  -14.347  -14.438  -14.423  -14.301  -14.080  -13.782  -13.438  -13.084  -12.752  -12.459  -12.213  -12.012  -11.851  -11.722  -11.624  -11.559  -11.529  -11.536  -11.576  -11.639  -11.722  -11.816  -11.912  -12.009  -12.113  -12.258  -12.505  -12.932  -13.595  -14.506  -15.600  -16.765  -17.871  -18.818  -19.542  -20.034  -20.326  -20.488  -20.605  -20.767  -21.039  -21.455  -21.998  -22.598  -23.152  -23.538  -23.635
  -5.544   -5.290   -4.798   -4.102   -3.291   -2.478   -1.774   -1.269   -0.971   -0.852   -0.825   -0.813   -0.766   -0.686   -0.591   -0.501   -0.429   -0.380   -0.354   -0.350   -0.355   -0.366   -0.385   -0.410   -0.450   -0.524   -0.657   -0.871   -1.197   -1.630   -2.156   -2.731   -3.319   -3.895   -4.440   -4.954   -5.436   -5.890   -6.322   -6.744   -7.162   -7.589   -8.035   -8.503   -8.994   -9.506  -10.028  -10.545  -11.041  -11.502  -11.916  -12.270  -12.554  -12.749  -12.845  -12.830  -12.704  -12.480  -12.187  -11.858  -11.533  -11.241  -10.997  -10.807  -10.666  -10.568  -10.501  -10.464  -10.454  -10.476  -10.529  -10.608  -10.708  -10.825  -10.952  -11.086  -11.230  -11.401  -11.641  -12.012  -12.580  -13.381  -14.392  -15.517  -16.626  -17.603  -18.368  -18.894  -19.197  -19.330  -19.369  -19.398  -19.497  -19.721  -20.095  -20.593  -21.151  -21.669  -22.035  -22.140
  -4.602   -4.387   -3.988   -3.417   -2.746   -2.063   -1.470   -1.034   -0.778   -0.675   -0.656   -0.652   -0.626   -0.572   -0.505   -0.439   -0.384   -0.345   -0.325   -0.323   -0.327   -0.337   -0.349   -0.360   -0.378   -0.415   -0.483   -0.602   -0.786   -1.048   -1.380   -1.765   -2.178   -2.603   -3.031   -3.453   -3.871   -4.282   -4.687   -5.093   -5.506   -5.924   -6.352   -6.785   -7.233   -7.692   -8.162   -8.631   -9.088   -9.520   -9.915  -10.263  -10.549  -10.761  -10.887  -10.913  -10.843  -10.689  -10.478  -10.243  -10.018   -9.826   -9.680   -9.581   -9.524   -9.501   -9.509   -9.543   -9.603   -9.693   -9.806   -9.939  -10.086  -10.243  -10.406  -10.573  -10.758  -10.985  -11.304  -11.772  -12.443  -13.327  -14.370  -15.458  -16.461  -17.276  -17.854  -18.195  -18.338  -18.350  -18.308  -18.288  -18.358  -18.558  -18.902  -19.362  -19.875  -20.351  -20.691  -20.794
  -3.348   -3.182   -2.915   -2.531   -2.068   -1.586   -1.151   -0.821   -0.616   -0.522   -0.498   -0.491   -0.478   -0.448   -0.413   -0.373   -0.338   -0.315   -0.307   -0.312   -0.319   -0.326   -0.335   -0.337   -0.346   -0.360   -0.390   -0.449   -0.546   -0.688   -0.882   -1.117   -1.379   -1.667   -1.973   -2.295   -2.628   -2.979   -3.348   -3.734   -4.134   -4.536   -4.928   -5.303   -5.667   -6.027   -6.388   -6.750   -7.109   -7.459   -7.795   -8.108   -8.387   -8.620   -8.794   -8.899   -8.932   -8.903   -8.833   -8.747   -8.665   -8.606   -8.578   -8.579   -8.607   -8.660   -8.739   -8.842   -8.974   -9.129   -9.305   -9.491   -9.681   -9.872  -10.058  -10.246  -10.453  -10.714  -11.079  -11.600  -12.317  -13.216  -14.228  -15.230  -16.102  -16.761  -17.179  -17.379  -17.413  -17.353  -17.275  -17.245  -17.312  -17.505  -17.827  -18.252  -18.724  -19.160  -19.474  -19.575
  -2.117   -2.008   -1.866   -1.657   -1.396   -1.112   -0.841   -0.621   -0.477   -0.401   -0.377   -0.368   -0.365   -0.353   -0.335   -0.318   -0.303   -0.296   -0.302   -0.315   -0.328   -0.336   -0.339   -0.333   -0.327   -0.331   -0.341   -0.367   -0.413   -0.487   -0.593   -0.722   -0.875   -1.052   -1.250   -1.469   -1.717   -1.997   -2.319   -2.675   -3.056   -3.432   -3.778   -4.086   -4.354   -4.597   -4.828   -5.058   -5.296   -5.541   -5.796   -6.059   -6.324   -6.580   -6.813   -7.013   -7.174   -7.297   -7.390   -7.467   -7.538   -7.616   -7.702   -7.796   -7.903   -8.023   -8.159   -8.319   -8.504   -8.708   -8.924   -9.142   -9.354   -9.556   -9.744   -9.932  -10.137  -10.403  -10.777  -11.305  -12.012  -12.872  -13.811  -14.711  -15.462  -15.998  -16.305  -16.416  -16.395  -16.308  -16.229  -16.213  -16.295  -16.494  -16.806  -17.207  -17.647  -18.056  -18.351  -18.453
  -1.209   -1.141   -1.080   -0.988   -0.865   -0.721   -0.577   -0.451   -0.362   -0.314   -0.300   -0.297   -0.303   -0.301   -0.295   -0.290   -0.286   -0.295   -0.315   -0.339   -0.358   -0.362   -0.354   -0.340   -0.322   -0.312   -0.310   -0.320   -0.340   -0.379   -0.430   -0.498   -0.580   -0.677   -0.793   -0.931   -1.095   -1.306   -1.568   -1.877   -2.218   -2.548   -2.839   -3.074   -3.253   -3.394   -3.513   -3.625   -3.749   -3.895   -4.072   -4.285   -4.533   -4.805   -5.095   -5.388   -5.672   -5.938   -6.182   -6.407   -6.620   -6.824   -7.017   -7.201   -7.377   -7.552   -7.733   -7.928   -8.138   -8.358   -8.579   -8.792   -8.989   -9.169   -9.335   -9.496   -9.680   -9.929  -10.281  -10.779  -11.439  -12.234  -13.088  -13.896  -14.558  -15.018  -15.266  -15.341  -15.302  -15.222  -15.163  -15.170  -15.277  -15.491  -15.807  -16.202  -16.630  -17.028  -17.321  -17.431
  -0.683   -0.637   -0.619   -0.580   -0.526   -0.462   -0.395   -0.332   -0.285   -0.264   -0.259   -0.262   -0.272   -0.278   -0.279   -0.280   -0.288   -0.314   -0.348   -0.377   -0.394   -0.389   -0.369   -0.341   -0.314   -0.299   -0.290   -0.291   -0.299   -0.315   -0.340   -0.374   -0.418   -0.465   -0.526   -0.604   -0.708   -0.850   -1.044   -1.285   -1.556   -1.818   -2.038   -2.205   -2.313   -2.380   -2.420   -2.457   -2.503   -2.577   -2.691   -2.860   -3.086   -3.365   -3.692   -4.052   -4.426   -4.797   -5.155   -5.504   -5.840   -6.160   -6.456   -6.726   -6.970   -7.195   -7.407   -7.616   -7.823   -8.024   -8.211   -8.378   -8.527   -8.659   -8.779   -8.902   -9.054   -9.271   -9.592  -10.048  -10.651  -11.377  -12.156  -12.895  -13.507  -13.935  -14.171  -14.252  -14.232  -14.178  -14.148  -14.185  -14.317  -14.552  -14.881  -15.285  -15.721  -16.125  -16.423  -16.543
  -0.435   -0.398   -0.387   -0.373   -0.348   -0.317   -0.289   -0.259   -0.243   -0.234   -0.234   -0.246   -0.261   -0.269   -0.276   -0.282   -0.300   -0.338   -0.387   -0.425   -0.434   -0.412   -0.375   -0.335   -0.300   -0.282   -0.271   -0.268   -0.271   -0.279   -0.291   -0.308   -0.327   -0.351   -0.382   -0.422   -0.481   -0.570   -0.694   -0.859   -1.045   -1.225   -1.373   -1.478   -1.537   -1.562   -1.567   -1.564   -1.569   -1.603   -1.675   -1.804   -1.999   -2.262   -2.589   -2.968   -3.375   -3.801   -4.230   -4.664   -5.100   -5.524   -5.924   -6.283   -6.597   -6.872   -7.111   -7.322   -7.508   -7.666   -7.795   -7.897   -7.981   -8.054   -8.123   -8.210   -8.333   -8.530   -8.827   -9.251   -9.808  -10.476  -11.197  -11.891  -12.477  -12.903  -13.161  -13.278  -13.301  -13.292  -13.301  -13.371  -13.528  -13.782  -14.129  -14.548  -14.995  -15.408  -15.712  -15.838
  -0.333   -0.298   -0.289   -0.279   -0.264   -0.252   -0.237   -0.224   -0.219   -0.215   -0.221   -0.231   -0.245   -0.257   -0.265   -0.275   -0.305   -0.358   -0.418   -0.457   -0.456   -0.417   -0.364   -0.313   -0.280   -0.262   -0.251   -0.248   -0.252   -0.253   -0.261   -0.272   -0.281   -0.294   -0.308   -0.331   -0.361   -0.408   -0.480   -0.574   -0.680   -0.787   -0.870   -0.928   -0.959   -0.968   -0.961   -0.950   -0.946   -0.963   -1.008   -1.099   -1.251   -1.469   -1.754   -2.097   -2.481   -2.895   -3.342   -3.818   -4.321   -4.833   -5.327   -5.775   -6.167   -6.495   -6.763   -6.977   -7.143   -7.259   -7.332   -7.376   -7.403   -7.428   -7.467   -7.534   -7.650   -7.844   -8.136   -8.544   -9.072   -9.692  -10.362  -11.015  -11.580  -12.014  -12.304  -12.471  -12.555  -12.605  -12.664  -12.772  -12.956  -13.231  -13.592  -14.019  -14.471  -14.884  -15.187  -15.305
  -0.286   -0.254   -0.249   -0.237   -0.228   -0.220   -0.213   -0.205   -0.202   -0.204   -0.206   -0.214   -0.226   -0.234   -0.244   -0.261   -0.296   -0.354   -0.419   -0.459   -0.454   -0.405   -0.341   -0.289   -0.256   -0.239   -0.232   -0.231   -0.231   -0.234   -0.239   -0.245   -0.253   -0.259   -0.270   -0.281   -0.296   -0.321   -0.357   -0.401   -0.455   -0.505   -0.547   -0.576   -0.590   -0.595   -0.592   -0.587   -0.582   -0.593   -0.621   -0.681   -0.782   -0.939   -1.148   -1.411   -1.723   -2.080   -2.489   -2.958   -3.484   -4.048   -4.611   -5.140   -5.604   -5.993   -6.301   -6.532   -6.692   -6.788   -6.832   -6.844   -6.845   -6.856   -6.891   -6.964   -7.095   -7.303   -7.604   -8.002   -8.495   -9.062   -9.669  -10.263  -10.789  -11.214  -11.526  -11.739  -11.885  -11.999  -12.115  -12.269  -12.487  -12.784  -13.158  -13.589  -14.034  -14.438  -14.731  -14.831
  -0.263   -0.232   -0.224   -0.216   -0.210   -0.204   -0.199   -0.195   -0.192   -0.191   -0.195   -0.197   -0.206   -0.211   -0.219   -0.236   -0.271   -0.325   -0.388   -0.425   -0.416   -0.367   -0.310   -0.261   -0.232   -0.218   -0.216   -0.213   -0.215   -0.220   -0.225   -0.230   -0.234   -0.239   -0.244   -0.252   -0.262   -0.273   -0.289   -0.311   -0.334   -0.355   -0.374   -0.387   -0.398   -0.399   -0.401   -0.400   -0.404   -0.410   -0.427   -0.459   -0.518   -0.611   -0.744   -0.917   -1.130   -1.395   -1.725   -2.136   -2.632   -3.190   -3.779   -4.353   -4.876   -5.322   -5.675   -5.938   -6.117   -6.224   -6.274   -6.294   -6.305   -6.333   -6.393   -6.498   -6.658   -6.886   -7.188   -7.561   -7.999   -8.490   -9.007   -9.510   -9.967  -10.352  -10.660  -10.899  -11.089  -11.256  -11.426  -11.627  -11.880  -12.204  -12.592  -13.025  -13.464  -13.854  -14.133  -14.222
  -0.251   -0.221   -0.213   -0.206   -0.200   -0.195   -0.191   -0.188   -0.185   -0.183   -0.182   -0.187   -0.189   -0.189   -0.197   -0.213   -0.238   -0.283   -0.329   -0.357   -0.353   -0.315   -0.272   -0.234   -0.213   -0.203   -0.199   -0.201   -0.204   -0.208   -0.212   -0.216   -0.220   -0.225   -0.229   -0.234   -0.238   -0.245   -0.255   -0.263   -0.274   -0.282   -0.292   -0.299   -0.305   -0.309   -0.312   -0.316   -0.317   -0.323   -0.333   -0.352   -0.381   -0.428   -0.497   -0.593   -0.720   -0.889   -1.122   -1.435   -1.844   -2.338   -2.889   -3.457   -3.996   -4.471   -4.859   -5.158   -5.371   -5.513   -5.601   -5.660   -5.713   -5.786   -5.894   -6.044   -6.241   -6.483   -6.768   -7.092   -7.452   -7.835   -8.232   -8.621   -8.980   -9.295   -9.565   -9.797  -10.003  -10.199  -10.404  -10.637  -10.921  -11.262  -11.660  -12.092  -12.521  -12.902  -13.176  -13.267
  -0.242   -0.213   -0.206   -0.199   -0.193   -0.189   -0.185   -0.182   -0.179   -0.177   -0.175   -0.175   -0.175   -0.179   -0.181   -0.190   -0.207   -0.235   -0.265   -0.284   -0.283   -0.259   -0.233   -0.206   -0.194   -0.191   -0.189   -0.192   -0.195   -0.198   -0.201   -0.204   -0.208   -0.211   -0.215   -0.219   -0.224   -0.228   -0.232   -0.237   -0.242   -0.250   -0.254   -0.260   -0.265   -0.268   -0.271   -0.276   -0.280   -0.284   -0.289   -0.298   -0.313   -0.334   -0.365   -0.410   -0.473   -0.568   -0.710   -0.916   -1.210   -1.591   -2.043   -2.535   -3.029   -3.483   -3.873   -4.188   -4.432   -4.617   -4.755   -4.866   -4.980   -5.117   -5.294   -5.502   -5.741   -5.993   -6.249   -6.504   -6.767   -7.027   -7.288   -7.546   -7.788   -8.010   -8.214   -8.407   -8.595   -8.788   -8.995   -9.236   -9.522   -9.860  -10.246  -10.661  -11.074  -11.440  -11.712  -11.820
  -0.234   -0.207   -0.200   -0.193   -0.188   -0.183   -0.180   -0.177   -0.174   -0.172   -0.170   -0.169   -0.168   -0.167   -0.170   -0.175   -0.184   -0.196   -0.214   -0.223   -0.223   -0.213   -0.198   -0.188   -0.182   -0.179   -0.181   -0.184   -0.186   -0.189   -0.192   -0.195   -0.198   -0.201   -0.204   -0.207   -0.211   -0.214   -0.218   -0.221   -0.225   -0.229   -0.232   -0.236   -0.240   -0.243   -0.247   -0.251   -0.254   -0.258   -0.262   -0.268   -0.276   -0.285   -0.300   -0.317   -0.346   -0.392   -0.464   -0.583   -0.765   -1.015   -1.333   -1.702   -2.092   -2.469   -2.813   -3.107   -3.356   -3.562   -3.740   -3.906   -4.083   -4.297   -4.550   -4.833   -5.118   -5.383   -5.608   -5.796   -5.955   -6.092   -6.219   -6.338   -6.454   -6.572   -6.691   -6.819   -6.964   -7.122   -7.302   -7.515   -7.771   -8.069   -8.410   -8.776   -9.147   -9.484   -9.740   -9.869
  -0.228   -0.201   -0.194   -0.188   -0.183   -0.178   -0.175   -0.172   -0.170   -0.168   -0.166   -0.165   -0.164   -0.163   -0.162   -0.163   -0.169   -0.175   -0.181   -0.188   -0.188   -0.183   -0.179   -0.175   -0.171   -0.173   -0.175   -0.177   -0.179   -0.181   -0.184   -0.186   -0.189   -0.192   -0.195   -0.197   -0.200   -0.203   -0.206   -0.209   -0.213   -0.216   -0.219   -0.222   -0.226   -0.229   -0.232   -0.236   -0.239   -0.242   -0.246   -0.249   -0.252   -0.257   -0.265   -0.274   -0.286   -0.305   -0.340   -0.400   -0.494   -0.636   -0.823   -1.055   -1.315   -1.582   -1.836   -2.072   -2.285   -2.481   -2.672   -2.873   -3.105   -3.386   -3.713   -4.062   -4.396   -4.672   -4.871   -5.000   -5.066   -5.096   -5.098   -5.092   -5.086   -5.097   -5.132   -5.191   -5.278   -5.387   -5.520   -5.681   -5.877   -6.108   -6.373   -6.657   -6.950   -7.227   -7.444   -7.586
  -0.222   -0.196   -0.189   -0.183   -0.178   -0.174   -0.171   -0.168   -0.166   -0.164   -0.162   -0.161   -0.160   -0.159   -0.159   -0.158   -0.159   -0.162   -0.166   -0.168   -0.168   -0.168   -0.165   -0.164   -0.165   -0.166   -0.169   -0.171   -0.173   -0.175   -0.177   -0.179   -0.181   -0.184   -0.186   -0.189   -0.191   -0.194   -0.197   -0.199   -0.202   -0.205   -0.208   -0.211   -0.213   -0.216   -0.219   -0.222   -0.225   -0.228   -0.232   -0.235   -0.238   -0.241   -0.244   -0.249   -0.256   -0.265   -0.281   -0.305   -0.349   -0.417   -0.512   -0.634   -0.777   -0.934   -1.092   -1.245   -1.403   -1.560   -1.731   -1.934   -2.186   -2.500   -2.866   -3.249   -3.600   -3.876   -4.053   -4.135   -4.136   -4.083   -3.993   -3.887   -3.784   -3.711   -3.673   -3.677   -3.713   -3.775   -3.861   -3.969   -4.101   -4.258   -4.436   -4.627   -4.829   -5.023   -5.181   -5.318
  -0.217   -0.192   -0.185   -0.179   -0.175   -0.171   -0.167   -0.165   -0.163   -0.161   -0.159   -0.158   -0.157   -0.156   -0.156   -0.155   -0.155   -0.155   -0.155   -0.156   -0.156   -0.157   -0.158   -0.159   -0.160   -0.162   -0.163   -0.165   -0.166   -0.169   -0.171   -0.173   -0.175   -0.177   -0.179   -0.182   -0.184   -0.186   -0.189   -0.191   -0.193   -0.196   -0.198   -0.201   -0.203   -0.206   -0.209   -0.211   -0.214   -0.216   -0.219   -0.222   -0.225   -0.228   -0.231   -0.234   -0.237   -0.241   -0.249   -0.261   -0.277   -0.306   -0.347   -0.403   -0.468   -0.544   -0.624   -0.713   -0.805   -0.911   -1.043   -1.216   -1.447   -1.740   -2.087   -2.443   -2.767   -3.013   -3.156   -3.204   -3.171   -3.074   -2.936   -2.778   -2.628   -2.509   -2.435   -2.404   -2.411   -2.442   -2.493   -2.562   -2.652   -2.754   -2.873   -3.001   -3.131   -3.255   -3.361   -3.478
  -0.213   -0.188   -0.182   -0.176   -0.171   -0.168   -0.165   -0.162   -0.160   -0.158   -0.156   -0.155   -0.154   -0.153   -0.153   -0.153   -0.152   -0.152   -0.153   -0.153   -0.153   -0.154   -0.155   -0.156   -0.157   -0.158   -0.159   -0.160   -0.162   -0.163   -0.165   -0.167   -0.169   -0.171   -0.173   -0.175   -0.177   -0.179   -0.182   -0.184   -0.186   -0.188   -0.190   -0.193   -0.195   -0.197   -0.200   -0.202   -0.204   -0.207   -0.209   -0.212   -0.214   -0.217   -0.220   -0.222   -0.225   -0.228   -0.232   -0.236   -0.245   -0.257   -0.273   -0.292   -0.320   -0.351   -0.386   -0.428   -0.475   -0.537   -0.623   -0.747   -0.925   -1.153   -1.423   -1.701   -1.951   -2.138   -2.242   -2.264   -2.220   -2.125   -1.984   -1.830   -1.687   -1.570   -1.496   -1.458   -1.450   -1.468   -1.501   -1.555   -1.622   -1.711   -1.813   -1.922   -2.030   -2.130   -2.210   -2.311
  -0.210   -0.185   -0.179   -0.174   -0.169   -0.165   -0.162   -0.160   -0.158   -0.156   -0.154   -0.153   -0.152   -0.151   -0.151   -0.150   -0.150   -0.150   -0.150   -0.151   -0.151   -0.151   -0.152   -0.153   -0.154   -0.155   -0.156   -0.157   -0.158   -0.160   -0.161   -0.163   -0.164   -0.166   -0.168   -0.170   -0.172   -0.174   -0.176   -0.178   -0.180   -0.182   -0.184   -0.186   -0.188   -0.190   -0.192   -0.194   -0.196   -0.199   -0.201   -0.203   -0.205   -0.208   -0.210   -0.213   -0.215   -0.218   -0.221   -0.223   -0.227   -0.231   -0.240   -0.247   -0.258   -0.270   -0.283   -0.301   -0.323   -0.357   -0.403   -0.478   -0.590   -0.739   -0.909   -1.088   -1.248   -1.364   -1.426   -1.436   -1.402   -1.329   -1.229   -1.117   -1.012   -0.929   -0.875   -0.845   -0.840   -0.850   -0.879   -0.925   -0.996   -1.095   -1.211   -1.341   -1.469   -1.582   -1.668   -1.759
  -0.208   -0.184   -0.178   -0.172   -0.168   -0.164   -0.161   -0.158   -0.156   -0.155   -0.153   -0.152   -0.151   -0.150   -0.150   -0.149   -0.149   -0.149   -0.149   -0.149   -0.149   -0.150   -0.150   -0.151   -0.152   -0.152   -0.153   -0.154   -0.155   -0.157   -0.158   -0.159   -0.161   -0.162   -0.164   -0.165   -0.167   -0.169   -0.170   -0.172   -0.174   -0.176   -0.178   -0.180   -0.182   -0.184   -0.186   -0.188   -0.190   -0.192   -0.194   -0.196   -0.198   -0.200   -0.202   -0.205   -0.207   -0.209   -0.212   -0.214   -0.217   -0.220   -0.223   -0.227   -0.230   -0.239   -0.243   -0.253   -0.261   -0.278   -0.303   -0.340   -0.399   -0.474   -0.564   -0.657   -0.739   -0.801   -0.832   -0.839   -0.818   -0.776   -0.721   -0.657   -0.600   -0.553   -0.528   -0.513   -0.510   -0.521   -0.545   -0.590   -0.662   -0.769   -0.904   -1.061   -1.220   -1.359   -1.467   -1.563
  -0.207   -0.183   -0.177   -0.171   -0.167   -0.163   -0.160   -0.158   -0.156   -0.154   -0.153   -0.152   -0.151   -0.150   -0.149   -0.149   -0.148   -0.148   -0.148   -0.148   -0.148   -0.149   -0.149   -0.150   -0.150   -0.151   -0.152   -0.153   -0.154   -0.155   -0.156   -0.157   -0.158   -0.160   -0.161   -0.162   -0.164   -0.165   -0.167   -0.168   -0.170   -0.172   -0.173   -0.175   -0.178   -0.179   -0.181   -0.183   -0.185   -0.187   -0.188   -0.190   -0.192   -0.194   -0.196   -0.198   -0.200   -0.203   -0.205   -0.207   -0.210   -0.212   -0.214   -0.217   -0.220   -0.222   -0.226   -0.230   -0.236   -0.244   -0.255   -0.272   -0.297   -0.329   -0.371   -0.411   -0.444   -0.473   -0.486   -0.488   -0.479   -0.463   -0.441   -0.414   -0.391   -0.373   -0.362   -0.356   -0.358   -0.368   -0.386   -0.423   -0.491   -0.595   -0.731   -0.891   -1.066   -1.233   -1.359   -1.462
  -0.208   -0.183   -0.177   -0.172   -0.167   -0.164   -0.161   -0.159   -0.157   -0.155   -0.153   -0.152   -0.151   -0.150   -0.150   -0.149   -0.149   -0.149   -0.149   -0.149   -0.149   -0.149   -0.149   -0.150   -0.150   -0.151   -0.152   -0.152   -0.153   -0.154   -0.155   -0.156   -0.157   -0.158   -0.160   -0.161   -0.162   -0.164   -0.165   -0.166   -0.168   -0.169   -0.171   -0.172   -0.174   -0.175   -0.177   -0.179   -0.181   -0.183   -0.185   -0.186   -0.188   -0.190   -0.192   -0.194   -0.196   -0.198   -0.200   -0.202   -0.204   -0.206   -0.208   -0.211   -0.213   -0.216   -0.218   -0.221   -0.223   -0.227   -0.234   -0.241   -0.252   -0.264   -0.279   -0.293   -0.307   -0.317   -0.321   -0.324   -0.325   -0.320   -0.314   -0.308   -0.302   -0.296   -0.292   -0.294   -0.296   -0.304   -0.317   -0.344   -0.397   -0.478   -0.596   -0.746   -0.916   -1.086   -1.225   -1.334
  -0.211   -0.184   -0.178   -0.173   -0.168   -0.165   -0.162   -0.159   -0.157   -0.156   -0.154   -0.153   -0.152   -0.151   -0.150   -0.150   -0.150   -0.149   -0.149   -0.149   -0.149   -0.149   -0.150   -0.150   -0.150   -0.151   -0.152   -0.152   -0.153   -0.154   -0.155   -0.156   -0.157   -0.158   -0.159   -0.160   -0.161   -0.162   -0.163   -0.165   -0.166   -0.167   -0.169   -0.170   -0.172   -0.173   -0.174   -0.176   -0.178   -0.180   -0.181   -0.183   -0.185   -0.186   -0.188   -0.190   -0.192   -0.194   -0.195   -0.197   -0.199   -0.201   -0.203   -0.205   -0.208   -0.210   -0.212   -0.214   -0.217   -0.219   -0.221   -0.225   -0.231   -0.237   -0.241   -0.249   -0.254   -0.256   -0.259   -0.262   -0.264   -0.267   -0.265   -0.264   -0.265   -0.266   -0.264   -0.265   -0.268   -0.275   -0.286   -0.304   -0.339   -0.398   -0.488   -0.618   -0.774   -0.942   -1.082   -1.198
  -0.269   -0.205   -0.197   -0.191   -0.186   -0.183   -0.180   -0.177   -0.175   -0.173   -0.172   -0.170   -0.169   -0.168   -0.168   -0.167   -0.167   -0.166   -0.166   -0.166   -0.166   -0.166   -0.166   -0.166   -0.167   -0.167   -0.168   -0.168   -0.169   -0.169   -0.170   -0.171   -0.172   -0.173   -0.174   -0.175   -0.176   -0.177   -0.178   -0.179   -0.180   -0.182   -0.183   -0.184   -0.186   -0.187   -0.188   -0.190   -0.191   -0.193   -0.195   -0.197   -0.198   -0.200   -0.202   -0.203   -0.205   -0.207   -0.209   -0.210   -0.212   -0.214   -0.216   -0.218   -0.220   -0.223   -0.225   -0.227   -0.229   -0.231   -0.234   -0.236   -0.238   -0.241   -0.244   -0.248   -0.256   -0.259   -0.262   -0.264   -0.267   -0.264   -0.265   -0.267   -0.268   -0.271   -0.273   -0.276   -0.278   -0.282   -0.293   -0.305   -0.331   -0.380   -0.458   -0.571   -0.721   -0.882   -1.025   -1.188
