DSAA
 100 100
 0.0 400.0
 0.0 400.0
 -122.1774 -1.57686
  -2.350   -2.088   -2.218   -2.466   -2.821   -3.230   -3.653   -4.012   -4.240   -4.289   -4.110   -3.719   -3.201   -2.659   -2.205   -1.905   -1.823   -1.969   -2.388   -3.049   -3.818   -4.446   -4.696   -4.518   -4.098   -3.721   -3.586   -3.658   -3.765   -3.772   -3.641   -3.428   -3.227   -3.050   -2.910   -2.788   -2.707   -2.720   -2.898   -3.269   -3.799   -4.380   -4.928   -5.396   -5.721   -5.837   -5.712   -5.454   -5.244   -5.178   -5.226   -5.297   -5.327   -5.306   -5.232   -5.088   -4.837   -4.502   -4.168   -3.947   -3.938   -4.063   -4.137   -3.981   -3.559   -3.009   -2.548   -2.336   -2.371   -2.560   -2.765   -2.938   -3.115   -3.311   -3.459   -3.443   -3.231   -2.933   -2.674   -2.537   -2.533   -2.623   -2.778   -2.920   -3.022   -3.111   -3.270   -3.571   -4.038   -4.634   -5.262   -5.793   -6.078   -5.993   -5.502   -4.723   -3.841   -3.055   -2.526   -2.590
  -2.500   -2.399   -2.574   -2.857   -3.224   -3.648   -4.062   -4.401   -4.603   -4.605   -4.378   -3.941   -3.368   -2.775   -2.272   -1.927   -1.804   -1.918   -2.293   -2.901   -3.610   -4.188   -4.414   -4.248   -3.854   -3.500   -3.358   -3.417   -3.532   -3.584   -3.526   -3.388   -3.221   -3.048   -2.892   -2.755   -2.673   -2.684   -2.845   -3.172   -3.628   -4.120   -4.579   -4.965   -5.248   -5.383   -5.350   -5.239   -5.197   -5.291   -5.451   -5.580   -5.623   -5.577   -5.456   -5.247   -4.913   -4.482   -4.037   -3.727   -3.629   -3.689   -3.730   -3.592   -3.222   -2.747   -2.364   -2.204   -2.265   -2.466   -2.667   -2.820   -2.970   -3.154   -3.299   -3.300   -3.114   -2.850   -2.634   -2.534   -2.558   -2.678   -2.830   -2.981   -3.101   -3.238   -3.455   -3.819   -4.360   -5.034   -5.755   -6.387   -6.742   -6.672   -6.120   -5.213   -4.182   -3.264   -2.631   -2.520
  -3.433   -3.371   -3.577   -3.895   -4.287   -4.702   -5.088   -5.372   -5.497   -5.413   -5.105   -4.594   -3.952   -3.272   -2.676   -2.239   -2.020   -2.044   -2.320   -2.798   -3.369   -3.830   -4.012   -3.883   -3.565   -3.272   -3.137   -3.167   -3.284   -3.406   -3.474   -3.460   -3.358   -3.205   -3.038   -2.907   -2.839   -2.861   -2.999   -3.253   -3.583   -3.926   -4.237   -4.498   -4.708   -4.840   -4.922   -5.017   -5.215   -5.517   -5.819   -6.016   -6.066   -5.986   -5.796   -5.489   -5.049   -4.510   -3.963   -3.550   -3.343   -3.302   -3.286   -3.166   -2.895   -2.567   -2.315   -2.230   -2.321   -2.498   -2.670   -2.800   -2.918   -3.075   -3.221   -3.261   -3.143   -2.965   -2.843   -2.823   -2.902   -3.030   -3.171   -3.300   -3.432   -3.631   -3.939   -4.402   -5.027   -5.806   -6.665   -7.463   -7.963   -7.948   -7.357   -6.322   -5.120   -4.048   -3.309   -3.127
  -4.715   -4.683   -4.907   -5.239   -5.621   -6.006   -6.323   -6.533   -6.573   -6.404   -6.023   -5.440   -4.719   -3.947   -3.233   -2.665   -2.307   -2.186   -2.295   -2.593   -2.972   -3.287   -3.423   -3.342   -3.133   -2.923   -2.808   -2.810   -2.917   -3.095   -3.265   -3.358   -3.334   -3.218   -3.085   -3.002   -2.990   -3.051   -3.179   -3.367   -3.596   -3.832   -4.039   -4.213   -4.351   -4.468   -4.585   -4.767   -5.062   -5.442   -5.789   -5.997   -6.033   -5.910   -5.676   -5.326   -4.875   -4.348   -3.838   -3.431   -3.192   -3.084   -3.000   -2.873   -2.681   -2.480   -2.338   -2.307   -2.385   -2.524   -2.669   -2.775   -2.884   -3.032   -3.192   -3.281   -3.265   -3.211   -3.210   -3.285   -3.405   -3.516   -3.604   -3.670   -3.780   -3.993   -4.357   -4.875   -5.557   -6.416   -7.401   -8.368   -9.042   -9.160   -8.630   -7.592   -6.352   -5.229   -4.448   -4.233
  -6.098   -6.080   -6.293   -6.594   -6.923   -7.237   -7.485   -7.612   -7.580   -7.355   -6.929   -6.316   -5.551   -4.718   -3.909   -3.210   -2.683   -2.374   -2.284   -2.362   -2.536   -2.701   -2.788   -2.757   -2.647   -2.519   -2.425   -2.400   -2.480   -2.654   -2.855   -2.994   -3.027   -2.973   -2.922   -2.923   -2.989   -3.103   -3.240   -3.408   -3.599   -3.811   -4.010   -4.173   -4.290   -4.374   -4.454   -4.580   -4.786   -5.052   -5.291   -5.429   -5.424   -5.290   -5.071   -4.779   -4.440   -4.086   -3.755   -3.480   -3.283   -3.128   -2.966   -2.783   -2.604   -2.463   -2.392   -2.385   -2.445   -2.549   -2.668   -2.782   -2.909   -3.061   -3.222   -3.355   -3.443   -3.530   -3.661   -3.824   -3.954   -4.016   -4.013   -3.995   -4.049   -4.245   -4.603   -5.122   -5.811   -6.705   -7.790   -8.898   -9.742  -10.029   -9.671   -8.795   -7.697   -6.677   -5.961   -5.759
  -7.370   -7.347   -7.510   -7.742   -7.993   -8.220   -8.378   -8.436   -8.367   -8.132   -7.710   -7.116   -6.368   -5.533   -4.685   -3.900   -3.243   -2.764   -2.466   -2.328   -2.300   -2.319   -2.347   -2.337   -2.294   -2.220   -2.144   -2.090   -2.120   -2.242   -2.413   -2.547   -2.603   -2.616   -2.642   -2.711   -2.821   -2.954   -3.101   -3.270   -3.465   -3.694   -3.935   -4.142   -4.300   -4.395   -4.446   -4.475   -4.507   -4.565   -4.621   -4.648   -4.600   -4.499   -4.354   -4.189   -4.029   -3.890   -3.758   -3.630   -3.470   -3.256   -2.995   -2.733   -2.524   -2.401   -2.364   -2.384   -2.452   -2.562   -2.707   -2.861   -3.013   -3.160   -3.302   -3.443   -3.608   -3.810   -4.049   -4.257   -4.372   -4.381   -4.320   -4.264   -4.285   -4.468   -4.811   -5.319   -6.009   -6.939   -8.103   -9.331  -10.319  -10.788  -10.636  -10.000   -9.126   -8.270   -7.655   -7.468
  -8.383   -8.341   -8.440   -8.591   -8.750   -8.881   -8.961   -8.971   -8.887   -8.670   -8.298   -7.767   -7.091   -6.321   -5.501   -4.715   -3.999   -3.407   -2.952   -2.638   -2.439   -2.337   -2.291   -2.278   -2.259   -2.214   -2.142   -2.078   -2.061   -2.128   -2.246   -2.360   -2.431   -2.478   -2.511   -2.552   -2.619   -2.705   -2.816   -2.968   -3.153   -3.375   -3.623   -3.863   -4.075   -4.231   -4.310   -4.304   -4.236   -4.143   -4.066   -3.999   -3.950   -3.900   -3.857   -3.814   -3.781   -3.767   -3.734   -3.650   -3.467   -3.191   -2.860   -2.545   -2.321   -2.224   -2.227   -2.298   -2.410   -2.572   -2.773   -2.989   -3.169   -3.298   -3.407   -3.543   -3.751   -4.017   -4.285   -4.473   -4.550   -4.534   -4.483   -4.480   -4.581   -4.812   -5.184   -5.713   -6.433   -7.421   -8.676  -10.016  -11.156  -11.801  -11.860  -11.437  -10.729   -9.967   -9.369   -9.167
  -9.096   -9.026   -9.066   -9.142   -9.208   -9.262   -9.287   -9.263   -9.175   -8.993   -8.679   -8.229   -7.648   -6.986   -6.267   -5.540   -4.838   -4.200   -3.658   -3.222   -2.906   -2.706   -2.610   -2.587   -2.581   -2.550   -2.495   -2.451   -2.447   -2.505   -2.610   -2.721   -2.796   -2.817   -2.780   -2.701   -2.626   -2.580   -2.598   -2.673   -2.786   -2.935   -3.122   -3.340   -3.571   -3.776   -3.915   -3.955   -3.894   -3.765   -3.633   -3.549   -3.526   -3.552   -3.588   -3.612   -3.616   -3.590   -3.531   -3.400   -3.179   -2.875   -2.538   -2.262   -2.097   -2.058   -2.105   -2.219   -2.382   -2.595   -2.854   -3.121   -3.326   -3.462   -3.568   -3.716   -3.941   -4.200   -4.420   -4.538   -4.557   -4.543   -4.586   -4.731   -4.992   -5.354   -5.812   -6.387   -7.156   -8.200   -9.535  -10.995  -12.286  -13.138  -13.410  -13.162  -12.549  -11.787  -11.126  -10.870
  -9.538   -9.447   -9.440   -9.454   -9.466   -9.467   -9.447   -9.402   -9.316   -9.165   -8.901   -8.519   -8.028   -7.467   -6.859   -6.214   -5.563   -4.922   -4.341   -3.837   -3.454   -3.205   -3.097   -3.074   -3.089   -3.097   -3.106   -3.147   -3.242   -3.378   -3.536   -3.666   -3.722   -3.673   -3.502   -3.251   -2.979   -2.766   -2.639   -2.591   -2.597   -2.628   -2.706   -2.836   -3.013   -3.214   -3.384   -3.479   -3.458   -3.359   -3.225   -3.148   -3.154   -3.233   -3.334   -3.390   -3.376   -3.302   -3.179   -3.009   -2.781   -2.521   -2.289   -2.134   -2.086   -2.119   -2.193   -2.295   -2.446   -2.661   -2.930   -3.214   -3.453   -3.635   -3.797   -3.996   -4.232   -4.456   -4.596   -4.634   -4.622   -4.656   -4.829   -5.153   -5.588   -6.078   -6.610   -7.226   -8.016   -9.096  -10.474  -12.027  -13.464  -14.509  -15.009  -14.949  -14.454  -13.717  -13.026  -12.722
  -9.777   -9.667   -9.638   -9.617   -9.601   -9.576   -9.539   -9.493   -9.413   -9.279   -9.045   -8.708   -8.273   -7.778   -7.235   -6.648   -6.019   -5.383   -4.777   -4.242   -3.827   -3.569   -3.472   -3.490   -3.559   -3.655   -3.792   -3.998   -4.268   -4.571   -4.832   -4.980   -4.987   -4.825   -4.502   -4.073   -3.637   -3.278   -3.027   -2.865   -2.748   -2.665   -2.625   -2.636   -2.717   -2.846   -2.985   -3.076   -3.067   -2.960   -2.817   -2.719   -2.717   -2.815   -2.943   -3.027   -3.028   -2.961   -2.850   -2.711   -2.554   -2.416   -2.347   -2.366   -2.448   -2.524   -2.566   -2.595   -2.655   -2.803   -3.032   -3.292   -3.543   -3.782   -4.027   -4.298   -4.573   -4.793   -4.905   -4.936   -4.971   -5.100   -5.407   -5.854   -6.377   -6.912   -7.446   -8.047   -8.823   -9.896  -11.284  -12.878  -14.403  -15.598  -16.296  -16.460  -16.170  -15.596  -15.006  -14.719
  -9.880   -9.763   -9.719   -9.693   -9.666   -9.642   -9.619   -9.583   -9.518   -9.400   -9.188   -8.873   -8.465   -7.982   -7.438   -6.847   -6.198   -5.533   -4.890   -4.325   -3.902   -3.662   -3.604   -3.683   -3.862   -4.107   -4.435   -4.858   -5.349   -5.830   -6.185   -6.336   -6.258   -5.963   -5.497   -4.944   -4.412   -3.975   -3.651   -3.403   -3.206   -3.038   -2.902   -2.819   -2.792   -2.826   -2.883   -2.913   -2.858   -2.701   -2.486   -2.319   -2.261   -2.328   -2.463   -2.589   -2.666   -2.692   -2.683   -2.657   -2.632   -2.653   -2.757   -2.931   -3.105   -3.194   -3.160   -3.070   -3.016   -3.072   -3.231   -3.448   -3.683   -3.937   -4.236   -4.574   -4.907   -5.186   -5.377   -5.518   -5.684   -5.944   -6.337   -6.815   -7.307   -7.769   -8.218   -8.743   -9.472  -10.515  -11.886  -13.460  -15.013  -16.280  -17.110  -17.468  -17.428  -17.129  -16.768  -16.573
  -9.918   -9.789   -9.750   -9.717   -9.697   -9.688   -9.677   -9.665   -9.621   -9.529   -9.342   -9.050   -8.648   -8.158   -7.577   -6.919   -6.198   -5.462   -4.760   -4.160   -3.728   -3.508   -3.504   -3.688   -4.008   -4.445   -4.992   -5.638   -6.322   -6.925   -7.319   -7.435   -7.255   -6.838   -6.272   -5.666   -5.123   -4.684   -4.323   -4.021   -3.753   -3.529   -3.353   -3.218   -3.130   -3.092   -3.077   -3.034   -2.897   -2.651   -2.343   -2.076   -1.936   -1.952   -2.074   -2.249   -2.421   -2.576   -2.708   -2.821   -2.946   -3.120   -3.357   -3.626   -3.842   -3.905   -3.800   -3.633   -3.528   -3.561   -3.706   -3.894   -4.095   -4.316   -4.609   -4.974   -5.365   -5.742   -6.079   -6.388   -6.709   -7.076   -7.490   -7.910   -8.286   -8.598   -8.920   -9.343  -10.007  -10.991  -12.301  -13.825  -15.340  -16.611  -17.498  -17.989  -18.156  -18.117  -17.999  -17.916
  -9.913   -9.787   -9.746   -9.715   -9.699   -9.698   -9.706   -9.711   -9.689   -9.621   -9.473   -9.218   -8.840   -8.341   -7.720   -6.984   -6.174   -5.342   -4.566   -3.923   -3.477   -3.273   -3.319   -3.600   -4.066   -4.685   -5.426   -6.232   -7.022   -7.661   -8.042   -8.096   -7.837   -7.347   -6.753   -6.178   -5.690   -5.272   -4.882   -4.507   -4.165   -3.899   -3.724   -3.606   -3.524   -3.475   -3.423   -3.323   -3.120   -2.797   -2.413   -2.069   -1.863   -1.829   -1.936   -2.140   -2.381   -2.636   -2.881   -3.116   -3.363   -3.644   -3.961   -4.271   -4.489   -4.534   -4.432   -4.313   -4.311   -4.456   -4.683   -4.893   -5.069   -5.234   -5.478   -5.818   -6.236   -6.690   -7.136   -7.566   -7.974   -8.371   -8.747   -9.071   -9.304   -9.474   -9.664   -9.991  -10.573  -11.462  -12.664  -14.078  -15.508  -16.742  -17.640  -18.197  -18.488  -18.607  -18.641  -18.644
  -9.899   -9.769   -9.722   -9.695   -9.680   -9.680   -9.692   -9.703   -9.700   -9.656   -9.550   -9.351   -9.017   -8.538   -7.905   -7.122   -6.232   -5.323   -4.479   -3.784   -3.311   -3.104   -3.169   -3.501   -4.055   -4.787   -5.634   -6.512   -7.322   -7.947   -8.288   -8.293   -7.994   -7.498   -6.953   -6.466   -6.054   -5.669   -5.236   -4.782   -4.377   -4.094   -3.950   -3.892   -3.878   -3.864   -3.825   -3.706   -3.462   -3.090   -2.655   -2.267   -2.019   -1.943   -2.033   -2.246   -2.525   -2.842   -3.152   -3.469   -3.813   -4.181   -4.566   -4.913   -5.155   -5.248   -5.261   -5.326   -5.562   -5.931   -6.305   -6.578   -6.745   -6.873   -7.066   -7.365   -7.754   -8.199   -8.656   -9.085   -9.474   -9.814  -10.105  -10.319  -10.444  -10.509  -10.610  -10.857  -11.340  -12.095  -13.132  -14.379  -15.678  -16.840  -17.728  -18.309  -18.647  -18.819  -18.899  -18.943
  -9.880   -9.746   -9.699   -9.666   -9.650   -9.647   -9.655   -9.663   -9.665   -9.640   -9.570   -9.427   -9.160   -8.734   -8.135   -7.356   -6.455   -5.511   -4.634   -3.902   -3.391   -3.133   -3.153   -3.434   -3.956   -4.673   -5.511   -6.383   -7.182   -7.796   -8.121   -8.115   -7.826   -7.375   -6.914   -6.535   -6.208   -5.853   -5.404   -4.918   -4.502   -4.257   -4.184   -4.221   -4.290   -4.329   -4.303   -4.163   -3.877   -3.454   -2.978   -2.555   -2.272   -2.164   -2.230   -2.445   -2.745   -3.098   -3.476   -3.893   -4.355   -4.854   -5.362   -5.820   -6.167   -6.396   -6.613   -6.934   -7.426   -7.994   -8.493   -8.821   -8.987   -9.109   -9.274   -9.526   -9.847  -10.207  -10.564  -10.895  -11.180  -11.411  -11.602  -11.727  -11.781  -11.793  -11.846  -12.028  -12.405  -13.004  -13.845  -14.877  -15.995  -17.034  -17.872  -18.455  -18.801  -18.975  -19.050  -19.098
  -9.854   -9.718   -9.677   -9.647   -9.631   -9.622   -9.622   -9.618   -9.619   -9.599   -9.558   -9.458   -9.261   -8.923   -8.405   -7.706   -6.860   -5.957   -5.087   -4.340   -3.780   -3.430   -3.313   -3.441   -3.798   -4.370   -5.111   -5.934   -6.735   -7.378   -7.743   -7.765   -7.502   -7.090   -6.698   -6.397   -6.147   -5.852   -5.462   -5.049   -4.733   -4.599   -4.648   -4.788   -4.922   -4.989   -4.940   -4.737   -4.368   -3.860   -3.310   -2.819   -2.476   -2.327   -2.379   -2.608   -2.963   -3.404   -3.913   -4.501   -5.173   -5.901   -6.624   -7.284   -7.819   -8.241   -8.657   -9.162   -9.788  -10.432  -10.948  -11.274  -11.446  -11.568  -11.724  -11.937  -12.176  -12.417  -12.645  -12.844  -12.997  -13.117  -13.211  -13.276  -13.294  -13.294  -13.321  -13.454  -13.733  -14.188  -14.834  -15.636  -16.526  -17.388  -18.119  -18.665  -19.013  -19.195  -19.273  -19.325
  -9.841   -9.704   -9.665   -9.638   -9.623   -9.616   -9.605   -9.593   -9.584   -9.566   -9.538   -9.478   -9.345   -9.105   -8.705   -8.138   -7.420   -6.622   -5.811   -5.078   -4.458   -3.996   -3.705   -3.606   -3.714   -4.058   -4.642   -5.402   -6.218   -6.928   -7.363   -7.436   -7.192   -6.789   -6.409   -6.140   -5.956   -5.760   -5.523   -5.292   -5.171   -5.225   -5.415   -5.650   -5.828   -5.875   -5.761   -5.456   -4.959   -4.321   -3.640   -3.035   -2.603   -2.399   -2.456   -2.744   -3.226   -3.852   -4.608   -5.487   -6.466   -7.488   -8.487   -9.376  -10.097  -10.672  -11.184  -11.721  -12.307  -12.870  -13.304  -13.574  -13.730  -13.851  -14.002  -14.181  -14.359  -14.507  -14.628  -14.706  -14.749  -14.777  -14.805  -14.836  -14.850  -14.849  -14.869  -14.956  -15.157  -15.493  -15.971  -16.564  -17.214  -17.861  -18.438  -18.917  -19.265  -19.479  -19.591  -19.656
  -9.841   -9.704   -9.659   -9.641   -9.627   -9.617   -9.602   -9.582   -9.570   -9.551   -9.536   -9.497   -9.424   -9.269   -9.001   -8.592   -8.042   -7.389   -6.684   -5.989   -5.353   -4.809   -4.360   -4.037   -3.888   -3.982   -4.379   -5.048   -5.874   -6.650   -7.152   -7.267   -7.034   -6.614   -6.214   -5.948   -5.817   -5.749   -5.698   -5.698   -5.807   -6.044   -6.361   -6.668   -6.859   -6.879   -6.689   -6.280   -5.662   -4.880   -4.036   -3.282   -2.734   -2.479   -2.568   -2.993   -3.694   -4.622   -5.720   -6.947   -8.252   -9.555  -10.770  -11.804  -12.616  -13.230  -13.711  -14.152  -14.583  -14.978  -15.281  -15.469  -15.592  -15.704  -15.839  -15.991  -16.134  -16.233  -16.279  -16.279  -16.249  -16.216  -16.209  -16.223  -16.243  -16.253  -16.267  -16.319  -16.452  -16.697  -17.049  -17.472  -17.915  -18.345  -18.755  -19.143  -19.484  -19.747  -19.918  -20.011
  -9.847   -9.708   -9.670   -9.647   -9.631   -9.618   -9.605   -9.585   -9.572   -9.553   -9.544   -9.529   -9.493   -9.416   -9.256   -8.993   -8.614   -8.119   -7.552   -6.948   -6.351   -5.775   -5.243   -4.768   -4.417   -4.295   -4.500   -5.054   -5.832   -6.617   -7.162   -7.319   -7.110   -6.694   -6.291   -6.037   -5.950   -5.991   -6.100   -6.284   -6.560   -6.915   -7.293   -7.617   -7.809   -7.811   -7.592   -7.138   -6.443   -5.553   -4.568   -3.653   -2.977   -2.682   -2.850   -3.467   -4.466   -5.742   -7.204   -8.760  -10.317  -11.788  -13.076  -14.121  -14.893  -15.431  -15.799  -16.089  -16.343  -16.575  -16.758  -16.880  -16.967  -17.055  -17.166  -17.293  -17.408  -17.485  -17.500  -17.456  -17.383  -17.321  -17.295  -17.308  -17.337  -17.350  -17.355  -17.377  -17.457  -17.628  -17.887  -18.187  -18.468  -18.719  -18.975  -19.267  -19.592  -19.895  -20.125  -20.250
  -9.854   -9.713   -9.676   -9.656   -9.646   -9.629   -9.615   -9.598   -9.583   -9.571   -9.566   -9.560   -9.551   -9.521   -9.440   -9.290   -9.049   -8.712   -8.295   -7.819   -7.319   -6.799   -6.263   -5.727   -5.261   -4.982   -5.016   -5.423   -6.098   -6.833   -7.373   -7.570   -7.421   -7.076   -6.725   -6.513   -6.467   -6.562   -6.753   -7.018   -7.344   -7.712   -8.072   -8.363   -8.532   -8.530   -8.323   -7.892   -7.205   -6.278   -5.207   -4.164   -3.376   -3.060   -3.328   -4.159   -5.455   -7.057   -8.816  -10.607  -12.303  -13.803  -15.032  -15.966  -16.606  -17.007  -17.243  -17.399  -17.521  -17.641  -17.749  -17.830  -17.890  -17.957  -18.039  -18.146  -18.243  -18.301  -18.294  -18.228  -18.132  -18.061  -18.035  -18.054  -18.079  -18.087  -18.071  -18.064  -18.103  -18.217  -18.409  -18.625  -18.793  -18.917  -19.051  -19.256  -19.550  -19.870  -20.134  -20.292
  -9.875   -9.731   -9.693   -9.672   -9.656   -9.647   -9.632   -9.619   -9.605   -9.596   -9.591   -9.588   -9.589   -9.583   -9.548   -9.469   -9.333   -9.129   -8.857   -8.532   -8.160   -7.741   -7.271   -6.762   -6.268   -5.906   -5.819   -6.069   -6.594   -7.225   -7.730   -7.964   -7.910   -7.678   -7.426   -7.278   -7.266   -7.373   -7.560   -7.804   -8.086   -8.382   -8.658   -8.880   -9.006   -9.010   -8.842   -8.466   -7.837   -6.939   -5.846   -4.731   -3.872   -3.534   -3.886   -4.905   -6.437   -8.281  -10.251  -12.177  -13.912  -15.355  -16.455  -17.215  -17.691  -17.955  -18.086  -18.156  -18.210  -18.273  -18.347  -18.408  -18.460  -18.514  -18.577  -18.659  -18.731  -18.762  -18.739  -18.663  -18.567  -18.503  -18.484  -18.504  -18.519  -18.503  -18.459  -18.419  -18.424  -18.506  -18.651  -18.801  -18.902  -18.950  -19.002  -19.139  -19.383  -19.688  -19.959  -20.127
  -9.892   -9.746   -9.708   -9.690   -9.674   -9.664   -9.652   -9.643   -9.632   -9.619   -9.614   -9.611   -9.612   -9.607   -9.594   -9.556   -9.492   -9.390   -9.241   -9.043   -8.801   -8.494   -8.128   -7.702   -7.257   -6.895   -6.738   -6.858   -7.224   -7.717   -8.156   -8.406   -8.443   -8.338   -8.201   -8.118   -8.124   -8.203   -8.334   -8.501   -8.695   -8.890   -9.067   -9.207   -9.289   -9.280   -9.143   -8.824   -8.265   -7.431   -6.356   -5.215   -4.305   -3.951   -4.343   -5.477   -7.163   -9.167  -11.267  -13.273  -15.019  -16.387  -17.352  -17.957  -18.293  -18.448  -18.514  -18.545  -18.571  -18.615  -18.672  -18.723  -18.773  -18.820  -18.871  -18.926  -18.965  -18.973  -18.939  -18.866  -18.789  -18.739  -18.731  -18.745  -18.736  -18.691  -18.618  -18.550  -18.536  -18.594  -18.705  -18.811  -18.871  -18.885  -18.899  -18.991  -19.181  -19.439  -19.682  -19.845
  -9.914   -9.765   -9.724   -9.699   -9.684   -9.681   -9.673   -9.664   -9.649   -9.637   -9.631   -9.625   -9.621   -9.615   -9.609   -9.596   -9.570   -9.529   -9.464   -9.364   -9.218   -9.019   -8.757   -8.440   -8.097   -7.796   -7.625   -7.653   -7.883   -8.233   -8.583   -8.826   -8.921   -8.908   -8.852   -8.818   -8.822   -8.862   -8.929   -9.018   -9.121   -9.229   -9.319   -9.388   -9.422   -9.390   -9.251   -8.957   -8.436   -7.645   -6.602   -5.456   -4.519   -4.134   -4.528   -5.698   -7.467   -9.576  -11.786  -13.870  -15.647  -16.988  -17.868  -18.366  -18.600  -18.692  -18.722  -18.740  -18.758  -18.793  -18.834  -18.877  -18.913  -18.947  -18.977  -19.003  -19.021  -19.014  -18.980  -18.931  -18.876  -18.845  -18.841  -18.850  -18.825  -18.764  -18.673  -18.600  -18.575  -18.614  -18.685  -18.755  -18.792  -18.800  -18.811  -18.879  -19.017  -19.216  -19.407  -19.549
  -9.936   -9.781   -9.733   -9.706   -9.690   -9.685   -9.678   -9.671   -9.658   -9.643   -9.633   -9.628   -9.627   -9.623   -9.615   -9.606   -9.597   -9.585   -9.566   -9.519   -9.442   -9.323   -9.156   -8.953   -8.724   -8.511   -8.371   -8.356   -8.479   -8.715   -8.971   -9.172   -9.282   -9.308   -9.297   -9.280   -9.272   -9.280   -9.303   -9.333   -9.375   -9.415   -9.451   -9.465   -9.446   -9.363   -9.180   -8.844   -8.304   -7.507   -6.473   -5.335   -4.387   -3.979   -4.344   -5.504   -7.305   -9.500  -11.836  -14.051  -15.916  -17.287  -18.142  -18.589  -18.770  -18.824  -18.838  -18.849  -18.869  -18.894  -18.917  -18.932  -18.938  -18.945  -18.952  -18.958  -18.959  -18.953  -18.937  -18.913  -18.888  -18.872  -18.873  -18.876  -18.854  -18.801  -18.730  -18.671  -18.646  -18.661  -18.694  -18.726  -18.746  -18.753  -18.776  -18.831  -18.932  -19.073  -19.209  -19.328
  -9.933   -9.776   -9.733   -9.708   -9.690   -9.678   -9.668   -9.662   -9.652   -9.638   -9.625   -9.623   -9.624   -9.624   -9.610   -9.597   -9.591   -9.587   -9.581   -9.564   -9.524   -9.454   -9.367   -9.259   -9.136   -9.009   -8.915   -8.892   -8.957   -9.100   -9.274   -9.422   -9.511   -9.541   -9.541   -9.523   -9.508   -9.493   -9.489   -9.486   -9.495   -9.495   -9.486   -9.456   -9.370   -9.199   -8.914   -8.471   -7.835   -6.980   -5.929   -4.820   -3.907   -3.498   -3.822   -4.948   -6.760   -9.039  -11.530  -13.917  -15.931  -17.390  -18.274  -18.706  -18.863  -18.893  -18.900  -18.913  -18.932  -18.948  -18.949  -18.934  -18.912  -18.888  -18.872  -18.866  -18.861  -18.864  -18.867  -18.869  -18.866  -18.857  -18.854  -18.855  -18.852  -18.837  -18.817  -18.795  -18.781  -18.779  -18.774  -18.770  -18.764  -18.771  -18.796  -18.844  -18.919  -19.015  -19.113  -19.208
  -9.915   -9.756   -9.713   -9.688   -9.671   -9.664   -9.661   -9.653   -9.643   -9.626   -9.616   -9.612   -9.610   -9.604   -9.593   -9.574   -9.558   -9.552   -9.553   -9.546   -9.526   -9.495   -9.461   -9.413   -9.363   -9.305   -9.256   -9.241   -9.276   -9.360   -9.465   -9.560   -9.624   -9.641   -9.635   -9.614   -9.593   -9.573   -9.555   -9.541   -9.530   -9.507   -9.457   -9.357   -9.182   -8.886   -8.443   -7.827   -7.042   -6.101   -5.052   -4.009   -3.187   -2.829   -3.143   -4.218   -6.012   -8.362  -11.004  -13.583  -15.770  -17.347  -18.296  -18.738  -18.878  -18.891  -18.890  -18.906  -18.931  -18.946  -18.933  -18.902  -18.861  -18.826  -18.808  -18.800  -18.798  -18.805  -18.816  -18.828  -18.830  -18.821  -18.812  -18.808  -18.823  -18.853  -18.890  -18.919  -18.937  -18.932  -18.909  -18.877  -18.850  -18.841  -18.857  -18.893  -18.940  -19.007  -19.079  -19.159
  -9.903   -9.740   -9.699   -9.678   -9.667   -9.659   -9.653   -9.650   -9.637   -9.621   -9.606   -9.596   -9.590   -9.582   -9.564   -9.542   -9.524   -9.518   -9.516   -9.522   -9.520   -9.515   -9.503   -9.486   -9.468   -9.442   -9.419   -9.413   -9.441   -9.487   -9.544   -9.606   -9.642   -9.645   -9.636   -9.616   -9.596   -9.577   -9.566   -9.549   -9.519   -9.464   -9.359   -9.166   -8.857   -8.392   -7.752   -6.947   -6.009   -5.004   -4.008   -3.099   -2.438   -2.189   -2.515   -3.542   -5.289   -7.675  -10.425  -13.160  -15.499  -17.194  -18.207  -18.672  -18.803  -18.804  -18.797  -18.819  -18.853  -18.866  -18.855  -18.820  -18.790  -18.773  -18.774  -18.778  -18.780  -18.780  -18.779  -18.785  -18.784  -18.771  -18.752  -18.742  -18.766  -18.816  -18.892  -18.967  -19.023  -19.040  -19.027  -18.996  -18.960  -18.938  -18.932  -18.942  -18.965  -19.003  -19.058  -19.124
  -9.928   -9.764   -9.728   -9.713   -9.702   -9.696   -9.694   -9.692   -9.682   -9.660   -9.638   -9.617   -9.607   -9.588   -9.568   -9.548   -9.535   -9.539   -9.546   -9.560   -9.568   -9.571   -9.565   -9.552   -9.528   -9.504   -9.481   -9.470   -9.484   -9.511   -9.545   -9.582   -9.601   -9.601   -9.593   -9.581   -9.569   -9.559   -9.551   -9.528   -9.473   -9.365   -9.170   -8.848   -8.361   -7.699   -6.859   -5.892   -4.870   -3.886   -3.017   -2.317   -1.865   -1.759   -2.123   -3.109   -4.800   -7.157   -9.948  -12.767  -15.195  -16.969  -18.034  -18.523  -18.655  -18.647  -18.635  -18.657  -18.691  -18.707  -18.693  -18.675  -18.669  -18.687  -18.719  -18.743  -18.746  -18.731  -18.712  -18.704  -18.702  -18.685  -18.664  -18.642  -18.652  -18.701  -18.786  -18.877  -18.959  -19.016  -19.038  -19.037  -19.020  -18.999  -18.977  -18.959  -18.949  -18.957  -18.985  -19.037
 -10.100   -9.929   -9.896   -9.876   -9.871   -9.860   -9.858   -9.855   -9.845   -9.822   -9.793   -9.765   -9.746   -9.726   -9.709   -9.696   -9.701   -9.711   -9.736   -9.756   -9.771   -9.769   -9.752   -9.714   -9.657   -9.600   -9.544   -9.504   -9.487   -9.496   -9.519   -9.541   -9.554   -9.556   -9.552   -9.548   -9.546   -9.543   -9.530   -9.485   -9.381   -9.182   -8.854   -8.363   -7.680   -6.816   -5.822   -4.781   -3.787   -2.937   -2.278   -1.830   -1.604   -1.645   -2.062   -3.008   -4.629   -6.923   -9.668  -12.474  -14.912  -16.706  -17.796  -18.299  -18.433  -18.416  -18.391  -18.399  -18.421  -18.430  -18.419  -18.415  -18.432  -18.479  -18.538  -18.579  -18.581  -18.557  -18.524  -18.506  -18.502  -18.497  -18.480  -18.455  -18.445  -18.469  -18.527  -18.606  -18.693  -18.775  -18.839  -18.881  -18.904  -18.905  -18.886  -18.852  -18.816  -18.788  -18.789  -18.832
 -10.542  -10.370  -10.329  -10.304  -10.293  -10.279  -10.269  -10.262  -10.252  -10.230  -10.204  -10.178  -10.152  -10.139  -10.133  -10.133  -10.146  -10.168  -10.198  -10.225  -10.238  -10.226  -10.182  -10.092   -9.966   -9.828   -9.694   -9.590   -9.526   -9.506   -9.507   -9.522   -9.534   -9.541   -9.543   -9.541   -9.543   -9.539   -9.501   -9.404   -9.206   -8.876   -8.382   -7.694   -6.817   -5.808   -4.747   -3.737   -2.890   -2.271   -1.894   -1.724   -1.723   -1.903   -2.365   -3.280   -4.806   -6.978   -9.596  -12.279  -14.628  -16.368  -17.434  -17.935  -18.069  -18.043  -18.000  -17.982  -17.979  -17.972  -17.959  -17.959  -17.987  -18.041  -18.100  -18.140  -18.145  -18.119  -18.091  -18.078  -18.083  -18.094  -18.089  -18.066  -18.040  -18.032  -18.048  -18.094  -18.160  -18.242  -18.331  -18.407  -18.467  -18.502  -18.503  -18.475  -18.428  -18.387  -18.373  -18.405
 -11.376  -11.196  -11.146  -11.112  -11.088  -11.064  -11.051  -11.042  -11.034  -11.014  -11.000  -10.979  -10.965  -10.958  -10.954  -10.965  -10.981  -11.010  -11.038  -11.063  -11.067  -11.038  -10.947  -10.774  -10.539  -10.264   -9.995   -9.778   -9.632   -9.561   -9.542   -9.545   -9.556   -9.563   -9.567   -9.563   -9.562   -9.533   -9.453   -9.269   -8.944   -8.445   -7.756   -6.883   -5.873   -4.803   -3.776   -2.902   -2.278   -1.935   -1.858   -1.974   -2.204   -2.536   -3.051   -3.920   -5.313   -7.280   -9.655  -12.095  -14.240  -15.836  -16.821  -17.281  -17.405  -17.379  -17.327  -17.284  -17.253  -17.230  -17.210  -17.207  -17.230  -17.264  -17.302  -17.328  -17.333  -17.317  -17.297  -17.298  -17.323  -17.344  -17.352  -17.332  -17.297  -17.262  -17.246  -17.252  -17.288  -17.355  -17.438  -17.524  -17.605  -17.665  -17.696  -17.688  -17.654  -17.623  -17.612  -17.653
 -12.615  -12.435  -12.376  -12.330  -12.289  -12.263  -12.245  -12.237  -12.234  -12.228  -12.220  -12.212  -12.206  -12.201  -12.200  -12.212  -12.225  -12.249  -12.274  -12.291  -12.285  -12.222  -12.066  -11.783  -11.384  -10.913  -10.442  -10.058   -9.793   -9.650   -9.592   -9.581   -9.587   -9.594   -9.597   -9.591   -9.577   -9.523   -9.383   -9.101   -8.623   -7.937   -7.069   -6.063   -5.002   -3.977   -3.079   -2.397   -2.001   -1.908   -2.099   -2.481   -2.949   -3.451   -4.042   -4.858   -6.065   -7.731   -9.737  -11.810  -13.633  -14.992  -15.830  -16.222  -16.324  -16.299  -16.252  -16.209  -16.169  -16.134  -16.107  -16.097  -16.101  -16.113  -16.123  -16.133  -16.133  -16.123  -16.121  -16.131  -16.156  -16.182  -16.191  -16.176  -16.140  -16.097  -16.064  -16.052  -16.063  -16.107  -16.166  -16.238  -16.317  -16.385  -16.432  -16.448  -16.445  -16.437  -16.446  -16.516
 -14.117  -13.954  -13.890  -13.840  -13.799  -13.770  -13.757  -13.754  -13.761  -13.767  -13.763  -13.757  -13.750  -13.744  -13.741  -13.746  -13.759  -13.776  -13.794  -13.799  -13.772  -13.671  -13.432  -13.012  -12.410  -11.692  -10.977  -10.382   -9.967   -9.733   -9.633   -9.604   -9.600   -9.603   -9.603   -9.596   -9.578   -9.504   -9.310   -8.929   -8.320   -7.483   -6.483   -5.424   -4.408   -3.508   -2.791   -2.297   -2.068   -2.148   -2.524   -3.114   -3.802   -4.483   -5.150   -5.898   -6.881   -8.186   -9.743  -11.358  -12.781  -13.842  -14.487  -14.778  -14.851  -14.836  -14.808  -14.784  -14.757  -14.724  -14.697  -14.681  -14.671  -14.668  -14.662  -14.662  -14.655  -14.650  -14.651  -14.660  -14.677  -14.692  -14.693  -14.680  -14.650  -14.613  -14.587  -14.576  -14.582  -14.607  -14.644  -14.693  -14.745  -14.797  -14.841  -14.870  -14.886  -14.909  -14.948  -15.054
 -15.662  -15.525  -15.465  -15.417  -15.384  -15.364  -15.355  -15.356  -15.369  -15.378  -15.377  -15.368  -15.355  -15.338  -15.332  -15.337  -15.348  -15.362  -15.372  -15.369  -15.323  -15.174  -14.846  -14.278  -13.465  -12.495  -11.521  -10.697  -10.119   -9.788   -9.641   -9.596   -9.585   -9.583   -9.587   -9.585   -9.561   -9.473   -9.249   -8.817   -8.129   -7.214   -6.182   -5.156   -4.260   -3.528   -2.981   -2.625   -2.490   -2.641   -3.100   -3.804   -4.640   -5.447   -6.168   -6.838   -7.593   -8.528   -9.633  -10.782  -11.794  -12.538  -12.976  -13.155  -13.195  -13.190  -13.190  -13.202  -13.205  -13.194  -13.177  -13.161  -13.149  -13.143  -13.137  -13.137  -13.126  -13.118  -13.112  -13.114  -13.113  -13.110  -13.097  -13.079  -13.058  -13.039  -13.031  -13.032  -13.045  -13.067  -13.088  -13.113  -13.134  -13.156  -13.179  -13.202  -13.231  -13.270  -13.325  -13.472
 -17.024  -16.906  -16.852  -16.816  -16.791  -16.781  -16.775  -16.781  -16.789  -16.795  -16.793  -16.774  -16.751  -16.729  -16.721  -16.725  -16.734  -16.751  -16.765  -16.752  -16.687  -16.494  -16.084  -15.388  -14.392  -13.198  -11.990  -10.965  -10.239   -9.821   -9.632   -9.574   -9.562   -9.563   -9.571   -9.574   -9.552   -9.464   -9.235   -8.792   -8.111   -7.233   -6.274   -5.372   -4.624   -4.050   -3.633   -3.365   -3.274   -3.427   -3.865   -4.571   -5.430   -6.274   -6.988   -7.570   -8.122   -8.744   -9.464  -10.213  -10.864  -11.325  -11.577  -11.663  -11.669  -11.664  -11.695  -11.741  -11.783  -11.806  -11.806  -11.797  -11.793  -11.795  -11.796  -11.796  -11.788  -11.776  -11.765  -11.757  -11.743  -11.718  -11.694  -11.670  -11.656  -11.653  -11.659  -11.675  -11.700  -11.720  -11.733  -11.735  -11.727  -11.721  -11.724  -11.738  -11.764  -11.803  -11.863  -12.035
 -18.053  -17.944  -17.893  -17.865  -17.850  -17.841  -17.840  -17.842  -17.847  -17.843  -17.831  -17.805  -17.776  -17.749  -17.736  -17.740  -17.753  -17.775  -17.791  -17.776  -17.697  -17.474  -17.004  -16.208  -15.079  -13.718  -12.336  -11.161  -10.326   -9.844   -9.626   -9.562   -9.561   -9.574   -9.585   -9.589   -9.569   -9.486   -9.279   -8.883   -8.287   -7.536   -6.739   -6.005   -5.410   -4.963   -4.640   -4.435   -4.364   -4.487   -4.856   -5.471   -6.239   -7.011   -7.655   -8.131   -8.521   -8.917   -9.352   -9.799  -10.175  -10.423  -10.530  -10.542  -10.522  -10.521  -10.563  -10.632  -10.700  -10.748  -10.770  -10.771  -10.770  -10.781  -10.789  -10.795  -10.790  -10.778  -10.769  -10.760  -10.743  -10.712  -10.680  -10.652  -10.642  -10.644  -10.657  -10.686  -10.711  -10.731  -10.733  -10.713  -10.687  -10.666  -10.659  -10.667  -10.686  -10.721  -10.777  -10.961
 -18.714  -18.603  -18.560  -18.533  -18.517  -18.509  -18.503  -18.503  -18.498  -18.488  -18.467  -18.437  -18.402  -18.371  -18.351  -18.354  -18.366  -18.396  -18.414  -18.403  -18.317  -18.076  -17.574  -16.715  -15.501  -14.040  -12.553  -11.278  -10.376   -9.857   -9.638   -9.590   -9.602   -9.626   -9.644   -9.649   -9.630   -9.551   -9.375   -9.058   -8.597   -8.031   -7.434   -6.879   -6.417   -6.061   -5.809   -5.658   -5.620   -5.726   -6.012   -6.488   -7.092   -7.713   -8.229   -8.596   -8.863   -9.103   -9.359   -9.609   -9.802   -9.915   -9.934   -9.907   -9.870   -9.859   -9.882   -9.941  -10.008  -10.067  -10.101  -10.113  -10.119  -10.133  -10.144  -10.153  -10.144  -10.142  -10.140  -10.145  -10.139  -10.116  -10.084  -10.052  -10.034  -10.033  -10.053  -10.084  -10.114  -10.128  -10.113  -10.085  -10.047  -10.029  -10.026  -10.037  -10.058  -10.088  -10.140  -10.319
 -19.082  -18.967  -18.922  -18.889  -18.869  -18.859  -18.849  -18.841  -18.832  -18.819  -18.794  -18.757  -18.717  -18.685  -18.663  -18.658  -18.670  -18.696  -18.716  -18.712  -18.628  -18.380  -17.861  -16.974  -15.719  -14.204  -12.663  -11.340  -10.401   -9.867   -9.656   -9.636   -9.676   -9.714   -9.736   -9.731   -9.703   -9.628   -9.485   -9.255   -8.946   -8.576   -8.175   -7.782   -7.426   -7.137   -6.934   -6.837   -6.840   -6.955   -7.180   -7.515   -7.931   -8.363   -8.725   -8.977   -9.156   -9.307   -9.458   -9.602   -9.703   -9.751   -9.741   -9.695   -9.644   -9.606   -9.588   -9.603   -9.639   -9.689   -9.725   -9.742   -9.759   -9.774   -9.786   -9.786   -9.783   -9.787   -9.805   -9.825   -9.830   -9.817   -9.783   -9.747   -9.724   -9.725   -9.754   -9.795   -9.829   -9.838   -9.812   -9.774   -9.735   -9.727   -9.740   -9.765   -9.796   -9.832   -9.877  -10.046
 -19.257  -19.133  -19.086  -19.048  -19.027  -19.013  -19.001  -18.991  -18.982  -18.967  -18.942  -18.904  -18.868  -18.830  -18.801  -18.791  -18.799  -18.819  -18.843  -18.838  -18.756  -18.510  -17.984  -17.087  -15.811  -14.275  -12.710  -11.359  -10.403   -9.866   -9.669   -9.671   -9.736   -9.792   -9.816   -9.800   -9.750   -9.670   -9.554   -9.406   -9.232   -9.035   -8.801   -8.542   -8.270   -8.034   -7.870   -7.809   -7.857   -7.985   -8.170   -8.399   -8.651   -8.898   -9.102   -9.253   -9.362   -9.467   -9.580   -9.685   -9.763   -9.797   -9.791   -9.753   -9.689   -9.615   -9.548   -9.503   -9.495   -9.515   -9.537   -9.556   -9.581   -9.603   -9.615   -9.611   -9.599   -9.604   -9.632   -9.665   -9.680   -9.678   -9.649   -9.607   -9.579   -9.583   -9.625   -9.688   -9.733   -9.748   -9.718   -9.671   -9.631   -9.628   -9.650   -9.698   -9.745   -9.790   -9.834   -9.993
 -19.339  -19.201  -19.150  -19.115  -19.093  -19.079  -19.069  -19.067  -19.059  -19.045  -19.027  -18.996  -18.963  -18.927  -18.894  -18.872  -18.873  -18.887  -18.907  -18.903  -18.822  -18.573  -18.044  -17.142  -15.857  -14.313  -12.734  -11.374  -10.404   -9.862   -9.664   -9.671   -9.748   -9.811   -9.825   -9.791   -9.721   -9.632   -9.537   -9.458   -9.400   -9.337   -9.235   -9.081   -8.885   -8.699   -8.571   -8.536   -8.603   -8.741   -8.910   -9.075   -9.207   -9.306   -9.375   -9.432   -9.491   -9.571   -9.665   -9.762   -9.839   -9.885   -9.899   -9.879   -9.816   -9.722   -9.619   -9.532   -9.480   -9.458   -9.455   -9.468   -9.495   -9.520   -9.530   -9.520   -9.503   -9.501   -9.530   -9.569   -9.598   -9.601   -9.576   -9.538   -9.515   -9.527   -9.581   -9.663   -9.724   -9.742   -9.712   -9.656   -9.612   -9.604   -9.634   -9.692   -9.753   -9.802   -9.851  -10.009
 -19.382  -19.232  -19.173  -19.146  -19.128  -19.119  -19.115  -19.117  -19.118  -19.114  -19.105  -19.087  -19.060  -19.028  -18.994  -18.964  -18.952  -18.957  -18.967  -18.953  -18.870  -18.619  -18.088  -17.182  -15.893  -14.347  -12.765  -11.397  -10.417   -9.860   -9.644   -9.633   -9.693   -9.741   -9.739   -9.690   -9.610   -9.521   -9.451   -9.425   -9.448   -9.482   -9.479   -9.412   -9.292   -9.163   -9.071   -9.054   -9.124   -9.259   -9.419   -9.553   -9.612   -9.614   -9.583   -9.558   -9.564   -9.606   -9.681   -9.760   -9.835   -9.892   -9.929   -9.929   -9.890   -9.809   -9.712   -9.611   -9.526   -9.457   -9.414   -9.402   -9.424   -9.452   -9.467   -9.456   -9.435   -9.435   -9.463   -9.512   -9.552   -9.565   -9.549   -9.517   -9.497   -9.514   -9.572   -9.659   -9.721   -9.740   -9.707   -9.644   -9.589   -9.573   -9.600   -9.652   -9.710   -9.765   -9.815   -9.980
 -19.407  -19.244  -19.190  -19.166  -19.152  -19.148  -19.150  -19.158  -19.165  -19.177  -19.182  -19.180  -19.162  -19.134  -19.099  -19.058  -19.032  -19.015  -19.011  -18.992  -18.905  -18.652  -18.119  -17.207  -15.919  -14.374  -12.797  -11.428  -10.441   -9.866   -9.616   -9.562   -9.582   -9.599   -9.581   -9.531   -9.460   -9.394   -9.355   -9.370   -9.438   -9.520   -9.575   -9.576   -9.526   -9.460   -9.407   -9.407   -9.474   -9.600   -9.744   -9.850   -9.881   -9.827   -9.728   -9.638   -9.585   -9.584   -9.616   -9.663   -9.719   -9.780   -9.833   -9.865   -9.864   -9.830   -9.764   -9.672   -9.567   -9.458   -9.370   -9.322   -9.328   -9.355   -9.373   -9.380   -9.379   -9.404   -9.452   -9.514   -9.561   -9.581   -9.565   -9.538   -9.516   -9.526   -9.569   -9.634   -9.685   -9.691   -9.655   -9.590   -9.530   -9.505   -9.513   -9.552   -9.599   -9.640   -9.690   -9.863
 -19.440  -19.262  -19.210  -19.182  -19.169  -19.169  -19.171  -19.180  -19.193  -19.217  -19.236  -19.244  -19.235  -19.213  -19.169  -19.119  -19.073  -19.040  -19.023  -18.996  -18.904  -18.650  -18.116  -17.206  -15.920  -14.375  -12.805  -11.450  -10.469   -9.879   -9.593   -9.491   -9.465   -9.455   -9.426   -9.396   -9.358   -9.336   -9.328   -9.357   -9.432   -9.520   -9.593   -9.632   -9.634   -9.616   -9.598   -9.617   -9.676   -9.778   -9.901   -9.986   -9.996   -9.916   -9.781   -9.647   -9.553   -9.513   -9.504   -9.520   -9.554   -9.608   -9.671   -9.731   -9.767   -9.776   -9.746   -9.671   -9.564   -9.433   -9.313   -9.243   -9.230   -9.253   -9.286   -9.312   -9.348   -9.418   -9.502   -9.579   -9.624   -9.637   -9.608   -9.568   -9.531   -9.520   -9.541   -9.577   -9.601   -9.598   -9.563   -9.508   -9.456   -9.431   -9.428   -9.446   -9.465   -9.488   -9.521   -9.706
 -19.509  -19.313  -19.250  -19.218  -19.203  -19.196  -19.192  -19.196  -19.203  -19.227  -19.248  -19.263  -19.261  -19.233  -19.186  -19.132  -19.076  -19.040  -19.017  -18.984  -18.888  -18.633  -18.100  -17.188  -15.904  -14.365  -12.806  -11.467  -10.496   -9.899   -9.594   -9.460   -9.401   -9.370   -9.353   -9.353   -9.373   -9.392   -9.410   -9.435   -9.484   -9.547   -9.602   -9.641   -9.660   -9.666   -9.674   -9.696   -9.741   -9.820   -9.906   -9.960   -9.949   -9.859   -9.714   -9.573   -9.474   -9.416   -9.394   -9.395   -9.413   -9.467   -9.538   -9.608   -9.663   -9.690   -9.673   -9.608   -9.508   -9.387   -9.283   -9.217   -9.205   -9.225   -9.253   -9.289   -9.354   -9.454   -9.571   -9.655   -9.693   -9.683   -9.634   -9.572   -9.518   -9.481   -9.478   -9.492   -9.501   -9.500   -9.487   -9.464   -9.440   -9.440   -9.443   -9.445   -9.439   -9.434   -9.454   -9.644
 -19.663  -19.446  -19.372  -19.335  -19.309  -19.291  -19.275  -19.266  -19.259  -19.268  -19.279  -19.291  -19.290  -19.268  -19.226  -19.174  -19.124  -19.092  -19.072  -19.039  -18.941  -18.681  -18.141  -17.228  -15.941  -14.409  -12.860  -11.535  -10.571   -9.966   -9.645   -9.489   -9.418   -9.384   -9.392   -9.437   -9.511   -9.575   -9.616   -9.635   -9.649   -9.664   -9.673   -9.673   -9.670   -9.670   -9.674   -9.691   -9.725   -9.766   -9.803   -9.810   -9.766   -9.672   -9.541   -9.425   -9.353   -9.318   -9.312   -9.315   -9.338   -9.400   -9.473   -9.544   -9.595   -9.605   -9.579   -9.518   -9.446   -9.374   -9.323   -9.299   -9.297   -9.301   -9.297   -9.311   -9.370   -9.476   -9.597   -9.682   -9.708   -9.676   -9.615   -9.541   -9.466   -9.416   -9.395   -9.409   -9.438   -9.480   -9.524   -9.571   -9.618   -9.677   -9.722   -9.738   -9.720   -9.696   -9.711   -9.899
 -20.001  -19.763  -19.679  -19.632  -19.597  -19.566  -19.535  -19.509  -19.484  -19.473  -19.472  -19.472  -19.467  -19.449  -19.417  -19.381  -19.351  -19.337  -19.327  -19.300  -19.201  -18.932  -18.383  -17.461  -16.169  -14.637  -13.089  -11.760  -10.779  -10.152   -9.797   -9.613   -9.524   -9.502   -9.543   -9.641   -9.777   -9.901   -9.980  -10.005   -9.985   -9.934   -9.863   -9.787   -9.720   -9.682   -9.675   -9.689   -9.700   -9.694   -9.667   -9.613   -9.533   -9.431   -9.328   -9.253   -9.231   -9.241   -9.261   -9.283   -9.319   -9.385   -9.463   -9.531   -9.566   -9.560   -9.516   -9.461   -9.427   -9.424   -9.449   -9.478   -9.487   -9.455   -9.396   -9.357   -9.380   -9.468   -9.573   -9.642   -9.655   -9.627   -9.569   -9.497   -9.423   -9.370   -9.356   -9.392   -9.481   -9.608   -9.771   -9.956  -10.157  -10.351  -10.508  -10.592  -10.601  -10.584  -10.587  -10.780
 -20.634  -20.377  -20.287  -20.235  -20.191  -20.154  -20.115  -20.073  -20.034  -20.000  -19.984  -19.974  -19.965  -19.949  -19.925  -19.906  -19.900  -19.904  -19.912  -19.892  -19.791  -19.514  -18.956  -18.025  -16.730  -15.190  -13.619  -12.250  -11.211  -10.514  -10.090   -9.855   -9.741   -9.724   -9.811   -9.988  -10.213  -10.425  -10.570  -10.619  -10.563  -10.421  -10.228  -10.020   -9.855   -9.755   -9.723   -9.726   -9.716   -9.660   -9.563   -9.452   -9.338   -9.236   -9.158   -9.129   -9.158   -9.214   -9.265   -9.300   -9.338   -9.399   -9.475   -9.534   -9.560   -9.550   -9.508   -9.472   -9.484   -9.541   -9.626   -9.691   -9.691   -9.623   -9.507   -9.415   -9.399   -9.447   -9.524   -9.573   -9.574   -9.547   -9.504   -9.454   -9.406   -9.378   -9.398   -9.486   -9.665   -9.930  -10.297  -10.741  -11.227  -11.699  -12.084  -12.318  -12.411  -12.420  -12.423  -12.599
 -21.633  -21.367  -21.279  -21.225  -21.184  -21.145  -21.099  -21.047  -20.998  -20.954  -20.924  -20.906  -20.889  -20.869  -20.854  -20.842  -20.848  -20.869  -20.887  -20.872  -20.772  -20.496  -19.940  -19.007  -17.705  -16.147  -14.532  -13.082  -11.927  -11.101  -10.555  -10.219  -10.055  -10.051  -10.208  -10.503  -10.868  -11.216  -11.453  -11.525  -11.408  -11.131  -10.762  -10.382  -10.080   -9.895   -9.822   -9.809   -9.780   -9.686   -9.539   -9.376   -9.248   -9.151   -9.101   -9.106   -9.176   -9.268   -9.341   -9.376   -9.392   -9.424   -9.473   -9.525   -9.559   -9.562   -9.551   -9.546   -9.588   -9.685   -9.790   -9.863   -9.852   -9.755   -9.613   -9.491   -9.439   -9.451   -9.487   -9.501   -9.485   -9.456   -9.434   -9.419   -9.418   -9.432   -9.504   -9.661   -9.958  -10.428  -11.112  -11.975  -12.939  -13.864  -14.608  -15.096  -15.326  -15.391  -15.401  -15.537
 -23.007  -22.737  -22.651  -22.602  -22.565  -22.524  -22.469  -22.412  -22.353  -22.303  -22.266  -22.239  -22.215  -22.191  -22.171  -22.157  -22.163  -22.183  -22.202  -22.196  -22.101  -21.835  -21.286  -20.361  -19.053  -17.466  -15.780  -14.205  -12.889  -11.880  -11.162  -10.695  -10.463  -10.474  -10.730  -11.193  -11.749  -12.267  -12.610  -12.687  -12.468  -11.996  -11.393  -10.799  -10.336  -10.048   -9.928   -9.897   -9.860   -9.745   -9.566   -9.386   -9.253   -9.180   -9.162   -9.193   -9.283   -9.383   -9.454   -9.474   -9.454   -9.444   -9.463   -9.502   -9.554   -9.589   -9.608   -9.632   -9.683   -9.776   -9.873   -9.936   -9.916   -9.820   -9.690   -9.576   -9.505   -9.488   -9.480   -9.450   -9.410   -9.372   -9.373   -9.394   -9.437   -9.500   -9.624   -9.859  -10.296  -11.035  -12.145  -13.593  -15.205  -16.746  -17.974  -18.790  -19.211  -19.350  -19.371  -19.439
 -24.676  -24.410  -24.330  -24.287  -24.245  -24.188  -24.111  -24.026  -23.941  -23.877  -23.834  -23.802  -23.775  -23.746  -23.716  -23.693  -23.690  -23.696  -23.711  -23.703  -23.616  -23.361  -22.823  -21.906  -20.592  -18.965  -17.191  -15.474  -13.970  -12.749  -11.832  -11.217  -10.912  -10.946  -11.327  -11.991  -12.770  -13.469  -13.913  -13.970  -13.605  -12.900  -12.024  -11.188  -10.544  -10.152   -9.979   -9.929   -9.889   -9.773   -9.592   -9.414   -9.304   -9.271   -9.291   -9.344   -9.427   -9.508   -9.557   -9.547   -9.495   -9.450   -9.439   -9.479   -9.541   -9.599   -9.639   -9.668   -9.710   -9.771   -9.839   -9.880   -9.863   -9.797   -9.711   -9.633   -9.574   -9.532   -9.492   -9.434   -9.379   -9.346   -9.360   -9.412   -9.481   -9.569   -9.717  -10.010  -10.592  -11.637  -13.258  -15.386  -17.749  -19.976  -21.744  -22.918  -23.546  -23.785  -23.826  -23.814
 -26.650  -26.386  -26.314  -26.263  -26.192  -26.075  -25.908  -25.727  -25.565  -25.452  -25.385  -25.350  -25.322  -25.289  -25.251  -25.215  -25.198  -25.194  -25.196  -25.181  -25.094  -24.843  -24.311  -23.395  -22.067  -20.394  -18.533  -16.675  -14.982  -13.561  -12.460  -11.704  -11.334  -11.409  -11.926  -12.787  -13.779  -14.640  -15.157  -15.177  -14.660  -13.715  -12.570  -11.481  -10.646  -10.137   -9.907   -9.848   -9.813   -9.716   -9.559   -9.418   -9.356   -9.381   -9.444   -9.509   -9.560   -9.595   -9.605   -9.572   -9.505   -9.445   -9.424   -9.456   -9.519   -9.580   -9.617   -9.629   -9.644   -9.670   -9.705   -9.727   -9.720   -9.694   -9.664   -9.636   -9.609   -9.574   -9.527   -9.471   -9.426   -9.417   -9.454   -9.508   -9.569   -9.638   -9.766  -10.080  -10.787  -12.140  -14.276  -17.088  -20.187  -23.070  -25.341  -26.853  -27.684  -28.029  -28.101  -28.009
 -29.209  -28.955  -28.894  -28.816  -28.638  -28.330  -27.918  -27.480  -27.109  -26.856  -26.718  -26.655  -26.624  -26.592  -26.551  -26.510  -26.482  -26.467  -26.459  -26.435  -26.342  -26.084  -25.547  -24.620  -23.268  -21.548  -19.602  -17.616  -15.768  -14.181  -12.937  -12.083  -11.687  -11.817  -12.467  -13.498  -14.648  -15.623  -16.176  -16.141  -15.495  -14.350  -12.968  -11.650  -10.634  -10.007   -9.724   -9.663   -9.658   -9.598   -9.489   -9.401   -9.403   -9.482   -9.575   -9.628   -9.640   -9.627   -9.599   -9.563   -9.509   -9.454   -9.427   -9.444   -9.492   -9.537   -9.558   -9.552   -9.538   -9.536   -9.546   -9.559   -9.562   -9.569   -9.586   -9.605   -9.618   -9.606   -9.578   -9.546   -9.538   -9.568   -9.626   -9.675   -9.698   -9.707   -9.773  -10.079  -10.884  -12.497  -15.092  -18.492  -22.204  -25.628  -28.312  -30.105  -31.102  -31.537  -31.641  -31.475
 -33.055  -32.844  -32.801  -32.626  -32.177  -31.421  -30.444  -29.439  -28.600  -28.042  -27.740  -27.609  -27.557  -27.522  -27.487  -27.450  -27.421  -27.404  -27.391  -27.359  -27.252  -26.981  -26.426  -25.476  -24.088  -22.313  -20.292  -18.203  -16.241  -14.545  -13.226  -12.344  -11.982  -12.198  -12.958  -14.100  -15.334  -16.348  -16.886  -16.793  -16.043  -14.759  -13.207  -11.720  -10.558   -9.837   -9.528   -9.483   -9.524   -9.515   -9.455   -9.415   -9.454   -9.553   -9.640   -9.668   -9.641   -9.602   -9.575   -9.556   -9.523   -9.479   -9.444   -9.440   -9.471   -9.503   -9.515   -9.499   -9.470   -9.452   -9.453   -9.468   -9.486   -9.513   -9.549   -9.591   -9.615   -9.616   -9.607   -9.616   -9.665   -9.742   -9.819   -9.850   -9.818   -9.755   -9.761  -10.045  -10.919  -12.740  -15.676  -19.514  -23.668  -27.473  -30.449  -32.437  -33.548  -34.041  -34.161  -33.947
 -39.186  -39.077  -39.011  -38.578  -37.561  -35.934  -33.914  -31.876  -30.201  -29.084  -28.478  -28.220  -28.129  -28.088  -28.058  -28.033  -28.011  -28.000  -27.986  -27.949  -27.831  -27.542  -26.958  -25.973  -24.535  -22.700  -20.606  -18.436  -16.403  -14.669  -13.356  -12.543  -12.293  -12.620  -13.471  -14.655  -15.882  -16.848  -17.318  -17.148  -16.317  -14.950  -13.313  -11.729  -10.482   -9.716   -9.407   -9.400   -9.490   -9.529   -9.502   -9.474   -9.507   -9.580   -9.631   -9.627   -9.593   -9.558   -9.549   -9.548   -9.529   -9.489   -9.448   -9.436   -9.466   -9.510   -9.533   -9.516   -9.477   -9.456   -9.465   -9.498   -9.535   -9.562   -9.588   -9.600   -9.591   -9.579   -9.588   -9.650   -9.758   -9.882   -9.967   -9.975   -9.898   -9.787   -9.756  -10.029  -10.958  -12.914  -16.065  -20.162  -24.578  -28.604  -31.746  -33.839  -35.004  -35.517  -35.635  -35.394
 -48.250  -48.285  -48.046  -47.074  -45.088  -42.113  -38.526  -34.956  -32.034  -30.085  -29.036  -28.587  -28.433  -28.384  -28.362  -28.346  -28.335  -28.330  -28.320  -28.282  -28.154  -27.845  -27.227  -26.192  -24.696  -22.792  -20.623  -18.396  -16.334  -14.631  -13.423  -12.772  -12.704  -13.181  -14.097  -15.251  -16.385  -17.229  -17.580  -17.314  -16.417  -15.012  -13.345  -11.741  -10.472   -9.697   -9.404   -9.422   -9.546   -9.608   -9.583   -9.542   -9.547   -9.581   -9.594   -9.576   -9.545   -9.519   -9.516   -9.515   -9.493   -9.445   -9.402   -9.411   -9.468   -9.548   -9.593   -9.585   -9.542   -9.522   -9.549   -9.602   -9.651   -9.669   -9.655   -9.601   -9.530   -9.487   -9.513   -9.620   -9.783   -9.939  -10.028  -10.019   -9.921   -9.795   -9.764  -10.056  -11.023  -13.045  -16.290  -20.488  -24.998  -29.099  -32.291  -34.408  -35.574  -36.072  -36.175  -35.924
 -59.709  -59.858  -59.193  -57.336  -54.030  -49.371  -43.887  -38.470  -34.040  -31.089  -29.507  -28.829  -28.599  -28.536  -28.517  -28.506  -28.499  -28.491  -28.483  -28.444  -28.313  -27.987  -27.339  -26.253  -24.683  -22.699  -20.465  -18.208  -16.171  -14.570  -13.541  -13.124  -13.282  -13.908  -14.854  -15.924  -16.908  -17.587  -17.797  -17.435  -16.489  -15.075  -13.423  -11.832  -10.570   -9.792   -9.485   -9.489   -9.595   -9.652   -9.630   -9.582   -9.572   -9.590   -9.598   -9.581   -9.546   -9.511   -9.478   -9.448   -9.401   -9.340   -9.306   -9.340   -9.439   -9.560   -9.634   -9.634   -9.594   -9.573   -9.600   -9.665   -9.722   -9.733   -9.685   -9.577   -9.452   -9.379   -9.406   -9.537   -9.723   -9.883   -9.966   -9.956   -9.864   -9.763   -9.766  -10.094  -11.085  -13.116  -16.337  -20.492  -24.956  -29.008  -32.153  -34.227  -35.355  -35.825  -35.911  -35.660
 -71.797  -71.947  -70.616  -67.617  -62.801  -56.379  -49.012  -41.793  -35.905  -31.995  -29.908  -29.019  -28.719  -28.640  -28.619  -28.603  -28.583  -28.565  -28.546  -28.507  -28.385  -28.058  -27.387  -26.252  -24.612  -22.551  -20.266  -18.017  -16.065  -14.623  -13.818  -13.656  -14.026  -14.758  -15.677  -16.623  -17.430  -17.942  -18.026  -17.596  -16.638  -15.244  -13.623  -12.054  -10.791   -9.981   -9.614   -9.541   -9.584   -9.610   -9.590   -9.576   -9.599   -9.648   -9.683   -9.671   -9.605   -9.519   -9.437   -9.367   -9.296   -9.227   -9.194   -9.238   -9.363   -9.509   -9.605   -9.608   -9.562   -9.528   -9.544   -9.607   -9.677   -9.708   -9.666   -9.548   -9.404   -9.305   -9.310   -9.420   -9.580   -9.718   -9.788   -9.780   -9.724   -9.672   -9.731  -10.099  -11.092  -13.059  -16.155  -20.144  -24.426  -28.316  -31.329  -33.307  -34.373  -34.807  -34.881  -34.651
 -82.733  -82.688  -80.539  -76.217  -69.802  -61.708  -52.738  -44.116  -37.171  -32.608  -30.193  -29.171  -28.829  -28.741  -28.717  -28.686  -28.647  -28.609  -28.582  -28.554  -28.455  -28.148  -27.468  -26.284  -24.575  -22.449  -20.143  -17.946  -16.128  -14.895  -14.325  -14.382  -14.892  -15.654  -16.489  -17.267  -17.882  -18.234  -18.221  -17.759  -16.824  -15.477  -13.903  -12.356  -11.087  -10.224   -9.754   -9.559   -9.500   -9.486   -9.492   -9.540   -9.640   -9.749   -9.807   -9.769   -9.654   -9.521   -9.405   -9.325   -9.254   -9.180   -9.141   -9.176   -9.287   -9.424   -9.510   -9.506   -9.444   -9.390   -9.392   -9.459   -9.560   -9.643   -9.657   -9.577   -9.439   -9.321   -9.277   -9.320   -9.410   -9.498   -9.543   -9.545   -9.527   -9.535   -9.651  -10.044  -10.993  -12.820  -15.678  -19.370  -23.340  -26.954  -29.751  -31.584  -32.566  -32.962  -33.028  -32.836
 -91.628  -91.063  -87.823  -81.961  -73.918  -64.352  -54.203  -44.801  -37.458  -32.744  -30.286  -29.259  -28.925  -28.850  -28.837  -28.813  -28.771  -28.735  -28.727  -28.740  -28.693  -28.418  -27.723  -26.473  -24.669  -22.476  -20.170  -18.070  -16.433  -15.419  -15.060  -15.268  -15.835  -16.553  -17.252  -17.833  -18.241  -18.417  -18.297  -17.807  -16.904  -15.620  -14.107  -12.597  -11.324  -10.414   -9.851   -9.547   -9.402   -9.360   -9.402   -9.521   -9.692   -9.835   -9.882   -9.803   -9.650   -9.509   -9.432   -9.405   -9.369   -9.298   -9.237   -9.231   -9.294   -9.388   -9.436   -9.406   -9.321   -9.255   -9.255   -9.342   -9.493   -9.648   -9.731   -9.695   -9.565   -9.417   -9.318   -9.288   -9.305   -9.334   -9.344   -9.349   -9.355   -9.402   -9.546   -9.922  -10.768  -12.367  -14.870  -18.116  -21.635  -24.847  -27.341  -28.974  -29.846  -30.195  -30.257  -30.121
 -97.728  -96.246  -91.560  -84.097  -74.620  -63.908  -53.101  -43.654  -36.660  -32.341  -30.144  -29.251  -28.999  -29.003  -29.077  -29.144  -29.186  -29.234  -29.326  -29.449  -29.489  -29.234  -28.458  -27.039  -25.044  -22.713  -20.381  -18.382  -16.942  -16.145  -15.959  -16.247  -16.806  -17.436  -17.982  -18.367  -18.557  -18.531  -18.264  -17.702  -16.803  -15.568  -14.121  -12.666  -11.413  -10.485   -9.884   -9.526   -9.347   -9.310   -9.397   -9.573   -9.769   -9.898   -9.890   -9.760   -9.608   -9.538   -9.581   -9.660   -9.691   -9.640   -9.555   -9.498   -9.496   -9.521   -9.510   -9.439   -9.340   -9.275   -9.292   -9.398   -9.574   -9.769   -9.883   -9.860   -9.727   -9.555   -9.424   -9.351   -9.323   -9.311   -9.297   -9.281   -9.281   -9.325   -9.444   -9.756  -10.440  -11.736  -13.772  -16.438  -19.346  -22.026  -24.116  -25.488  -26.213  -26.492  -26.539  -26.480
 -99.600  -97.173  -91.174  -82.520  -72.022  -60.586  -49.749  -41.009  -35.010  -31.502  -29.789  -29.160  -29.111  -29.355  -29.718  -30.100  -30.461  -30.813  -31.182  -31.520  -31.657  -31.315  -30.249  -28.395  -25.941  -23.269  -20.800  -18.847  -17.566  -16.950  -16.891  -17.213  -17.727  -18.260  -18.679  -18.899  -18.895  -18.665  -18.221  -17.546  -16.609  -15.407  -14.019  -12.625  -11.409  -10.496   -9.902   -9.567   -9.426   -9.444   -9.576   -9.767   -9.932   -9.990   -9.905   -9.745   -9.641   -9.702   -9.907  -10.128  -10.239  -10.212  -10.109  -10.005   -9.938   -9.892   -9.824   -9.725   -9.629   -9.578   -9.602   -9.692   -9.830   -9.973  -10.047  -10.005   -9.868   -9.708   -9.584   -9.519   -9.486   -9.459   -9.426   -9.386   -9.364   -9.362   -9.424   -9.630  -10.110  -11.048  -12.541  -14.513  -16.682  -18.699  -20.282  -21.311  -21.837  -22.017  -22.029  -22.053
 -96.344  -93.484  -86.954  -77.763  -66.704  -55.135  -45.018  -37.614  -32.962  -30.420  -29.285  -29.045  -29.416  -30.233  -31.325  -32.519  -33.683  -34.753  -35.683  -36.344  -36.475  -35.741  -33.927  -31.108  -27.700  -24.306  -21.452  -19.416  -18.214  -17.718  -17.728  -18.041  -18.492  -18.931  -19.250  -19.361  -19.230  -18.856  -18.271  -17.495  -16.521  -15.340  -14.010  -12.674  -11.499  -10.620  -10.075   -9.815   -9.765   -9.860  -10.024  -10.185  -10.273  -10.235  -10.081   -9.912   -9.887  -10.093  -10.458  -10.806  -10.991  -10.992  -10.880  -10.750  -10.637  -10.544  -10.446  -10.351  -10.270  -10.227  -10.216  -10.225  -10.251  -10.277  -10.269  -10.205  -10.091   -9.980   -9.903   -9.871   -9.856   -9.832   -9.796   -9.733   -9.677   -9.632   -9.623   -9.716   -9.997  -10.563  -11.478  -12.693  -14.042  -15.291  -16.262  -16.869  -17.142  -17.181  -17.136  -17.223
 -89.078  -86.238  -79.817  -70.574  -59.581  -48.754  -40.079  -34.296  -30.952  -29.258  -28.667  -28.961  -30.116  -32.096  -34.673  -37.483  -40.177  -42.507  -44.283  -45.254  -45.082  -43.431  -40.191  -35.668  -30.609  -25.942  -22.352  -20.034  -18.809  -18.358  -18.381  -18.649  -19.007  -19.344  -19.576  -19.631  -19.459  -19.054  -18.444  -17.654  -16.684  -15.543  -14.278  -13.011  -11.898  -11.083  -10.612  -10.451  -10.503  -10.654  -10.814  -10.902  -10.888  -10.758  -10.555  -10.407  -10.462  -10.779  -11.255  -11.685  -11.928  -11.967  -11.878  -11.753  -11.637  -11.538  -11.450  -11.385  -11.328  -11.269  -11.192  -11.086  -10.976  -10.889  -10.817  -10.758  -10.700  -10.650  -10.623  -10.614  -10.614  -10.598  -10.560  -10.494  -10.408  -10.327  -10.277  -10.288  -10.392  -10.621  -10.985  -11.454  -11.954  -12.385  -12.676  -12.793  -12.746  -12.596  -12.457  -12.580
 -79.835  -76.972  -70.850  -62.094  -52.105  -42.898  -36.001  -31.650  -29.223  -28.064  -27.911  -28.912  -31.361  -35.301  -40.299  -45.585  -50.422  -54.315  -56.938  -57.983  -57.114  -54.057  -48.826  -41.962  -34.598  -28.107  -23.417  -20.632  -19.290  -18.831  -18.828  -19.019  -19.263  -19.478  -19.620  -19.648  -19.516  -19.207  -18.708  -18.014  -17.129  -16.067  -14.892  -13.725  -12.720  -12.006  -11.635  -11.564  -11.681  -11.841  -11.946  -11.942  -11.828  -11.629  -11.419  -11.306  -11.420  -11.793  -12.322  -12.804  -13.104  -13.204  -13.179  -13.104  -13.031  -12.967  -12.927  -12.907  -12.881  -12.806  -12.667  -12.482  -12.300  -12.159  -12.086  -12.059  -12.050  -12.043  -12.032  -12.022  -12.019  -12.010  -11.976  -11.907  -11.807  -11.714  -11.651  -11.619  -11.598  -11.541  -11.417  -11.207  -10.909  -10.544  -10.141   -9.714   -9.283   -8.893   -8.620   -8.736
 -70.359  -67.487  -62.055  -54.577  -46.376  -39.042  -33.565  -29.998  -27.865  -26.811  -26.949  -28.848  -33.132  -39.802  -47.903  -56.006  -62.950  -68.112  -71.205  -72.009  -70.248  -65.679  -58.369  -48.997  -39.040  -30.424  -24.439  -21.100  -19.612  -19.133  -19.097  -19.211  -19.337  -19.427  -19.481  -19.495  -19.444  -19.289  -18.982  -18.466  -17.730  -16.803  -15.768  -14.754  -13.909  -13.330  -13.059  -13.053  -13.178  -13.300  -13.323  -13.230  -13.047  -12.822  -12.630  -12.563  -12.717  -13.129  -13.695  -14.236  -14.621  -14.823  -14.903  -14.920  -14.918  -14.923  -14.945  -14.974  -14.974  -14.904  -14.764  -14.578  -14.414  -14.302  -14.268  -14.282  -14.299  -14.296  -14.273  -14.248  -14.238  -14.241  -14.216  -14.143  -14.036  -13.937  -13.879  -13.824  -13.707  -13.428  -12.913  -12.143  -11.178  -10.117   -9.051   -8.069   -7.212   -6.540   -6.102   -6.177
 -63.818  -61.322  -57.055  -51.193  -44.615  -38.403  -33.318  -29.556  -26.965  -25.537  -25.773  -28.687  -35.178  -44.937  -56.135  -66.610  -75.045  -80.956  -84.215  -84.667  -82.004  -76.013  -66.875  -55.302  -42.954  -32.313  -25.117  -21.313  -19.746  -19.285  -19.244  -19.305  -19.339  -19.331  -19.309  -19.304  -19.316  -19.299  -19.171  -18.847  -18.293  -17.548  -16.704  -15.885  -15.220  -14.784  -14.595  -14.604  -14.695  -14.757  -14.714  -14.568  -14.366  -14.160  -14.017  -14.009  -14.225  -14.697  -15.340  -15.993  -16.518  -16.871  -17.083  -17.206  -17.287  -17.352  -17.417  -17.480  -17.510  -17.471  -17.376  -17.262  -17.176  -17.145  -17.160  -17.200  -17.223  -17.206  -17.164  -17.140  -17.149  -17.182  -17.172  -17.101  -16.983  -16.876  -16.808  -16.733  -16.539  -16.095  -15.304  -14.147  -12.702  -11.103   -9.503   -8.017   -6.749   -5.776   -5.167   -5.178
 -63.750  -61.918  -58.609  -53.711  -47.672  -41.283  -35.351  -30.393  -26.638  -24.394  -24.503  -28.366  -37.031  -49.594  -63.198  -75.266  -84.761  -91.385  -94.905  -94.956  -91.152  -83.595  -72.866  -59.611  -45.424  -33.246  -25.230  -21.214  -19.699  -19.322  -19.317  -19.358  -19.347  -19.285  -19.212  -19.184  -19.211  -19.253  -19.223  -19.037  -18.653  -18.104  -17.470  -16.858  -16.361  -16.039  -15.893  -15.885  -15.925  -15.933  -15.854  -15.705  -15.525  -15.377  -15.308  -15.393  -15.717  -16.313  -17.104  -17.943  -18.664  -19.188  -19.535  -19.748  -19.882  -19.979  -20.061  -20.130  -20.169  -20.169  -20.136  -20.106  -20.108  -20.152  -20.213  -20.274  -20.304  -20.290  -20.263  -20.267  -20.327  -20.404  -20.419  -20.349  -20.223  -20.105  -20.022  -19.920  -19.670  -19.127  -18.187  -16.835  -15.143  -13.245  -11.298   -9.464   -7.879   -6.672   -5.923   -5.875
 -69.311  -68.093  -65.123  -60.288  -53.822  -46.370  -38.860  -32.154  -26.850  -23.543  -23.322  -27.839  -38.117  -52.600  -67.636  -80.662  -91.104  -98.590 -102.386 -101.783  -96.550  -87.451  -75.514  -61.174  -45.895  -32.961  -24.731  -20.845  -19.538  -19.305  -19.360  -19.411  -19.385  -19.307  -19.214  -19.164  -19.165  -19.193  -19.178  -19.054  -18.794  -18.411  -17.965  -17.532  -17.173  -16.923  -16.791  -16.749  -16.737  -16.706  -16.620  -16.498  -16.372  -16.295  -16.316  -16.514  -16.986  -17.764  -18.765  -19.824  -20.755  -21.452  -21.908  -22.180  -22.335  -22.431  -22.501  -22.554  -22.587  -22.601  -22.611  -22.638  -22.695  -22.785  -22.879  -22.958  -23.006  -23.022  -23.039  -23.097  -23.212  -23.332  -23.381  -23.327  -23.206  -23.089  -22.999  -22.881  -22.604  -22.038  -21.087  -19.733  -18.030  -16.101  -14.083  -12.136  -10.421   -9.105   -8.283   -8.178
 -76.298  -75.438  -72.372  -67.123  -59.904  -51.298  -42.283  -33.974  -27.282  -23.019  -22.376  -27.041  -37.911  -53.080  -68.578  -81.910  -92.697 -100.418 -104.019 -102.727  -96.623  -86.869  -74.471  -59.700  -44.214  -31.498  -23.751  -20.333  -19.346  -19.277  -19.395  -19.464  -19.445  -19.368  -19.281  -19.221  -19.190  -19.171  -19.127  -19.016  -18.823  -18.560  -18.256  -17.956  -17.695  -17.498  -17.371  -17.296  -17.247  -17.190  -17.110  -17.021  -16.947  -16.930  -17.036  -17.350  -17.970  -18.932  -20.142  -21.413  -22.532  -23.367  -23.905  -24.206  -24.360  -24.434  -24.478  -24.504  -24.522  -24.535  -24.557  -24.600  -24.671  -24.767  -24.867  -24.957  -25.028  -25.079  -25.140  -25.242  -25.394  -25.542  -25.614  -25.584  -25.489  -25.393  -25.318  -25.205  -24.949  -24.440  -23.603  -22.421  -20.942  -19.245  -17.440  -15.649  -14.036  -12.765  -11.955  -11.809
 -81.482  -80.661  -77.259  -71.441  -63.525  -54.100  -44.154  -34.923  -27.479  -22.695  -21.677  -25.914  -36.150  -50.645  -65.660  -78.541  -88.626  -95.503  -98.439  -96.931  -91.145  -81.892  -69.751  -55.246  -40.577  -29.109  -22.489  -19.792  -19.170  -19.250  -19.420  -19.498  -19.488  -19.427  -19.356  -19.293  -19.243  -19.194  -19.125  -19.016  -18.864  -18.678  -18.476  -18.271  -18.088  -17.934  -17.819  -17.733  -17.662  -17.594  -17.524  -17.455  -17.414  -17.444  -17.606  -18.008  -18.740  -19.839  -21.201  -22.619  -23.869  -24.801  -25.393  -25.709  -25.850  -25.906  -25.926  -25.933  -25.933  -25.934  -25.948  -25.976  -26.028  -26.103  -26.188  -26.271  -26.347  -26.415  -26.495  -26.609  -26.759  -26.898  -26.974  -26.965  -26.904  -26.843  -26.797  -26.719  -26.528  -26.143  -25.524  -24.671  -23.623  -22.414  -21.090  -19.705  -18.376  -17.268  -16.525  -16.339
 -83.044  -82.066  -78.325  -72.093  -63.770  -54.000  -43.833  -34.538  -27.140  -22.388  -21.126  -24.458  -32.988  -45.504  -59.023  -70.867  -79.856  -85.625  -87.927  -86.570  -81.557  -73.122  -61.651  -48.262  -35.513  -26.164  -21.108  -19.259  -18.991  -19.190  -19.383  -19.463  -19.457  -19.414  -19.361  -19.307  -19.259  -19.208  -19.140  -19.048  -18.934  -18.810  -18.686  -18.560  -18.445  -18.343  -18.255  -18.176  -18.108  -18.042  -17.977  -17.923  -17.900  -17.947  -18.140  -18.583  -19.369  -20.530  -21.962  -23.454  -24.773  -25.759  -26.385  -26.716  -26.859  -26.906  -26.912  -26.907  -26.896  -26.888  -26.885  -26.891  -26.913  -26.954  -27.010  -27.074  -27.135  -27.192  -27.258  -27.341  -27.451  -27.549  -27.603  -27.598  -27.565  -27.534  -27.519  -27.490  -27.397  -27.202  -26.908  -26.546  -26.145  -25.687  -25.092  -24.310  -23.385  -22.491  -21.821  -21.594
 -80.848  -79.668  -75.749  -69.387  -61.018  -51.399  -41.672  -33.024  -26.279  -21.943  -20.531  -22.722  -28.938  -38.510  -49.482  -59.631  -67.517  -72.542  -74.504  -73.285  -68.802  -61.160  -50.964  -39.746  -29.829  -23.062  -19.695  -18.669  -18.707  -18.985  -19.184  -19.263  -19.267  -19.242  -19.209  -19.178  -19.147  -19.117  -19.076  -19.021  -18.956  -18.894  -18.837  -18.786  -18.735  -18.687  -18.636  -18.591  -18.540  -18.486  -18.438  -18.393  -18.380  -18.433  -18.627  -19.065  -19.851  -21.004  -22.434  -23.935  -25.275  -26.294  -26.955  -27.313  -27.476  -27.532  -27.541  -27.533  -27.519  -27.504  -27.487  -27.475  -27.469  -27.482  -27.510  -27.549  -27.589  -27.623  -27.655  -27.695  -27.741  -27.780  -27.795  -27.780  -27.756  -27.743  -27.751  -27.778  -27.813  -27.879  -28.042  -28.380  -28.913  -29.511  -29.920  -29.919  -29.481  -28.809  -28.191  -27.881
 -76.227  -74.842  -70.884  -64.627  -56.560  -47.541  -38.699  -31.027  -25.112  -21.245  -19.671  -20.719  -24.600  -30.967  -38.702  -46.323  -52.585  -56.746  -58.416  -57.385  -53.591  -47.293  -39.305  -31.094  -24.347  -20.095  -18.233  -17.889  -18.151  -18.471  -18.671  -18.753  -18.771  -18.768  -18.766  -18.771  -18.787  -18.804  -18.812  -18.814  -18.812  -18.817  -18.827  -18.841  -18.851  -18.852  -18.852  -18.847  -18.835  -18.817  -18.795  -18.767  -18.754  -18.799  -18.971  -19.371  -20.103  -21.193  -22.573  -24.043  -25.385  -26.439  -27.149  -27.563  -27.774  -27.865  -27.891  -27.887  -27.872  -27.854  -27.831  -27.811  -27.792  -27.791  -27.800  -27.820  -27.840  -27.856  -27.863  -27.864  -27.863  -27.851  -27.830  -27.797  -27.769  -27.762  -27.794  -27.884  -28.084  -28.502  -29.299  -30.610  -32.409  -34.397  -36.076  -37.034  -37.183  -36.783  -36.220  -35.760
 -70.650  -69.129  -65.304  -59.419  -51.990  -43.855  -35.991  -29.188  -23.878  -20.255  -18.419  -18.479  -20.450  -24.079  -28.732  -33.529  -37.653  -40.507  -41.692  -40.960  -38.270  -33.922  -28.649  -23.530  -19.603  -17.372  -16.632  -16.754  -17.145  -17.481  -17.680  -17.771  -17.812  -17.841  -17.879  -17.936  -18.019  -18.113  -18.203  -18.288  -18.371  -18.458  -18.545  -18.623  -18.685  -18.738  -18.788  -18.844  -18.892  -18.931  -18.951  -18.945  -18.932  -18.952  -19.071  -19.400  -20.030  -21.020  -22.311  -23.733  -25.078  -26.180  -26.972  -27.481  -27.772  -27.922  -27.979  -27.990  -27.979  -27.959  -27.939  -27.922  -27.906  -27.901  -27.909  -27.921  -27.937  -27.951  -27.958  -27.948  -27.926  -27.893  -27.857  -27.823  -27.799  -27.800  -27.854  -28.020  -28.429  -29.289  -30.872  -33.365  -36.655  -40.212  -43.286  -45.310  -46.177  -46.195  -45.784  -45.122
 -65.298  -63.788  -60.282  -54.994  -48.388  -41.164  -34.102  -27.844  -22.781  -19.110  -16.908  -16.179  -16.815  -18.542  -20.934  -23.459  -25.644  -27.155  -27.744  -27.255  -25.664  -23.185  -20.287  -17.616  -15.731  -14.854  -14.799  -15.167  -15.606  -15.933  -16.130  -16.236  -16.301  -16.359  -16.437  -16.554  -16.722  -16.922  -17.129  -17.330  -17.528  -17.720  -17.895  -18.041  -18.159  -18.259  -18.370  -18.495  -18.625  -18.741  -18.817  -18.840  -18.822  -18.799  -18.843  -19.058  -19.559  -20.412  -21.588  -22.946  -24.293  -25.462  -26.366  -26.997  -27.401  -27.628  -27.734  -27.765  -27.763  -27.750  -27.739  -27.737  -27.742  -27.757  -27.781  -27.815  -27.858  -27.901  -27.938  -27.955  -27.954  -27.938  -27.917  -27.901  -27.896  -27.913  -27.994  -28.245  -28.866  -30.172  -32.535  -36.171  -40.852  -45.821  -50.144  -53.195  -54.874  -55.485  -55.395  -54.565
 -60.814  -59.425  -56.320  -51.682  -45.886  -39.462  -33.011  -27.070  -22.037  -18.167  -15.575  -14.245  -14.016  -14.604  -15.634  -16.734  -17.630  -18.164  -18.252  -17.852  -16.984  -15.770  -14.440  -13.310  -12.634  -12.496  -12.765  -13.206  -13.624  -13.933  -14.137  -14.263  -14.340  -14.396  -14.481  -14.642  -14.895  -15.208  -15.552  -15.892  -16.229  -16.543  -16.819  -17.037  -17.205  -17.353  -17.522  -17.722  -17.940  -18.138  -18.279  -18.335  -18.311  -18.235  -18.186  -18.271  -18.621  -19.316  -20.358  -21.632  -22.967  -24.196  -25.209  -25.970  -26.489  -26.801  -26.958  -27.015  -27.028  -27.031  -27.046  -27.079  -27.130  -27.195  -27.279  -27.380  -27.499  -27.624  -27.739  -27.833  -27.900  -27.938  -27.964  -27.983  -28.006  -28.044  -28.154  -28.466  -29.231  -30.838  -33.719  -38.113  -43.712  -49.630  -54.862  -58.780  -61.280  -62.605  -62.983  -62.126
 -57.169  -55.919  -53.185  -49.128  -44.040  -38.326  -32.441  -26.824  -21.865  -17.860  -14.975  -13.218  -12.438  -12.342  -12.597  -12.900  -13.069  -13.029  -12.778  -12.355  -11.814  -11.220  -10.677  -10.296  -10.181  -10.344  -10.691  -11.100  -11.482  -11.796  -12.030  -12.181  -12.235  -12.237  -12.270  -12.413  -12.704  -13.108  -13.569  -14.040  -14.506  -14.937  -15.302  -15.582  -15.790  -15.966  -16.172  -16.428  -16.714  -16.984  -17.189  -17.282  -17.262  -17.140  -17.003  -16.961  -17.159  -17.697  -18.592  -19.758  -21.043  -22.288  -23.365  -24.215  -24.813  -25.185  -25.381  -25.467  -25.500  -25.535  -25.599  -25.698  -25.826  -25.987  -26.190  -26.422  -26.690  -26.970  -27.244  -27.483  -27.675  -27.814  -27.913  -27.983  -28.037  -28.093  -28.212  -28.532  -29.312  -30.948  -33.894  -38.417  -44.235  -50.488  -56.189  -60.725  -63.967  -66.050  -67.010  -66.344
 -54.043  -52.894  -50.453  -46.873  -42.414  -37.390  -32.147  -27.036  -22.383  -18.475  -15.496  -13.493  -12.332  -11.770  -11.517  -11.333  -11.068  -10.686  -10.202   -9.669   -9.150   -8.710   -8.397   -8.249   -8.287   -8.486   -8.797   -9.165   -9.551   -9.924  -10.231  -10.408  -10.414  -10.295  -10.187  -10.228  -10.474  -10.894  -11.411  -11.956  -12.495  -12.989  -13.404  -13.711  -13.925  -14.101  -14.307  -14.574  -14.883  -15.193  -15.441  -15.574  -15.568  -15.424  -15.225  -15.087  -15.162  -15.559  -16.302  -17.332  -18.512  -19.691  -20.743  -21.590  -22.201  -22.583  -22.791  -22.894  -22.962  -23.048  -23.179  -23.368  -23.616  -23.928  -24.305  -24.751  -25.254  -25.783  -26.304  -26.772  -27.152  -27.440  -27.639  -27.772  -27.857  -27.926  -28.033  -28.299  -28.949  -30.335  -32.878  -36.874  -42.179  -48.100  -53.758  -58.564  -62.345  -65.109  -66.684  -66.404
 -51.230  -50.137  -47.916  -44.731  -40.837  -36.508  -32.003  -27.577  -23.476  -19.924  -17.084  -15.000  -13.584  -12.656  -12.001  -11.440  -10.862  -10.213   -9.512   -8.787   -8.106   -7.536   -7.138   -6.925   -6.901   -7.027   -7.270   -7.622   -8.069   -8.557   -8.986   -9.218   -9.164   -8.896   -8.596   -8.459   -8.582   -8.923   -9.400   -9.922  -10.440  -10.917  -11.305  -11.573  -11.749  -11.887  -12.053  -12.275  -12.555  -12.853  -13.108  -13.265  -13.270  -13.126  -12.900  -12.707  -12.693  -12.971  -13.566  -14.425  -15.433  -16.457  -17.384  -18.136  -18.673  -19.008  -19.197  -19.309  -19.414  -19.558  -19.774  -20.073  -20.462  -20.956  -21.562  -22.281  -23.086  -23.944  -24.791  -25.554  -26.178  -26.645  -26.966  -27.164  -27.280  -27.351  -27.424  -27.594  -28.033  -29.005  -30.853  -33.875  -38.077  -43.037  -48.098  -52.743  -56.756  -59.991  -62.089  -62.288
 -48.703  -47.645  -45.589  -42.726  -39.330  -35.655  -31.898  -28.225  -24.794  -21.751  -19.203  -17.177  -15.620  -14.414  -13.425  -12.539  -11.673  -10.781   -9.850   -8.897   -7.976   -7.174   -6.563   -6.172   -6.003   -6.024   -6.208   -6.564   -7.084   -7.704   -8.263   -8.569   -8.505   -8.134   -7.676   -7.369   -7.330   -7.536   -7.890   -8.297   -8.695   -9.044   -9.315   -9.485   -9.579   -9.645   -9.734   -9.875  -10.076  -10.306  -10.517  -10.654  -10.655  -10.511  -10.278  -10.062   -9.989  -10.161  -10.600  -11.261  -12.044  -12.850  -13.578  -14.161  -14.569  -14.816  -14.967  -15.078  -15.211  -15.410  -15.702  -16.100  -16.630  -17.305  -18.136  -19.128  -20.250  -21.447  -22.635  -23.710  -24.591  -25.239  -25.668  -25.922  -26.058  -26.118  -26.147  -26.213  -26.431  -26.979  -28.099  -30.036  -32.887  -36.480  -40.441  -44.433  -48.246  -51.615  -54.024  -54.696
 -46.420  -45.398  -43.468  -40.865  -37.882  -34.764  -31.665  -28.682  -25.893  -23.367  -21.156  -19.262  -17.649  -16.257  -14.999  -13.825  -12.695  -11.580  -10.452   -9.312   -8.209   -7.219   -6.432   -5.903   -5.619   -5.546   -5.672   -6.011   -6.559   -7.246   -7.889   -8.266   -8.248   -7.888   -7.399   -7.011   -6.858   -6.924   -7.121   -7.361   -7.583   -7.750   -7.847   -7.874   -7.862   -7.846   -7.845   -7.891   -7.977   -8.100   -8.221   -8.294   -8.263   -8.112   -7.879   -7.640   -7.507   -7.565   -7.837   -8.287   -8.845   -9.421   -9.934  -10.329  -10.590  -10.743  -10.838  -10.936  -11.077  -11.302  -11.632  -12.090  -12.705  -13.503  -14.488  -15.660  -16.996  -18.440  -19.884  -21.194  -22.260  -23.030  -23.526  -23.809  -23.944  -23.979  -23.956  -23.925  -23.966  -24.185  -24.735  -25.774  -27.413  -29.622  -32.268  -35.211  -38.338  -41.363  -43.716  -44.710
 -44.129  -43.147  -41.335  -38.951  -36.307  -33.640  -31.069  -28.641  -26.374  -24.286  -22.377  -20.631  -19.021  -17.505  -16.053  -14.650  -13.305  -12.018  -10.780   -9.582   -8.449   -7.454   -6.668   -6.129   -5.822   -5.717   -5.807   -6.098   -6.594   -7.231   -7.841   -8.234   -8.288   -8.023   -7.619   -7.271   -7.090   -7.073   -7.155   -7.249   -7.306   -7.303   -7.229   -7.121   -7.004   -6.912   -6.843   -6.796   -6.779   -6.784   -6.796   -6.789   -6.715   -6.549   -6.305   -6.040   -5.835   -5.764   -5.876   -6.152   -6.527   -6.932   -7.283   -7.533   -7.674   -7.739   -7.774   -7.829   -7.940   -8.131   -8.433   -8.875   -9.489  -10.288  -11.276  -12.449  -13.793  -15.260  -16.740  -18.089  -19.176  -19.946  -20.428  -20.698  -20.811  -20.812  -20.734  -20.623  -20.543  -20.561  -20.758  -21.210  -21.989  -23.124  -24.610  -26.449  -28.625  -30.918  -32.836  -33.888
 -41.415  -40.469  -38.794  -36.633  -34.299  -32.006  -29.854  -27.853  -25.986  -24.235  -22.578  -20.982  -19.422  -17.869  -16.316  -14.800  -13.354  -12.023  -10.828   -9.758   -8.822   -8.051   -7.472   -7.105   -6.931   -6.913   -7.033   -7.288   -7.676   -8.146   -8.596   -8.885   -8.924   -8.729   -8.423   -8.148   -7.982   -7.942   -7.958   -7.967   -7.920   -7.797   -7.605   -7.382   -7.184   -7.021   -6.887   -6.764   -6.656   -6.567   -6.503   -6.444   -6.349   -6.187   -5.955   -5.674   -5.404   -5.234   -5.225   -5.401   -5.701   -6.041   -6.319   -6.492   -6.559   -6.552   -6.523   -6.508   -6.534   -6.629   -6.831   -7.183   -7.700   -8.377   -9.189  -10.140  -11.227  -12.417  -13.623  -14.706  -15.560  -16.149  -16.512  -16.710  -16.780  -16.748  -16.632  -16.476  -16.337  -16.260  -16.286  -16.433  -16.726  -17.196  -17.901  -18.913  -20.257  -21.790  -23.147  -24.083
 -37.967  -37.051  -35.556  -33.667  -31.664  -29.725  -27.931  -26.279  -24.727  -23.247  -21.813  -20.393  -18.957  -17.503  -16.037  -14.612  -13.291  -12.157  -11.240  -10.543  -10.046   -9.728   -9.578   -9.588   -9.731   -9.964  -10.254  -10.567  -10.871  -11.138  -11.303  -11.316  -11.143  -10.825  -10.445  -10.112   -9.894   -9.789   -9.746   -9.695   -9.589   -9.389   -9.102   -8.770   -8.445   -8.154   -7.894   -7.653   -7.432   -7.249   -7.117   -7.039   -6.968   -6.863   -6.686   -6.436   -6.154   -5.945   -5.906   -6.077   -6.405   -6.773   -7.067   -7.226   -7.258   -7.210   -7.118   -7.020   -6.948   -6.928   -7.004   -7.231   -7.605   -8.087   -8.633   -9.221   -9.847  -10.496  -11.112  -11.618  -11.962  -12.162  -12.271  -12.329  -12.338  -12.280  -12.153  -11.995  -11.855  -11.778  -11.767  -11.812  -11.903  -12.079  -12.414  -13.009  -13.899  -14.965  -15.943  -16.748
 -33.895  -33.018  -31.770  -30.224  -28.596  -27.030  -25.584  -24.246  -22.987  -21.776  -20.600  -19.440  -18.292  -17.159  -16.066  -15.067  -14.240  -13.648  -13.339  -13.290  -13.460  -13.803  -14.280  -14.870  -15.533  -16.234  -16.895  -17.437  -17.780  -17.878  -17.698  -17.248  -16.584  -15.789  -14.994  -14.307  -13.796  -13.467  -13.264  -13.103  -12.906  -12.609  -12.176  -11.644  -11.062  -10.473   -9.901   -9.371   -8.894   -8.516   -8.255   -8.107   -8.034   -7.977   -7.869   -7.684   -7.454   -7.279   -7.280   -7.508   -7.904   -8.335   -8.661   -8.832   -8.861   -8.794   -8.670   -8.523   -8.383   -8.287   -8.293   -8.441   -8.709   -9.040   -9.351   -9.593   -9.751   -9.796   -9.702   -9.453   -9.106   -8.760   -8.503   -8.358   -8.269   -8.179   -8.064   -7.937   -7.846   -7.834   -7.886   -7.964   -8.058   -8.197   -8.476   -9.016   -9.829  -10.798  -11.665  -12.412
 -29.854  -29.053  -28.105  -26.959  -25.753  -24.597  -23.530  -22.548  -21.640  -20.790  -20.001  -19.290  -18.677  -18.189  -17.852  -17.710  -17.799  -18.151  -18.764  -19.608  -20.625  -21.769  -23.008  -24.324  -25.689  -27.046  -28.273  -29.229  -29.770  -29.802  -29.291  -28.271  -26.864  -25.248  -23.625  -22.183  -21.035  -20.210  -19.648  -19.232  -18.833  -18.324  -17.628  -16.741  -15.711  -14.592  -13.452  -12.352  -11.365  -10.551   -9.937   -9.529   -9.283   -9.128   -8.988   -8.801   -8.594   -8.442   -8.470   -8.716   -9.117   -9.541   -9.861  -10.017  -10.036   -9.962   -9.836   -9.691   -9.554   -9.467   -9.494   -9.656   -9.919  -10.201  -10.410  -10.480  -10.367  -10.013   -9.384   -8.511   -7.528   -6.645   -5.998   -5.602   -5.377   -5.227   -5.096   -4.999   -4.976   -5.051   -5.229   -5.450   -5.679   -5.935   -6.319   -6.966   -7.889   -8.943   -9.859  -10.587
 -26.717  -26.044  -25.419  -24.694  -23.945  -23.247  -22.644  -22.141  -21.735  -21.430  -21.258  -21.261  -21.499  -22.008  -22.821  -23.910  -25.244  -26.774  -28.456  -30.250  -32.122  -34.055  -36.053  -38.125  -40.246  -42.327  -44.203  -45.664  -46.514  -46.610  -45.891  -44.389  -42.242  -39.694  -37.041  -34.572  -32.501  -30.913  -29.758  -28.888  -28.113  -27.248  -26.167  -24.814  -23.212  -21.422  -19.533  -17.663  -15.910  -14.361  -13.072  -12.058  -11.286  -10.702  -10.228   -9.799   -9.403   -9.113   -9.006   -9.106   -9.356   -9.639   -9.839   -9.924   -9.904   -9.813   -9.699   -9.585   -9.495   -9.476   -9.575   -9.809  -10.134  -10.464  -10.719  -10.830  -10.735  -10.338   -9.574   -8.468   -7.190   -5.991   -5.065   -4.454   -4.065   -3.806   -3.620   -3.505   -3.519   -3.699   -4.043   -4.478   -4.911   -5.334   -5.827   -6.531   -7.492   -8.560   -9.474  -10.154
 -25.023  -24.502  -24.194  -23.896  -23.642  -23.487  -23.473  -23.610  -23.898  -24.347  -25.005  -25.942  -27.249  -28.975  -31.098  -33.524  -36.107  -38.721  -41.298  -43.822  -46.316  -48.829  -51.417  -54.109  -56.875  -59.582  -62.018  -63.935  -65.113  -65.397  -64.705  -63.048  -60.542  -57.418  -54.007  -50.671  -47.719  -45.317  -43.461  -42.001  -40.720  -39.401  -37.876  -36.060  -33.937  -31.557  -29.008  -26.394  -23.826  -21.391  -19.167  -17.197  -15.485  -14.015  -12.736  -11.605  -10.614   -9.816   -9.253   -8.928   -8.786   -8.735   -8.687   -8.608   -8.496   -8.371   -8.244   -8.140   -8.082   -8.118   -8.279   -8.569   -8.941   -9.329   -9.687   -9.967  -10.098   -9.975   -9.482   -8.603   -7.466   -6.316   -5.348   -4.634   -4.121   -3.732   -3.442   -3.272   -3.299   -3.580   -4.107   -4.774   -5.419   -5.962   -6.460   -7.054   -7.824   -8.683   -9.428   -9.983
 -24.915  -24.549  -24.544  -24.671  -24.947  -25.408  -26.077  -26.953  -28.021  -29.284  -30.801  -32.671  -34.996  -37.811  -41.042  -44.501  -47.966  -51.272  -54.355  -57.253  -60.067  -62.908  -65.871  -68.997  -72.229  -75.394  -78.243  -80.519  -82.004  -82.554  -82.096  -80.635  -78.266  -75.180  -71.660  -68.054  -64.690  -61.794  -59.415  -57.444  -55.684  -53.926  -52.007  -49.834  -47.377  -44.658  -41.728  -38.653  -35.494  -32.309  -29.155  -26.092  -23.172  -20.431  -17.885  -15.546  -13.455  -11.666  -10.213   -9.091   -8.265   -7.661   -7.211   -6.872   -6.601   -6.388   -6.210   -6.070   -5.996   -6.017   -6.154   -6.407   -6.749   -7.137   -7.555   -7.984   -8.377   -8.638   -8.623   -8.258   -7.589   -6.795   -6.037   -5.387   -4.831   -4.355   -3.977   -3.760   -3.798   -4.162   -4.831   -5.666   -6.449   -7.018   -7.390   -7.704   -8.093   -8.555   -8.972   -9.364
 -26.719  -26.500  -26.761  -27.272  -28.041  -29.078  -30.374  -31.902  -33.619  -35.522  -37.676  -40.192  -43.175  -46.644  -50.480  -54.452  -58.308  -61.882  -65.137  -68.160  -71.099  -74.112  -77.319  -80.763  -84.367  -87.933  -91.194  -93.871  -95.732  -96.624  -96.480  -95.334  -93.311  -90.603  -87.461  -84.157  -80.963  -78.075  -75.561  -73.353  -71.304  -69.254  -67.073  -64.688  -62.076  -59.242  -56.202  -52.967  -49.531  -45.895  -42.067  -38.089  -34.023  -29.956  -25.971  -22.159  -18.622  -15.453  -12.727  -10.468   -8.669   -7.286   -6.278   -5.568   -5.073   -4.728   -4.464   -4.257   -4.117   -4.056   -4.092   -4.238   -4.471   -4.777   -5.151   -5.614   -6.142   -6.674   -7.073   -7.224   -7.101   -6.787   -6.365   -5.908   -5.430   -4.965   -4.573   -4.355   -4.410   -4.805   -5.518   -6.393   -7.159   -7.637   -7.805   -7.795   -7.773   -7.808   -7.891   -8.120
 -31.139  -31.078  -31.526  -32.289  -33.371  -34.765  -36.433  -38.308  -40.342  -42.521  -44.912  -47.627  -50.765  -54.341  -58.232  -62.212  -66.040  -69.566  -72.775  -75.764  -78.705  -81.773  -85.103  -88.745  -92.630  -96.567 -100.286 -103.489 -105.894 -107.300 -107.627 -106.917 -105.332 -103.106 -100.494  -97.732  -95.017  -92.476  -90.148  -87.978  -85.864  -83.695  -81.387  -78.896  -76.215  -73.346  -70.286  -67.009  -63.467  -59.605  -55.387  -50.813  -45.931  -40.835  -35.649  -30.513  -25.585  -21.005  -16.894  -13.332  -10.372   -8.036   -6.316   -5.125   -4.335   -3.808   -3.431   -3.143   -2.926   -2.785   -2.729   -2.757   -2.871   -3.048   -3.314   -3.691   -4.191   -4.775   -5.352   -5.805   -6.073   -6.143   -6.056   -5.837   -5.514   -5.147   -4.825   -4.654   -4.723   -5.086   -5.712   -6.441   -7.045   -7.338   -7.299   -7.058   -6.778   -6.553   -6.440   -6.586
 -38.362  -38.536  -39.062  -39.881  -41.015  -42.451  -44.130  -45.981  -47.946  -50.012  -52.238  -54.725  -57.563  -60.775  -64.264  -67.841  -71.309  -74.539  -77.514  -80.325  -83.127  -86.086  -89.331  -92.914  -96.779 -100.767 -104.644 -108.145 -111.010 -113.049 -114.150 -114.311 -113.636 -112.294 -110.506 -108.489 -106.416 -104.379 -102.397 -100.417  -98.371  -96.183  -93.813  -91.245  -88.487  -85.549  -82.423  -79.067  -75.416  -71.392  -66.932  -62.012  -56.658  -50.956  -45.034  -39.045  -33.146  -27.493  -22.221  -17.459  -13.331   -9.965   -7.410   -5.608   -4.407   -3.620   -3.089   -2.712   -2.446   -2.274   -2.184   -2.161   -2.202   -2.282   -2.438   -2.688   -3.060   -3.550   -4.092   -4.601   -5.011   -5.280   -5.400   -5.371   -5.219   -4.987   -4.778   -4.664   -4.717   -4.970   -5.385   -5.841   -6.172   -6.247   -6.068   -5.762   -5.447   -5.219   -5.105   -5.265
 -47.101  -47.604  -48.164  -48.920  -49.928  -51.179  -52.624  -54.195  -55.841  -57.551  -59.368  -61.376  -63.655  -66.230  -69.045  -71.973  -74.868  -77.628  -80.235  -82.751  -85.284  -87.959  -90.875  -94.071  -97.503 -101.043 -104.519 -107.757 -110.629 -113.054 -114.977 -116.340 -117.104 -117.260 -116.861 -116.025 -114.886 -113.538 -112.026 -110.331 -108.414 -106.249 -103.826 -101.158  -98.273  -95.193  -91.917  -88.406  -84.595  -80.405  -75.772  -70.666  -65.107  -59.175  -52.990  -46.684  -40.387  -34.205  -28.236  -22.609  -17.509  -13.140   -9.663   -7.097   -5.309   -4.116   -3.343   -2.854   -2.556   -2.411   -2.355   -2.352   -2.365   -2.380   -2.428   -2.555   -2.807   -3.169   -3.618   -4.069   -4.474   -4.787   -4.978   -5.049   -5.000   -4.888   -4.762   -4.682   -4.684   -4.777   -4.924   -5.057   -5.089   -4.959   -4.720   -4.478   -4.330   -4.290   -4.331   -4.575
 -55.129  -55.997  -56.621  -57.326  -58.199  -59.245  -60.420  -61.673  -62.960  -64.275  -65.652  -67.155  -68.848  -70.763  -72.879  -75.123  -77.405  -79.655  -81.849  -84.013  -86.195  -88.461  -90.862  -93.423  -96.111  -98.850 -101.547 -104.144 -106.641 -109.077 -111.479 -113.811 -115.961 -117.770 -119.074 -119.798 -119.934 -119.533 -118.658 -117.350 -115.633 -113.522 -111.050 -108.256 -105.201 -101.926  -98.443  -94.738  -90.762  -86.451  -81.746  -76.624  -71.110  -65.278  -59.235  -53.087  -46.907  -40.731  -34.590  -28.556  -22.813  -17.625  -13.241   -9.780   -7.216   -5.429   -4.256   -3.564   -3.227   -3.125   -3.154   -3.200   -3.199   -3.122   -3.026   -3.007   -3.131   -3.413   -3.803   -4.221   -4.605   -4.911   -5.111   -5.194   -5.181   -5.119   -5.029   -4.943   -4.870   -4.794   -4.691   -4.535   -4.309   -4.036   -3.795   -3.706   -3.809   -4.050   -4.318   -4.678
 -60.673  -61.836  -62.568  -63.298  -64.131  -65.067  -66.074  -67.111  -68.145  -69.170  -70.219  -71.339  -72.586  -73.996  -75.571  -77.281  -79.073  -80.903  -82.741  -84.573  -86.404  -88.236  -90.073  -91.905  -93.720  -95.495  -97.243  -99.027 -100.963 -103.173 -105.724 -108.587 -111.642 -114.679 -117.444 -119.682 -121.206 -121.937 -121.878 -121.102 -119.682 -117.694 -115.212 -112.314 -109.087 -105.603 -101.924  -98.061  -93.989  -89.664  -85.043  -80.108  -74.881  -69.428  -63.834  -58.166  -52.447  -46.651  -40.736  -34.717  -28.731  -23.036  -17.922  -13.600  -10.172   -7.638   -5.930   -4.934   -4.488   -4.413   -4.511   -4.592   -4.522   -4.277   -3.958   -3.708   -3.671   -3.865   -4.223   -4.644   -5.050   -5.358   -5.542   -5.603   -5.574   -5.503   -5.409   -5.296   -5.148   -4.934   -4.656   -4.317   -3.947   -3.631   -3.481   -3.607   -4.004   -4.556   -5.077   -5.556
 -62.922  -64.226  -65.073  -65.897  -66.784  -67.727  -68.692  -69.648  -70.570  -71.457  -72.332  -73.243  -74.241  -75.369  -76.642  -78.052  -79.572  -81.161  -82.781  -84.395  -85.967  -87.460  -88.833  -90.044  -91.067  -91.913  -92.670  -93.518  -94.699  -96.445  -98.876 -101.950 -105.489 -109.244 -112.934 -116.258 -118.930 -120.733 -121.569 -121.449 -120.471 -118.730 -116.333 -113.400 -110.053 -106.427 -102.615  -98.679  -94.623  -90.424  -86.048  -81.476  -76.722  -71.826  -66.841  -61.793  -56.665  -51.392  -45.898  -40.161  -34.268  -28.438  -22.936  -18.011  -13.859  -10.612   -8.322   -6.928   -6.278   -6.136   -6.218   -6.263   -6.068   -5.596   -4.972   -4.423   -4.141   -4.175   -4.456   -4.862   -5.263   -5.570   -5.729   -5.748   -5.680   -5.573   -5.460   -5.320   -5.126   -4.848   -4.504   -4.124   -3.782   -3.584   -3.661   -4.089   -4.827   -5.695   -6.461   -7.037
 -61.968  -63.238  -64.171  -65.110  -66.100  -67.118  -68.131  -69.109  -70.034  -70.904  -71.746  -72.603  -73.535  -74.588  -75.791  -77.144  -78.622  -80.183  -81.770  -83.329  -84.803  -86.129  -87.239  -88.061  -88.543  -88.691  -88.618  -88.566  -88.874  -89.897  -91.863  -94.788  -98.469 -102.585 -106.786 -110.745 -114.156 -116.745 -118.334 -118.868 -118.391 -116.994 -114.793 -111.928 -108.571 -104.896 -101.056  -97.151  -93.223  -89.269  -85.257  -81.158  -76.963  -72.679  -68.318  -63.872  -59.298  -54.526  -49.479  -44.125  -38.529  -32.861  -27.345  -22.198  -17.652  -13.914  -11.130   -9.316   -8.347   -7.980   -7.912   -7.820   -7.456   -6.747   -5.836   -4.982   -4.420   -4.223   -4.333   -4.615   -4.937   -5.191   -5.307   -5.283   -5.177   -5.043   -4.911   -4.762   -4.570   -4.313   -4.026   -3.765   -3.620   -3.708   -4.134   -4.941   -6.026   -7.182   -8.144   -8.786
 -58.785  -59.893  -60.855  -61.878  -62.958  -64.059  -65.144  -66.185  -67.167  -68.090  -68.979  -69.883  -70.871  -72.001  -73.306  -74.786  -76.406  -78.109  -79.827  -81.486  -83.014  -84.342  -85.386  -86.055  -86.276  -86.035  -85.433  -84.718  -84.265  -84.494  -85.737  -88.128  -91.546  -95.682 -100.121 -104.451 -108.305 -111.388 -113.484 -114.502 -114.450 -113.389 -111.428 -108.713 -105.437 -101.814  -98.037  -94.253  -90.536  -86.898  -83.302  -79.703  -76.055  -72.330  -68.507  -64.552  -60.421  -56.054  -51.393  -46.418  -41.192  -35.853  -30.573  -25.534  -20.931  -16.980  -13.871  -11.675  -10.317   -9.603   -9.261   -8.948   -8.404   -7.514   -6.397   -5.319   -4.516   -4.071   -3.941   -4.013   -4.174   -4.315   -4.361   -4.305   -4.181   -4.041   -3.907   -3.779   -3.638   -3.481   -3.351   -3.320   -3.483   -3.938   -4.753   -5.907   -7.267   -8.610   -9.665  -10.331
 -54.966  -55.890  -56.826  -57.868  -58.980  -60.116  -61.242  -62.330  -63.364  -64.344  -65.298  -66.281  -67.370  -68.633  -70.106  -71.780  -73.609  -75.520  -77.428  -79.247  -80.900  -82.312  -83.399  -84.060  -84.212  -83.824  -82.978  -81.903  -80.959  -80.573  -81.122  -82.828  -85.699  -89.516  -93.890  -98.346 -102.437 -105.807 -108.213 -109.543 -109.781 -108.981 -107.235 -104.692 -101.556  -98.056  -94.420  -90.823  -87.365  -84.064  -80.874  -77.724  -74.538  -71.262  -67.849  -64.257  -60.449  -56.385  -52.031  -47.381  -42.501  -37.511  -32.548  -27.752  -23.280  -19.318  -16.050  -13.566  -11.845  -10.767  -10.110   -9.585   -8.892   -7.895   -6.678   -5.481   -4.520   -3.883   -3.530   -3.390   -3.365   -3.373   -3.352   -3.276   -3.157   -3.026   -2.913   -2.822   -2.762   -2.730   -2.782   -2.992   -3.455   -4.224   -5.334   -6.722   -8.233   -9.636  -10.710  -11.373
 -51.958  -52.802  -53.692  -54.691  -55.765  -56.872  -57.978  -59.058  -60.095  -61.090  -62.072  -63.098  -64.248  -65.595  -67.169  -68.959  -70.906  -72.933  -74.945  -76.853  -78.579  -80.046  -81.172  -81.859  -82.018  -81.615  -80.718  -79.536  -78.396  -77.696  -77.804  -78.977  -81.298  -84.642  -88.691  -92.999  -97.093 -100.571 -103.151 -104.674 -105.102 -104.474 -102.884 -100.488  -97.499  -94.165  -90.720  -87.354  -84.165  -81.171  -78.319  -75.518  -72.681  -69.733  -66.623  -63.307  -59.756  -55.945  -51.852  -47.484  -42.899  -38.207  -33.522  -28.958  -24.642  -20.739  -17.424  -14.792  -12.861  -11.553  -10.694  -10.016   -9.235   -8.194   -6.957   -5.727   -4.700   -3.959   -3.485   -3.209   -3.073   -2.997   -2.932   -2.844   -2.732   -2.613   -2.517   -2.457   -2.443   -2.499   -2.660   -3.017   -3.630   -4.563   -5.806   -7.285   -8.828  -10.224  -11.290  -12.020
