DSAA
 100 100
 0.0 400.0
 0.0 400.0
 -165.2988 -2.1334
  -3.180   -2.826   -3.001   -3.336   -3.817   -4.370   -4.942   -5.428   -5.737   -5.802   -5.560   -5.032   -4.330   -3.599   -2.982   -2.578   -2.466   -2.664   -3.231   -4.125   -5.167   -6.015   -6.354   -6.112   -5.544   -5.034   -4.852   -4.948   -5.093   -5.103   -4.926   -4.638   -4.366   -4.126   -3.938   -3.772   -3.662   -3.681   -3.921   -4.423   -5.139   -5.926   -6.667   -7.300   -7.741   -7.897   -7.728   -7.379   -7.095   -7.006   -7.070   -7.167   -7.207   -7.179   -7.079   -6.885   -6.545   -6.090   -5.638   -5.340   -5.328   -5.497   -5.597   -5.386   -4.814   -4.071   -3.447   -3.160   -3.208   -3.464   -3.741   -3.976   -4.215   -4.479   -4.680   -4.658   -4.372   -3.968   -3.618   -3.433   -3.426   -3.549   -3.758   -3.950   -4.089   -4.210   -4.425   -4.831   -5.464   -6.270   -7.120   -7.837   -8.223   -8.109   -7.444   -6.390   -5.197   -4.133   -3.417   -3.504
  -3.383   -3.246   -3.482   -3.865   -4.363   -4.936   -5.495   -5.955   -6.227   -6.229   -5.923   -5.331   -4.557   -3.754   -3.073   -2.607   -2.440   -2.595   -3.102   -3.924   -4.884   -5.666   -5.971   -5.747   -5.214   -4.735   -4.543   -4.622   -4.779   -4.849   -4.770   -4.585   -4.358   -4.124   -3.912   -3.727   -3.617   -3.631   -3.849   -4.292   -4.908   -5.574   -6.196   -6.717   -7.100   -7.283   -7.237   -7.089   -7.031   -7.159   -7.375   -7.549   -7.607   -7.545   -7.382   -7.099   -6.647   -6.064   -5.462   -5.043   -4.910   -4.992   -5.047   -4.859   -4.359   -3.717   -3.199   -2.983   -3.065   -3.336   -3.609   -3.816   -4.018   -4.267   -4.464   -4.465   -4.212   -3.855   -3.565   -3.429   -3.460   -3.622   -3.829   -4.032   -4.196   -4.381   -4.673   -5.166   -5.899   -6.810   -7.786   -8.641   -9.121   -9.028   -8.280   -7.052   -5.657   -4.415   -3.560   -3.410
  -4.645   -4.560   -4.839   -5.270   -5.800   -6.362   -6.883   -7.267   -7.438   -7.323   -6.907   -6.216   -5.347   -4.428   -3.621   -3.028   -2.733   -2.765   -3.139   -3.785   -4.558   -5.182   -5.427   -5.254   -4.823   -4.427   -4.243   -4.284   -4.443   -4.608   -4.700   -4.681   -4.543   -4.336   -4.111   -3.933   -3.842   -3.871   -4.058   -4.401   -4.847   -5.311   -5.732   -6.086   -6.369   -6.548   -6.659   -6.787   -7.056   -7.464   -7.872   -8.140   -8.207   -8.099   -7.841   -7.426   -6.831   -6.102   -5.362   -4.803   -4.523   -4.468   -4.445   -4.283   -3.916   -3.474   -3.133   -3.016   -3.139   -3.379   -3.612   -3.789   -3.948   -4.160   -4.359   -4.412   -4.252   -4.012   -3.847   -3.819   -3.926   -4.099   -4.291   -4.463   -4.644   -4.912   -5.329   -5.956   -6.801   -7.855   -9.019  -10.098  -10.773  -10.753   -9.953   -8.553   -6.928   -5.477   -4.478   -4.230
  -6.379   -6.336   -6.640   -7.088   -7.605   -8.126   -8.554   -8.839   -8.893   -8.664   -8.148   -7.359   -6.385   -5.341   -4.374   -3.605   -3.122   -2.958   -3.105   -3.508   -4.021   -4.447   -4.631   -4.521   -4.239   -3.955   -3.799   -3.802   -3.947   -4.187   -4.417   -4.543   -4.511   -4.354   -4.174   -4.061   -4.045   -4.128   -4.301   -4.555   -4.866   -5.184   -5.464   -5.701   -5.887   -6.044   -6.203   -6.449   -6.849   -7.363   -7.832   -8.113   -8.162   -7.996   -7.680   -7.205   -6.595   -5.882   -5.193   -4.641   -4.319   -4.172   -4.060   -3.887   -3.627   -3.355   -3.163   -3.121   -3.227   -3.416   -3.611   -3.756   -3.902   -4.102   -4.318   -4.438   -4.417   -4.344   -4.342   -4.444   -4.607   -4.758   -4.876   -4.966   -5.114   -5.403   -5.895   -6.597   -7.519   -8.680  -10.014  -11.322  -12.233  -12.394  -11.676  -10.271   -8.595   -7.074   -6.018   -5.727
  -8.250   -8.224   -8.513   -8.922   -9.366   -9.791  -10.126  -10.298  -10.255   -9.950   -9.375   -8.545   -7.511   -6.383   -5.289   -4.343   -3.629   -3.213   -3.090   -3.196   -3.432   -3.654   -3.773   -3.730   -3.581   -3.408   -3.281   -3.246   -3.355   -3.591   -3.862   -4.051   -4.096   -4.023   -3.954   -3.954   -4.044   -4.199   -4.384   -4.611   -4.869   -5.155   -5.426   -5.646   -5.805   -5.917   -6.027   -6.197   -6.475   -6.835   -7.159   -7.345   -7.339   -7.156   -6.861   -6.466   -6.007   -5.528   -5.079   -4.708   -4.442   -4.232   -4.012   -3.765   -3.523   -3.333   -3.235   -3.226   -3.308   -3.449   -3.609   -3.764   -3.936   -4.141   -4.359   -4.540   -4.659   -4.775   -4.953   -5.173   -5.349   -5.433   -5.430   -5.405   -5.477   -5.744   -6.228   -6.930   -7.862   -9.071  -10.540  -12.038  -13.180  -13.569  -13.085  -11.900  -10.414   -9.034   -8.064   -7.792
  -9.971   -9.940  -10.161  -10.475  -10.813  -11.121  -11.334  -11.413  -11.319  -11.001  -10.431   -9.628   -8.616   -7.485   -6.339   -5.277   -4.387   -3.739   -3.337   -3.150   -3.111   -3.138   -3.176   -3.162   -3.103   -3.003   -2.901   -2.828   -2.868   -3.032   -3.265   -3.446   -3.521   -3.540   -3.574   -3.668   -3.816   -3.997   -4.195   -4.425   -4.688   -4.998   -5.324   -5.604   -5.817   -5.947   -6.015   -6.055   -6.098   -6.176   -6.251   -6.288   -6.224   -6.087   -5.891   -5.667   -5.451   -5.263   -5.084   -4.911   -4.695   -4.406   -4.053   -3.698   -3.415   -3.247   -3.199   -3.225   -3.318   -3.466   -3.661   -3.870   -4.077   -4.275   -4.468   -4.658   -4.881   -5.155   -5.479   -5.759   -5.916   -5.926   -5.845   -5.769   -5.798   -6.044   -6.509   -7.196   -8.130   -9.388  -10.964  -12.623  -13.961  -14.596  -14.390  -13.530  -12.347  -11.190  -10.357  -10.103
 -11.341  -11.285  -11.419  -11.623  -11.837  -12.015  -12.125  -12.137  -12.023  -11.730  -11.227  -10.509   -9.594   -8.553   -7.443   -6.379   -5.411   -4.610   -3.994   -3.569   -3.300   -3.162   -3.099   -3.081   -3.056   -2.996   -2.898   -2.811   -2.788   -2.879   -3.038   -3.193   -3.289   -3.352   -3.398   -3.452   -3.543   -3.660   -3.810   -4.016   -4.266   -4.566   -4.902   -5.227   -5.513   -5.725   -5.831   -5.823   -5.731   -5.605   -5.501   -5.410   -5.345   -5.276   -5.218   -5.160   -5.115   -5.096   -5.053   -4.938   -4.691   -4.317   -3.870   -3.443   -3.141   -3.009   -3.014   -3.110   -3.260   -3.480   -3.751   -4.044   -4.288   -4.462   -4.609   -4.794   -5.076   -5.436   -5.797   -6.052   -6.156   -6.134   -6.066   -6.062   -6.198   -6.511   -7.013   -7.729   -8.704  -10.040  -11.737  -13.552  -15.094  -15.966  -16.047  -15.473  -14.515  -13.485  -12.675  -12.402
 -12.306  -12.212  -12.266  -12.368  -12.458  -12.532  -12.564  -12.531  -12.414  -12.167  -11.742  -11.134  -10.348   -9.451   -8.479   -7.495   -6.546   -5.683   -4.949   -4.359   -3.932   -3.662   -3.531   -3.500   -3.491   -3.449   -3.375   -3.316   -3.310   -3.390   -3.531   -3.681   -3.783   -3.811   -3.761   -3.653   -3.552   -3.490   -3.515   -3.616   -3.769   -3.971   -4.224   -4.519   -4.831   -5.108   -5.297   -5.351   -5.269   -5.094   -4.915   -4.801   -4.771   -4.805   -4.854   -4.886   -4.893   -4.857   -4.776   -4.601   -4.301   -3.889   -3.435   -3.060   -2.836   -2.785   -2.848   -3.003   -3.224   -3.512   -3.861   -4.223   -4.501   -4.684   -4.828   -5.027   -5.332   -5.682   -5.981   -6.140   -6.165   -6.147   -6.205   -6.401   -6.753   -7.244   -7.864   -8.642   -9.683  -11.094  -12.900  -14.876  -16.623  -17.774  -18.143  -17.807  -16.977  -15.947  -15.053  -14.707
 -12.905  -12.780  -12.772  -12.791  -12.807  -12.807  -12.781  -12.720  -12.605  -12.399  -12.043  -11.527  -10.861  -10.103   -9.279   -8.408   -7.526   -6.659   -5.873   -5.190   -4.673   -4.337   -4.190   -4.158   -4.179   -4.190   -4.203   -4.259   -4.386   -4.570   -4.783   -4.960   -5.036   -4.969   -4.738   -4.399   -4.031   -3.742   -3.572   -3.507   -3.513   -3.556   -3.661   -3.836   -4.076   -4.348   -4.579   -4.707   -4.680   -4.544   -4.364   -4.259   -4.267   -4.374   -4.511   -4.586   -4.568   -4.468   -4.302   -4.071   -3.762   -3.410   -3.097   -2.887   -2.822   -2.866   -2.966   -3.105   -3.310   -3.600   -3.964   -4.349   -4.672   -4.918   -5.137   -5.407   -5.725   -6.029   -6.218   -6.270   -6.253   -6.299   -6.533   -6.972   -7.560   -8.224   -8.943   -9.776  -10.845  -12.307  -14.171  -16.271  -18.216  -19.631  -20.305  -20.226  -19.555  -18.560  -17.625  -17.212
 -13.227  -13.079  -13.039  -13.010  -12.990  -12.955  -12.905  -12.843  -12.735  -12.554  -12.238  -11.781  -11.193  -10.523   -9.787   -8.994   -8.143   -7.283   -6.464   -5.739   -5.178   -4.828   -4.698   -4.722   -4.815   -4.945   -5.131   -5.410   -5.773   -6.184   -6.536   -6.738   -6.746   -6.529   -6.090   -5.511   -4.921   -4.435   -4.095   -3.876   -3.718   -3.606   -3.551   -3.566   -3.676   -3.851   -4.038   -4.162   -4.149   -4.005   -3.811   -3.678   -3.676   -3.808   -3.981   -4.095   -4.098   -4.006   -3.857   -3.668   -3.455   -3.269   -3.175   -3.200   -3.312   -3.415   -3.472   -3.511   -3.591   -3.792   -4.102   -4.454   -4.794   -5.116   -5.448   -5.815   -6.188   -6.484   -6.637   -6.678   -6.726   -6.900   -7.315   -7.920   -8.628   -9.351  -10.075  -10.888  -11.936  -13.388  -15.267  -17.422  -19.486  -21.104  -22.047  -22.270  -21.877  -21.100  -20.303  -19.914
 -13.366  -13.209  -13.149  -13.113  -13.078  -13.045  -13.014  -12.965  -12.877  -12.717  -12.431  -12.005  -11.452  -10.799  -10.064   -9.263   -8.385   -7.486   -6.615   -5.851   -5.279   -4.955   -4.876   -4.983   -5.225   -5.557   -6.000   -6.573   -7.237   -7.888   -8.367   -8.572   -8.467   -8.067   -7.438   -6.689   -5.970   -5.378   -4.939   -4.604   -4.337   -4.111   -3.927   -3.814   -3.778   -3.823   -3.900   -3.941   -3.867   -3.654   -3.364   -3.137   -3.059   -3.150   -3.333   -3.502   -3.607   -3.642   -3.630   -3.595   -3.562   -3.589   -3.730   -3.965   -4.200   -4.322   -4.276   -4.153   -4.080   -4.156   -4.372   -4.665   -4.982   -5.327   -5.730   -6.189   -6.639   -7.017   -7.275   -7.465   -7.690   -8.042   -8.574   -9.220   -9.885  -10.512  -11.118  -11.829  -12.816  -14.225  -16.080  -18.211  -20.311  -22.026  -23.148  -23.634  -23.580  -23.174  -22.687  -22.422
 -13.418  -13.244  -13.191  -13.147  -13.119  -13.106  -13.092  -13.076  -13.015  -12.892  -12.639  -12.245  -11.699  -11.037  -10.250   -9.361   -8.386   -7.390   -6.440   -5.629   -5.043   -4.745   -4.741   -4.989   -5.422   -6.014   -6.754   -7.628   -8.554   -9.369   -9.901  -10.059   -9.816   -9.252   -8.486   -7.665   -6.931   -6.338   -5.849   -5.439   -5.077   -4.775   -4.537   -4.354   -4.235   -4.184   -4.163   -4.105   -3.919   -3.586   -3.169   -2.808   -2.620   -2.641   -2.806   -3.043   -3.276   -3.485   -3.664   -3.817   -3.986   -4.222   -4.542   -4.906   -5.199   -5.284   -5.141   -4.916   -4.773   -4.817   -5.014   -5.268   -5.540   -5.839   -6.235   -6.730   -7.259   -7.769   -8.224   -8.643   -9.076   -9.573  -10.134  -10.702  -11.210  -11.633  -12.067  -12.641  -13.540  -14.870  -16.644  -18.705  -20.753  -22.474  -23.674  -24.338  -24.564  -24.511  -24.352  -24.239
 -13.412  -13.242  -13.186  -13.144  -13.122  -13.122  -13.131  -13.139  -13.109  -13.016  -12.817  -12.471  -11.960  -11.285  -10.446   -9.448   -8.352   -7.228   -6.177   -5.308   -4.704   -4.428   -4.491   -4.870   -5.501   -6.339   -7.341   -8.432   -9.500  -10.365  -10.881  -10.953  -10.603   -9.939   -9.137   -8.358   -7.698   -7.132   -6.605   -6.097   -5.636   -5.275   -5.038   -4.879   -4.768   -4.702   -4.630   -4.497   -4.221   -3.784   -3.265   -2.799   -2.520   -2.474   -2.619   -2.895   -3.221   -3.567   -3.898   -4.214   -4.551   -4.931   -5.359   -5.778   -6.073   -6.134   -5.996   -5.835   -5.833   -6.029   -6.336   -6.619   -6.858   -7.081   -7.411   -7.871   -8.436   -9.050   -9.654  -10.236  -10.788  -11.326  -11.835  -12.272  -12.588  -12.819  -13.074  -13.517  -14.305  -15.507  -17.134  -19.046  -20.982  -22.652  -23.867  -24.620  -25.012  -25.174  -25.220  -25.223
 -13.393  -13.217  -13.154  -13.117  -13.096  -13.096  -13.113  -13.127  -13.124  -13.064  -12.921  -12.650  -12.199  -11.551  -10.695   -9.636   -8.432   -7.202   -6.061   -5.120   -4.480   -4.200   -4.288   -4.738   -5.486   -6.476   -7.623   -8.811   -9.907  -10.751  -11.213  -11.219  -10.816  -10.145   -9.407   -8.748   -8.191   -7.670   -7.085   -6.470   -5.922   -5.540   -5.344   -5.266   -5.247   -5.228   -5.175   -5.014   -4.684   -4.180   -3.591   -3.067   -2.731   -2.628   -2.751   -3.038   -3.417   -3.845   -4.264   -4.693   -5.158   -5.657   -6.177   -6.647   -6.975   -7.100   -7.118   -7.205   -7.525   -8.024   -8.530   -8.900   -9.126   -9.298   -9.560   -9.963  -10.491  -11.094  -11.712  -12.291  -12.817  -13.277  -13.672  -13.961  -14.130  -14.218  -14.354  -14.689  -15.342  -16.363  -17.766  -19.454  -21.210  -22.784  -23.986  -24.772  -25.228  -25.461  -25.569  -25.629
 -13.366  -13.186  -13.122  -13.079  -13.055  -13.052  -13.062  -13.074  -13.075  -13.042  -12.948  -12.754  -12.393  -11.816  -11.005   -9.952   -8.733   -7.456   -6.269   -5.279   -4.588   -4.238   -4.265   -4.645   -5.352   -6.322   -7.456   -8.636   -9.717  -10.548  -10.988  -10.980  -10.588   -9.979   -9.354   -8.842   -8.399   -7.918   -7.311   -6.654   -6.091   -5.760   -5.661   -5.711   -5.805   -5.857   -5.822   -5.632   -5.245   -4.673   -4.029   -3.456   -3.073   -2.928   -3.017   -3.308   -3.715   -4.191   -4.703   -5.267   -5.893   -6.567   -7.254   -7.874   -8.343   -8.654   -8.946   -9.381  -10.047  -10.815  -11.491  -11.934  -12.158  -12.323  -12.547  -12.889  -13.322  -13.809  -14.292  -14.741  -15.126  -15.439  -15.697  -15.865  -15.939  -15.955  -16.027  -16.273  -16.784  -17.594  -18.732  -20.127  -21.639  -23.047  -24.180  -24.968  -25.437  -25.671  -25.773  -25.839
 -13.331  -13.147  -13.093  -13.053  -13.031  -13.018  -13.017  -13.014  -13.014  -12.987  -12.932  -12.796  -12.530  -12.072  -11.373  -10.426   -9.280   -8.059   -6.883   -5.871   -5.114   -4.641   -4.483   -4.656   -5.139   -5.913   -6.915   -8.029   -9.112   -9.983  -10.475  -10.505  -10.150   -9.593   -9.062   -8.655   -8.316   -7.917   -7.389   -6.832   -6.403   -6.222   -6.288   -6.478   -6.659   -6.750   -6.684   -6.408   -5.909   -5.223   -4.478   -3.814   -3.351   -3.148   -3.218   -3.528   -4.009   -4.606   -5.293   -6.090   -7.000   -7.984   -8.963   -9.855  -10.578  -11.150  -11.712  -12.396  -13.242  -14.113  -14.812  -15.253  -15.485  -15.651  -15.861  -16.150  -16.472  -16.799  -17.109  -17.377  -17.585  -17.747  -17.874  -17.962  -17.986  -17.986  -18.023  -18.202  -18.580  -19.195  -20.069  -21.155  -22.359  -23.524  -24.513  -25.253  -25.724  -25.970  -26.075  -26.145
 -13.314  -13.129  -13.077  -13.039  -13.020  -13.010  -12.995  -12.979  -12.966  -12.942  -12.904  -12.823  -12.644  -12.319  -11.777  -11.010  -10.038   -8.959   -7.862   -6.871   -6.032   -5.407   -5.013   -4.879   -5.025   -5.489   -6.280   -7.308   -8.413   -9.374   -9.962  -10.060   -9.730   -9.185   -8.671   -8.307   -8.058   -7.793   -7.472   -7.159   -6.996   -7.069   -7.327   -7.645   -7.885   -7.948   -7.794   -7.381   -6.709   -5.846   -4.924   -4.106   -3.522   -3.246   -3.322   -3.713   -4.365   -5.212   -6.235   -7.424   -8.749  -10.131  -11.483  -12.684  -13.660  -14.438  -15.131  -15.858  -16.650  -17.411  -18.000  -18.365  -18.576  -18.740  -18.944  -19.186  -19.427  -19.628  -19.792  -19.896  -19.955  -19.991  -20.029  -20.073  -20.091  -20.090  -20.116  -20.234  -20.506  -20.962  -21.608  -22.410  -23.289  -24.164  -24.947  -25.594  -26.065  -26.353  -26.505  -26.594
 -13.316  -13.128  -13.069  -13.043  -13.024  -13.011  -12.991  -12.963  -12.947  -12.922  -12.900  -12.849  -12.751  -12.541  -12.178  -11.625  -10.881   -9.997   -9.043   -8.104   -7.242   -6.506   -5.899   -5.462   -5.260   -5.388   -5.924   -6.830   -7.947   -8.997   -9.676   -9.831   -9.517   -8.948   -8.406   -8.047   -7.870   -7.778   -7.709   -7.709   -7.856   -8.177   -8.607   -9.021   -9.280   -9.307   -9.049   -8.497   -7.661   -6.603   -5.460   -4.440   -3.698   -3.354   -3.474   -4.049   -4.997   -6.254   -7.738   -9.399  -11.164  -12.927  -14.571  -15.970  -17.068  -17.899  -18.550  -19.146  -19.730  -20.264  -20.675  -20.929  -21.095  -21.246  -21.429  -21.636  -21.827  -21.962  -22.024  -22.025  -21.984  -21.940  -21.930  -21.949  -21.976  -21.990  -22.008  -22.080  -22.258  -22.590  -23.067  -23.638  -24.238  -24.819  -25.375  -25.901  -26.361  -26.716  -26.949  -27.074
 -13.322  -13.135  -13.084  -13.052  -13.031  -13.013  -12.995  -12.967  -12.950  -12.924  -12.912  -12.892  -12.844  -12.739  -12.523  -12.168  -11.654  -10.984  -10.217   -9.401   -8.592   -7.813   -7.093   -6.452   -5.976   -5.811   -6.088   -6.837   -7.891   -8.951   -9.690   -9.903   -9.620   -9.057   -8.512   -8.167   -8.050   -8.106   -8.253   -8.503   -8.875   -9.355   -9.868  -10.305  -10.565  -10.567  -10.271   -9.657   -8.718   -7.513   -6.181   -4.942   -4.027   -3.629   -3.856   -4.690   -6.042   -7.769   -9.746  -11.852  -13.958  -15.949  -17.692  -19.105  -20.150  -20.877  -21.375  -21.767  -22.112  -22.424  -22.672  -22.838  -22.955  -23.075  -23.224  -23.397  -23.552  -23.656  -23.677  -23.617  -23.519  -23.434  -23.398  -23.417  -23.456  -23.474  -23.480  -23.511  -23.619  -23.850  -24.201  -24.606  -24.986  -25.327  -25.671  -26.067  -26.507  -26.916  -27.229  -27.397
 -13.332  -13.141  -13.091  -13.064  -13.050  -13.026  -13.008  -12.986  -12.965  -12.948  -12.942  -12.934  -12.922  -12.882  -12.771  -12.568  -12.243  -11.786  -11.223  -10.578   -9.902   -9.199   -8.473   -7.748   -7.118   -6.741   -6.787   -7.337   -8.250   -9.244   -9.975  -10.242  -10.040   -9.572   -9.098   -8.811   -8.750   -8.878   -9.137   -9.495   -9.936  -10.433  -10.922  -11.315  -11.543  -11.542  -11.261  -10.677   -9.748   -8.494   -7.045   -5.633   -4.567   -4.139   -4.502   -5.627   -7.380   -9.547  -11.927  -14.351  -16.645  -18.675  -20.338  -21.601  -22.467  -23.009  -23.329  -23.539  -23.705  -23.868  -24.012  -24.123  -24.204  -24.295  -24.405  -24.550  -24.682  -24.760  -24.751  -24.661  -24.531  -24.436  -24.401  -24.425  -24.461  -24.471  -24.449  -24.439  -24.492  -24.647  -24.907  -25.198  -25.426  -25.594  -25.775  -26.053  -26.450  -26.883  -27.241  -27.454
 -13.359  -13.166  -13.114  -13.085  -13.065  -13.052  -13.032  -13.014  -12.995  -12.983  -12.976  -12.972  -12.974  -12.965  -12.917  -12.811  -12.626  -12.351  -11.983  -11.543  -11.040  -10.473   -9.837   -9.148   -8.480   -7.991   -7.872   -8.212   -8.921   -9.774  -10.458  -10.775  -10.702  -10.388  -10.048   -9.846   -9.831   -9.975  -10.228  -10.558  -10.940  -11.339  -11.714  -12.014  -12.185  -12.191  -11.963  -11.454  -10.603   -9.388   -7.910   -6.401   -5.238   -4.781   -5.257   -6.636   -8.709  -11.204  -13.869  -16.474  -18.822  -20.774  -22.263  -23.290  -23.935  -24.292  -24.470  -24.564  -24.637  -24.722  -24.822  -24.903  -24.975  -25.048  -25.134  -25.244  -25.342  -25.384  -25.353  -25.250  -25.121  -25.033  -25.008  -25.035  -25.055  -25.033  -24.974  -24.921  -24.927  -25.038  -25.234  -25.436  -25.573  -25.639  -25.709  -25.895  -26.225  -26.637  -27.003  -27.230
 -13.383  -13.186  -13.135  -13.110  -13.088  -13.074  -13.058  -13.046  -13.032  -13.015  -13.007  -13.003  -13.004  -12.999  -12.980  -12.929  -12.842  -12.703  -12.502  -12.235  -11.907  -11.492  -10.997  -10.420   -9.818   -9.329   -9.116   -9.278   -9.774  -10.440  -11.034  -11.373  -11.423  -11.280  -11.095  -10.984  -10.992  -11.098  -11.276  -11.502  -11.764  -12.027  -12.267  -12.457  -12.567  -12.555  -12.370  -11.938  -11.182  -10.054   -8.599   -7.055   -5.825   -5.346   -5.876   -7.410   -9.691  -12.402  -15.243  -17.958  -20.320  -22.171  -23.475  -24.295  -24.749  -24.959  -25.048  -25.090  -25.125  -25.185  -25.261  -25.331  -25.399  -25.463  -25.531  -25.606  -25.659  -25.670  -25.623  -25.525  -25.420  -25.354  -25.342  -25.361  -25.349  -25.288  -25.188  -25.097  -25.078  -25.156  -25.306  -25.450  -25.532  -25.551  -25.569  -25.693  -25.951  -26.300  -26.628  -26.849
 -13.413  -13.212  -13.156  -13.123  -13.101  -13.098  -13.087  -13.075  -13.055  -13.038  -13.030  -13.023  -13.016  -13.010  -13.001  -12.983  -12.947  -12.892  -12.804  -12.668  -12.471  -12.203  -11.848  -11.419  -10.954  -10.547  -10.315  -10.354  -10.665  -11.139  -11.613  -11.941  -12.070  -12.052  -11.977  -11.930  -11.936  -11.989  -12.082  -12.201  -12.340  -12.486  -12.608  -12.702  -12.748  -12.704  -12.516  -12.118  -11.413  -10.343   -8.933   -7.382   -6.114   -5.593   -6.126   -7.710  -10.102  -12.955  -15.946  -18.765  -21.169  -22.984  -24.174  -24.848  -25.165  -25.289  -25.330  -25.353  -25.378  -25.425  -25.482  -25.539  -25.588  -25.633  -25.675  -25.710  -25.734  -25.725  -25.679  -25.612  -25.539  -25.495  -25.492  -25.503  -25.470  -25.387  -25.264  -25.165  -25.131  -25.184  -25.280  -25.374  -25.425  -25.436  -25.450  -25.543  -25.728  -25.999  -26.256  -26.448
 -13.444  -13.233  -13.168  -13.132  -13.110  -13.103  -13.093  -13.085  -13.067  -13.046  -13.033  -13.026  -13.025  -13.019  -13.009  -12.997  -12.985  -12.969  -12.943  -12.879  -12.774  -12.614  -12.388  -12.112  -11.803  -11.514  -11.326  -11.305  -11.471  -11.791  -12.137  -12.410  -12.557  -12.593  -12.578  -12.555  -12.544  -12.556  -12.586  -12.627  -12.684  -12.738  -12.786  -12.806  -12.779  -12.668  -12.420  -11.964  -11.235  -10.157   -8.759   -7.219   -5.935   -5.384   -5.877   -7.447   -9.883  -12.853  -16.014  -19.010  -21.534  -23.388  -24.546  -25.149  -25.395  -25.467  -25.486  -25.501  -25.529  -25.563  -25.594  -25.613  -25.622  -25.632  -25.641  -25.649  -25.650  -25.642  -25.621  -25.589  -25.554  -25.532  -25.535  -25.538  -25.509  -25.437  -25.340  -25.260  -25.228  -25.246  -25.291  -25.335  -25.362  -25.372  -25.404  -25.477  -25.614  -25.804  -25.989  -26.150
 -13.438  -13.226  -13.168  -13.134  -13.110  -13.093  -13.081  -13.071  -13.058  -13.039  -13.022  -13.019  -13.019  -13.021  -13.002  -12.984  -12.977  -12.971  -12.962  -12.939  -12.885  -12.790  -12.674  -12.526  -12.360  -12.188  -12.062  -12.032  -12.118  -12.312  -12.547  -12.747  -12.868  -12.909  -12.908  -12.885  -12.864  -12.844  -12.838  -12.834  -12.846  -12.846  -12.835  -12.793  -12.677  -12.447  -12.060  -11.461  -10.601   -9.443   -8.022   -6.522   -5.286   -4.733   -5.171   -6.695   -9.146  -12.230  -15.599  -18.829  -21.554  -23.527  -24.724  -25.308  -25.520  -25.561  -25.570  -25.588  -25.614  -25.636  -25.637  -25.616  -25.586  -25.554  -25.532  -25.525  -25.518  -25.522  -25.525  -25.529  -25.526  -25.513  -25.508  -25.509  -25.506  -25.485  -25.459  -25.428  -25.410  -25.407  -25.400  -25.395  -25.387  -25.396  -25.430  -25.496  -25.597  -25.726  -25.859  -25.988
 -13.415  -13.199  -13.142  -13.107  -13.084  -13.075  -13.070  -13.060  -13.046  -13.023  -13.010  -13.004  -13.002  -12.994  -12.978  -12.953  -12.932  -12.923  -12.924  -12.915  -12.888  -12.847  -12.801  -12.734  -12.668  -12.589  -12.523  -12.502  -12.550  -12.663  -12.805  -12.934  -13.021  -13.044  -13.036  -13.008  -12.979  -12.952  -12.927  -12.909  -12.893  -12.862  -12.795  -12.660  -12.424  -12.022  -11.423  -10.589   -9.527   -8.255   -6.835   -5.424   -4.311   -3.827   -4.252   -5.707   -8.134  -11.313  -14.888  -18.377  -21.335  -23.470  -24.753  -25.352  -25.540  -25.559  -25.557  -25.580  -25.613  -25.632  -25.615  -25.573  -25.518  -25.471  -25.446  -25.435  -25.433  -25.442  -25.457  -25.474  -25.476  -25.463  -25.451  -25.446  -25.466  -25.508  -25.558  -25.595  -25.620  -25.614  -25.582  -25.539  -25.502  -25.491  -25.512  -25.561  -25.625  -25.715  -25.813  -25.922
 -13.398  -13.178  -13.121  -13.093  -13.078  -13.068  -13.060  -13.056  -13.039  -13.018  -12.996  -12.983  -12.975  -12.964  -12.939  -12.910  -12.884  -12.877  -12.875  -12.883  -12.879  -12.873  -12.857  -12.834  -12.810  -12.775  -12.743  -12.735  -12.772  -12.835  -12.913  -12.996  -13.045  -13.050  -13.037  -13.010  -12.983  -12.958  -12.941  -12.920  -12.879  -12.804  -12.662  -12.401  -11.983  -11.355  -10.488   -9.399   -8.130   -6.769   -5.422   -4.192   -3.298   -2.961   -3.403   -4.792   -7.156  -10.383  -14.104  -17.805  -20.969  -23.262  -24.633  -25.263  -25.439  -25.441  -25.431  -25.462  -25.508  -25.526  -25.510  -25.462  -25.421  -25.399  -25.401  -25.406  -25.407  -25.408  -25.406  -25.415  -25.415  -25.396  -25.371  -25.357  -25.389  -25.457  -25.559  -25.661  -25.737  -25.760  -25.742  -25.701  -25.652  -25.622  -25.614  -25.628  -25.659  -25.710  -25.783  -25.873
 -13.433  -13.211  -13.161  -13.141  -13.125  -13.119  -13.115  -13.112  -13.099  -13.069  -13.039  -13.012  -12.997  -12.972  -12.945  -12.918  -12.901  -12.905  -12.915  -12.934  -12.945  -12.949  -12.940  -12.923  -12.890  -12.859  -12.827  -12.813  -12.831  -12.867  -12.914  -12.964  -12.989  -12.990  -12.979  -12.962  -12.947  -12.932  -12.922  -12.891  -12.816  -12.670  -12.405  -11.971  -11.312  -10.416   -9.281   -7.972   -6.589   -5.258   -4.081   -3.134   -2.523   -2.380   -2.873   -4.206   -6.494   -9.683  -13.458  -17.273  -20.558  -22.959  -24.400  -25.061  -25.240  -25.229  -25.212  -25.241  -25.287  -25.309  -25.291  -25.267  -25.258  -25.282  -25.326  -25.359  -25.362  -25.342  -25.316  -25.306  -25.302  -25.279  -25.252  -25.222  -25.235  -25.301  -25.416  -25.539  -25.651  -25.727  -25.757  -25.755  -25.732  -25.704  -25.675  -25.651  -25.637  -25.647  -25.685  -25.755
 -13.664  -13.433  -13.389  -13.362  -13.355  -13.339  -13.337  -13.333  -13.320  -13.288  -13.250  -13.212  -13.186  -13.160  -13.136  -13.118  -13.126  -13.138  -13.172  -13.199  -13.220  -13.216  -13.194  -13.142  -13.065  -12.988  -12.913  -12.858  -12.835  -12.847  -12.878  -12.908  -12.926  -12.929  -12.923  -12.917  -12.915  -12.911  -12.893  -12.833  -12.692  -12.423  -11.979  -11.315  -10.391   -9.221   -7.877   -6.468   -5.123   -3.973   -3.082   -2.477   -2.171   -2.226   -2.790   -4.070   -6.263   -9.366  -13.081  -16.876  -20.175  -22.602  -24.077  -24.758  -24.939  -24.915  -24.882  -24.893  -24.923  -24.935  -24.919  -24.916  -24.937  -25.000  -25.080  -25.135  -25.139  -25.107  -25.062  -25.037  -25.032  -25.025  -25.003  -24.968  -24.955  -24.987  -25.066  -25.173  -25.290  -25.401  -25.489  -25.544  -25.576  -25.578  -25.552  -25.505  -25.456  -25.419  -25.421  -25.479
 -14.263  -14.030  -13.974  -13.941  -13.926  -13.907  -13.893  -13.884  -13.870  -13.840  -13.805  -13.771  -13.735  -13.718  -13.709  -13.710  -13.727  -13.757  -13.797  -13.834  -13.852  -13.835  -13.775  -13.653  -13.484  -13.296  -13.116  -12.975  -12.889  -12.862  -12.863  -12.883  -12.899  -12.909  -12.911  -12.908  -12.911  -12.906  -12.855  -12.723  -12.455  -12.010  -11.340  -10.410   -9.223   -7.857   -6.422   -5.057   -3.910   -3.072   -2.563   -2.332   -2.330   -2.575   -3.201   -4.437   -6.502   -9.441  -12.983  -16.613  -19.791  -22.145  -23.587  -24.266  -24.446  -24.411  -24.353  -24.329  -24.325  -24.315  -24.297  -24.297  -24.335  -24.408  -24.488  -24.542  -24.549  -24.514  -24.476  -24.459  -24.466  -24.480  -24.473  -24.441  -24.408  -24.396  -24.417  -24.479  -24.570  -24.681  -24.801  -24.904  -24.985  -25.032  -25.034  -24.995  -24.932  -24.876  -24.857  -24.901
 -15.391  -15.147  -15.079  -15.035  -15.001  -14.968  -14.952  -14.939  -14.928  -14.902  -14.881  -14.854  -14.835  -14.826  -14.820  -14.835  -14.858  -14.895  -14.934  -14.968  -14.974  -14.933  -14.811  -14.577  -14.258  -13.887  -13.522  -13.229  -13.031  -12.936  -12.909  -12.914  -12.928  -12.938  -12.944  -12.939  -12.938  -12.897  -12.789  -12.541  -12.101  -11.426  -10.493   -9.312   -7.946   -6.498   -5.108   -3.927   -3.082   -2.619   -2.514   -2.670   -2.983   -3.431   -4.128   -5.304   -7.188   -9.849  -13.063  -16.364  -19.265  -21.426  -22.757  -23.381  -23.547  -23.513  -23.442  -23.384  -23.343  -23.312  -23.285  -23.280  -23.311  -23.357  -23.408  -23.444  -23.450  -23.428  -23.402  -23.404  -23.437  -23.466  -23.475  -23.449  -23.401  -23.355  -23.333  -23.341  -23.390  -23.481  -23.592  -23.709  -23.818  -23.900  -23.941  -23.932  -23.885  -23.843  -23.828  -23.884
 -17.067  -16.823  -16.744  -16.682  -16.626  -16.591  -16.567  -16.556  -16.552  -16.543  -16.533  -16.522  -16.514  -16.507  -16.506  -16.521  -16.539  -16.573  -16.606  -16.629  -16.621  -16.535  -16.324  -15.941  -15.402  -14.764  -14.128  -13.607  -13.249  -13.056  -12.977  -12.962  -12.971  -12.980  -12.984  -12.976  -12.958  -12.884  -12.695  -12.313  -11.666  -10.738   -9.564   -8.204   -6.767   -5.381   -4.165   -3.244   -2.707   -2.582   -2.841   -3.357   -3.990   -4.669   -5.469   -6.572   -8.205  -10.459  -13.174  -15.978  -18.444  -20.283  -21.418  -21.947  -22.086  -22.052  -21.988  -21.931  -21.876  -21.828  -21.793  -21.779  -21.784  -21.799  -21.813  -21.827  -21.828  -21.814  -21.811  -21.824  -21.858  -21.894  -21.905  -21.885  -21.837  -21.779  -21.734  -21.718  -21.732  -21.792  -21.872  -21.969  -22.076  -22.168  -22.231  -22.254  -22.248  -22.238  -22.250  -22.346
 -19.099  -18.879  -18.792  -18.725  -18.670  -18.630  -18.611  -18.608  -18.618  -18.625  -18.621  -18.612  -18.604  -18.594  -18.591  -18.598  -18.615  -18.638  -18.662  -18.669  -18.633  -18.496  -18.173  -17.604  -16.790  -15.819  -14.851  -14.046  -13.484  -13.167  -13.032  -12.994  -12.989  -12.992  -12.992  -12.983  -12.959  -12.859  -12.596  -12.081  -11.257  -10.123   -8.771   -7.338   -5.964   -4.746   -3.776   -3.109   -2.798   -2.906   -3.415   -4.213   -5.143   -6.065   -6.967   -7.980   -9.310  -11.075  -13.181  -15.367  -17.292  -18.727  -19.599  -19.994  -20.093  -20.072  -20.035  -20.002  -19.966  -19.920  -19.884  -19.862  -19.849  -19.845  -19.836  -19.837  -19.827  -19.820  -19.821  -19.834  -19.858  -19.877  -19.879  -19.861  -19.820  -19.771  -19.735  -19.720  -19.728  -19.762  -19.813  -19.879  -19.949  -20.020  -20.080  -20.118  -20.140  -20.172  -20.223  -20.367
 -21.190  -21.003  -20.923  -20.858  -20.813  -20.787  -20.775  -20.777  -20.793  -20.805  -20.804  -20.792  -20.773  -20.751  -20.742  -20.751  -20.764  -20.784  -20.798  -20.793  -20.731  -20.529  -20.085  -19.316  -18.218  -16.906  -15.587  -14.472  -13.691  -13.242  -13.044  -12.982  -12.969  -12.966  -12.971  -12.967  -12.935  -12.816  -12.513  -11.928  -10.998   -9.761   -8.363   -6.976   -5.764   -4.773   -4.034   -3.551   -3.369   -3.573   -4.194   -5.147   -6.277   -7.370   -8.345   -9.252  -10.273  -11.538  -13.033  -14.588  -15.956  -16.963  -17.556  -17.798  -17.852  -17.845  -17.846  -17.861  -17.866  -17.851  -17.828  -17.806  -17.790  -17.782  -17.774  -17.773  -17.759  -17.748  -17.740  -17.742  -17.741  -17.737  -17.719  -17.695  -17.667  -17.642  -17.631  -17.632  -17.649  -17.679  -17.708  -17.741  -17.770  -17.799  -17.830  -17.862  -17.900  -17.953  -18.028  -18.227
 -23.032  -22.873  -22.800  -22.751  -22.717  -22.704  -22.695  -22.704  -22.715  -22.723  -22.719  -22.694  -22.663  -22.634  -22.622  -22.627  -22.641  -22.663  -22.682  -22.664  -22.577  -22.316  -21.761  -20.818  -19.471  -17.856  -16.222  -14.835  -13.853  -13.288  -13.032  -12.953  -12.937  -12.938  -12.948  -12.953  -12.924  -12.804  -12.494  -11.894  -10.974   -9.786   -8.489   -7.267   -6.256   -5.480   -4.915   -4.552   -4.430   -4.636   -5.230   -6.185   -7.347   -8.488   -9.455  -10.242  -10.989  -11.830  -12.805  -13.818  -14.698  -15.322  -15.663  -15.779  -15.788  -15.780  -15.823  -15.884  -15.942  -15.972  -15.973  -15.960  -15.955  -15.958  -15.959  -15.959  -15.949  -15.932  -15.917  -15.907  -15.887  -15.854  -15.821  -15.788  -15.769  -15.766  -15.773  -15.796  -15.829  -15.856  -15.874  -15.877  -15.867  -15.858  -15.861  -15.880  -15.916  -15.969  -16.049  -16.283
 -24.424  -24.276  -24.208  -24.170  -24.149  -24.138  -24.137  -24.139  -24.146  -24.140  -24.125  -24.089  -24.050  -24.013  -23.995  -24.001  -24.018  -24.049  -24.070  -24.050  -23.943  -23.641  -23.005  -21.928  -20.401  -18.559  -16.689  -15.100  -13.970  -13.318  -13.024  -12.937  -12.935  -12.952  -12.969  -12.973  -12.945  -12.834  -12.555  -12.018  -11.212  -10.196   -9.117   -8.124   -7.319   -6.714   -6.278   -6.001   -5.905   -6.071   -6.570   -7.401   -8.440   -9.485  -10.356  -11.001  -11.528  -12.064  -12.653  -13.258  -13.767  -14.102  -14.246  -14.263  -14.235  -14.234  -14.291  -14.384  -14.476  -14.541  -14.571  -14.572  -14.572  -14.586  -14.597  -14.605  -14.598  -14.583  -14.570  -14.557  -14.535  -14.493  -14.450  -14.411  -14.398  -14.401  -14.418  -14.457  -14.491  -14.518  -14.522  -14.494  -14.459  -14.431  -14.421  -14.432  -14.458  -14.505  -14.581  -14.830
 -25.320  -25.169  -25.111  -25.075  -25.051  -25.041  -25.033  -25.033  -25.026  -25.013  -24.984  -24.944  -24.896  -24.855  -24.828  -24.833  -24.849  -24.888  -24.913  -24.898  -24.781  -24.456  -23.776  -22.614  -20.972  -18.995  -16.983  -15.258  -14.038  -13.335  -13.039  -12.975  -12.991  -13.023  -13.048  -13.055  -13.029  -12.922  -12.684  -12.256  -11.631  -10.866  -10.057   -9.307   -8.682   -8.200   -7.860   -7.655   -7.603   -7.747   -8.134   -8.778   -9.596  -10.436  -11.133  -11.630  -11.991  -12.316  -12.663  -13.000  -13.262  -13.415  -13.440  -13.403  -13.354  -13.339  -13.370  -13.450  -13.540  -13.620  -13.667  -13.683  -13.690  -13.709  -13.725  -13.736  -13.724  -13.721  -13.718  -13.726  -13.718  -13.687  -13.642  -13.599  -13.576  -13.575  -13.601  -13.643  -13.684  -13.702  -13.682  -13.644  -13.593  -13.569  -13.564  -13.579  -13.608  -13.649  -13.719  -13.961
 -25.817  -25.662  -25.600  -25.555  -25.528  -25.515  -25.502  -25.491  -25.478  -25.461  -25.427  -25.378  -25.324  -25.280  -25.250  -25.244  -25.260  -25.294  -25.322  -25.316  -25.202  -24.867  -24.165  -22.965  -21.266  -19.217  -17.132  -15.342  -14.072  -13.349  -13.064  -13.037  -13.090  -13.143  -13.172  -13.166  -13.129  -13.026  -12.832  -12.522  -12.103  -11.603  -11.061  -10.528  -10.047   -9.656   -9.381   -9.250   -9.254   -9.410   -9.714  -10.168  -10.730  -11.315  -11.804  -12.146  -12.387  -12.592  -12.797  -12.991  -13.128  -13.193  -13.178  -13.117  -13.048  -12.996  -12.972  -12.992  -13.042  -13.109  -13.157  -13.180  -13.203  -13.224  -13.239  -13.240  -13.236  -13.241  -13.266  -13.292  -13.299  -13.281  -13.235  -13.187  -13.156  -13.157  -13.196  -13.252  -13.298  -13.310  -13.275  -13.224  -13.172  -13.160  -13.178  -13.212  -13.253  -13.302  -13.363  -13.591
 -26.055  -25.885  -25.821  -25.771  -25.743  -25.723  -25.707  -25.694  -25.681  -25.661  -25.627  -25.577  -25.527  -25.477  -25.437  -25.423  -25.433  -25.461  -25.493  -25.488  -25.376  -25.044  -24.331  -23.118  -21.392  -19.314  -17.196  -15.369  -14.074  -13.349  -13.082  -13.084  -13.171  -13.248  -13.280  -13.258  -13.191  -13.083  -12.925  -12.726  -12.490  -12.224  -11.908  -11.557  -11.188  -10.869  -10.647  -10.566  -10.630  -10.803  -11.053  -11.364  -11.705  -12.039  -12.314  -12.518  -12.666  -12.809  -12.961  -13.103  -13.209  -13.255  -13.246  -13.196  -13.108  -13.008  -12.917  -12.857  -12.846  -12.874  -12.903  -12.929  -12.963  -12.991  -13.008  -13.002  -12.987  -12.994  -13.031  -13.076  -13.096  -13.094  -13.055  -12.997  -12.960  -12.965  -13.023  -13.107  -13.168  -13.188  -13.147  -13.085  -13.031  -13.026  -13.057  -13.121  -13.184  -13.245  -13.305  -13.520
 -26.165  -25.978  -25.908  -25.861  -25.832  -25.813  -25.799  -25.797  -25.786  -25.767  -25.742  -25.701  -25.656  -25.606  -25.562  -25.533  -25.534  -25.554  -25.579  -25.574  -25.465  -25.129  -24.412  -23.191  -21.454  -19.365  -17.229  -15.389  -14.076  -13.342  -13.075  -13.084  -13.189  -13.274  -13.293  -13.247  -13.152  -13.031  -12.903  -12.796  -12.718  -12.632  -12.495  -12.286  -12.020  -11.770  -11.596  -11.550  -11.639  -11.826  -12.055  -12.278  -12.457  -12.591  -12.683  -12.761  -12.840  -12.949  -13.076  -13.207  -13.312  -13.374  -13.393  -13.365  -13.280  -13.153  -13.014  -12.896  -12.826  -12.797  -12.793  -12.810  -12.845  -12.880  -12.894  -12.881  -12.858  -12.855  -12.894  -12.946  -12.985  -12.990  -12.956  -12.904  -12.873  -12.889  -12.963  -13.074  -13.156  -13.181  -13.139  -13.063  -13.004  -12.994  -13.034  -13.114  -13.195  -13.262  -13.328  -13.542
 -26.223  -26.020  -25.940  -25.903  -25.879  -25.867  -25.862  -25.865  -25.865  -25.861  -25.847  -25.824  -25.787  -25.745  -25.698  -25.657  -25.640  -25.648  -25.661  -25.643  -25.530  -25.191  -24.472  -23.246  -21.503  -19.411  -17.270  -15.421  -14.093  -13.340  -13.049  -13.034  -13.113  -13.179  -13.176  -13.110  -13.002  -12.881  -12.787  -12.752  -12.782  -12.828  -12.825  -12.733  -12.572  -12.397  -12.272  -12.249  -12.345  -12.527  -12.744  -12.924  -13.005  -13.008  -12.965  -12.932  -12.940  -12.997  -13.098  -13.205  -13.306  -13.383  -13.433  -13.434  -13.380  -13.271  -13.140  -13.003  -12.888  -12.794  -12.736  -12.721  -12.749  -12.787  -12.808  -12.793  -12.765  -12.765  -12.803  -12.870  -12.924  -12.942  -12.919  -12.877  -12.849  -12.873  -12.951  -13.068  -13.153  -13.178  -13.133  -13.048  -12.974  -12.952  -12.988  -13.058  -13.137  -13.211  -13.280  -13.502
 -26.256  -26.036  -25.963  -25.931  -25.912  -25.906  -25.909  -25.920  -25.930  -25.945  -25.952  -25.950  -25.925  -25.888  -25.840  -25.785  -25.749  -25.726  -25.720  -25.695  -25.577  -25.235  -24.514  -23.281  -21.537  -19.447  -17.314  -15.462  -14.127  -13.349  -13.010  -12.937  -12.964  -12.987  -12.962  -12.894  -12.800  -12.709  -12.657  -12.676  -12.769  -12.881  -12.955  -12.956  -12.888  -12.799  -12.728  -12.727  -12.818  -12.988  -13.184  -13.327  -13.368  -13.295  -13.162  -13.040  -12.968  -12.966  -13.011  -13.074  -13.150  -13.232  -13.304  -13.347  -13.345  -13.300  -13.210  -13.086  -12.944  -12.796  -12.677  -12.611  -12.620  -12.657  -12.682  -12.691  -12.690  -12.724  -12.789  -12.872  -12.936  -12.962  -12.940  -12.904  -12.875  -12.888  -12.946  -13.035  -13.103  -13.111  -13.063  -12.975  -12.894  -12.859  -12.871  -12.923  -12.986  -13.043  -13.109  -13.344
 -26.302  -26.061  -25.989  -25.952  -25.935  -25.935  -25.937  -25.950  -25.967  -25.999  -26.026  -26.036  -26.024  -25.993  -25.935  -25.866  -25.804  -25.761  -25.737  -25.701  -25.577  -25.233  -24.510  -23.279  -21.539  -19.450  -17.325  -15.491  -14.164  -13.365  -12.979  -12.841  -12.806  -12.792  -12.753  -12.712  -12.661  -12.631  -12.619  -12.660  -12.761  -12.880  -12.980  -13.031  -13.034  -13.010  -12.986  -13.011  -13.091  -13.229  -13.396  -13.511  -13.524  -13.416  -13.233  -13.052  -12.925  -12.871  -12.859  -12.881  -12.926  -12.999  -13.084  -13.165  -13.214  -13.226  -13.186  -13.084  -12.939  -12.763  -12.600  -12.505  -12.488  -12.519  -12.564  -12.598  -12.648  -12.742  -12.856  -12.960  -13.021  -13.038  -13.000  -12.946  -12.896  -12.881  -12.908  -12.957  -12.990  -12.985  -12.938  -12.864  -12.793  -12.760  -12.755  -12.781  -12.805  -12.836  -12.881  -13.132
 -26.394  -26.130  -26.044  -26.001  -25.980  -25.971  -25.966  -25.971  -25.980  -26.013  -26.040  -26.062  -26.059  -26.021  -25.958  -25.884  -25.809  -25.759  -25.728  -25.684  -25.554  -25.209  -24.488  -23.254  -21.517  -19.434  -17.326  -15.515  -14.201  -13.394  -12.980  -12.799  -12.719  -12.677  -12.655  -12.653  -12.681  -12.707  -12.730  -12.765  -12.831  -12.917  -12.992  -13.044  -13.069  -13.078  -13.088  -13.118  -13.179  -13.285  -13.402  -13.475  -13.460  -13.339  -13.143  -12.951  -12.817  -12.740  -12.710  -12.711  -12.736  -12.808  -12.904  -12.999  -13.074  -13.110  -13.086  -13.000  -12.864  -12.701  -12.560  -12.470  -12.454  -12.480  -12.520  -12.568  -12.656  -12.790  -12.950  -13.063  -13.115  -13.101  -13.034  -12.950  -12.876  -12.827  -12.824  -12.842  -12.855  -12.854  -12.835  -12.805  -12.771  -12.772  -12.776  -12.779  -12.770  -12.763  -12.791  -13.047
 -26.603  -26.310  -26.209  -26.159  -26.124  -26.099  -26.078  -26.065  -26.056  -26.069  -26.083  -26.100  -26.098  -26.069  -26.012  -25.941  -25.874  -25.830  -25.803  -25.758  -25.626  -25.275  -24.544  -23.308  -21.567  -19.495  -17.400  -15.607  -14.301  -13.483  -13.049  -12.839  -12.742  -12.696  -12.707  -12.768  -12.868  -12.954  -13.011  -13.036  -13.054  -13.075  -13.086  -13.086  -13.083  -13.082  -13.088  -13.112  -13.157  -13.212  -13.263  -13.273  -13.213  -13.086  -12.909  -12.751  -12.654  -12.606  -12.598  -12.603  -12.634  -12.717  -12.816  -12.912  -12.982  -12.995  -12.960  -12.877  -12.779  -12.683  -12.614  -12.581  -12.578  -12.584  -12.578  -12.598  -12.677  -12.821  -12.983  -13.099  -13.134  -13.092  -13.008  -12.910  -12.807  -12.739  -12.712  -12.729  -12.769  -12.825  -12.886  -12.950  -13.013  -13.093  -13.154  -13.175  -13.150  -13.118  -13.138  -13.393
 -27.060  -26.738  -26.624  -26.561  -26.513  -26.471  -26.430  -26.395  -26.360  -26.346  -26.344  -26.344  -26.338  -26.313  -26.270  -26.221  -26.181  -26.161  -26.149  -26.112  -25.977  -25.614  -24.871  -23.624  -21.876  -19.803  -17.708  -15.911  -14.584  -13.735  -13.255  -13.007  -12.886  -12.856  -12.910  -13.044  -13.228  -13.396  -13.502  -13.537  -13.509  -13.440  -13.344  -13.242  -13.151  -13.099  -13.090  -13.109  -13.123  -13.116  -13.079  -13.006  -12.898  -12.760  -12.620  -12.520  -12.489  -12.502  -12.530  -12.559  -12.608  -12.697  -12.803  -12.895  -12.942  -12.934  -12.875  -12.800  -12.754  -12.750  -12.784  -12.823  -12.835  -12.792  -12.712  -12.658  -12.691  -12.810  -12.951  -13.046  -13.063  -13.025  -12.946  -12.849  -12.749  -12.677  -12.658  -12.707  -12.828  -13.000  -13.220  -13.469  -13.741  -14.005  -14.217  -14.330  -14.343  -14.319  -14.322  -14.585
 -27.916  -27.569  -27.447  -27.376  -27.317  -27.267  -27.214  -27.158  -27.104  -27.058  -27.037  -27.024  -27.012  -26.990  -26.957  -26.932  -26.924  -26.929  -26.940  -26.913  -26.775  -26.401  -25.646  -24.387  -22.635  -20.551  -18.426  -16.573  -15.168  -14.225  -13.652  -13.334  -13.178  -13.157  -13.273  -13.513  -13.818  -14.104  -14.300  -14.367  -14.291  -14.099  -13.838  -13.557  -13.333  -13.199  -13.155  -13.159  -13.145  -13.069  -12.939  -12.788  -12.634  -12.495  -12.390  -12.352  -12.390  -12.466  -12.534  -12.582  -12.633  -12.715  -12.818  -12.899  -12.934  -12.920  -12.864  -12.814  -12.832  -12.910  -13.023  -13.111  -13.110  -13.020  -12.863  -12.738  -12.716  -12.781  -12.885  -12.952  -12.953  -12.916  -12.858  -12.790  -12.726  -12.688  -12.715  -12.834  -13.076  -13.435  -13.931  -14.532  -15.189  -15.828  -16.348  -16.665  -16.791  -16.804  -16.807  -17.045
 -29.270  -28.908  -28.789  -28.717  -28.660  -28.608  -28.546  -28.475  -28.408  -28.349  -28.309  -28.284  -28.262  -28.235  -28.215  -28.197  -28.206  -28.235  -28.258  -28.239  -28.104  -27.730  -26.978  -25.716  -23.955  -21.846  -19.661  -17.699  -16.136  -15.020  -14.280  -13.826  -13.604  -13.598  -13.811  -14.210  -14.704  -15.174  -15.496  -15.593  -15.434  -15.060  -14.560  -14.047  -13.637  -13.388  -13.288  -13.271  -13.232  -13.104  -12.906  -12.686  -12.512  -12.381  -12.313  -12.319  -12.415  -12.538  -12.638  -12.684  -12.707  -12.751  -12.817  -12.887  -12.932  -12.936  -12.923  -12.916  -12.973  -13.103  -13.246  -13.344  -13.329  -13.198  -13.005  -12.840  -12.770  -12.787  -12.835  -12.854  -12.832  -12.794  -12.764  -12.743  -12.742  -12.762  -12.858  -13.071  -13.473  -14.109  -15.033  -16.202  -17.505  -18.757  -19.763  -20.423  -20.735  -20.824  -20.837  -21.020
 -31.128  -30.762  -30.646  -30.579  -30.528  -30.474  -30.399  -30.322  -30.243  -30.174  -30.124  -30.088  -30.055  -30.024  -29.995  -29.977  -29.985  -30.013  -30.039  -30.029  -29.902  -29.541  -28.799  -27.548  -25.778  -23.630  -21.349  -19.220  -17.438  -16.073  -15.100  -14.470  -14.156  -14.171  -14.517  -15.144  -15.896  -16.597  -17.061  -17.165  -16.867  -16.230  -15.414  -14.611  -13.984  -13.595  -13.432  -13.390  -13.340  -13.185  -12.942  -12.699  -12.519  -12.421  -12.395  -12.438  -12.559  -12.694  -12.790  -12.817  -12.790  -12.778  -12.802  -12.856  -12.926  -12.973  -13.000  -13.032  -13.100  -13.227  -13.357  -13.443  -13.415  -13.287  -13.110  -12.956  -12.861  -12.836  -12.827  -12.786  -12.731  -12.680  -12.681  -12.710  -12.768  -12.854  -13.020  -13.339  -13.930  -14.929  -16.431  -18.390  -20.572  -22.656  -24.318  -25.421  -25.991  -26.179  -26.208  -26.301
 -33.386  -33.025  -32.917  -32.859  -32.802  -32.725  -32.620  -32.506  -32.391  -32.305  -32.246  -32.203  -32.167  -32.127  -32.085  -32.055  -32.051  -32.060  -32.079  -32.069  -31.952  -31.606  -30.878  -29.637  -27.860  -25.658  -23.259  -20.935  -18.900  -17.248  -16.009  -15.176  -14.763  -14.809  -15.325  -16.224  -17.278  -18.223  -18.824  -18.900  -18.407  -17.453  -16.268  -15.137  -14.265  -13.735  -13.501  -13.433  -13.379  -13.222  -12.977  -12.736  -12.588  -12.543  -12.571  -12.642  -12.754  -12.864  -12.930  -12.917  -12.846  -12.785  -12.771  -12.824  -12.908  -12.987  -13.041  -13.080  -13.136  -13.219  -13.311  -13.367  -13.344  -13.255  -13.139  -13.033  -12.952  -12.896  -12.843  -12.764  -12.690  -12.645  -12.663  -12.734  -12.827  -12.946  -13.146  -13.543  -14.330  -15.745  -17.937  -20.817  -24.013  -27.026  -29.418  -31.006  -31.856  -32.179  -32.234  -32.219
 -36.056  -35.698  -35.602  -35.532  -35.436  -35.278  -35.052  -34.807  -34.589  -34.435  -34.345  -34.297  -34.259  -34.215  -34.164  -34.115  -34.092  -34.086  -34.089  -34.068  -33.951  -33.610  -32.892  -31.652  -29.855  -27.593  -25.074  -22.559  -20.270  -18.347  -16.857  -15.835  -15.335  -15.435  -16.135  -17.301  -18.642  -19.808  -20.506  -20.533  -19.834  -18.556  -17.006  -15.533  -14.404  -13.715  -13.403  -13.324  -13.276  -13.145  -12.933  -12.741  -12.659  -12.692  -12.778  -12.865  -12.934  -12.982  -12.995  -12.951  -12.860  -12.779  -12.750  -12.793  -12.878  -12.961  -13.011  -13.027  -13.048  -13.083  -13.130  -13.160  -13.150  -13.116  -13.075  -13.037  -13.001  -12.953  -12.890  -12.813  -12.753  -12.741  -12.791  -12.863  -12.945  -13.040  -13.214  -13.637  -14.595  -16.425  -19.315  -23.120  -27.312  -31.213  -34.285  -36.331  -37.454  -37.922  -38.019  -37.894
 -39.518  -39.175  -39.091  -38.987  -38.745  -38.329  -37.772  -37.178  -36.676  -36.335  -36.148  -36.063  -36.021  -35.978  -35.922  -35.867  -35.829  -35.809  -35.797  -35.765  -35.638  -35.291  -34.564  -33.309  -31.480  -29.152  -26.520  -23.835  -21.333  -19.187  -17.503  -16.348  -15.812  -15.988  -16.867  -18.262  -19.818  -21.137  -21.885  -21.838  -20.963  -19.415  -17.545  -15.762  -14.387  -13.538  -13.156  -13.074  -13.066  -12.986  -12.838  -12.719  -12.721  -12.829  -12.955  -13.027  -13.042  -13.025  -12.987  -12.938  -12.865  -12.791  -12.754  -12.777  -12.841  -12.903  -12.931  -12.922  -12.905  -12.902  -12.914  -12.932  -12.937  -12.947  -12.968  -12.995  -13.013  -12.997  -12.958  -12.914  -12.903  -12.944  -13.023  -13.090  -13.121  -13.133  -13.222  -13.636  -14.725  -16.908  -20.418  -25.019  -30.041  -34.673  -38.304  -40.731  -42.079  -42.668  -42.808  -42.585
 -44.721  -44.437  -44.378  -44.142  -43.534  -42.510  -41.190  -39.829  -38.694  -37.939  -37.530  -37.353  -37.283  -37.236  -37.188  -37.138  -37.100  -37.076  -37.059  -37.015  -36.870  -36.504  -35.752  -34.467  -32.590  -30.188  -27.453  -24.627  -21.973  -19.678  -17.894  -16.700  -16.211  -16.503  -17.532  -19.077  -20.746  -22.117  -22.846  -22.721  -21.706  -19.968  -17.869  -15.857  -14.284  -13.309  -12.891  -12.829  -12.885  -12.874  -12.792  -12.738  -12.791  -12.924  -13.042  -13.080  -13.044  -12.991  -12.954  -12.928  -12.884  -12.824  -12.777  -12.771  -12.814  -12.857  -12.873  -12.851  -12.813  -12.789  -12.789  -12.810  -12.835  -12.871  -12.919  -12.977  -13.009  -13.010  -12.997  -13.011  -13.076  -13.180  -13.284  -13.326  -13.283  -13.199  -13.207  -13.590  -14.773  -17.236  -21.210  -26.401  -32.022  -37.170  -41.195  -43.885  -45.389  -46.056  -46.218  -45.929
 -53.017  -52.869  -52.779  -52.194  -50.817  -48.616  -45.883  -43.126  -40.860  -39.348  -38.528  -38.180  -38.056  -38.002  -37.961  -37.927  -37.897  -37.882  -37.863  -37.814  -37.654  -37.262  -36.472  -35.139  -33.195  -30.713  -27.878  -24.943  -22.193  -19.846  -18.070  -16.970  -16.631  -17.074  -18.226  -19.827  -21.487  -22.795  -23.430  -23.200  -22.076  -20.227  -18.012  -15.868  -14.182  -13.145  -12.728  -12.717  -12.839  -12.893  -12.855  -12.817  -12.862  -12.961  -13.031  -13.026  -12.979  -12.932  -12.920  -12.918  -12.892  -12.838  -12.783  -12.767  -12.807  -12.867  -12.898  -12.874  -12.822  -12.794  -12.807  -12.851  -12.900  -12.937  -12.972  -12.988  -12.976  -12.960  -12.972  -13.057  -13.202  -13.369  -13.485  -13.496  -13.391  -13.241  -13.199  -13.569  -14.825  -17.472  -21.735  -27.278  -33.252  -38.700  -42.951  -45.782  -47.359  -48.052  -48.212  -47.886
 -65.280  -65.326  -65.004  -63.688  -61.002  -56.976  -52.123  -47.293  -43.340  -40.704  -39.284  -38.676  -38.468  -38.402  -38.372  -38.351  -38.336  -38.329  -38.316  -38.264  -38.090  -37.672  -36.836  -35.437  -33.412  -30.836  -27.902  -24.889  -22.099  -19.794  -18.160  -17.280  -17.188  -17.834  -19.072  -20.633  -22.168  -23.310  -23.785  -23.425  -22.212  -20.311  -18.055  -15.884  -14.168  -13.119  -12.723  -12.747  -12.915  -12.998  -12.966  -12.911  -12.916  -12.963  -12.980  -12.955  -12.914  -12.878  -12.874  -12.873  -12.844  -12.778  -12.721  -12.733  -12.810  -12.918  -12.979  -12.968  -12.909  -12.883  -12.919  -12.991  -13.056  -13.082  -13.063  -12.990  -12.894  -12.836  -12.870  -13.016  -13.236  -13.447  -13.568  -13.555  -13.423  -13.252  -13.209  -13.606  -14.913  -17.648  -22.039  -27.720  -33.820  -39.368  -43.688  -46.551  -48.129  -48.804  -48.943  -48.604
 -80.783  -80.984  -80.084  -77.572  -73.099  -66.796  -59.377  -52.048  -46.055  -42.062  -39.921  -39.003  -38.692  -38.608  -38.581  -38.567  -38.557  -38.547  -38.536  -38.483  -38.306  -37.865  -36.988  -35.518  -33.395  -30.710  -27.689  -24.634  -21.879  -19.711  -18.321  -17.756  -17.970  -18.817  -20.096  -21.544  -22.876  -23.794  -24.078  -23.588  -22.309  -20.395  -18.161  -16.008  -14.301  -13.248  -12.832  -12.839  -12.982  -13.059  -13.028  -12.964  -12.950  -12.975  -12.986  -12.963  -12.915  -12.868  -12.824  -12.782  -12.719  -12.637  -12.590  -12.636  -12.771  -12.934  -13.034  -13.035  -12.980  -12.952  -12.989  -13.076  -13.153  -13.168  -13.103  -12.957  -12.788  -12.689  -12.725  -12.903  -13.154  -13.371  -13.483  -13.469  -13.345  -13.209  -13.213  -13.656  -14.997  -17.746  -22.103  -27.724  -33.764  -39.246  -43.501  -46.307  -47.834  -48.469  -48.585  -48.246
 -97.138  -97.340  -95.540  -91.481  -84.967  -76.277  -66.310  -56.544  -48.577  -43.287  -40.464  -39.262  -38.855  -38.749  -38.719  -38.699  -38.671  -38.647  -38.621  -38.568  -38.403  -37.962  -37.054  -35.517  -33.299  -30.510  -27.420  -24.376  -21.735  -19.784  -18.695  -18.476  -18.977  -19.967  -21.210  -22.490  -23.581  -24.274  -24.388  -23.807  -22.511  -20.624  -18.432  -16.309  -14.599  -13.505  -13.007  -12.908  -12.966  -13.002  -12.975  -12.956  -12.987  -13.054  -13.100  -13.084  -12.995  -12.879  -12.768  -12.673  -12.578  -12.484  -12.439  -12.499  -12.667  -12.866  -12.996  -12.999  -12.937  -12.890  -12.912  -12.998  -13.093  -13.135  -13.077  -12.918  -12.724  -12.589  -12.596  -12.745  -12.961  -13.148  -13.243  -13.231  -13.156  -13.085  -13.166  -13.663  -15.006  -17.668  -21.856  -27.254  -33.047  -38.310  -42.387  -45.063  -46.505  -47.091  -47.192  -46.881
-111.932 -111.872 -108.965 -103.117  -94.437  -83.488  -71.351  -59.687  -50.290  -44.117  -40.848  -39.466  -39.004  -38.885  -38.852  -38.811  -38.758  -38.706  -38.670  -38.632  -38.498  -38.083  -37.162  -35.561  -33.248  -30.372  -27.252  -24.280  -21.820  -20.153  -19.381  -19.458  -20.147  -21.179  -22.309  -23.362  -24.193  -24.669  -24.652  -24.027  -22.762  -20.939  -18.810  -16.717  -15.000  -13.832  -13.197  -12.933  -12.853  -12.834  -12.842  -12.908  -13.042  -13.190  -13.268  -13.217  -13.062  -12.881  -12.725  -12.616  -12.520  -12.419  -12.367  -12.414  -12.564  -12.751  -12.867  -12.861  -12.777  -12.704  -12.707  -12.798  -12.934  -13.046  -13.065  -12.956  -12.770  -12.611  -12.551  -12.610  -12.732  -12.851  -12.912  -12.915  -12.890  -12.900  -13.056  -13.589  -14.874  -17.345  -21.211  -26.205  -31.578  -36.467  -40.250  -42.731  -44.060  -44.596  -44.684  -44.425
-123.968 -123.203 -118.818 -110.889 -100.006  -87.065  -73.333  -60.613  -50.679  -44.301  -40.975  -39.586  -39.135  -39.033  -39.015  -38.982  -38.926  -38.877  -38.866  -38.883  -38.820  -38.448  -37.507  -35.816  -33.375  -30.409  -27.289  -24.448  -22.232  -20.861  -20.376  -20.656  -21.423  -22.395  -23.341  -24.127  -24.679  -24.917  -24.755  -24.092  -22.870  -21.133  -19.085  -17.043  -15.321  -14.090  -13.328  -12.916  -12.721  -12.664  -12.720  -12.882  -13.113  -13.307  -13.370  -13.263  -13.056  -12.866  -12.762  -12.725  -12.675  -12.580  -12.497  -12.489  -12.575  -12.701  -12.767  -12.725  -12.611  -12.522  -12.522  -12.639  -12.843  -13.053  -13.166  -13.116  -12.941  -12.741  -12.606  -12.566  -12.589  -12.629  -12.641  -12.649  -12.656  -12.721  -12.915  -13.424  -14.569  -16.732  -20.119  -24.510  -29.271  -33.617  -36.990  -39.201  -40.380  -40.851  -40.935  -40.752
-132.221 -130.215 -123.876 -113.778 -100.956  -86.463  -71.842  -59.061  -49.599  -43.755  -40.782  -39.575  -39.235  -39.239  -39.340  -39.430  -39.487  -39.553  -39.676  -39.843  -39.897  -39.551  -38.502  -36.582  -33.884  -30.729  -27.574  -24.869  -22.921  -21.842  -21.592  -21.981  -22.738  -23.590  -24.329  -24.850  -25.106  -25.072  -24.711  -23.950  -22.733  -21.063  -19.105  -17.137  -15.441  -14.185  -13.372  -12.888  -12.646  -12.596  -12.714  -12.952  -13.217  -13.390  -13.381  -13.204  -13.000  -12.905  -12.963  -13.070  -13.111  -13.042  -12.927  -12.851  -12.848  -12.881  -12.866  -12.770  -12.636  -12.548  -12.572  -12.715  -12.953  -13.217  -13.372  -13.340  -13.160  -12.928  -12.749  -12.652  -12.614  -12.597  -12.578  -12.557  -12.557  -12.616  -12.776  -13.199  -14.125  -15.879  -18.634  -22.240  -26.173  -29.799  -32.627  -34.484  -35.465  -35.841  -35.907  -35.826
-134.754 -131.470 -123.353 -111.645  -97.442  -81.969  -67.307  -55.483  -47.366  -42.620  -40.304  -39.451  -39.386  -39.714  -40.207  -40.724  -41.213  -41.688  -42.187  -42.644  -42.830  -42.367  -40.925  -38.416  -35.096  -31.482  -28.142  -25.499  -23.766  -22.933  -22.852  -23.288  -23.983  -24.705  -25.271  -25.569  -25.564  -25.252  -24.652  -23.738  -22.471  -20.845  -18.968  -17.081  -15.436  -14.201  -13.396  -12.944  -12.753  -12.777  -12.955  -13.214  -13.438  -13.516  -13.401  -13.184  -13.044  -13.126  -13.403  -13.702  -13.853  -13.817  -13.677  -13.535  -13.446  -13.383  -13.291  -13.157  -13.027  -12.958  -12.991  -13.112  -13.299  -13.494  -13.593  -13.535  -13.351  -13.135  -12.967  -12.878  -12.834  -12.798  -12.753  -12.699  -12.668  -12.666  -12.750  -13.029  -13.678  -14.948  -16.967  -19.635  -22.570  -25.298  -27.441  -28.832  -29.545  -29.787  -29.803  -29.837
-130.348 -126.478 -117.644 -105.209  -90.246  -74.594  -60.906  -50.889  -44.596  -41.156  -39.621  -39.296  -39.799  -40.904  -42.381  -43.996  -45.570  -47.019  -48.277  -49.172  -49.349  -48.356  -45.902  -42.088  -37.476  -32.885  -29.024  -26.268  -24.642  -23.971  -23.985  -24.408  -25.018  -25.613  -26.043  -26.195  -26.017  -25.511  -24.719  -23.671  -22.352  -20.754  -18.954  -17.148  -15.558  -14.369  -13.631  -13.279  -13.212  -13.340  -13.562  -13.780  -13.899  -13.848  -13.639  -13.410  -13.376  -13.656  -14.149  -14.620  -14.870  -14.872  -14.720  -14.545  -14.391  -14.265  -14.132  -14.005  -13.896  -13.837  -13.821  -13.834  -13.869  -13.905  -13.893  -13.807  -13.653  -13.502  -13.398  -13.356  -13.335  -13.302  -13.253  -13.169  -13.092  -13.031  -13.020  -13.146  -13.525  -14.291  -15.530  -17.173  -18.998  -20.688  -22.001  -22.824  -23.192  -23.246  -23.184  -23.301
-120.518 -116.674 -107.987  -95.483  -80.609  -65.961  -54.225  -46.401  -41.876  -39.584  -38.784  -39.183  -40.745  -43.424  -46.911  -50.712  -54.357  -57.509  -59.913  -61.226  -60.994  -58.759  -54.376  -48.257  -41.412  -35.098  -30.240  -27.104  -25.447  -24.838  -24.869  -25.231  -25.715  -26.171  -26.486  -26.559  -26.327  -25.779  -24.954  -23.884  -22.573  -21.028  -19.317  -17.603  -16.097  -14.994  -14.357  -14.140  -14.209  -14.414  -14.631  -14.750  -14.731  -14.555  -14.280  -14.080  -14.155  -14.583  -15.228  -15.810  -16.138  -16.191  -16.071  -15.902  -15.743  -15.610  -15.492  -15.404  -15.326  -15.246  -15.143  -14.998  -14.850  -14.732  -14.635  -14.555  -14.477  -14.409  -14.372  -14.360  -14.360  -14.338  -14.287  -14.197  -14.082  -13.972  -13.904  -13.919  -14.059  -14.369  -14.862  -15.496  -16.173  -16.756  -17.151  -17.308  -17.245  -17.041  -16.854  -17.020
-108.012 -104.139  -95.857  -84.010  -70.495  -58.039  -48.707  -42.820  -39.537  -37.968  -37.761  -39.117  -42.430  -47.762  -54.522  -61.673  -68.218  -73.484  -77.033  -78.448  -77.272  -73.136  -66.059  -56.773  -46.809  -38.027  -31.682  -27.915  -26.098  -25.478  -25.474  -25.731  -26.061  -26.352  -26.545  -26.582  -26.404  -25.987  -25.311  -24.372  -23.174  -21.737  -20.148  -18.569  -17.209  -16.244  -15.741  -15.645  -15.803  -16.020  -16.162  -16.157  -16.002  -15.733  -15.449  -15.297  -15.451  -15.955  -16.671  -17.322  -17.729  -17.864  -17.831  -17.729  -17.630  -17.544  -17.489  -17.462  -17.427  -17.325  -17.137  -16.888  -16.641  -16.450  -16.352  -16.314  -16.303  -16.293  -16.279  -16.265  -16.262  -16.249  -16.203  -16.109  -15.974  -15.848  -15.763  -15.720  -15.690  -15.614  -15.447  -15.163  -14.759  -14.266  -13.720  -13.142  -12.559  -12.031  -11.663  -11.819
 -95.192  -91.305  -83.957  -73.840  -62.744  -52.821  -45.411  -40.586  -37.700  -36.274  -36.461  -39.029  -44.825  -53.850  -64.810  -75.773  -85.168  -92.152  -96.336  -97.424  -95.041  -88.859  -78.970  -66.291  -52.820  -41.162  -33.064  -28.547  -26.534  -25.886  -25.838  -25.991  -26.162  -26.284  -26.357  -26.376  -26.307  -26.097  -25.682  -24.983  -23.987  -22.733  -21.333  -19.961  -18.818  -18.034  -17.668  -17.659  -17.829  -17.994  -18.025  -17.900  -17.652  -17.348  -17.088  -16.997  -17.206  -17.763  -18.529  -19.260  -19.781  -20.055  -20.164  -20.186  -20.184  -20.191  -20.220  -20.259  -20.259  -20.164  -19.974  -19.724  -19.501  -19.350  -19.305  -19.323  -19.346  -19.341  -19.311  -19.277  -19.263  -19.267  -19.234  -19.135  -18.989  -18.857  -18.776  -18.703  -18.545  -18.167  -17.470  -16.429  -15.123  -13.688  -12.247  -10.917   -9.757   -8.848   -8.256   -8.357
 -86.342  -82.965  -77.192  -69.261  -60.362  -51.956  -45.077  -39.987  -36.482  -34.550  -34.869  -38.812  -47.594  -60.797  -75.947  -90.119 -101.531 -109.529 -113.938 -114.549 -110.946 -102.841  -90.478  -74.821  -58.115  -43.718  -33.983  -28.834  -26.715  -26.091  -26.036  -26.118  -26.165  -26.154  -26.124  -26.118  -26.133  -26.112  -25.937  -25.498  -24.749  -23.742  -22.599  -21.492  -20.591  -20.002  -19.746  -19.758  -19.882  -19.965  -19.908  -19.710  -19.437  -19.157  -18.963  -18.954  -19.246  -19.884  -20.754  -21.638  -22.348  -22.825  -23.112  -23.280  -23.388  -23.476  -23.564  -23.649  -23.690  -23.637  -23.509  -23.354  -23.238  -23.196  -23.217  -23.270  -23.301  -23.278  -23.223  -23.189  -23.202  -23.247  -23.233  -23.136  -22.976  -22.833  -22.740  -22.638  -22.375  -21.776  -20.705  -19.139  -17.185  -15.023  -12.856  -10.846   -9.131   -7.813   -6.990   -7.006
 -86.250  -83.772  -79.295  -72.668  -64.498  -55.853  -47.827  -41.121  -36.039  -33.004  -33.152  -38.377  -50.101  -67.098  -85.503 -101.830 -114.676 -123.639 -128.402 -128.471 -123.323 -113.100  -98.584  -80.650  -61.456  -44.980  -34.134  -28.701  -26.651  -26.141  -26.135  -26.190  -26.175  -26.090  -25.992  -25.954  -25.991  -26.047  -26.007  -25.755  -25.236  -24.493  -23.636  -22.808  -22.135  -21.700  -21.503  -21.492  -21.545  -21.556  -21.450  -21.247  -21.004  -20.804  -20.711  -20.826  -21.264  -22.070  -23.141  -24.276  -25.250  -25.960  -26.430  -26.718  -26.899  -27.030  -27.142  -27.234  -27.287  -27.287  -27.243  -27.201  -27.204  -27.264  -27.347  -27.430  -27.469  -27.451  -27.415  -27.420  -27.502  -27.604  -27.626  -27.531  -27.360  -27.201  -27.088  -26.951  -26.612  -25.878  -24.606  -22.777  -20.487  -17.920  -15.285  -12.804  -10.660   -9.027   -8.013   -7.948
 -93.775  -92.126  -88.106  -81.566  -72.817  -62.737  -52.576  -43.502  -36.327  -31.852  -31.553  -37.665  -51.570  -71.164  -91.507 -109.131 -123.258 -133.388 -138.523 -137.706 -130.627 -118.316 -102.166  -82.765  -62.093  -44.595  -33.460  -28.202  -26.434  -26.120  -26.194  -26.261  -26.227  -26.121  -25.996  -25.928  -25.929  -25.967  -25.947  -25.780  -25.427  -24.908  -24.306  -23.720  -23.234  -22.896  -22.717  -22.660  -22.644  -22.602  -22.486  -22.321  -22.151  -22.046  -22.075  -22.342  -22.981  -24.034  -25.388  -26.820  -28.080  -29.023  -29.640  -30.008  -30.218  -30.348  -30.442  -30.513  -30.560  -30.577  -30.591  -30.629  -30.706  -30.826  -30.954  -31.061  -31.126  -31.148  -31.171  -31.249  -31.404  -31.566  -31.632  -31.560  -31.396  -31.239  -31.116  -30.957  -30.582  -29.816  -28.530  -26.698  -24.393  -21.783  -19.053  -16.419  -14.099  -12.319  -11.206  -11.065
-103.228 -102.064  -97.915  -90.814  -81.045  -69.403  -57.207  -45.965  -36.910  -31.143  -30.272  -36.584  -51.291  -71.814  -92.781 -110.820 -125.414 -135.859 -140.731 -138.984 -130.725 -117.530 -100.755  -80.771  -59.818  -42.616  -32.134  -27.510  -26.175  -26.081  -26.239  -26.333  -26.308  -26.204  -26.086  -26.004  -25.963  -25.937  -25.878  -25.728  -25.466  -25.110  -24.699  -24.294  -23.940  -23.674  -23.502  -23.401  -23.334  -23.257  -23.149  -23.029  -22.928  -22.905  -23.049  -23.474  -24.313  -25.614  -27.251  -28.970  -30.484  -31.614  -32.343  -32.750  -32.957  -33.057  -33.117  -33.153  -33.177  -33.194  -33.224  -33.282  -33.379  -33.509  -33.643  -33.766  -33.862  -33.931  -34.012  -34.151  -34.357  -34.557  -34.655  -34.613  -34.484  -34.355  -34.254  -34.100  -33.754  -33.065  -31.932  -30.334  -28.332  -26.037  -23.595  -21.172  -18.990  -17.270  -16.175  -15.976
-110.240 -109.130 -104.527  -96.656  -85.945  -73.194  -59.738  -47.249  -37.178  -30.706  -29.328  -35.061  -48.909  -68.520  -88.833 -106.262 -119.906 -129.210 -133.182 -131.142 -123.314 -110.795  -94.369  -74.745  -54.899  -39.383  -30.427  -26.777  -25.936  -26.045  -26.274  -26.381  -26.366  -26.284  -26.187  -26.102  -26.035  -25.968  -25.875  -25.728  -25.521  -25.270  -24.997  -24.720  -24.472  -24.264  -24.108  -23.992  -23.896  -23.804  -23.709  -23.616  -23.560  -23.601  -23.821  -24.364  -25.355  -26.841  -28.684  -30.602  -32.293  -33.553  -34.356  -34.782  -34.974  -35.050  -35.076  -35.085  -35.086  -35.088  -35.106  -35.143  -35.214  -35.315  -35.431  -35.544  -35.646  -35.738  -35.847  -35.999  -36.203  -36.392  -36.494  -36.482  -36.399  -36.318  -36.255  -36.149  -35.891  -35.370  -34.533  -33.378  -31.960  -30.326  -28.533  -26.660  -24.862  -23.363  -22.357  -22.105
-112.355 -111.030 -105.970  -97.538  -86.277  -73.058  -59.304  -46.728  -36.719  -30.291  -28.583  -33.090  -44.631  -61.564  -79.856  -95.878 -108.041 -115.846 -118.960 -117.124 -110.341  -98.930  -83.410  -65.296  -48.048  -35.398  -28.558  -26.056  -25.693  -25.963  -26.224  -26.333  -26.325  -26.266  -26.194  -26.121  -26.056  -25.987  -25.896  -25.771  -25.616  -25.449  -25.281  -25.111  -24.955  -24.817  -24.698  -24.592  -24.499  -24.409  -24.321  -24.248  -24.217  -24.282  -24.543  -25.142  -26.205  -27.777  -29.713  -31.731  -33.516  -34.851  -35.698  -36.145  -36.338  -36.402  -36.411  -36.404  -36.389  -36.378  -36.374  -36.382  -36.411  -36.467  -36.543  -36.630  -36.712  -36.789  -36.879  -36.992  -37.140  -37.272  -37.346  -37.338  -37.294  -37.252  -37.231  -37.192  -37.067  -36.803  -36.405  -35.915  -35.373  -34.753  -33.949  -32.890  -31.640  -30.429  -29.523  -29.215
-109.382 -107.786 -102.483  -93.876  -82.554  -69.540  -56.380  -44.680  -35.554  -29.688  -27.778  -30.742  -39.151  -52.102  -66.946  -80.677  -91.346  -98.145 -100.799  -99.150  -93.085  -82.746  -68.952  -53.773  -40.357  -31.201  -26.646  -25.259  -25.310  -25.686  -25.955  -26.062  -26.067  -26.033  -25.988  -25.946  -25.904  -25.864  -25.809  -25.735  -25.647  -25.562  -25.485  -25.416  -25.348  -25.282  -25.213  -25.152  -25.083  -25.010  -24.945  -24.884  -24.867  -24.939  -25.201  -25.794  -26.857  -28.418  -30.352  -32.382  -34.195  -35.574  -36.468  -36.952  -37.173  -37.249  -37.261  -37.251  -37.231  -37.211  -37.188  -37.172  -37.165  -37.182  -37.220  -37.273  -37.326  -37.372  -37.416  -37.469  -37.532  -37.584  -37.605  -37.585  -37.551  -37.535  -37.546  -37.582  -37.630  -37.719  -37.938  -38.397  -39.118  -39.927  -40.480  -40.478  -39.886  -38.978  -38.140  -37.721
-103.130 -101.257  -95.902  -87.437  -76.522  -64.321  -52.357  -41.978  -33.975  -28.743  -26.613  -28.032  -33.283  -41.896  -52.361  -62.672  -71.145  -76.774  -79.034  -77.638  -72.506  -63.985  -53.178  -42.069  -32.941  -27.187  -24.668  -24.203  -24.557  -24.989  -25.262  -25.371  -25.397  -25.391  -25.389  -25.397  -25.418  -25.440  -25.452  -25.455  -25.452  -25.458  -25.471  -25.490  -25.505  -25.506  -25.506  -25.499  -25.483  -25.458  -25.428  -25.391  -25.373  -25.434  -25.666  -26.207  -27.197  -28.673  -30.540  -32.528  -34.345  -35.770  -36.731  -37.291  -37.576  -37.700  -37.734  -37.730  -37.709  -37.685  -37.654  -37.626  -37.602  -37.600  -37.611  -37.639  -37.666  -37.687  -37.697  -37.698  -37.698  -37.680  -37.652  -37.608  -37.570  -37.561  -37.604  -37.726  -37.995  -38.561  -39.639  -41.413  -43.847  -46.537  -48.809  -50.105  -50.307  -49.766  -49.004  -48.381
 -95.584  -93.528  -88.352  -80.390  -70.340  -59.333  -48.694  -39.490  -32.306  -27.404  -24.920  -25.002  -27.667  -32.577  -38.872  -45.363  -50.942  -54.803  -56.406  -55.416  -51.778  -45.895  -38.761  -31.834  -26.522  -23.503  -22.502  -22.668  -23.196  -23.651  -23.920  -24.043  -24.098  -24.137  -24.189  -24.266  -24.379  -24.505  -24.628  -24.744  -24.854  -24.973  -25.091  -25.196  -25.280  -25.352  -25.420  -25.494  -25.560  -25.612  -25.639  -25.632  -25.614  -25.641  -25.802  -26.247  -27.099  -28.438  -30.186  -32.110  -33.929  -35.420  -36.492  -37.179  -37.574  -37.776  -37.853  -37.869  -37.854  -37.827  -37.800  -37.777  -37.755  -37.749  -37.759  -37.775  -37.798  -37.817  -37.826  -37.813  -37.782  -37.738  -37.689  -37.643  -37.611  -37.611  -37.684  -37.910  -38.462  -39.626  -41.768  -45.140  -49.593  -54.406  -58.564  -61.302  -62.475  -62.499  -61.944  -61.048
 -88.346  -86.302  -81.558  -74.403  -65.467  -55.693  -46.138  -37.671  -30.822  -25.855  -22.876  -21.888  -22.749  -25.086  -28.322  -31.739  -34.695  -36.739  -37.536  -36.874  -34.722  -31.368  -27.447  -23.834  -21.283  -20.096  -20.022  -20.520  -21.115  -21.556  -21.823  -21.967  -22.054  -22.132  -22.238  -22.397  -22.623  -22.894  -23.175  -23.447  -23.715  -23.975  -24.212  -24.408  -24.568  -24.703  -24.854  -25.023  -25.198  -25.356  -25.459  -25.489  -25.466  -25.434  -25.494  -25.784  -26.463  -27.616  -29.207  -31.045  -32.867  -34.449  -35.671  -36.525  -37.071  -37.379  -37.522  -37.564  -37.562  -37.544  -37.529  -37.526  -37.534  -37.553  -37.586  -37.632  -37.690  -37.749  -37.798  -37.822  -37.820  -37.799  -37.771  -37.749  -37.741  -37.764  -37.874  -38.213  -39.055  -40.821  -44.018  -48.937  -55.270  -61.994  -67.842  -71.970  -74.241  -75.068  -74.947  -73.824
 -82.278  -80.398  -76.197  -69.923  -62.081  -53.390  -44.662  -36.624  -29.814  -24.579  -21.072  -19.272  -18.962  -19.758  -21.151  -22.640  -23.852  -24.575  -24.694  -24.153  -22.978  -21.336  -19.536  -18.009  -17.093  -16.907  -17.270  -17.866  -18.433  -18.850  -19.126  -19.298  -19.401  -19.477  -19.592  -19.811  -20.151  -20.576  -21.040  -21.502  -21.957  -22.382  -22.755  -23.050  -23.277  -23.477  -23.706  -23.977  -24.271  -24.540  -24.730  -24.806  -24.773  -24.671  -24.604  -24.720  -25.193  -26.133  -27.544  -29.267  -31.072  -32.736  -34.106  -35.135  -35.838  -36.260  -36.472  -36.550  -36.567  -36.570  -36.591  -36.636  -36.706  -36.793  -36.907  -37.044  -37.204  -37.373  -37.529  -37.656  -37.747  -37.799  -37.834  -37.859  -37.890  -37.942  -38.090  -38.512  -39.548  -41.722  -45.621  -51.565  -59.139  -67.146  -74.225  -79.526  -82.908  -84.702  -85.212  -84.054
 -77.346  -75.655  -71.956  -66.467  -59.584  -51.854  -43.890  -36.291  -29.581  -24.164  -20.259  -17.884  -16.828  -16.699  -17.043  -17.453  -17.682  -17.628  -17.287  -16.716  -15.985  -15.179  -14.445  -13.930  -13.774  -13.995  -14.465  -15.018  -15.534  -15.960  -16.276  -16.480  -16.554  -16.556  -16.600  -16.794  -17.188  -17.734  -18.359  -18.996  -19.627  -20.209  -20.703  -21.082  -21.363  -21.601  -21.881  -22.226  -22.613  -22.978  -23.255  -23.382  -23.354  -23.189  -23.004  -22.948  -23.215  -23.942  -25.154  -26.732  -28.470  -30.154  -31.611  -32.761  -33.570  -34.074  -34.340  -34.455  -34.500  -34.548  -34.634  -34.767  -34.941  -35.160  -35.433  -35.747  -36.110  -36.489  -36.859  -37.183  -37.442  -37.631  -37.764  -37.858  -37.932  -38.009  -38.169  -38.602  -39.657  -41.871  -45.855  -51.975  -59.848  -68.308  -76.021  -82.158  -86.543  -89.363  -90.660  -89.760
 -73.118  -71.563  -68.259  -63.417  -57.383  -50.587  -43.493  -36.578  -30.283  -24.996  -20.966  -18.255  -16.685  -15.925  -15.581  -15.332  -14.976  -14.457  -13.804  -13.082  -12.379  -11.783  -11.361  -11.161  -11.212  -11.481  -11.902  -12.399  -12.922  -13.426  -13.842  -14.081  -14.090  -13.928  -13.783  -13.838  -14.171  -14.739  -15.438  -16.176  -16.905  -17.573  -18.136  -18.550  -18.840  -19.078  -19.358  -19.718  -20.136  -20.556  -20.890  -21.071  -21.063  -20.867  -20.598  -20.413  -20.513  -21.051  -22.055  -23.449  -25.046  -26.640  -28.064  -29.210  -30.036  -30.553  -30.835  -30.973  -31.066  -31.183  -31.360  -31.615  -31.951  -32.372  -32.883  -33.486  -34.167  -34.883  -35.588  -36.220  -36.735  -37.125  -37.394  -37.573  -37.688  -37.783  -37.926  -38.287  -39.166  -41.042  -44.482  -49.889  -57.066  -65.077  -72.732  -79.233  -84.349  -88.087  -90.220  -89.840
 -69.311  -67.832  -64.826  -60.518  -55.249  -49.394  -43.298  -37.309  -31.761  -26.956  -23.114  -20.294  -18.377  -17.123  -16.236  -15.477  -14.695  -13.818  -12.869  -11.888  -10.967  -10.196   -9.657   -9.370   -9.336   -9.507   -9.836  -10.312  -10.916  -11.577  -12.158  -12.471  -12.399  -12.036  -11.630  -11.444  -11.611  -12.072  -12.718  -13.423  -14.125  -14.771  -15.295  -15.658  -15.895  -16.083  -16.307  -16.608  -16.986  -17.389  -17.734  -17.947  -17.953  -17.758  -17.453  -17.192  -17.173  -17.549  -18.354  -19.516  -20.879  -22.265  -23.519  -24.537  -25.263  -25.716  -25.973  -26.125  -26.265  -26.460  -26.753  -27.157  -27.685  -28.353  -29.171  -30.145  -31.234  -32.394  -33.541  -34.573  -35.417  -36.049  -36.483  -36.750  -36.909  -37.005  -37.104  -37.334  -37.928  -39.242  -41.742  -45.831  -51.516  -58.227  -65.072  -71.358  -76.787  -81.164  -84.003  -84.272
 -65.893  -64.461  -61.679  -57.805  -53.211  -48.240  -43.156  -38.187  -33.544  -29.429  -25.980  -23.241  -21.133  -19.503  -18.164  -16.964  -15.792  -14.586  -13.326  -12.037  -10.791   -9.705   -8.879   -8.352   -8.121   -8.150   -8.399   -8.881   -9.584  -10.423  -11.179  -11.593  -11.507  -11.005  -10.386   -9.969   -9.918  -10.196  -10.675  -11.226  -11.763  -12.236  -12.602  -12.832  -12.960  -13.049  -13.170  -13.361  -13.632  -13.943  -14.228  -14.414  -14.415  -14.221  -13.905  -13.614  -13.514  -13.748  -14.342  -15.236  -16.295  -17.386  -18.370  -19.158  -19.711  -20.046  -20.249  -20.400  -20.580  -20.849  -21.243  -21.783  -22.500  -23.414  -24.537  -25.879  -27.396  -29.016  -30.625  -32.078  -33.271  -34.147  -34.727  -35.071  -35.255  -35.335  -35.375  -35.465  -35.759  -36.501  -38.017  -40.637  -44.495  -49.355  -54.715  -60.115  -65.274  -69.833  -73.091  -74.001
 -62.804  -61.419  -58.810  -55.289  -51.252  -47.033  -42.841  -38.805  -35.032  -31.614  -28.623  -26.060  -23.878  -21.994  -20.293  -18.705  -17.177  -15.667  -14.141  -12.598  -11.105   -9.766   -8.701   -7.986   -7.602   -7.503   -7.674   -8.132   -8.874   -9.803  -10.673  -11.184  -11.159  -10.673  -10.011   -9.485   -9.277   -9.367   -9.634   -9.960  -10.259  -10.486  -10.616  -10.653  -10.637  -10.615  -10.614  -10.676  -10.792  -10.959  -11.123  -11.222  -11.180  -10.975  -10.660  -10.336  -10.158  -10.235  -10.602  -11.212  -11.967  -12.746  -13.439  -13.974  -14.327  -14.535  -14.662  -14.795  -14.987  -15.291  -15.738  -16.357  -17.190  -18.269  -19.602  -21.188  -22.995  -24.948  -26.902  -28.674  -30.117  -31.158  -31.830  -32.213  -32.394  -32.442  -32.412  -32.369  -32.425  -32.720  -33.464  -34.871  -37.087  -40.076  -43.656  -47.638  -51.869  -55.962  -59.146  -60.490
 -59.704  -58.375  -55.923  -52.699  -49.122  -45.512  -42.035  -38.749  -35.683  -32.857  -30.274  -27.912  -25.735  -23.683  -21.719  -19.820  -18.001  -16.260  -14.584  -12.964  -11.431  -10.084   -9.022   -8.292   -7.877   -7.735   -7.858   -8.251   -8.922   -9.783  -10.609  -11.140  -11.213  -10.854  -10.308   -9.837   -9.591   -9.570   -9.681   -9.807   -9.885   -9.881   -9.779   -9.635   -9.476   -9.352   -9.259   -9.194   -9.171   -9.178   -9.194   -9.185   -9.086   -8.860   -8.529   -8.172   -7.895   -7.799   -7.951   -8.323   -8.831   -9.379   -9.854  -10.191  -10.382  -10.471  -10.518  -10.592  -10.742  -11.000  -11.410  -12.007  -12.838  -13.919  -15.255  -16.842  -18.661  -20.646  -22.648  -24.473  -25.944  -26.985  -27.637  -28.002  -28.156  -28.157  -28.053  -27.902  -27.794  -27.818  -28.084  -28.695  -29.750  -31.286  -33.295  -35.784  -38.727  -41.830  -44.425  -45.849
 -56.032  -54.753  -52.486  -49.562  -46.406  -43.303  -40.391  -37.684  -35.158  -32.790  -30.546  -28.388  -26.277  -24.176  -22.076  -20.024  -18.067  -16.267  -14.649  -13.202  -11.935  -10.892  -10.109   -9.613   -9.377   -9.353   -9.516   -9.860  -10.385  -11.022  -11.630  -12.020  -12.074  -11.810  -11.396  -11.024  -10.800  -10.745  -10.767  -10.779  -10.715  -10.549  -10.289   -9.987   -9.719   -9.499   -9.317   -9.152   -9.006   -8.885   -8.798   -8.718   -8.589   -8.371   -8.056   -7.677   -7.311   -7.080   -7.070   -7.307   -7.713   -8.173   -8.549   -8.782   -8.873   -8.865   -8.825   -8.805   -8.839   -8.969   -9.242   -9.718  -10.417  -11.333  -12.432  -13.719  -15.190  -16.799  -18.431  -19.896  -21.052  -21.849  -22.340  -22.608  -22.702  -22.659  -22.503  -22.291  -22.103  -21.998  -22.033  -22.233  -22.629  -23.266  -24.220  -25.589  -27.406  -29.480  -31.316  -32.582
 -51.367  -50.128  -48.104  -45.550  -42.839  -40.216  -37.789  -35.553  -33.454  -31.452  -29.511  -27.590  -25.647  -23.682  -21.698  -19.769  -17.982  -16.447  -15.207  -14.264  -13.591  -13.161  -12.959  -12.972  -13.166  -13.481  -13.872  -14.297  -14.708  -15.069  -15.292  -15.310  -15.076  -14.645  -14.132  -13.681  -13.385  -13.244  -13.186  -13.117  -12.974  -12.703  -12.315  -11.866  -11.426  -11.031  -10.679  -10.355  -10.055   -9.807   -9.629   -9.523   -9.427   -9.285   -9.046   -8.707   -8.326   -8.043   -7.991   -8.222   -8.666   -9.164   -9.561   -9.776   -9.820   -9.755   -9.631   -9.497   -9.400   -9.373   -9.477   -9.783  -10.289  -10.941  -11.680  -12.475  -13.322  -14.201  -15.034  -15.719  -16.183  -16.454  -16.602  -16.679  -16.693  -16.614  -16.442  -16.228  -16.038  -15.935  -15.920  -15.982  -16.103  -16.341  -16.795  -17.601  -18.804  -20.246  -21.570  -22.659
 -45.858  -44.672  -42.983  -40.891  -38.689  -36.570  -34.613  -32.803  -31.101  -29.461  -27.870  -26.301  -24.748  -23.216  -21.736  -20.384  -19.265  -18.465  -18.047  -17.980  -18.211  -18.675  -19.321  -20.118  -21.015  -21.964  -22.858  -23.590  -24.055  -24.188  -23.943  -23.336  -22.437  -21.361  -20.286  -19.355  -18.665  -18.220  -17.945  -17.728  -17.461  -17.059  -16.473  -15.754  -14.966  -14.170  -13.395  -12.678  -12.033  -11.522  -11.168  -10.968  -10.870  -10.793  -10.646  -10.396  -10.084   -9.847   -9.850  -10.158  -10.695  -11.276  -11.717  -11.949  -11.989  -11.898  -11.730  -11.531  -11.341  -11.211  -11.220  -11.420  -11.784  -12.230  -12.651  -12.979  -13.192  -13.253  -13.125  -12.789  -12.320  -11.851  -11.504  -11.308  -11.189  -11.066  -10.910  -10.739  -10.616  -10.599  -10.669  -10.775  -10.903  -11.090  -11.468  -12.199  -13.299  -14.609  -15.782  -16.793
 -40.391  -39.307  -38.025  -36.474  -34.842  -33.278  -31.834  -30.506  -29.278  -28.127  -27.060  -26.099  -25.270  -24.609  -24.152  -23.960  -24.081  -24.558  -25.386  -26.528  -27.905  -29.453  -31.128  -32.909  -34.756  -36.591  -38.252  -39.546  -40.277  -40.321  -39.628  -38.249  -36.346  -34.159  -31.964  -30.013  -28.459  -27.342  -26.582  -26.020  -25.480  -24.792  -23.850  -22.650  -21.256  -19.743  -18.199  -16.712  -15.377  -14.275  -13.444  -12.892  -12.559  -12.350  -12.159  -11.908  -11.628  -11.422  -11.458  -11.791  -12.335  -12.910  -13.341  -13.552  -13.579  -13.478  -13.307  -13.112  -12.926  -12.808  -12.845  -13.064  -13.419  -13.801  -14.084  -14.179  -14.026  -13.547  -12.695  -11.515  -10.185   -8.991   -8.116   -7.579   -7.275   -7.072   -6.895   -6.763   -6.732   -6.834   -7.075   -7.374   -7.684   -8.030   -8.549   -9.424  -10.673  -12.099  -13.338  -14.324
 -36.147  -35.236  -34.391  -33.411  -32.396  -31.452  -30.635  -29.955  -29.406  -28.993  -28.761  -28.766  -29.085  -29.776  -30.875  -32.349  -34.153  -36.223  -38.499  -40.927  -43.459  -46.075  -48.777  -51.581  -54.451  -57.266  -59.803  -61.780  -62.930  -63.061  -62.087  -60.055  -57.152  -53.704  -50.115  -46.774  -43.972  -41.823  -40.261  -39.083  -38.035  -36.865  -35.402  -33.572  -31.405  -28.983  -26.427  -23.898  -21.526  -19.429  -17.686  -16.314  -15.269  -14.480  -13.838  -13.257  -12.722  -12.329  -12.185  -12.319  -12.658  -13.040  -13.312  -13.427  -13.399  -13.277  -13.122  -12.969  -12.847  -12.822  -12.954  -13.271  -13.710  -14.157  -14.502  -14.652  -14.523  -13.986  -12.953  -11.457   -9.728   -8.106   -6.853   -6.025   -5.499   -5.149   -4.898   -4.742   -4.762   -5.005   -5.470   -6.058   -6.645   -7.216   -7.883   -8.836  -10.136  -11.582  -12.817  -13.738
 -33.854  -33.150  -32.733  -32.331  -31.987  -31.775  -31.758  -31.943  -32.333  -32.940  -33.830  -35.099  -36.866  -39.202  -42.074  -45.356  -48.850  -52.388  -55.874  -59.288  -62.662  -66.063  -69.563  -73.207  -76.949  -80.611  -83.907  -86.500  -88.094  -88.478  -87.541  -85.300  -81.909  -77.683  -73.067  -68.555  -64.561  -61.311  -58.799  -56.824  -55.092  -53.306  -51.244  -48.787  -45.914  -42.695  -39.246  -35.710  -32.235  -28.942  -25.932  -23.267  -20.950  -18.961  -17.231  -15.701  -14.361  -13.281  -12.518  -12.078  -11.887  -11.818  -11.753  -11.647  -11.494  -11.326  -11.154  -11.012  -10.935  -10.983  -11.201  -11.593  -12.097  -12.622  -13.106  -13.485  -13.661  -13.495  -12.829  -11.639  -10.102   -8.546   -7.235   -6.269   -5.576   -5.049   -4.657   -4.428   -4.463   -4.843   -5.556   -6.459   -7.332   -8.067   -8.739   -9.543  -10.585  -11.748  -12.755  -13.507
 -33.708  -33.213  -33.207  -33.377  -33.751  -34.376  -35.281  -36.466  -37.911  -39.620  -41.672  -44.203  -47.347  -51.155  -55.527  -60.207  -64.896  -69.369  -73.539  -77.461  -81.268  -85.110  -89.120  -93.349  -97.721 -102.003 -105.859 -108.938 -110.948 -111.692 -111.071 -109.095 -105.890 -101.714  -96.951  -92.072  -87.522  -83.603  -80.385  -77.719  -75.337  -72.958  -70.362  -67.422  -64.098  -60.419  -56.456  -52.295  -48.021  -43.712  -39.446  -35.301  -31.350  -27.642  -24.198  -21.033  -18.204  -15.782  -13.818  -12.300  -11.182  -10.364   -9.757   -9.298   -8.931   -8.643   -8.402   -8.212   -8.112   -8.141   -8.325   -8.668   -9.131   -9.656  -10.221  -10.802  -11.334  -11.688  -11.666  -11.173  -10.268   -9.193   -8.167   -7.289   -6.537   -5.892   -5.381   -5.087   -5.139   -5.630   -6.535   -7.665   -8.726   -9.496   -9.998  -10.424  -10.950  -11.574  -12.139  -12.669
 -36.150  -35.853  -36.206  -36.898  -37.938  -39.340  -41.095  -43.161  -45.484  -48.059  -50.973  -54.377  -58.414  -63.106  -68.296  -73.671  -78.887  -83.722  -88.126  -92.215  -96.193 -100.269 -104.609 -109.267 -114.143 -118.968 -123.380 -127.001 -129.520 -130.727 -130.531 -128.981 -126.245 -122.581 -118.329 -113.860 -109.538 -105.631 -102.228  -99.241  -96.470  -93.697  -90.746  -87.519  -83.985  -80.150  -76.038  -71.661  -67.013  -62.093  -56.915  -51.533  -46.032  -40.528  -35.137  -29.980  -25.194  -20.907  -17.218  -14.163  -11.729   -9.858   -8.493   -7.534   -6.863   -6.397   -6.040   -5.760   -5.569   -5.487   -5.536   -5.735   -6.049   -6.463   -6.969   -7.595   -8.310   -9.030   -9.570   -9.774   -9.608   -9.181   -8.612   -7.992   -7.346   -6.718   -6.187   -5.891   -5.966   -6.500   -7.466   -8.648   -9.687  -10.333  -10.559  -10.546  -10.517  -10.564  -10.676  -10.986
 -42.129  -42.047  -42.652  -43.685  -45.148  -47.034  -49.292  -51.828  -54.580  -57.529  -60.763  -64.436  -68.682  -73.519  -78.785  -84.168  -89.347  -94.119  -98.460 -102.505 -106.484 -110.634 -115.139 -120.067 -125.323 -130.650 -135.680 -140.014 -143.269 -145.171 -145.614 -144.652 -142.507 -139.497 -135.962 -132.226 -128.552 -125.115 -121.965 -119.029 -116.169 -113.235 -110.112 -106.742 -103.114  -99.232  -95.094  -90.660  -85.867  -80.642  -74.934  -68.746  -62.142  -55.247  -48.231  -41.283  -34.615  -28.419  -22.857  -18.038  -14.033  -10.873   -8.545   -6.934   -5.865   -5.151   -4.641   -4.252   -3.958   -3.768   -3.692   -3.730   -3.884   -4.124   -4.483   -4.994   -5.670   -6.461   -7.240   -7.853   -8.216   -8.311   -8.194   -7.898   -7.460   -6.963   -6.528   -6.296   -6.391   -6.881   -7.728   -8.715   -9.532   -9.927   -9.874   -9.548   -9.170   -8.865   -8.712   -8.910
 -51.901  -52.136  -52.849  -53.957  -55.491  -57.434  -59.705  -62.209  -64.868  -67.664  -70.675  -74.039  -77.880  -82.225  -86.945  -91.784  -96.477 -100.846 -104.871 -108.675 -112.466 -116.469 -120.859 -125.706 -130.937 -136.331 -141.577 -146.314 -150.190 -152.949 -154.438 -154.656 -153.744 -151.927 -149.508 -146.779 -143.975 -141.219 -138.537 -135.858 -133.091 -130.130 -126.923 -123.449 -119.717 -115.743 -111.513 -106.973 -102.034  -96.589  -90.555  -83.897  -76.655  -68.941  -60.928  -52.825  -44.845  -37.197  -30.064  -23.621  -18.037  -13.483  -10.025   -7.588   -5.963   -4.897   -4.179   -3.670   -3.309   -3.076   -2.955   -2.924   -2.979   -3.088   -3.298   -3.636   -4.139   -4.803   -5.536   -6.225   -6.780   -7.144   -7.306   -7.267   -7.061   -6.747   -6.463   -6.310   -6.382   -6.725   -7.286   -7.903   -8.350   -8.451   -8.209   -7.795   -7.368   -7.060   -6.907   -7.123
 -63.726  -64.405  -65.162  -66.185  -67.549  -69.243  -71.198  -73.324  -75.550  -77.862  -80.321  -83.039  -86.121  -89.606  -93.414  -97.376 -101.292 -105.026 -108.553 -111.958 -115.385 -119.004 -122.948 -127.272 -131.916 -136.705 -141.408 -145.789 -149.675 -152.956 -155.557 -157.401 -158.434 -158.645 -158.107 -156.975 -155.434 -153.610 -151.564 -149.271 -146.678 -143.750 -140.470 -136.861 -132.957 -128.791 -124.358 -119.608 -114.452 -108.784 -102.515  -95.606  -88.086  -80.061  -71.692  -63.161  -54.642  -46.277  -38.202  -30.589  -23.688  -17.778  -13.074   -9.602   -7.183   -5.569   -4.524   -3.861   -3.459   -3.261   -3.186   -3.182   -3.199   -3.220   -3.286   -3.457   -3.797   -4.287   -4.894   -5.504   -6.053   -6.477   -6.735   -6.830   -6.765   -6.613   -6.442   -6.334   -6.338   -6.463   -6.662   -6.842   -6.884   -6.709   -6.386   -6.060   -5.859   -5.803   -5.860   -6.190
 -74.586  -75.762  -76.605  -77.558  -78.740  -80.155  -81.745  -83.439  -85.181  -86.960  -88.823  -90.857  -93.148  -95.739  -98.602 -101.638 -104.724 -107.768 -110.737 -113.663 -116.617 -119.682 -122.931 -126.396 -130.032 -133.739 -137.387 -140.901 -144.278 -147.575 -150.824 -153.979 -156.888 -159.336 -161.101 -162.080 -162.263 -161.722 -160.537 -158.768 -156.445 -153.588 -150.244 -146.465 -142.331 -137.899 -133.187 -128.175 -122.796 -116.963 -110.597 -103.667  -96.207  -88.318  -80.142  -71.823  -63.462  -55.107  -46.798  -38.634  -30.864  -23.846  -17.914  -13.231   -9.763   -7.345   -5.758   -4.821   -4.366   -4.228   -4.267   -4.330   -4.327   -4.224   -4.094   -4.068   -4.236   -4.617   -5.145   -5.711   -6.231   -6.644   -6.915   -7.027   -7.010   -6.927   -6.804   -6.687   -6.589   -6.485   -6.348   -6.136   -5.830   -5.460   -5.135   -5.013   -5.154   -5.479   -5.843   -6.329
 -82.087  -83.661  -84.650  -85.639  -86.765  -88.032  -89.394  -90.797  -92.195  -93.584  -95.002  -96.518  -98.205 -100.112 -102.244 -104.556 -106.981 -109.457 -111.943 -114.423 -116.899 -119.378 -121.863 -124.343 -126.797 -129.199 -131.564 -133.978 -136.598 -139.587 -143.039 -146.912 -151.045 -155.153 -158.894 -161.922 -163.984 -164.974 -164.894 -163.843 -161.922 -159.234 -155.875 -151.954 -147.588 -142.875 -137.897 -132.670 -127.161 -121.310 -115.058 -108.381 -101.310  -93.932  -86.363  -78.695  -70.959  -63.117  -55.114  -46.970  -38.871  -31.166  -24.248  -18.400  -13.763  -10.334   -8.022   -6.675   -6.072   -5.970   -6.103   -6.212   -6.118   -5.786   -5.355   -5.016   -4.967   -5.228   -5.713   -6.283   -6.832   -7.248   -7.498   -7.580   -7.542   -7.444   -7.319   -7.165   -6.965   -6.675   -6.299   -5.840   -5.340   -4.913   -4.709   -4.880   -5.417   -6.164   -6.869   -7.517
 -85.130  -86.894  -88.040  -89.155  -90.355  -91.631  -92.936  -94.231  -95.477  -96.676  -97.861  -99.094 -100.444 -101.969 -103.692 -105.600 -107.655 -109.806 -111.998 -114.180 -116.307 -118.328 -120.186 -121.824 -123.208 -124.353 -125.377 -126.524 -128.122 -130.485 -133.773 -137.932 -142.721 -147.800 -152.794 -157.291 -160.906 -163.345 -164.475 -164.314 -162.990 -160.634 -157.392 -153.423 -148.895 -143.989 -138.833 -133.507 -128.020 -122.339 -116.418 -110.232 -103.799  -97.176  -90.432  -83.603  -76.664  -69.530  -62.099  -54.336  -46.364  -38.475  -31.031  -24.369  -18.750  -14.357  -11.258   -9.373   -8.493   -8.302   -8.413   -8.474   -8.210   -7.572   -6.726   -5.984   -5.603   -5.649   -6.029   -6.577   -7.120   -7.536   -7.751   -7.776   -7.685   -7.540   -7.386   -7.198   -6.936   -6.560   -6.093   -5.579   -5.117   -4.849   -4.952   -5.532   -6.530   -7.706   -8.741   -9.520
 -83.839  -85.557  -86.820  -88.090  -89.429  -90.808  -92.177  -93.501  -94.751  -95.930  -97.068  -98.228  -99.487 -100.913 -102.540 -104.372 -106.372 -108.482 -110.631 -112.740 -114.733 -116.527 -118.029 -119.141 -119.794 -119.995 -119.896 -119.824 -120.242 -121.625 -124.286 -128.243 -133.223 -138.791 -144.475 -149.832 -154.446 -157.949 -160.100 -160.821 -160.176 -158.286 -155.308 -151.432 -146.890 -141.917 -136.723 -131.439 -126.125 -120.776 -115.348 -109.802 -104.126  -98.330  -92.430  -86.414  -80.227  -73.772  -66.942  -59.698  -52.128  -44.459  -36.996  -30.032  -23.882  -18.825  -15.059  -12.603  -11.293  -10.795  -10.704  -10.580  -10.088   -9.129   -7.895   -6.740   -5.981   -5.714   -5.863   -6.244   -6.680   -7.023   -7.180   -7.147   -7.004   -6.823   -6.644   -6.443   -6.184   -5.834   -5.448   -5.093   -4.898   -5.016   -5.594   -6.686   -8.152   -9.716  -11.018  -11.886
 -79.533  -81.032  -82.334  -83.717  -85.179  -86.668  -88.135  -89.545  -90.874  -92.122  -93.324  -94.548  -95.885  -97.413  -99.179 -101.180 -103.371 -105.677 -108.001 -110.245 -112.314 -114.110 -115.521 -116.428 -116.726 -116.400 -115.585 -114.618 -114.006 -114.315 -115.998 -119.231 -123.857 -129.452 -135.458 -141.316 -146.531 -150.701 -153.537 -154.915 -154.845 -153.409 -150.755 -147.083 -142.649 -137.748 -132.639 -127.519 -122.489 -117.567 -112.703 -107.833 -102.898  -97.859  -92.686  -87.335  -81.746  -75.838  -69.531  -62.801  -55.730  -48.507  -41.364  -34.546  -28.319  -22.973  -18.768  -15.796  -13.958  -12.992  -12.529  -12.107  -11.370  -10.166   -8.655   -7.196   -6.110   -5.508   -5.332   -5.430   -5.648   -5.837   -5.901   -5.825   -5.656   -5.466   -5.286   -5.112   -4.921   -4.710   -4.533   -4.492   -4.711   -5.327   -6.432   -7.992   -9.831  -11.649  -13.076  -13.977
 -74.367  -75.616  -76.883  -78.292  -79.796  -81.334  -82.857  -84.328  -85.728  -87.054  -88.344  -89.674  -91.147  -92.856  -94.849  -97.115  -99.588 -102.173 -104.755 -107.217 -109.453 -111.364 -112.834 -113.729 -113.935 -113.408 -112.264 -110.809 -109.533 -109.011 -109.753 -112.061 -115.945 -121.110 -127.027 -133.056 -138.592 -143.151 -146.404 -148.205 -148.527 -147.445 -145.083 -141.643 -137.399 -132.665 -127.745 -122.879 -118.200 -113.733 -109.418 -105.155 -100.846  -96.413  -91.795  -86.936  -81.784  -76.286  -70.394  -64.104  -57.501  -50.750  -44.036  -37.547  -31.496  -26.137  -21.714  -18.354  -16.026  -14.568  -13.678  -12.968  -12.031  -10.682   -9.034   -7.416   -6.115   -5.254   -4.775   -4.586   -4.553   -4.564   -4.536   -4.432   -4.271   -4.094   -3.942   -3.818   -3.736   -3.694   -3.763   -4.048   -4.674   -5.716   -7.217   -9.095  -11.138  -13.038  -14.489  -15.387
 -70.297  -71.438  -72.641  -73.995  -75.447  -76.945  -78.441  -79.901  -81.305  -82.652  -83.980  -85.367  -86.924  -88.747  -90.876  -93.297  -95.932  -98.673 -101.396 -103.978 -106.313 -108.299 -109.822 -110.750 -110.966 -110.420 -109.207 -107.608 -106.066 -105.118 -105.264 -106.851 -109.991 -114.515 -119.994 -125.821 -131.361 -136.067 -139.557 -141.618 -142.196 -141.347 -139.195 -135.954 -131.911 -127.400 -122.740 -118.184 -113.870 -109.820 -105.961 -102.172  -98.333  -94.346  -90.138  -85.651  -80.845  -75.690  -70.152  -64.243  -58.040  -51.691  -45.354  -39.179  -33.339  -28.059  -23.574  -20.013  -17.400  -15.629  -14.467  -13.551  -12.494  -11.086   -9.412   -7.748   -6.360   -5.357   -4.715   -4.341   -4.157   -4.055   -3.966   -3.848   -3.696   -3.536   -3.405   -3.324   -3.306   -3.381   -3.599   -4.082   -4.912   -6.174   -7.855   -9.857  -11.943  -13.833  -15.274  -16.263
