DSAA
 100 100
 0.0 400.0
 0.0 400.0
 -251.7213 -0.4518081
 -27.270  -27.552  -27.968  -28.592  -29.432  -30.434  -31.500  -32.501  -33.264  -33.623  -33.397  -32.361  -30.333  -27.310  -23.585  -19.747  -16.537  -14.477  -13.681  -13.903  -14.818  -16.160  -17.813  -19.702  -21.671  -23.423  -24.585  -24.876  -24.231  -22.741  -20.545  -17.882  -15.093  -12.652  -11.003  -10.274  -10.282  -10.658  -11.063  -11.281  -11.255  -11.028  -10.702  -10.413  -10.238  -10.232  -10.392  -10.661  -10.969  -11.305  -11.672  -12.088  -12.509  -12.774  -12.636  -11.854  -10.305   -8.176   -5.861   -3.831   -2.369   -1.475   -0.994   -0.775   -0.694   -0.644   -0.630   -0.616   -0.605   -0.590   -0.582   -0.582   -0.583   -0.587   -0.590   -0.595   -0.585   -0.582   -0.589   -0.613   -0.630   -0.641   -0.657   -0.691   -0.738   -0.819   -0.942   -1.147   -1.465   -1.942   -2.640   -3.540   -4.640   -5.907   -7.380   -9.127  -11.138  -13.196  -14.901  -16.012
 -26.996  -27.237  -27.599  -28.138  -28.859  -29.733  -30.686  -31.578  -32.262  -32.582  -32.358  -31.392  -29.481  -26.611  -23.039  -19.340  -16.196  -14.128  -13.261  -13.388  -14.181  -15.410  -16.956  -18.752  -20.649  -22.370  -23.592  -24.057  -23.689  -22.527  -20.671  -18.269  -15.656  -13.283  -11.545  -10.596  -10.313  -10.424  -10.661  -10.810  -10.785  -10.603  -10.339  -10.104   -9.985  -10.017  -10.196  -10.467  -10.763  -11.076  -11.427  -11.830  -12.254  -12.565  -12.518  -11.872  -10.505   -8.546   -6.349   -4.345   -2.816   -1.820   -1.253   -0.966   -0.827   -0.764   -0.725   -0.695   -0.661   -0.635   -0.610   -0.589   -0.589   -0.585   -0.574   -0.578   -0.579   -0.586   -0.593   -0.605   -0.619   -0.650   -0.676   -0.740   -0.837   -1.003   -1.264   -1.665   -2.236   -3.043   -4.122   -5.462   -6.987   -8.636  -10.429  -12.401  -14.561  -16.697  -18.402  -19.414
 -26.231  -26.416  -26.664  -27.033  -27.526  -28.145  -28.844  -29.508  -30.005  -30.212  -29.982  -29.146  -27.517  -25.046  -21.925  -18.616  -15.712  -13.698  -12.723  -12.654  -13.205  -14.179  -15.473  -17.012  -18.669  -20.239  -21.481  -22.209  -22.325  -21.782  -20.574  -18.784  -16.642  -14.507  -12.711  -11.401  -10.571  -10.139   -9.987   -9.972   -9.971   -9.922   -9.847   -9.804   -9.861  -10.019  -10.233  -10.455  -10.650  -10.860  -11.109  -11.448  -11.837  -12.180  -12.269  -11.891  -10.904   -9.345   -7.460   -5.590   -4.012   -2.851   -2.108   -1.672   -1.445   -1.324   -1.238   -1.161   -1.067   -0.966   -0.899   -0.849   -0.820   -0.806   -0.800   -0.788   -0.780   -0.784   -0.795   -0.816   -0.852   -0.897   -0.970   -1.114   -1.360   -1.783   -2.406   -3.275   -4.425   -5.906   -7.734   -9.840  -12.070  -14.278  -16.440  -18.614  -20.810  -22.854  -24.431  -25.225
 -24.808  -24.912  -25.017  -25.162  -25.365  -25.667  -26.056  -26.447  -26.720  -26.780  -26.531  -25.847  -24.583  -22.667  -20.192  -17.477  -14.992  -13.146  -12.125  -11.854  -12.119  -12.763  -13.695  -14.859  -16.142  -17.419  -18.575  -19.491  -20.073  -20.209  -19.799  -18.833  -17.421  -15.767  -14.048  -12.398  -10.947   -9.848   -9.182   -8.931   -8.951   -9.141   -9.451   -9.861  -10.339  -10.784  -11.092  -11.201  -11.139  -11.033  -11.002  -11.119  -11.380  -11.693  -11.918  -11.850  -11.315  -10.298   -8.897   -7.335   -5.855   -4.627   -3.727   -3.149   -2.809   -2.624   -2.473   -2.312   -2.100   -1.878   -1.691   -1.577   -1.516   -1.490   -1.464   -1.427   -1.393   -1.380   -1.396   -1.454   -1.527   -1.634   -1.814   -2.124   -2.678   -3.570   -4.833   -6.470   -8.447  -10.769  -13.399  -16.200  -18.955  -21.478  -23.722  -25.787  -27.722  -29.450  -30.720  -31.204
 -22.616  -22.601  -22.545  -22.445  -22.352  -22.345  -22.435  -22.559  -22.622  -22.549  -22.285  -21.776  -20.921  -19.636  -17.928  -15.967  -14.066  -12.563  -11.620  -11.236  -11.266  -11.584  -12.108  -12.808  -13.606  -14.451  -15.339  -16.238  -17.095  -17.796  -18.210  -18.234  -17.797  -16.847  -15.363  -13.479  -11.474   -9.722   -8.524   -7.993   -8.035   -8.562   -9.459  -10.619  -11.833  -12.834  -13.371  -13.350  -12.873  -12.209  -11.643  -11.322  -11.270  -11.408  -11.640  -11.795  -11.702  -11.250  -10.438   -9.368   -8.192   -7.100   -6.201   -5.568   -5.191   -4.973   -4.794   -4.538   -4.180   -3.778   -3.450   -3.246   -3.155   -3.111   -3.057   -2.976   -2.901   -2.874   -2.910   -3.028   -3.193   -3.414   -3.748   -4.348   -5.362   -6.922   -9.002  -11.497  -14.292  -17.302  -20.433  -23.530  -26.332  -28.682  -30.584  -32.191  -33.613  -34.841  -35.709  -35.876
 -19.760  -19.623  -19.386  -19.048  -18.674  -18.384  -18.221  -18.142  -18.047  -17.878  -17.636  -17.309  -16.871  -16.239  -15.350  -14.236  -13.058  -12.050  -11.359  -11.004  -10.905  -10.965  -11.128  -11.358  -11.616  -11.929  -12.361  -12.996  -13.867  -14.953  -16.163  -17.306  -18.033  -17.950  -16.840  -14.830  -12.391  -10.096   -8.400   -7.526   -7.514   -8.343   -9.915  -11.992  -14.189  -15.992  -16.970  -16.958  -16.109  -14.848  -13.604  -12.632  -12.008  -11.734  -11.761  -11.966  -12.177  -12.214  -11.980  -11.464  -10.768  -10.009   -9.310   -8.784   -8.483   -8.323   -8.179   -7.901   -7.455   -6.939   -6.504   -6.246   -6.147   -6.113   -6.053   -5.947   -5.843   -5.807   -5.882   -6.078   -6.366   -6.756   -7.321   -8.263   -9.789  -11.995  -14.782  -17.913  -21.202  -24.515  -27.746  -30.693  -33.115  -34.879  -36.092  -36.989  -37.777  -38.479  -38.965  -38.888
 -16.690  -16.409  -15.987  -15.419  -14.804  -14.288  -13.945  -13.729  -13.554  -13.352  -13.143  -12.987  -12.938  -12.938  -12.867  -12.629  -12.240  -11.830  -11.521  -11.341  -11.238  -11.162  -11.063  -10.909  -10.681  -10.439  -10.315  -10.479  -11.107  -12.356  -14.250  -16.486  -18.394  -19.225  -18.588  -16.638  -13.982  -11.339   -9.221   -7.911   -7.606   -8.473  -10.515  -13.431  -16.611  -19.310  -20.931  -21.209  -20.322  -18.745  -16.972  -15.315  -13.946  -13.007  -12.594  -12.662  -13.001  -13.350  -13.531  -13.496  -13.269  -12.917  -12.535  -12.240  -12.118  -12.116  -12.107  -11.937  -11.552  -11.072  -10.665  -10.458  -10.419  -10.437  -10.416  -10.330  -10.241  -10.230  -10.359  -10.645  -11.076  -11.649  -12.455  -13.707  -15.594  -18.187  -21.297  -24.636  -27.998  -31.274  -34.331  -36.921  -38.745  -39.715  -40.046  -40.135  -40.276  -40.521  -40.706  -40.450
 -14.018  -13.600  -12.987  -12.195  -11.384  -10.724  -10.288  -10.027   -9.847   -9.651   -9.487   -9.480   -9.761  -10.320  -10.999  -11.588  -11.977  -12.191  -12.311  -12.374  -12.375  -12.276  -12.051  -11.651  -11.081  -10.388   -9.718   -9.312   -9.501  -10.636  -12.880  -15.866  -18.677  -20.320  -20.255  -18.679  -16.246  -13.640  -11.286   -9.454   -8.513   -8.941  -10.979  -14.323  -18.211  -21.698  -24.041  -24.888  -24.385  -22.966  -21.067  -18.973  -16.922  -15.251  -14.285  -14.088  -14.403  -14.864  -15.238  -15.448  -15.517  -15.473  -15.381  -15.324  -15.401  -15.605  -15.806  -15.862  -15.703  -15.414  -15.191  -15.138  -15.224  -15.338  -15.383  -15.363  -15.330  -15.373  -15.570  -15.946  -16.501  -17.229  -18.221  -19.645  -21.670  -24.298  -27.324  -30.476  -33.607  -36.657  -39.480  -41.698  -42.931  -43.083  -42.511  -41.789  -41.335  -41.194  -41.154  -40.780
 -12.311  -11.763  -10.939   -9.917   -8.952   -8.209   -7.773   -7.564   -7.436   -7.303   -7.199   -7.321   -7.883   -8.908  -10.206  -11.493  -12.552  -13.311  -13.827  -14.129  -14.247  -14.190  -13.929  -13.435  -12.683  -11.705  -10.613   -9.651   -9.253   -9.936  -12.000  -15.113  -18.296  -20.472  -21.083  -20.301  -18.679  -16.690  -14.471  -12.176  -10.336   -9.797  -11.198  -14.408  -18.576  -22.598  -25.569  -27.085  -27.220  -26.314  -24.677  -22.510  -20.100  -17.943  -16.579  -16.165  -16.392  -16.812  -17.139  -17.326  -17.431  -17.490  -17.536  -17.646  -17.898  -18.303  -18.746  -19.076  -19.213  -19.210  -19.232  -19.363  -19.572  -19.748  -19.824  -19.832  -19.857  -19.971  -20.242  -20.700  -21.351  -22.191  -23.274  -24.725  -26.663  -29.076  -31.757  -34.505  -37.254  -40.018  -42.601  -44.503  -45.227  -44.676  -43.315  -41.892  -40.924  -40.454  -40.224  -39.757
 -11.796  -11.108  -10.060   -8.805   -7.677   -6.906   -6.520   -6.414   -6.407   -6.382   -6.395   -6.700   -7.514   -8.906  -10.666  -12.458  -13.988  -15.138  -15.911  -16.374  -16.565  -16.534  -16.272  -15.763  -14.946  -13.816  -12.433  -11.005   -9.973   -9.911  -11.256  -13.811  -16.759  -19.149  -20.470  -20.826  -20.536  -19.685  -18.046  -15.547  -12.812  -11.051  -11.350  -13.906  -17.912  -22.124  -25.493  -27.522  -28.228  -27.887  -26.700  -24.794  -22.466  -20.298  -18.909  -18.474  -18.646  -18.926  -19.050  -19.021  -18.949  -18.907  -18.954  -19.142  -19.532  -20.121  -20.803  -21.409  -21.821  -22.070  -22.276  -22.523  -22.760  -22.879  -22.864  -22.791  -22.799  -22.974  -23.336  -23.896  -24.622  -25.501  -26.545  -27.857  -29.546  -31.597  -33.837  -36.101  -38.410  -40.838  -43.155  -44.771  -45.094  -44.023  -42.096  -40.162  -38.790  -38.016  -37.573  -37.040
 -12.346  -11.550  -10.273   -8.788   -7.512   -6.711   -6.388   -6.385   -6.497   -6.600   -6.812   -7.355   -8.459  -10.127  -12.157  -14.206  -15.980  -17.311  -18.185  -18.661  -18.837  -18.775  -18.493  -17.966  -17.133  -15.923  -14.339  -12.533  -10.904  -10.014  -10.336  -11.891  -14.167  -16.472  -18.414  -19.983  -21.193  -21.698  -20.908  -18.573  -15.285  -12.457  -11.583  -13.221  -16.721  -20.778  -24.199  -26.409  -27.404  -27.440  -26.707  -25.308  -23.496  -21.811  -20.786  -20.529  -20.681  -20.795  -20.675  -20.391  -20.082  -19.866  -19.826  -20.025  -20.514  -21.263  -22.151  -22.987  -23.614  -24.003  -24.254  -24.453  -24.553  -24.452  -24.175  -23.876  -23.773  -23.973  -24.452  -25.115  -25.876  -26.678  -27.523  -28.530  -29.826  -31.430  -33.191  -34.967  -36.824  -38.865  -40.865  -42.188  -42.219  -40.855  -38.654  -36.459  -34.815  -33.748  -33.059  -32.498
 -13.648  -12.783  -11.351   -9.701   -8.313   -7.456   -7.145   -7.172   -7.321   -7.560   -8.004   -8.866  -10.261  -12.128  -14.244  -16.314  -18.075  -19.367  -20.159  -20.512  -20.557  -20.379  -20.016  -19.444  -18.579  -17.304  -15.583  -13.511  -11.410   -9.796   -9.162   -9.681  -11.157  -13.181  -15.510  -18.020  -20.451  -22.118  -22.212  -20.321  -16.983  -13.622  -11.895  -12.638  -15.431  -19.016  -22.156  -24.221  -25.213  -25.428  -25.102  -24.362  -23.375  -22.517  -22.092  -22.102  -22.238  -22.195  -21.903  -21.455  -20.997  -20.652  -20.521  -20.697  -21.215  -22.046  -23.052  -24.008  -24.712  -25.091  -25.223  -25.192  -24.987  -24.523  -23.857  -23.235  -22.951  -23.141  -23.692  -24.406  -25.108  -25.691  -26.189  -26.740  -27.542  -28.649  -29.944  -31.279  -32.714  -34.344  -35.974  -37.009  -36.871  -35.480  -33.335  -31.160  -29.399  -28.091  -27.152  -26.579
 -15.293  -14.449  -12.994  -11.308   -9.865   -8.937   -8.527   -8.455   -8.573   -8.898   -9.594  -10.795  -12.475  -14.459  -16.501  -18.391  -19.921  -20.973  -21.507  -21.604  -21.401  -21.024  -20.517  -19.851  -18.922  -17.608  -15.817  -13.603  -11.246   -9.201   -7.935   -7.738   -8.577  -10.268  -12.639  -15.539  -18.561  -20.902  -21.667  -20.392  -17.483  -14.210  -12.145  -12.225  -14.265  -17.192  -19.854  -21.620  -22.491  -22.793  -22.841  -22.779  -22.702  -22.736  -22.924  -23.168  -23.269  -23.132  -22.801  -22.393  -21.977  -21.619  -21.440  -21.554  -21.998  -22.742  -23.643  -24.492  -25.087  -25.299  -25.167  -24.785  -24.181  -23.315  -22.267  -21.328  -20.843  -20.935  -21.436  -22.070  -22.575  -22.843  -22.909  -22.976  -23.283  -23.954  -24.872  -25.879  -26.973  -28.226  -29.463  -30.220  -30.032  -28.849  -27.050  -25.152  -23.447  -21.994  -20.876  -20.298
 -16.888  -16.128  -14.800  -13.219  -11.793  -10.778  -10.181   -9.920   -9.931  -10.319  -11.243  -12.765  -14.680  -16.716  -18.611  -20.195  -21.359  -22.028  -22.179  -21.915  -21.383  -20.734  -20.026  -19.215  -18.213  -16.883  -15.112  -12.934  -10.578   -8.472   -7.060   -6.611   -7.145   -8.516  -10.587  -13.220  -16.089  -18.499  -19.630  -19.007  -16.863  -14.169  -12.241  -11.973  -13.371  -15.648  -17.842  -19.350  -20.151  -20.541  -20.867  -21.318  -21.933  -22.637  -23.259  -23.619  -23.657  -23.492  -23.298  -23.139  -22.960  -22.734  -22.567  -22.587  -22.841  -23.285  -23.823  -24.308  -24.570  -24.467  -23.995  -23.244  -22.291  -21.146  -19.885  -18.774  -18.125  -18.042  -18.354  -18.739  -18.942  -18.855  -18.542  -18.231  -18.201  -18.594  -19.305  -20.153  -21.053  -21.990  -22.844  -23.304  -23.105  -22.216  -20.882  -19.372  -17.845  -16.397  -15.229  -14.675
 -18.013  -17.404  -16.291  -14.925  -13.580  -12.468  -11.680  -11.211  -11.127  -11.584  -12.730  -14.489  -16.563  -18.591  -20.313  -21.596  -22.392  -22.659  -22.404  -21.741  -20.847  -19.895  -18.952  -18.003  -16.939  -15.635  -13.996  -12.044   -9.969   -8.160   -7.011   -6.732   -7.254   -8.326   -9.810  -11.655  -13.744  -15.673  -16.833  -16.759  -15.481  -13.601  -12.098  -11.768  -12.779  -14.626  -16.534  -17.955  -18.779  -19.211  -19.611  -20.230  -21.112  -22.081  -22.844  -23.175  -23.119  -22.964  -22.994  -23.190  -23.350  -23.339  -23.217  -23.137  -23.153  -23.204  -23.239  -23.207  -23.013  -22.537  -21.737  -20.713  -19.595  -18.422  -17.253  -16.231  -15.568  -15.344  -15.398  -15.477  -15.350  -14.965  -14.413  -13.921  -13.745  -14.016  -14.653  -15.454  -16.234  -16.900  -17.369  -17.495  -17.182  -16.474  -15.484  -14.306  -13.018  -11.720  -10.649  -10.185
 -18.343  -17.885  -17.025  -15.895  -14.689  -13.562  -12.643  -12.072  -11.985  -12.557  -13.862  -15.747  -17.865  -19.833  -21.406  -22.484  -23.026  -23.006  -22.455  -21.491  -20.312  -19.106  -17.968  -16.892  -15.818  -14.624  -13.236  -11.668  -10.081   -8.797   -8.158   -8.285   -8.929   -9.722  -10.462  -11.225  -12.165  -13.225  -14.073  -14.287  -13.690  -12.566  -11.576  -11.416  -12.344  -14.059  -15.925  -17.404  -18.276  -18.668  -18.912  -19.344  -20.078  -20.931  -21.555  -21.715  -21.507  -21.325  -21.493  -21.956  -22.382  -22.531  -22.447  -22.297  -22.134  -21.891  -21.530  -21.078  -20.518  -19.757  -18.752  -17.644  -16.594  -15.704  -14.950  -14.351  -13.963  -13.786  -13.682  -13.483  -13.073  -12.462  -11.785  -11.230  -10.986  -11.148  -11.655  -12.314  -12.895  -13.260  -13.326  -13.070  -12.526  -11.802  -10.955  -10.018   -8.995   -7.961   -7.129   -6.810
 -17.688  -17.330  -16.680  -15.786  -14.753  -13.720  -12.854  -12.335  -12.374  -13.100  -14.508  -16.403  -18.430  -20.293  -21.777  -22.781  -23.254  -23.171  -22.538  -21.487  -20.197  -18.873  -17.643  -16.541  -15.514  -14.512  -13.452  -12.340  -11.297  -10.597  -10.499  -11.009  -11.768  -12.272  -12.279  -11.956  -11.685  -11.719  -11.949  -12.058  -11.763  -11.133  -10.606  -10.745  -11.832  -13.654  -15.641  -17.229  -18.120  -18.369  -18.322  -18.379  -18.744  -19.267  -19.606  -19.517  -19.119  -18.797  -18.890  -19.336  -19.776  -19.924  -19.818  -19.647  -19.461  -19.196  -18.777  -18.234  -17.583  -16.764  -15.766  -14.773  -14.006  -13.607  -13.523  -13.611  -13.768  -13.856  -13.736  -13.300  -12.587  -11.745  -10.942  -10.320   -9.968   -9.900  -10.077  -10.368  -10.576  -10.555  -10.227   -9.625   -8.852   -8.044   -7.280   -6.536   -5.800   -5.109   -4.582   -4.429
 -16.103  -15.791  -15.265  -14.558  -13.728  -12.906  -12.254  -11.970  -12.232  -13.129  -14.567  -16.357  -18.220  -19.949  -21.394  -22.469  -23.080  -23.160  -22.709  -21.828  -20.664  -19.422  -18.243  -17.200  -16.306  -15.523  -14.783  -14.063  -13.464  -13.200  -13.466  -14.189  -14.934  -15.158  -14.594  -13.454  -12.225  -11.301  -10.775  -10.453  -10.091   -9.680   -9.516  -10.019  -11.380  -13.397  -15.508  -17.130  -17.919  -17.927  -17.522  -17.163  -17.112  -17.275  -17.336  -17.051  -16.487  -15.960  -15.776  -15.907  -16.069  -16.037  -15.851  -15.727  -15.720  -15.750  -15.683  -15.467  -15.069  -14.450  -13.659  -12.926  -12.527  -12.645  -13.223  -14.021  -14.745  -15.105  -14.911  -14.159  -13.061  -11.911  -10.963  -10.277   -9.790   -9.422   -9.152   -8.927   -8.679   -8.268   -7.641   -6.835   -5.970   -5.185   -4.547   -4.020   -3.585   -3.220   -2.963   -2.952
 -13.967  -13.627  -13.144  -12.534  -11.911  -11.375  -11.053  -11.103  -11.637  -12.662  -14.051  -15.645  -17.283  -18.858  -20.304  -21.540  -22.436  -22.885  -22.844  -22.353  -21.540  -20.568  -19.584  -18.695  -17.958  -17.357  -16.827  -16.335  -15.951  -15.861  -16.207  -16.884  -17.470  -17.454  -16.578  -15.039  -13.296  -11.770  -10.632   -9.829   -9.265   -8.966   -9.145  -10.030  -11.689  -13.843  -15.933  -17.369  -17.843  -17.425  -16.533  -15.691  -15.215  -15.048  -14.895  -14.513  -13.884  -13.210  -12.716  -12.443  -12.220  -11.949  -11.718  -11.741  -12.096  -12.682  -13.260  -13.651  -13.726  -13.465  -12.987  -12.534  -12.416  -12.844  -13.782  -14.949  -15.918  -16.292  -15.839  -14.660  -13.126  -11.700  -10.640   -9.939   -9.388   -8.818   -8.187   -7.557   -6.935   -6.271   -5.514   -4.700   -3.923   -3.300   -2.862   -2.562   -2.352   -2.233   -2.173   -2.265
 -11.958  -11.540  -10.985  -10.388   -9.905   -9.647   -9.688  -10.068  -10.823  -11.877  -13.108  -14.417  -15.760  -17.145  -18.574  -19.995  -21.245  -22.182  -22.691  -22.765  -22.464  -21.904  -21.228  -20.556  -19.966  -19.449  -18.963  -18.471  -18.047  -17.856  -18.000  -18.393  -18.693  -18.474  -17.536  -16.012  -14.268  -12.640  -11.300  -10.324   -9.746   -9.700  -10.312  -11.646  -13.586  -15.759  -17.595  -18.559  -18.412  -17.302  -15.719  -14.246  -13.237  -12.675  -12.305  -11.863  -11.268  -10.569   -9.930   -9.397   -8.942   -8.566   -8.404   -8.697   -9.535  -10.764  -12.055  -13.078  -13.653  -13.770  -13.579  -13.329  -13.306  -13.710  -14.551  -15.576  -16.325  -16.363  -15.478  -13.872  -12.030  -10.469   -9.431   -8.798   -8.271   -7.644   -6.871   -6.064   -5.300   -4.586   -3.902   -3.257   -2.718   -2.335   -2.110   -1.993   -1.953   -1.970   -2.018   -2.160
 -10.853  -10.318   -9.608   -8.909   -8.470   -8.412   -8.719   -9.332  -10.158  -11.090  -12.029  -12.935  -13.883  -14.983  -16.310  -17.845  -19.431  -20.866  -21.993  -22.726  -23.045  -23.012  -22.727  -22.308  -21.832  -21.309  -20.703  -20.024  -19.351  -18.826  -18.559  -18.505  -18.433  -18.049  -17.204  -15.985  -14.634  -13.364  -12.310  -11.606  -11.402  -11.862  -13.046  -14.883  -17.089  -19.191  -20.614  -20.907  -19.940  -17.957  -15.530  -13.272  -11.591  -10.518   -9.827   -9.273   -8.700   -8.069   -7.445   -6.879   -6.427   -6.144   -6.218   -6.865   -8.175   -9.947  -11.791  -13.295  -14.251  -14.660  -14.699  -14.582  -14.520  -14.664  -15.049  -15.516  -15.679  -15.160  -13.823  -11.939  -10.008   -8.507   -7.579   -7.048   -6.589   -6.010   -5.280   -4.529   -3.846   -3.270   -2.785   -2.399   -2.148   -2.032   -1.995   -2.007   -2.061   -2.144   -2.238   -2.395
 -11.160  -10.508   -9.592   -8.717   -8.223   -8.224   -8.643   -9.291  -10.005  -10.639  -11.126  -11.502  -11.929  -12.621  -13.716  -15.218  -17.001  -18.860  -20.593  -22.010  -23.009  -23.580  -23.765  -23.641  -23.274  -22.680  -21.874  -20.895  -19.849  -18.881  -18.109  -17.534  -17.064  -16.521  -15.820  -15.013  -14.228  -13.580  -13.154  -13.068  -13.493  -14.586  -16.353  -18.627  -21.018  -23.004  -24.020  -23.695  -21.990  -19.252  -16.087  -13.121  -10.769   -9.126   -8.038   -7.267   -6.629   -6.038   -5.481   -5.014   -4.693   -4.636   -5.000   -5.996   -7.648   -9.737  -11.850  -13.575  -14.716  -15.319  -15.556  -15.581  -15.484  -15.348  -15.203  -14.972  -14.430  -13.340  -11.676   -9.708   -7.885   -6.539   -5.720   -5.228   -4.802   -4.307   -3.725   -3.160   -2.694   -2.338   -2.097   -1.989   -1.995   -2.082   -2.185   -2.269   -2.356   -2.467   -2.581   -2.732
 -12.757  -12.035  -10.962   -9.921   -9.316   -9.281   -9.660  -10.175  -10.601  -10.775  -10.692  -10.433  -10.264  -10.431  -11.147  -12.455  -14.254  -16.367  -18.563  -20.604  -22.282  -23.480  -24.176  -24.386  -24.155  -23.510  -22.499  -21.214  -19.785  -18.370  -17.108  -16.067  -15.227  -14.530  -13.942  -13.502  -13.279  -13.304  -13.588  -14.191  -15.224  -16.798  -18.897  -21.333  -23.713  -25.521  -26.223  -25.516  -23.446  -20.396  -16.955  -13.681  -10.955   -8.893   -7.422   -6.381   -5.586   -4.944   -4.418   -4.042   -3.882   -4.046   -4.679   -5.891   -7.665   -9.769  -11.823  -13.475  -14.595  -15.266  -15.673  -15.883  -15.870  -15.586  -15.042  -14.233  -13.110  -11.609   -9.795   -7.906   -6.256   -5.040   -4.256   -3.750   -3.349   -2.946   -2.555   -2.216   -1.976   -1.849   -1.820   -1.908   -2.079   -2.266   -2.420   -2.504   -2.578   -2.680   -2.778   -2.924
 -14.932  -14.237  -13.135  -12.042  -11.392  -11.312  -11.593  -11.890  -11.941  -11.596  -10.892  -10.012   -9.237   -8.887   -9.161  -10.134  -11.746  -13.877  -16.318  -18.789  -21.001  -22.738  -23.893  -24.433  -24.377  -23.755  -22.631  -21.128  -19.399  -17.637  -16.003  -14.614  -13.518  -12.699  -12.180  -12.001  -12.218  -12.807  -13.681  -14.803  -16.170  -17.861  -19.866  -22.064  -24.131  -25.607  -26.051  -25.235  -23.253  -20.480  -17.400  -14.428  -11.808   -9.659   -7.983   -6.704   -5.729   -4.995   -4.459   -4.152   -4.123   -4.452   -5.216   -6.454   -8.092   -9.910  -11.592  -12.894  -13.768  -14.369  -14.861  -15.264  -15.399  -15.102  -14.349  -13.199  -11.740  -10.055   -8.267   -6.569   -5.110   -4.008   -3.257   -2.752   -2.396   -2.125   -1.917   -1.780   -1.736   -1.776   -1.907   -2.097   -2.320   -2.506   -2.604   -2.623   -2.625   -2.671   -2.739   -2.868
 -16.946  -16.358  -15.408  -14.451  -13.889  -13.814  -14.008  -14.104  -13.805  -13.004  -11.803  -10.424   -9.190   -8.414   -8.297   -8.892  -10.197  -12.119  -14.507  -17.081  -19.514  -21.531  -22.960  -23.750  -23.866  -23.338  -22.219  -20.635  -18.764  -16.800  -14.956  -13.385  -12.156  -11.296  -10.829  -10.826  -11.335  -12.291  -13.539  -14.907  -16.306  -17.756  -19.298  -20.890  -22.329  -23.290  -23.477  -22.741  -21.209  -19.184  -16.984  -14.817  -12.768  -10.888   -9.232   -7.851   -6.763   -5.959   -5.428   -5.177   -5.229   -5.603   -6.331   -7.380   -8.648   -9.927  -11.016  -11.767  -12.238  -12.628  -13.100  -13.594  -13.841  -13.586  -12.773  -11.519   -9.996   -8.384   -6.823   -5.415   -4.231   -3.296   -2.628   -2.186   -1.929   -1.798   -1.742   -1.766   -1.858   -2.021   -2.232   -2.461   -2.659   -2.763   -2.740   -2.630   -2.521   -2.483   -2.504   -2.627
 -18.385  -17.979  -17.318  -16.675  -16.315  -16.318  -16.475  -16.437  -15.922  -14.851  -13.360  -11.718  -10.246   -9.238   -8.867   -9.164  -10.120  -11.675  -13.716  -16.000  -18.238  -20.148  -21.557  -22.393  -22.619  -22.210  -21.194  -19.669  -17.798  -15.794  -13.890  -12.267  -11.026  -10.194   -9.810   -9.933  -10.602  -11.735  -13.114  -14.496  -15.736  -16.797  -17.738  -18.596  -19.291  -19.677  -19.608  -19.065  -18.157  -17.076  -15.944  -14.762  -13.471  -12.067  -10.623   -9.273   -8.152   -7.331   -6.815   -6.593   -6.623   -6.902   -7.408   -8.071   -8.788   -9.420   -9.843  -10.019  -10.055  -10.183  -10.533  -10.999  -11.257  -11.038  -10.290   -9.148   -7.834   -6.535   -5.367   -4.366   -3.522   -2.845   -2.343   -2.027   -1.884   -1.859   -1.910   -2.024   -2.198   -2.420   -2.663   -2.885   -3.020   -3.014   -2.860   -2.607   -2.377   -2.253   -2.234   -2.341
 -19.261  -19.060  -18.777  -18.519  -18.446  -18.577  -18.739  -18.653  -18.069  -16.947  -15.406  -13.742  -12.247  -11.199  -10.724  -10.840  -11.488  -12.616  -14.101  -15.773  -17.421  -18.846  -19.923  -20.591  -20.798  -20.481  -19.616  -18.240  -16.488  -14.576  -12.734  -11.154   -9.963   -9.197   -8.886   -9.082   -9.792  -10.922  -12.243  -13.513  -14.543  -15.290  -15.779  -16.078  -16.208  -16.181  -16.007  -15.747  -15.465  -15.219  -14.962  -14.593  -13.960  -13.009  -11.817  -10.561   -9.434   -8.573   -8.005   -7.678   -7.559   -7.599   -7.753   -7.935   -8.085   -8.128   -8.009   -7.764   -7.510   -7.437   -7.650   -8.003   -8.220   -8.049   -7.475   -6.632   -5.728   -4.910   -4.231   -3.673   -3.182   -2.766   -2.449   -2.273   -2.218   -2.260   -2.360   -2.501   -2.678   -2.893   -3.101   -3.244   -3.285   -3.177   -2.928   -2.596   -2.300   -2.134   -2.074   -2.178
 -19.735  -19.753  -19.837  -19.988  -20.206  -20.476  -20.681  -20.607  -20.080  -19.058  -17.652  -16.113  -14.728  -13.735  -13.243  -13.237  -13.654  -14.362  -15.223  -16.139  -16.991  -17.710  -18.266  -18.626  -18.709  -18.435  -17.716  -16.539  -15.000  -13.285  -11.595  -10.121   -8.987   -8.242   -7.930   -8.087   -8.705   -9.685  -10.825  -11.918  -12.794  -13.386  -13.691  -13.776  -13.717  -13.630  -13.617  -13.739  -13.991  -14.320  -14.596  -14.671  -14.412  -13.735  -12.692  -11.471  -10.287   -9.296   -8.547   -7.995   -7.594   -7.311   -7.083   -6.861   -6.595   -6.270   -5.891   -5.505   -5.200   -5.093   -5.232   -5.488   -5.661   -5.596   -5.276   -4.830   -4.390   -4.048   -3.806   -3.595   -3.386   -3.180   -3.032   -2.978   -3.009   -3.096   -3.204   -3.318   -3.421   -3.496   -3.537   -3.524   -3.434   -3.246   -2.970   -2.653   -2.382   -2.232   -2.177   -2.268
 -19.965  -20.158  -20.559  -21.057  -21.534  -21.925  -22.155  -22.105  -21.669  -20.813  -19.620  -18.289  -17.061  -16.125  -15.601  -15.483  -15.665  -15.987  -16.292  -16.492  -16.584  -16.623  -16.655  -16.695  -16.658  -16.421  -15.859  -14.923  -13.679  -12.259  -10.819   -9.478   -8.362   -7.544   -7.096   -7.052   -7.417   -8.115   -8.977   -9.842  -10.591  -11.137  -11.464  -11.621  -11.711  -11.891  -12.272  -12.857  -13.558  -14.230  -14.742  -14.969  -14.811  -14.195  -13.164  -11.886  -10.580   -9.406   -8.398   -7.555   -6.850   -6.278   -5.775   -5.322   -4.892   -4.505   -4.160   -3.884   -3.722   -3.738   -3.908   -4.161   -4.358   -4.431   -4.378   -4.263   -4.169   -4.151   -4.171   -4.168   -4.125   -4.091   -4.126   -4.222   -4.369   -4.520   -4.634   -4.678   -4.611   -4.428   -4.183   -3.888   -3.596   -3.324   -3.074   -2.850   -2.679   -2.601   -2.585   -2.693
 -20.004  -20.311  -20.927  -21.658  -22.294  -22.731  -22.929  -22.848  -22.462  -21.757  -20.778  -19.666  -18.590  -17.711  -17.125  -16.849  -16.781  -16.754  -16.602  -16.269  -15.819  -15.375  -15.057  -14.899  -14.825  -14.687  -14.345  -13.737  -12.892  -11.886  -10.780   -9.639   -8.534   -7.551   -6.801   -6.382   -6.337   -6.614   -7.090   -7.657   -8.227   -8.723   -9.116   -9.453   -9.841  -10.422  -11.267  -12.291  -13.337  -14.223  -14.823  -15.061  -14.868  -14.204  -13.107  -11.747  -10.332   -9.009   -7.824   -6.780   -5.887   -5.144   -4.547   -4.077   -3.717   -3.479   -3.348   -3.307   -3.376   -3.548   -3.826   -4.133   -4.418   -4.646   -4.796   -4.878   -4.942   -5.032   -5.122   -5.183   -5.247   -5.384   -5.642   -5.978   -6.322   -6.589   -6.727   -6.677   -6.382   -5.869   -5.220   -4.573   -4.021   -3.617   -3.367   -3.220   -3.164   -3.181   -3.239   -3.378
 -19.855  -20.222  -20.946  -21.771  -22.430  -22.796  -22.842  -22.616  -22.170  -21.521  -20.712  -19.806  -18.906  -18.103  -17.472  -17.031  -16.703  -16.367  -15.894  -15.246  -14.526  -13.874  -13.421  -13.231  -13.231  -13.300  -13.292  -13.134  -12.823  -12.363  -11.717  -10.872   -9.814   -8.629   -7.486   -6.560   -5.968   -5.705   -5.699   -5.868   -6.163   -6.529   -6.931   -7.401   -8.035   -8.935  -10.102  -11.409  -12.651  -13.643  -14.284  -14.509  -14.266  -13.548  -12.413  -11.033   -9.613   -8.305   -7.143   -6.113   -5.230   -4.519   -3.991   -3.659   -3.507   -3.513   -3.628   -3.808   -4.049   -4.358   -4.708   -5.080   -5.458   -5.806   -6.051   -6.176   -6.220   -6.252   -6.293   -6.353   -6.506   -6.856   -7.409   -8.073   -8.684   -9.119   -9.305   -9.164   -8.653   -7.820   -6.781   -5.752   -4.875   -4.240   -3.885   -3.729   -3.717   -3.786   -3.896   -4.064
 -19.583  -19.963  -20.701  -21.495  -22.050  -22.198  -21.946  -21.425  -20.774  -20.066  -19.343  -18.617  -17.914  -17.243  -16.631  -16.075  -15.544  -14.978  -14.326  -13.572  -12.804  -12.156  -11.751  -11.643  -11.809  -12.150  -12.573  -12.983  -13.331  -13.535  -13.476  -13.021  -12.099  -10.779   -9.280   -7.849   -6.689   -5.845   -5.300   -5.006   -4.949   -5.108   -5.433   -5.929   -6.652   -7.636   -8.849  -10.150  -11.361  -12.326  -12.940  -13.154  -12.909  -12.203  -11.117   -9.835   -8.569   -7.462   -6.547   -5.768   -5.110   -4.613   -4.313   -4.222   -4.340   -4.580   -4.888   -5.199   -5.524   -5.859   -6.214   -6.593   -7.001   -7.367   -7.590   -7.637   -7.536   -7.427   -7.373   -7.437   -7.715   -8.320   -9.219  -10.250  -11.154  -11.776  -12.017  -11.821  -11.168  -10.090   -8.750   -7.361   -6.128   -5.191   -4.589   -4.271   -4.187   -4.238   -4.359   -4.538
 -19.334  -19.693  -20.392  -21.084  -21.435  -21.251  -20.580  -19.626  -18.622  -17.734  -16.999  -16.404  -15.898  -15.403  -14.880  -14.303  -13.676  -13.011  -12.312  -11.599  -10.925  -10.392  -10.092  -10.100  -10.426  -11.052  -11.920  -12.941  -13.996  -14.923  -15.491  -15.504  -14.838  -13.547  -11.860  -10.083   -8.481   -7.156   -6.123   -5.397   -5.003   -4.935   -5.140   -5.564   -6.192   -7.007   -7.950   -8.918   -9.802  -10.524  -10.997  -11.167  -10.948  -10.336   -9.412   -8.357   -7.383   -6.629   -6.110   -5.753   -5.516   -5.380   -5.414   -5.641   -6.016   -6.454   -6.873   -7.225   -7.519   -7.788   -8.068   -8.380   -8.703   -8.980   -9.068   -8.932   -8.658   -8.405   -8.293   -8.409   -8.850   -9.715  -10.933  -12.275  -13.431  -14.203  -14.495  -14.270  -13.531  -12.310  -10.760   -9.078   -7.509   -6.239   -5.348   -4.807   -4.554   -4.527   -4.618   -4.805
 -19.231  -19.569  -20.212  -20.777  -20.889  -20.343  -19.205  -17.738  -16.291  -15.102  -14.262  -13.731  -13.384  -13.071  -12.685  -12.188  -11.587  -10.946  -10.319   -9.725   -9.193   -8.790   -8.576   -8.661   -9.096   -9.926  -11.158  -12.713  -14.415  -15.990  -17.150  -17.642  -17.332  -16.253  -14.626  -12.770  -10.967   -9.360   -8.019   -7.003   -6.375   -6.139   -6.218   -6.500   -6.901   -7.339   -7.754   -8.117   -8.410   -8.657   -8.835   -8.870   -8.675   -8.219   -7.556   -6.846   -6.267   -5.961   -5.933   -6.090   -6.336   -6.648   -7.072   -7.623   -8.229   -8.793   -9.226   -9.524   -9.737   -9.904  -10.060  -10.244  -10.432  -10.552  -10.465  -10.154   -9.733   -9.393   -9.287   -9.495  -10.100  -11.147  -12.540  -14.017  -15.270  -16.066  -16.327  -16.056  -15.260  -13.960  -12.279  -10.403   -8.611   -7.112   -5.996   -5.262   -4.870   -4.750   -4.824   -5.014
 -19.273  -19.608  -20.213  -20.676  -20.587  -19.728  -18.162  -16.199  -14.276  -12.738  -11.727  -11.190  -10.944  -10.778  -10.539  -10.170   -9.696   -9.184   -8.694   -8.245   -7.847   -7.535   -7.386   -7.491   -7.951   -8.879  -10.326  -12.235  -14.401  -16.474  -18.116  -19.046  -19.126  -18.397  -17.048  -15.354  -13.596  -11.962  -10.542   -9.435   -8.717   -8.385   -8.348   -8.447   -8.526   -8.469   -8.238   -7.853   -7.423   -7.062   -6.831   -6.659   -6.465   -6.175   -5.821   -5.519   -5.401   -5.581   -6.062   -6.738   -7.484   -8.246   -9.031   -9.841  -10.591  -11.184  -11.571  -11.790  -11.898  -11.966  -12.033  -12.113  -12.187  -12.165  -11.962  -11.560  -11.096  -10.771  -10.723  -11.008  -11.665  -12.700  -13.999  -15.337  -16.416  -17.030  -17.130  -16.734  -15.864  -14.525  -12.802  -10.883   -9.054   -7.524   -6.371   -5.590   -5.146   -5.021   -5.094   -5.301
 -19.242  -19.578  -20.179  -20.609  -20.408  -19.342  -17.460  -15.109  -12.775  -10.898   -9.689   -9.107   -8.917   -8.868   -8.764   -8.554   -8.253   -7.918   -7.589   -7.280   -6.986   -6.736   -6.623   -6.723   -7.149   -8.039   -9.523  -11.590  -14.009  -16.401  -18.377  -19.658  -20.117  -19.782  -18.805  -17.424  -15.893  -14.419  -13.125  -12.104  -11.415  -11.034  -10.860  -10.728  -10.442   -9.876   -9.005   -7.916   -6.813   -5.889   -5.260   -4.894   -4.686   -4.543   -4.475   -4.555   -4.894   -5.551   -6.496   -7.628   -8.811   -9.950  -11.019  -11.980  -12.770  -13.321  -13.629  -13.763  -13.803  -13.832  -13.871  -13.913  -13.940  -13.884  -13.683  -13.336  -12.962  -12.722  -12.727  -13.001  -13.529  -14.282  -15.175  -16.035  -16.657  -16.884  -16.678  -16.080  -15.110  -13.777  -12.140  -10.379   -8.737   -7.401   -6.414   -5.749   -5.390   -5.310   -5.419   -5.661
 -18.696  -19.052  -19.682  -20.124  -19.918  -18.790  -16.760  -14.181  -11.587   -9.465   -8.108   -7.482   -7.325   -7.354   -7.369   -7.303   -7.191   -7.059   -6.890   -6.697   -6.482   -6.291   -6.206   -6.284   -6.631   -7.408   -8.798  -10.835  -13.326  -15.856  -18.031  -19.563  -20.324  -20.342  -19.725  -18.687  -17.467  -16.267  -15.221  -14.391  -13.786  -13.373  -13.047  -12.658  -12.014  -10.978   -9.574   -7.954   -6.386   -5.127   -4.298   -3.845   -3.650   -3.625   -3.757   -4.122   -4.814   -5.837   -7.152   -8.630  -10.131  -11.541  -12.776  -13.788  -14.530  -15.001  -15.237  -15.325  -15.351  -15.382  -15.445  -15.518  -15.571  -15.558  -15.456  -15.255  -15.039  -14.912  -14.937  -15.097  -15.340  -15.618  -15.868  -16.031  -16.002  -15.701  -15.107  -14.277  -13.219  -11.958  -10.552   -9.133   -7.880   -6.909   -6.226   -5.785   -5.563   -5.577   -5.735   -6.003
 -17.247  -17.597  -18.259  -18.778  -18.655  -17.597  -15.601  -13.009  -10.362   -8.183   -6.780   -6.138   -5.998   -6.063   -6.151   -6.206   -6.254   -6.276   -6.253   -6.164   -6.034   -5.913   -5.852   -5.908   -6.168   -6.812   -8.046   -9.940  -12.337  -14.850  -17.086  -18.752  -19.714  -19.986  -19.666  -18.940  -18.044  -17.165  -16.415  -15.806  -15.303  -14.857  -14.381  -13.752  -12.792  -11.402   -9.638   -7.728   -5.983   -4.678   -3.890   -3.526   -3.428   -3.493   -3.751   -4.281   -5.158   -6.387   -7.891   -9.547  -11.211  -12.754  -14.050  -15.031  -15.681  -16.063  -16.247  -16.317  -16.349  -16.407  -16.507  -16.627  -16.727  -16.793  -16.807  -16.765  -16.701  -16.648  -16.649  -16.650  -16.571  -16.344  -15.939  -15.385  -14.687  -13.853  -12.903  -11.877  -10.802   -9.706   -8.626   -7.637   -6.845   -6.287   -5.940   -5.761   -5.718   -5.824   -6.041   -6.325
 -14.834  -15.137  -15.809  -16.406  -16.434  -15.576  -13.798  -11.410   -8.942   -6.908   -5.596   -4.989   -4.845   -4.896   -5.002   -5.109   -5.226   -5.344   -5.418   -5.431   -5.387   -5.354   -5.342   -5.401   -5.615   -6.154   -7.216   -8.898  -11.056  -13.392  -15.543  -17.216  -18.271  -18.691  -18.574  -18.117  -17.528  -16.978  -16.519  -16.122  -15.720  -15.238  -14.628  -13.794  -12.620  -11.030   -9.123   -7.174   -5.526   -4.409   -3.848   -3.699   -3.770   -3.956   -4.286   -4.869   -5.783   -7.016   -8.510  -10.143  -11.796  -13.322  -14.570  -15.459  -16.000  -16.296  -16.430  -16.480  -16.507  -16.580  -16.701  -16.847  -16.984  -17.108  -17.203  -17.264  -17.285  -17.268  -17.220  -17.080  -16.758  -16.157  -15.275  -14.191  -13.012  -11.811  -10.641   -9.545   -8.544   -7.671   -6.940   -6.368   -5.988   -5.778   -5.724   -5.770   -5.902   -6.124   -6.387   -6.710
 -11.846  -12.072  -12.717  -13.357  -13.558  -12.978  -11.557   -9.556   -7.464   -5.751   -4.641   -4.103   -3.934   -3.933   -3.980   -4.063   -4.184   -4.315   -4.436   -4.533   -4.604   -4.678   -4.760   -4.881   -5.112   -5.595   -6.500   -7.899   -9.712  -11.716  -13.623  -15.172  -16.195  -16.663  -16.668  -16.414  -16.094  -15.841  -15.638  -15.419  -15.088  -14.581  -13.880  -12.930  -11.656  -10.046   -8.220   -6.456   -5.069   -4.257   -3.989   -4.085   -4.343   -4.654   -5.050   -5.612   -6.420   -7.489   -8.777  -10.209  -11.671  -13.028  -14.131  -14.882  -15.305  -15.507  -15.585  -15.600  -15.607  -15.656  -15.767  -15.917  -16.063  -16.205  -16.330  -16.427  -16.469  -16.447  -16.354  -16.136  -15.697  -14.935  -13.852  -12.552  -11.185   -9.863   -8.677   -7.666   -6.851   -6.229   -5.814   -5.562   -5.470   -5.497   -5.632   -5.850   -6.149   -6.489   -6.823   -7.179
  -9.057   -9.185   -9.748  -10.387  -10.715  -10.417   -9.390   -7.861   -6.253   -4.940   -4.085   -3.633   -3.432   -3.355   -3.323   -3.338   -3.410   -3.518   -3.664   -3.829   -4.020   -4.222   -4.430   -4.655   -4.936   -5.403   -6.169   -7.292   -8.712  -10.291  -11.832  -13.126  -14.006  -14.430  -14.489  -14.375  -14.263  -14.233  -14.209  -14.091  -13.796  -13.291  -12.569  -11.616  -10.395   -8.942   -7.384   -5.960   -4.914   -4.397   -4.344   -4.591   -4.974   -5.379   -5.812   -6.327   -6.954   -7.725   -8.654   -9.713  -10.824  -11.881  -12.749  -13.327  -13.628  -13.737  -13.755  -13.721  -13.692  -13.705  -13.788  -13.923  -14.066  -14.194  -14.309  -14.389  -14.398  -14.350  -14.239  -14.018  -13.583  -12.861  -11.824  -10.603   -9.320   -8.132   -7.124   -6.334   -5.772   -5.420   -5.249   -5.218   -5.279   -5.423   -5.659   -5.975   -6.383   -6.822   -7.215   -7.587
  -7.270   -7.280   -7.704   -8.251   -8.608   -8.494   -7.811   -6.732   -5.591   -4.658   -4.040   -3.668   -3.434   -3.270   -3.167   -3.115   -3.142   -3.241   -3.406   -3.638   -3.927   -4.242   -4.571   -4.889   -5.239   -5.724   -6.410   -7.334   -8.434   -9.614  -10.762  -11.723  -12.390  -12.708  -12.767  -12.754  -12.792  -12.885  -12.927  -12.809  -12.521  -12.060  -11.416  -10.592   -9.577   -8.428   -7.255   -6.236   -5.526   -5.213   -5.243   -5.502   -5.889   -6.312   -6.741   -7.162   -7.563   -7.973   -8.426   -8.974   -9.597  -10.236  -10.778  -11.140  -11.304  -11.329  -11.289  -11.216  -11.165  -11.151  -11.218  -11.338  -11.460  -11.572  -11.651  -11.677  -11.639  -11.564  -11.463  -11.291  -10.962  -10.383   -9.565   -8.594   -7.598   -6.704   -5.994   -5.494   -5.200   -5.093   -5.126   -5.228   -5.374   -5.550   -5.789   -6.122   -6.550   -7.014   -7.422   -7.816
  -6.927   -6.833   -7.076   -7.417   -7.671   -7.590   -7.095   -6.330   -5.547   -4.904   -4.440   -4.094   -3.817   -3.595   -3.436   -3.356   -3.371   -3.477   -3.683   -3.963   -4.313   -4.697   -5.088   -5.462   -5.877   -6.399   -7.108   -7.991   -8.964   -9.925  -10.780  -11.457  -11.909  -12.126  -12.202  -12.282  -12.422  -12.543  -12.535  -12.351  -12.043  -11.660  -11.190  -10.608   -9.907   -9.139   -8.391   -7.764   -7.347   -7.157   -7.168   -7.331   -7.603   -7.957   -8.318   -8.600   -8.747   -8.738   -8.651   -8.591   -8.602   -8.702   -8.824   -8.908   -8.917   -8.859   -8.766   -8.675   -8.622   -8.609   -8.673   -8.786   -8.900   -9.001   -9.047   -9.022   -8.944   -8.856   -8.789   -8.687   -8.488   -8.111   -7.563   -6.902   -6.254   -5.704   -5.314   -5.111   -5.076   -5.162   -5.338   -5.528   -5.717   -5.888   -6.078   -6.336   -6.700   -7.108   -7.479   -7.874
  -8.052   -7.860   -7.906   -7.995   -8.002   -7.763   -7.247   -6.590   -5.964   -5.454   -5.047   -4.691   -4.370   -4.113   -3.940   -3.863   -3.896   -4.029   -4.257   -4.563   -4.925   -5.309   -5.694   -6.070   -6.522   -7.137   -7.997   -9.035  -10.121  -11.106  -11.893  -12.447  -12.790  -12.993  -13.148  -13.340  -13.535  -13.625  -13.516  -13.231  -12.904  -12.617  -12.358  -12.052  -11.686  -11.293  -10.941  -10.675  -10.504  -10.397  -10.343  -10.361  -10.492  -10.723  -10.962  -11.087  -10.962  -10.536   -9.885   -9.139   -8.447   -7.898   -7.511   -7.258   -7.072   -6.923   -6.797   -6.690   -6.639   -6.637   -6.703   -6.819   -6.931   -7.030   -7.061   -7.020   -6.937   -6.867   -6.835   -6.815   -6.735   -6.543   -6.237   -5.865   -5.520   -5.265   -5.145   -5.169   -5.322   -5.561   -5.839   -6.099   -6.313   -6.466   -6.599   -6.764   -7.037   -7.369   -7.692   -8.098
 -10.394  -10.138  -10.029   -9.861   -9.530   -8.941   -8.159   -7.353   -6.658   -6.105   -5.658   -5.276   -4.953   -4.714   -4.563   -4.519   -4.576   -4.715   -4.924   -5.200   -5.502   -5.821   -6.128   -6.472   -6.948   -7.697   -8.793  -10.147  -11.563  -12.817  -13.771  -14.395  -14.788  -15.075  -15.362  -15.664  -15.890  -15.928  -15.729  -15.381  -15.059  -14.856  -14.750  -14.666  -14.565  -14.481  -14.450  -14.470  -14.490  -14.464  -14.372  -14.297  -14.320  -14.436  -14.559  -14.521  -14.157  -13.381  -12.229  -10.840   -9.425   -8.184   -7.249   -6.624   -6.234   -5.983   -5.822   -5.703   -5.635   -5.627   -5.681   -5.789   -5.905   -6.005   -6.067   -6.064   -6.021   -5.986   -5.995   -6.028   -6.037   -5.989   -5.856   -5.687   -5.551   -5.494   -5.544   -5.701   -5.963   -6.284   -6.647   -6.979   -7.256   -7.435   -7.558   -7.681   -7.887   -8.181   -8.476   -8.903
 -13.565  -13.311  -13.118  -12.729  -12.033  -10.990   -9.750   -8.548   -7.561   -6.821   -6.270   -5.868   -5.584   -5.414   -5.317   -5.293   -5.346   -5.435   -5.570   -5.733   -5.918   -6.100   -6.301   -6.575   -7.068   -7.947   -9.302  -11.029  -12.870  -14.532  -15.824  -16.688  -17.245  -17.675  -18.085  -18.455  -18.685  -18.684  -18.459  -18.121  -17.830  -17.679  -17.642  -17.670  -17.733  -17.847  -18.020  -18.217  -18.377  -18.422  -18.351  -18.263  -18.248  -18.305  -18.341  -18.189  -17.679  -16.686  -15.196  -13.322  -11.312   -9.486   -8.081   -7.156   -6.611   -6.295   -6.098   -5.958   -5.874   -5.845   -5.883   -5.956   -6.072   -6.197   -6.299   -6.370   -6.407   -6.434   -6.492   -6.570   -6.644   -6.684   -6.657   -6.598   -6.545   -6.539   -6.621   -6.802   -7.087   -7.467   -7.912   -8.378   -8.785   -9.082   -9.255   -9.374   -9.545   -9.815  -10.097  -10.549
 -17.160  -16.923  -16.690  -16.154  -15.128  -13.621  -11.842  -10.129   -8.725   -7.697   -7.001   -6.571   -6.333   -6.218   -6.154   -6.119   -6.117   -6.116   -6.123   -6.139   -6.146   -6.170   -6.236   -6.415   -6.882   -7.842   -9.383  -11.416  -13.661  -15.769  -17.463  -18.639  -19.420  -19.988  -20.472  -20.854  -21.064  -21.048  -20.857  -20.588  -20.357  -20.226  -20.213  -20.276  -20.405  -20.594  -20.836  -21.103  -21.317  -21.409  -21.399  -21.358  -21.373  -21.438  -21.442  -21.248  -20.694  -19.641  -18.016  -15.901  -13.580  -11.448   -9.818   -8.787   -8.216   -7.910   -7.728   -7.599   -7.508   -7.473   -7.499   -7.575   -7.686   -7.842   -8.006   -8.174   -8.333   -8.469   -8.592   -8.718   -8.839   -8.930   -8.938   -8.881   -8.780   -8.683   -8.644   -8.730   -8.979   -9.415  -10.006  -10.688  -11.323  -11.804  -12.057  -12.160  -12.253  -12.431  -12.654  -13.099
 -20.822  -20.588  -20.308  -19.636  -18.356  -16.465  -14.211  -11.993  -10.128   -8.760   -7.871   -7.359   -7.117   -6.999   -6.923   -6.844   -6.756   -6.650   -6.521   -6.387   -6.243   -6.112   -6.035   -6.111   -6.523   -7.484   -9.110  -11.332  -13.873  -16.348  -18.415  -19.915  -20.915  -21.598  -22.098  -22.446  -22.612  -22.607  -22.491  -22.333  -22.188  -22.107  -22.106  -22.177  -22.310  -22.484  -22.690  -22.907  -23.096  -23.203  -23.246  -23.279  -23.362  -23.470  -23.492  -23.307  -22.787  -21.784  -20.217  -18.157  -15.883  -13.830  -12.329  -11.451  -11.034  -10.860  -10.778  -10.707  -10.655  -10.647  -10.714  -10.828  -10.977  -11.174  -11.408  -11.696  -12.017  -12.328  -12.588  -12.794  -12.969  -13.087  -13.099  -12.967  -12.691  -12.333  -12.013  -11.878  -12.044  -12.557  -13.377  -14.371  -15.325  -16.031  -16.372  -16.415  -16.359  -16.369  -16.464  -16.911
 -24.697  -24.407  -24.006  -23.151  -21.621  -19.416  -16.766  -14.085  -11.747   -9.991   -8.833   -8.175   -7.846   -7.681   -7.564   -7.432   -7.273   -7.085   -6.870   -6.638   -6.390   -6.167   -6.006   -6.008   -6.359   -7.274   -8.886  -11.167  -13.870  -16.589  -18.931  -20.696  -21.889  -22.657  -23.146  -23.431  -23.558  -23.586  -23.572  -23.555  -23.550  -23.569  -23.633  -23.735  -23.853  -23.976  -24.087  -24.194  -24.287  -24.357  -24.417  -24.507  -24.651  -24.803  -24.867  -24.736  -24.305  -23.460  -22.130  -20.398  -18.536  -16.935  -15.885  -15.406  -15.310  -15.370  -15.434  -15.460  -15.477  -15.536  -15.662  -15.844  -16.044  -16.278  -16.583  -17.009  -17.547  -18.111  -18.594  -18.967  -19.252  -19.441  -19.477  -19.254  -18.743  -18.009  -17.270  -16.807  -16.851  -17.485  -18.618  -20.036  -21.427  -22.469  -22.990  -23.062  -22.972  -22.969  -23.081  -23.658
 -29.779  -29.354  -28.703  -27.515  -25.637  -23.066  -19.988  -16.793  -13.908  -11.654  -10.118   -9.210   -8.734   -8.501   -8.349   -8.192   -8.000   -7.775   -7.532   -7.276   -7.019   -6.778   -6.613   -6.612   -6.941   -7.804   -9.356  -11.597  -14.324  -17.134  -19.636  -21.580  -22.915  -23.740  -24.205  -24.437  -24.543  -24.624  -24.742  -24.913  -25.122  -25.345  -25.573  -25.780  -25.939  -26.028  -26.051  -26.031  -25.998  -25.985  -26.007  -26.092  -26.246  -26.428  -26.559  -26.548  -26.309  -25.758  -24.867  -23.720  -22.547  -21.657  -21.263  -21.326  -21.641  -21.966  -22.181  -22.288  -22.355  -22.457  -22.603  -22.783  -22.968  -23.189  -23.532  -24.108  -24.926  -25.830  -26.653  -27.314  -27.837  -28.248  -28.440  -28.263  -27.597  -26.543  -25.412  -24.662  -24.649  -25.518  -27.131  -29.196  -31.277  -32.985  -34.098  -34.747  -35.275  -35.925  -36.595  -37.612
 -37.602  -37.032  -35.974  -34.253  -31.819  -28.696  -25.020  -21.126  -17.479  -14.514  -12.424  -11.139  -10.437  -10.090   -9.901   -9.737   -9.548   -9.333   -9.108   -8.889   -8.689   -8.535   -8.456   -8.515   -8.867   -9.683  -11.145  -13.284  -15.908  -18.687  -21.216  -23.243  -24.654  -25.507  -25.949  -26.139  -26.249  -26.396  -26.676  -27.108  -27.657  -28.255  -28.816  -29.269  -29.568  -29.698  -29.674  -29.542  -29.371  -29.225  -29.141  -29.143  -29.245  -29.442  -29.697  -29.928  -30.052  -30.001  -29.767  -29.413  -29.111  -29.067  -29.404  -30.049  -30.774  -31.354  -31.693  -31.847  -31.920  -31.983  -32.046  -32.097  -32.145  -32.276  -32.642  -33.395  -34.538  -35.876  -37.166  -38.302  -39.312  -40.208  -40.848  -41.003  -40.530  -39.546  -38.464  -37.868  -38.239  -39.741  -42.222  -45.321  -48.562  -51.519  -54.001  -56.172  -58.342  -60.547  -62.347  -63.826
 -49.033  -48.422  -46.904  -44.524  -41.371  -37.496  -33.001  -28.160  -23.485  -19.545  -16.679  -14.836  -13.784  -13.241  -12.960  -12.773  -12.576  -12.368  -12.168  -12.019  -11.922  -11.903  -11.977  -12.181  -12.597  -13.373  -14.705  -16.645  -19.081  -21.710  -24.167  -26.177  -27.603  -28.457  -28.865  -29.018  -29.127  -29.361  -29.846  -30.626  -31.661  -32.828  -33.935  -34.822  -35.397  -35.642  -35.611  -35.384  -35.065  -34.754  -34.500  -34.351  -34.350  -34.576  -35.035  -35.666  -36.357  -37.024  -37.627  -38.194  -38.817  -39.624  -40.676  -41.877  -42.997  -43.827  -44.319  -44.561  -44.671  -44.703  -44.662  -44.559  -44.476  -44.574  -45.059  -46.091  -47.653  -49.509  -51.399  -53.209  -54.957  -56.630  -58.050  -58.982  -59.310  -59.200  -59.125  -59.684  -61.323  -64.161  -67.996  -72.450  -77.090  -81.565  -85.751  -89.766  -93.697  -97.241  -99.671 -100.663
 -63.032  -62.611  -60.742  -57.775  -53.932  -49.297  -43.930  -38.065  -32.258  -27.211  -23.401  -20.854  -19.318  -18.467  -18.015  -17.737  -17.482  -17.232  -17.026  -16.911  -16.930  -17.082  -17.370  -17.760  -18.268  -19.008  -20.160  -21.835  -23.984  -26.368  -28.676  -30.623  -32.028  -32.858  -33.214  -33.312  -33.402  -33.718  -34.429  -35.623  -37.255  -39.129  -40.932  -42.386  -43.327  -43.739  -43.715  -43.401  -42.951  -42.479  -42.055  -41.744  -41.656  -41.947  -42.692  -43.839  -45.228  -46.708  -48.188  -49.649  -51.129  -52.696  -54.376  -56.072  -57.583  -58.741  -59.528  -60.040  -60.388  -60.612  -60.725  -60.775  -60.895  -61.291  -62.189  -63.710  -65.801  -68.225  -70.755  -73.292  -75.842  -78.377  -80.751  -82.795  -84.484  -86.031  -87.854  -90.403  -93.925  -98.379 -103.507 -108.982 -114.499 -119.854 -124.979 -129.878 -134.406 -138.045 -139.934 -139.312
 -77.028  -76.999  -74.999  -71.688  -67.388  -62.208  -56.186  -49.531  -42.813  -36.832  -32.178  -28.955  -26.910  -25.700  -24.998  -24.554  -24.166  -23.798  -23.492  -23.353  -23.446  -23.779  -24.311  -24.931  -25.566  -26.283  -27.255  -28.641  -30.462  -32.571  -34.711  -36.591  -37.983  -38.785  -39.074  -39.087  -39.136  -39.506  -40.418  -42.000  -44.196  -46.738  -49.204  -51.195  -52.487  -53.063  -53.065  -52.705  -52.183  -51.632  -51.127  -50.752  -50.670  -51.106  -52.191  -53.871  -55.932  -58.150  -60.376  -62.551  -64.689  -66.839  -69.012  -71.129  -73.044  -74.641  -75.923  -76.981  -77.909  -78.748  -79.517  -80.279  -81.164  -82.354  -84.020  -86.224  -88.881  -91.803  -94.827  -97.891 -101.009 -104.178 -107.333 -110.416 -113.478 -116.715 -120.398 -124.738 -129.762 -135.312 -141.140 -147.001 -152.716 -158.174 -163.312 -168.011 -171.935 -174.439 -174.610 -171.918
 -88.470  -88.884  -86.950  -83.550  -79.085  -73.687  -67.387  -60.391  -53.265  -46.827  -41.715  -38.071  -35.656  -34.128  -33.177  -32.528  -31.950  -31.382  -30.895  -30.629  -30.720  -31.201  -31.981  -32.865  -33.688  -34.450  -35.304  -36.458  -38.019  -39.927  -41.973  -43.858  -45.291  -46.102  -46.344  -46.280  -46.268  -46.649  -47.672  -49.489  -52.034  -54.988  -57.860  -60.184  -61.701  -62.404  -62.465  -62.142  -61.670  -61.190  -60.775  -60.518  -60.608  -61.304  -62.758  -64.899  -67.476  -70.219  -72.939  -75.564  -78.108  -80.617  -83.118  -85.568  -87.884  -90.005  -91.955  -93.811  -95.649  -97.499  -99.370 -101.291 -103.335 -105.604 -108.179 -111.065 -114.185 -117.418 -120.674 -123.940 -127.260 -130.680 -134.226 -137.929 -141.874 -146.188 -150.987 -156.284 -161.952 -167.770 -173.505 -178.982 -184.096 -188.776 -192.922 -196.311 -198.588 -199.223 -197.268 -195.037
 -95.733  -96.484  -94.704  -91.394  -87.004  -81.690  -75.502  -68.653  -61.692  -55.393  -50.338  -46.654  -44.114  -42.420  -41.297  -40.460  -39.682  -38.879  -38.141  -37.671  -37.678  -38.245  -39.254  -40.427  -41.510  -42.422  -43.298  -44.384  -45.865  -47.762  -49.890  -51.929  -53.515  -54.433  -54.713  -54.639  -54.601  -54.958  -55.976  -57.795  -60.350  -63.319  -66.211  -68.568  -70.133  -70.906  -71.071  -70.894  -70.612  -70.365  -70.224  -70.284  -70.727  -71.792  -73.614  -76.100  -78.989  -81.997  -84.937  -87.742  -90.437  -93.089  -95.752  -98.436 -101.118 -103.791 -106.489 -109.273 -112.183 -115.212 -118.323 -121.481 -124.681 -127.940 -131.270 -134.651 -138.032 -141.354 -144.591 -147.776 -150.986 -154.314 -157.848 -161.670 -165.859 -170.468 -175.482 -180.788 -186.204 -191.540 -196.659 -201.489 -205.988 -210.101 -213.741 -216.765 -218.943 -219.730 -217.394 -221.500
 -98.125  -99.013  -97.378  -94.247  -90.089  -85.085  -79.322  -73.028  -66.716  -61.054  -56.511  -53.146  -50.748  -49.076  -47.896  -46.950  -46.021  -45.016  -44.039  -43.354  -43.235  -43.836  -45.037  -46.511  -47.915  -49.111  -50.216  -51.489  -53.174  -55.331  -57.787  -60.181  -62.097  -63.286  -63.774  -63.838  -63.868  -64.219  -65.135  -66.746  -68.996  -71.606  -74.159  -76.265  -77.710  -78.493  -78.785  -78.819  -78.808  -78.883  -79.119  -79.603  -80.492  -81.966  -84.107  -86.801  -89.798  -92.842  -95.764  -98.522 -101.164 -103.784 -106.474 -109.296 -112.280 -115.461 -118.876 -122.551 -126.468 -130.558 -134.718 -138.851 -142.889 -146.796 -150.555 -154.145 -157.547 -160.752 -163.782 -166.703 -169.619 -172.651 -175.921 -179.536 -183.572 -188.064 -192.974 -198.219 -203.680 -209.228 -214.718 -220.004 -224.948 -229.412 -233.336 -236.568 -238.818 -239.311 -235.794 -246.104
 -95.687  -96.483  -94.925  -91.987  -88.134  -83.579  -78.452  -72.990  -67.638  -62.924  -59.165  -56.352  -54.295  -52.811  -51.708  -50.770  -49.794  -48.700  -47.599  -46.781  -46.588  -47.228  -48.618  -50.409  -52.222  -53.874  -55.461  -57.246  -59.480  -62.231  -65.300  -68.286  -70.751  -72.430  -73.342  -73.742  -73.984  -74.388  -75.179  -76.474  -78.241  -80.277  -82.273  -83.947  -85.144  -85.864  -86.235  -86.440  -86.648  -86.982  -87.525  -88.363  -89.616  -91.397  -93.722  -96.458  -99.381 -102.273 -105.006 -107.564 -110.026 -112.513 -115.151 -118.039 -121.248 -124.831 -128.816 -133.177 -137.829 -142.635 -147.441 -152.112 -156.554 -160.719 -164.587 -168.153 -171.422 -174.413 -177.175 -179.788 -182.366 -185.049 -187.977 -191.274 -195.031 -199.288 -204.025 -209.159 -214.554 -220.042 -225.407 -230.488 -235.131 -239.229 -242.652 -245.176 -246.431 -245.606 -240.465 -250.629
 -89.072  -89.573  -88.002  -85.222  -81.683  -77.634  -73.240  -68.730  -64.455  -60.787  -57.896  -55.731  -54.127  -52.945  -52.040  -51.237  -50.363  -49.362  -48.344  -47.605  -47.513  -48.321  -49.988  -52.198  -54.580  -56.936  -59.338  -62.016  -65.182  -68.860  -72.807  -76.595  -79.794  -82.151  -83.672  -84.570  -85.144  -85.675  -86.372  -87.355  -88.625  -90.057  -91.453  -92.634  -93.501  -94.051  -94.363  -94.562  -94.784  -95.144  -95.743  -96.674  -98.028  -99.861 -102.136 -104.711 -107.386 -109.986 -112.422 -114.710 -116.951 -119.283 -121.847 -124.756 -128.095 -131.916 -136.218 -140.927 -145.903 -150.969 -155.948 -160.703 -165.149 -169.244 -172.973 -176.338 -179.352 -182.045 -184.472 -186.717 -188.895 -191.149 -193.624 -196.439 -199.683 -203.376 -207.484 -211.892 -216.464 -221.043 -225.504 -229.779 -233.771 -237.433 -240.559 -242.911 -244.044 -243.171 -238.307 -244.011
 -79.495  -79.568  -77.914  -75.238  -71.976  -68.415  -64.741  -61.154  -57.899  -55.196  -53.114  -51.578  -50.461  -49.651  -49.045  -48.510  -47.932  -47.265  -46.634  -46.312  -46.661  -47.938  -50.151  -53.044  -56.291  -59.697  -63.283  -67.202  -71.580  -76.369  -81.290  -85.923  -89.878  -92.939  -95.102  -96.528  -97.460  -98.144  -98.781  -99.505 -100.353 -101.266 -102.130 -102.836 -103.321 -103.575 -103.638 -103.593 -103.555 -103.643 -103.972 -104.649 -105.755 -107.312 -109.257 -111.451 -113.721 -115.931 -118.023 -120.035 -122.074 -124.275 -126.765 -129.646 -132.987 -136.817 -141.107 -145.752 -150.591 -155.439 -160.132 -164.552 -168.628 -172.330 -175.655 -178.608 -181.209 -183.496 -185.526 -187.380 -189.167 -191.013 -193.051 -195.397 -198.125 -201.266 -204.791 -208.626 -212.656 -216.774 -220.889 -224.924 -228.805 -232.410 -235.582 -238.049 -239.440 -239.011 -235.130 -236.201
 -68.654  -68.283  -66.526  -63.921  -60.896  -57.760  -54.712  -51.903  -49.485  -47.564  -46.144  -45.160  -44.511  -44.120  -43.910  -43.809  -43.753  -43.739  -43.883  -44.431  -45.696  -47.916  -51.109  -55.083  -59.550  -64.294  -69.254  -74.481  -80.004  -85.723  -91.368  -96.585 -101.058 -104.614 -107.245 -109.064 -110.263 -111.051 -111.623 -112.127 -112.634 -113.129 -113.550 -113.827 -113.907 -113.774 -113.447 -112.992 -112.509 -112.120 -111.950 -112.117 -112.704 -113.724 -115.116 -116.760 -118.517 -120.284 -122.026 -123.783 -125.648 -127.728 -130.113 -132.870 -136.032 -139.604 -143.535 -147.716 -151.996 -156.217 -160.246 -163.995 -167.421 -170.512 -173.274 -175.720 -177.872 -179.766 -181.453 -182.999 -184.496 -186.053 -187.784 -189.792 -192.155 -194.910 -198.052 -201.536 -205.289 -209.225 -213.256 -217.290 -221.224 -224.914 -228.193 -230.772 -232.318 -232.179 -229.120 -227.047
 -58.524  -57.816  -56.019  -53.523  -50.740  -47.984  -45.445  -43.236  -41.438  -40.093  -39.193  -38.679  -38.484  -38.558  -38.868  -39.391  -40.121  -41.082  -42.383  -44.211  -46.813  -50.368  -54.883  -60.172  -65.944  -71.933  -78.001  -84.115  -90.265  -96.358 -102.195 -107.519 -112.100 -115.806 -118.619 -120.613 -121.926 -122.734 -123.215 -123.520 -123.739 -123.891 -123.941 -123.835 -123.528 -122.997 -122.258 -121.369 -120.424 -119.541 -118.845 -118.452 -118.447 -118.850 -119.618 -120.661 -121.880 -123.201 -124.602 -126.111 -127.791 -129.705 -131.896 -134.386 -137.175 -140.244 -143.535 -146.956 -150.387 -153.717 -156.859 -159.763 -162.416 -164.821 -166.987 -168.929 -170.661 -172.212 -173.620 -174.936 -176.231 -177.592 -179.114 -180.886 -182.975 -185.420 -188.228 -191.374 -194.814 -198.486 -202.327 -206.257 -210.172 -213.932 -217.333 -220.089 -221.826 -221.996 -219.650 -215.977
 -50.999  -50.154  -48.469  -46.215  -43.770  -41.422  -39.340  -37.606  -36.273  -35.366  -34.882  -34.788  -35.052  -35.640  -36.563  -37.844  -39.513  -41.591  -44.142  -47.292  -51.205  -55.997  -61.652  -67.961  -74.605  -81.280  -87.806  -94.126 -100.238 -106.105 -111.617 -116.613 -120.937 -124.488 -127.233 -129.209 -130.510 -131.268 -131.642 -131.773 -131.756 -131.628 -131.374 -130.951 -130.319 -129.457 -128.385 -127.162 -125.877 -124.638 -123.556 -122.738 -122.259 -122.147 -122.379 -122.899 -123.642 -124.559 -125.635 -126.882 -128.325 -129.988 -131.869 -133.955 -136.222 -138.636 -141.145 -143.679 -146.161 -148.526 -150.735 -152.778 -154.660 -156.395 -157.992 -159.460 -160.813 -162.069 -163.255 -164.409 -165.581 -166.835 -168.246 -169.881 -171.793 -174.015 -176.555 -179.400 -182.523 -185.887 -189.448 -193.146 -196.897 -200.575 -203.985 -206.854 -208.800 -209.315 -207.632 -203.600
 -47.443  -46.702  -45.340  -43.540  -41.615  -39.797  -38.210  -36.918  -35.958  -35.377  -35.196  -35.435  -36.067  -37.098  -38.550  -40.472  -42.890  -45.792  -49.175  -53.108  -57.700  -63.055  -69.144  -75.758  -82.562  -89.242  -95.600 -101.575 -107.188 -112.456 -117.345 -121.770 -125.633 -128.853 -131.387 -133.240 -134.464 -135.155 -135.442 -135.449 -135.270 -134.948 -134.481 -133.839 -132.989 -131.921 -130.661 -129.269 -127.831 -126.440 -125.189 -124.161 -123.420 -122.993 -122.868 -123.015 -123.396 -123.982 -124.760 -125.728 -126.887 -128.223 -129.714 -131.324 -133.016 -134.755 -136.497 -138.194 -139.805 -141.307 -142.698 -143.995 -145.219 -146.386 -147.505 -148.580 -149.620 -150.639 -151.659 -152.705 -153.811 -155.020 -156.385 -157.954 -159.768 -161.848 -164.198 -166.809 -169.661 -172.729 -175.983 -179.378 -182.850 -186.292 -189.539 -192.349 -194.374 -195.145 -194.002 -190.307
 -48.278  -47.869  -47.013  -45.865  -44.644  -43.485  -42.453  -41.562  -40.856  -40.398  -40.274  -40.552  -41.239  -42.363  -43.948  -46.040  -48.641  -51.696  -55.151  -59.037  -63.463  -68.544  -74.283  -80.492  -86.849  -93.031  -98.826 -104.166 -109.079 -113.615 -117.792 -121.581 -124.925 -127.761 -130.044 -131.754 -132.911 -133.577 -133.850 -133.833 -133.608 -133.220 -132.678 -131.961 -131.050 -129.944 -128.676 -127.309 -125.918 -124.581 -123.367 -122.339 -121.541 -120.994 -120.695 -120.627 -120.771 -121.112 -121.639 -122.342 -123.205 -124.201 -125.294 -126.445 -127.616 -128.774 -129.885 -130.918 -131.859 -132.710 -133.495 -134.246 -134.991 -135.745 -136.513 -137.294 -138.096 -138.932 -139.819 -140.778 -141.830 -143.005 -144.337 -145.863 -147.610 -149.593 -151.808 -154.242 -156.874 -159.683 -162.645 -165.726 -168.879 -172.018 -175.008 -177.643 -179.621 -180.523 -179.769 -176.622
 -52.631  -52.708  -52.400  -51.923  -51.411  -50.897  -50.354  -49.736  -49.051  -48.397  -47.928  -47.786  -48.039  -48.732  -49.899  -51.567  -53.708  -56.244  -59.092  -62.262  -65.873  -70.072  -74.905  -80.229  -85.746  -91.135  -96.171 -100.770 -104.950 -108.773 -112.282 -115.483 -118.352 -120.849 -122.929 -124.559 -125.732 -126.483 -126.875 -126.991 -126.894 -126.624 -126.191 -125.588 -124.805 -123.852 -122.765 -121.604 -120.433 -119.310 -118.284 -117.399 -116.685 -116.159 -115.819 -115.661 -115.676 -115.859 -116.203 -116.696 -117.312 -118.020 -118.784 -119.569 -120.344 -121.081 -121.755 -122.346 -122.852 -123.290 -123.694 -124.102 -124.541 -125.025 -125.555 -126.128 -126.751 -127.437 -128.205 -129.071 -130.055 -131.177 -132.462 -133.939 -135.629 -137.539 -139.660 -141.967 -144.431 -147.032 -149.746 -152.550 -155.412 -158.269 -161.013 -163.470 -165.378 -166.368 -165.919 -163.319
 -58.443  -58.989  -59.070  -59.037  -58.980  -58.864  -58.577  -57.992  -57.076  -55.937  -54.789  -53.852  -53.275  -53.129  -53.454  -54.263  -55.520  -57.129  -58.991  -61.105  -63.587  -66.606  -70.251  -74.430  -78.895  -83.343  -87.544  -91.398  -94.905  -98.115 -101.076 -103.812 -106.327 -108.599 -110.598 -112.281 -113.624 -114.632 -115.338 -115.794 -116.039 -116.102 -115.991 -115.701 -115.232 -114.601 -113.846 -113.017 -112.165 -111.331 -110.553 -109.863 -109.288 -108.845 -108.539 -108.372 -108.344 -108.457 -108.708 -109.081 -109.548 -110.074 -110.627 -111.180 -111.711 -112.200 -112.624 -112.971 -113.242 -113.458 -113.656 -113.871 -114.128 -114.440 -114.808 -115.229 -115.711 -116.267 -116.916 -117.679 -118.575 -119.623 -120.851 -122.283 -123.937 -125.814 -127.891 -130.126 -132.481 -134.927 -137.446 -140.031 -142.666 -145.309 -147.878 -150.224 -152.115 -153.212 -153.046 -150.941
 -63.233  -64.053  -64.199  -64.202  -64.180  -64.083  -63.738  -62.950  -61.636  -59.890  -57.954  -56.119  -54.596  -53.488  -52.839  -52.653  -52.891  -53.459  -54.260  -55.282  -56.619  -58.443  -60.859  -63.833  -67.185  -70.654  -74.033  -77.211  -80.166  -82.924  -85.518  -87.974  -90.311  -92.534  -94.621  -96.536  -98.235  -99.697 -100.922 -101.919 -102.703 -103.280 -103.649 -103.805 -103.758 -103.529 -103.153 -102.672 -102.125 -101.548 -100.977 -100.447  -99.992  -99.635  -99.390  -99.263  -99.261  -99.392  -99.650 -100.016 -100.455 -100.927 -101.400 -101.854 -102.277 -102.652 -102.966 -103.206 -103.374 -103.490 -103.587 -103.698 -103.844 -104.038 -104.286 -104.586 -104.947 -105.381 -105.909 -106.558 -107.354 -108.329 -109.514 -110.937 -112.611 -114.523 -116.629 -118.863 -121.168 -123.509 -125.881 -128.294 -130.758 -133.258 -135.729 -138.041 -139.976 -141.216 -141.322 -139.663
 -65.025  -65.791  -65.628  -65.224  -64.792  -64.325  -63.636  -62.484  -60.728  -58.430  -55.841  -53.285  -51.004  -49.120  -47.667  -46.640  -46.005  -45.691  -45.612  -45.746  -46.164  -47.012  -48.390  -50.303  -52.641  -55.223  -57.894  -60.553  -63.158  -65.690  -68.155  -70.566  -72.945  -75.310  -77.655  -79.946  -82.131  -84.159  -85.997  -87.615  -88.990  -90.108  -90.959  -91.542  -91.874  -91.981  -91.897  -91.660  -91.302  -90.866  -90.395  -89.941  -89.551  -89.256  -89.080  -89.031  -89.117  -89.345  -89.706  -90.169  -90.686  -91.208  -91.702  -92.149  -92.545  -92.883  -93.157  -93.357  -93.488  -93.563  -93.613  -93.664  -93.737  -93.847  -93.999  -94.197  -94.446  -94.761  -95.161  -95.686  -96.379  -97.291  -98.470  -99.948 -101.728 -103.772 -106.001 -108.313 -110.628 -112.908 -115.163 -117.435 -119.765 -122.163 -124.586 -126.912 -128.927 -130.324 -130.684 -129.420
 -62.796  -63.164  -62.369  -61.187  -59.972  -58.821  -57.583  -55.995  -53.871  -51.235  -48.321  -45.440  -42.839  -40.616  -38.782  -37.313  -36.185  -35.351  -34.760  -34.384  -34.273  -34.524  -35.221  -36.386  -37.982  -39.925  -42.130  -44.523  -47.044  -49.623  -52.223  -54.825  -57.443  -60.085  -62.751  -65.418  -68.034  -70.533  -72.854  -74.936  -76.729  -78.205  -79.354  -80.184  -80.719  -80.991  -81.035  -80.882  -80.569  -80.146  -79.678  -79.233  -78.872  -78.633  -78.542  -78.606  -78.828  -79.207  -79.723  -80.330  -80.967  -81.574  -82.115  -82.574  -82.952  -83.256  -83.491  -83.658  -83.762  -83.815  -83.840  -83.857  -83.887  -83.941  -84.025  -84.139  -84.288  -84.482  -84.747  -85.138  -85.725  -86.589  -87.801  -89.400  -91.373  -93.646  -96.088  -98.555 -100.938 -103.199 -105.367 -107.517 -109.724 -112.035 -114.424 -116.777 -118.878 -120.420 -121.004 -120.085
 -56.560  -56.299  -54.709  -52.565  -50.376  -48.384  -46.515  -44.531  -42.226  -39.582  -36.801  -34.126  -31.756  -29.731  -28.031  -26.618  -25.465  -24.562  -23.871  -23.391  -23.143  -23.185  -23.580  -24.355  -25.547  -27.159  -29.185  -31.580  -34.264  -37.120  -40.048  -42.992  -45.931  -48.855  -51.765  -54.645  -57.459  -60.148  -62.640  -64.862  -66.760  -68.306  -69.499  -70.356  -70.910  -71.192  -71.233  -71.061  -70.716  -70.259  -69.776  -69.348  -69.039  -68.892  -68.919  -69.121  -69.491  -70.012  -70.650  -71.347  -72.040  -72.666  -73.189  -73.597  -73.896  -74.105  -74.248  -74.341  -74.393  -74.414  -74.419  -74.423  -74.439  -74.474  -74.523  -74.586  -74.655  -74.735  -74.862  -75.112  -75.590  -76.414  -77.682  -79.444  -81.669  -84.234  -86.953  -89.632  -92.134  -94.414  -96.520  -98.558 -100.645 -102.862 -105.206 -107.573 -109.743 -111.408 -112.182 -111.558
 -47.365  -46.467  -44.203  -41.257  -38.251  -35.547  -33.188  -30.983  -28.755  -26.458  -24.224  -22.188  -20.457  -19.003  -17.792  -16.776  -15.930  -15.263  -14.766  -14.434  -14.286  -14.353  -14.682  -15.320  -16.339  -17.832  -19.847  -22.378  -25.329  -28.537  -31.836  -35.128  -38.342  -41.453  -44.449  -47.328  -50.079  -52.663  -55.027  -57.101  -58.850  -60.256  -61.334  -62.112  -62.617  -62.875  -62.909  -62.741  -62.415  -62.001  -61.591  -61.271  -61.100  -61.104  -61.281  -61.611  -62.074  -62.640  -63.267  -63.901  -64.488  -64.981  -65.350  -65.589  -65.710  -65.741  -65.719  -65.678  -65.637  -65.605  -65.586  -65.589  -65.621  -65.674  -65.732  -65.780  -65.798  -65.787  -65.788  -65.904  -66.275  -67.066  -68.403  -70.345  -72.841  -75.724  -78.745  -81.660  -84.301  -86.616  -88.664  -90.584  -92.530  -94.621  -96.888  -99.238 -101.453 -103.215 -104.148 -103.775
 -37.188  -35.900  -33.393  -30.183  -26.903  -23.956  -21.441  -19.276  -17.324  -15.549  -13.984  -12.661  -11.586  -10.719  -10.009   -9.413   -8.931   -8.571   -8.320   -8.187   -8.183   -8.326   -8.653   -9.220  -10.143  -11.544  -13.539  -16.152  -19.282  -22.736  -26.305  -29.824  -33.190  -36.343  -39.277  -41.998  -44.523  -46.837  -48.913  -50.716  -52.228  -53.455  -54.426  -55.164  -55.695  -56.031  -56.180  -56.160  -56.008  -55.795  -55.612  -55.530  -55.582  -55.778  -56.093  -56.484  -56.924  -57.380  -57.814  -58.192  -58.484  -58.675  -58.750  -58.711  -58.574  -58.371  -58.143  -57.934  -57.769  -57.662  -57.615  -57.624  -57.688  -57.783  -57.881  -57.946  -57.948  -57.880  -57.792  -57.809  -58.114  -58.904  -60.340  -62.488  -65.265  -68.459  -71.763  -74.883  -77.626  -79.932  -81.877  -83.629  -85.381  -87.293  -89.429  -91.717  -93.939  -95.773  -96.835  -96.670
 -28.418  -27.095  -24.814  -21.906  -18.896  -16.137  -13.759  -11.776  -10.132   -8.804   -7.751   -6.933   -6.278   -5.751   -5.309   -4.971   -4.716   -4.541   -4.452   -4.438   -4.514   -4.684   -4.968   -5.452   -6.227   -7.467   -9.305  -11.804  -14.889  -18.365  -21.988  -25.548  -28.899  -31.961  -34.728  -37.217  -39.465  -41.482  -43.266  -44.818  -46.152  -47.290  -48.265  -49.094  -49.795  -50.368  -50.805  -51.108  -51.305  -51.457  -51.632  -51.871  -52.186  -52.557  -52.940  -53.293  -53.580  -53.776  -53.861  -53.832  -53.699  -53.478  -53.185  -52.826  -52.421  -51.993  -51.581  -51.221  -50.945  -50.768  -50.695  -50.715  -50.804  -50.940  -51.079  -51.178  -51.194  -51.120  -51.016  -51.025  -51.360  -52.247  -53.870  -56.281  -59.359  -62.829  -66.334  -69.550  -72.273  -74.454  -76.192  -77.683  -79.161  -80.825  -82.770  -84.942  -87.129  -88.995  -90.153  -90.160
 -22.737  -21.581  -19.671  -17.197  -14.536  -11.992   -9.756   -7.928   -6.532   -5.533   -4.837   -4.323   -3.880   -3.464   -3.099   -2.816   -2.630   -2.516   -2.480   -2.501   -2.581   -2.723   -2.935   -3.289   -3.886   -4.858   -6.391   -8.549  -11.318  -14.526  -17.943  -21.320  -24.494  -27.360  -29.906  -32.154  -34.150  -35.927  -37.503  -38.903  -40.164  -41.325  -42.414  -43.452  -44.439  -45.368  -46.211  -46.956  -47.615  -48.216  -48.795  -49.365  -49.911  -50.398  -50.773  -50.995  -51.040  -50.890  -50.555  -50.071  -49.488  -48.859  -48.218  -47.586  -46.982  -46.406  -45.888  -45.452  -45.120  -44.910  -44.827  -44.854  -44.961  -45.124  -45.299  -45.443  -45.510  -45.498  -45.478  -45.611  -46.132  -47.283  -49.232  -51.984  -55.354  -59.005  -62.550  -65.670  -68.180  -70.065  -71.459  -72.598  -73.739  -75.106  -76.818  -78.831  -80.937  -82.794  -84.009  -84.150
 -20.085  -19.094  -17.393  -15.098  -12.525   -9.990   -7.756   -6.002   -4.797   -4.073   -3.661   -3.363   -3.043   -2.663   -2.294   -1.993   -1.785   -1.660   -1.615   -1.627   -1.687   -1.776   -1.916   -2.151   -2.541   -3.224   -4.340   -6.001   -8.221  -10.918  -13.874  -16.857  -19.693  -22.281  -24.580  -26.605  -28.412  -30.031  -31.489  -32.830  -34.099  -35.340  -36.589  -37.859  -39.147  -40.439  -41.697  -42.888  -43.997  -45.019  -45.959  -46.802  -47.517  -48.060  -48.381  -48.448  -48.237  -47.758  -47.050  -46.184  -45.246  -44.315  -43.448  -42.669  -41.983  -41.382  -40.868  -40.452  -40.141  -39.957  -39.899  -39.951  -40.085  -40.281  -40.501  -40.706  -40.869  -40.996  -41.174  -41.575  -42.446  -44.017  -46.404  -49.525  -53.104  -56.761  -60.118  -62.903  -64.992  -66.426  -67.385  -68.122  -68.916  -69.994  -71.474  -73.313  -75.306  -77.113  -78.342  -78.582
 -18.858  -17.974  -16.333  -14.050  -11.422   -8.794   -6.513   -4.822   -3.772   -3.262   -3.068   -2.937   -2.713   -2.384   -2.026   -1.712   -1.472   -1.324   -1.267   -1.259   -1.291   -1.338   -1.434   -1.564   -1.804   -2.224   -2.939   -4.061   -5.653   -7.669   -9.982  -12.406  -14.789  -17.005  -19.024  -20.851  -22.508  -24.018  -25.418  -26.744  -28.037  -29.347  -30.712  -32.143  -33.636  -35.175  -36.722  -38.233  -39.663  -40.982  -42.170  -43.197  -44.020  -44.594  -44.873  -44.830  -44.449  -43.762  -42.836  -41.766  -40.667  -39.635  -38.724  -37.960  -37.335  -36.834  -36.433  -36.129  -35.925  -35.833  -35.856  -35.978  -36.175  -36.433  -36.726  -37.025  -37.326  -37.648  -38.097  -38.868  -40.194  -42.253  -45.085  -48.485  -52.105  -55.544  -58.486  -60.740  -62.266  -63.174  -63.678  -64.044  -64.545  -65.392  -66.686  -68.371  -70.236  -71.957  -73.158  -73.460
 -17.230  -16.441  -14.911  -12.750  -10.231   -7.702   -5.514   -3.943   -3.018   -2.647   -2.564   -2.527   -2.383   -2.134   -1.835   -1.556   -1.332   -1.180   -1.101   -1.089   -1.103   -1.137   -1.198   -1.274   -1.399   -1.628   -2.041   -2.707   -3.720   -5.065   -6.700   -8.490  -10.317  -12.106  -13.801  -15.398  -16.896  -18.306  -19.650  -20.961  -22.261  -23.588  -24.973  -26.428  -27.955  -29.545  -31.170  -32.775  -34.317  -35.747  -37.036  -38.138  -39.017  -39.626  -39.921  -39.877  -39.486  -38.791  -37.878  -36.856  -35.845  -34.937  -34.180  -33.589  -33.152  -32.846  -32.638  -32.522  -32.491  -32.561  -32.725  -32.971  -33.283  -33.644  -34.039  -34.457  -34.903  -35.436  -36.181  -37.333  -39.099  -41.590  -44.731  -48.226  -51.676  -54.711  -57.091  -58.727  -59.665  -60.079  -60.200  -60.290  -60.597  -61.295  -62.456  -64.008  -65.740  -67.351  -68.488  -68.813
 -14.301  -13.634  -12.394  -10.622   -8.533   -6.412   -4.568   -3.214   -2.420   -2.099   -2.038   -2.027   -1.946   -1.778   -1.570   -1.366   -1.194   -1.074   -1.011   -1.003   -1.019   -1.046   -1.085   -1.119   -1.176   -1.291   -1.502   -1.871   -2.443   -3.258   -4.289   -5.487   -6.770   -8.090   -9.420  -10.733  -12.033  -13.308  -14.568  -15.832  -17.114  -18.413  -19.741  -21.090  -22.478  -23.907  -25.368  -26.828  -28.247  -29.590  -30.817  -31.899  -32.788  -33.448  -33.838  -33.919  -33.700  -33.224  -32.565  -31.836  -31.137  -30.540  -30.088  -29.777  -29.603  -29.532  -29.554  -29.659  -29.849  -30.127  -30.478  -30.892  -31.348  -31.836  -32.342  -32.862  -33.436  -34.144  -35.134  -36.587  -38.674  -41.422  -44.665  -48.047  -51.161  -53.695  -55.491  -56.551  -56.998  -57.034  -56.901  -56.842  -57.059  -57.682  -58.747  -60.177  -61.774  -63.254  -64.309  -64.631
 -10.404   -9.888   -9.060   -7.865   -6.427   -4.931   -3.578   -2.551   -1.914   -1.624   -1.549   -1.526   -1.486   -1.393   -1.282   -1.161   -1.051   -0.978   -0.954   -0.971   -0.993   -1.016   -1.040   -1.048   -1.075   -1.120   -1.211   -1.395   -1.697   -2.139   -2.742   -3.473   -4.287   -5.181   -6.130   -7.132   -8.169   -9.259  -10.406  -11.604  -12.848  -14.099  -15.317  -16.482  -17.614  -18.731  -19.854  -20.978  -22.095  -23.182  -24.228  -25.198  -26.065  -26.792  -27.334  -27.659  -27.761  -27.672  -27.455  -27.186  -26.931  -26.749  -26.661  -26.662  -26.751  -26.918  -27.161  -27.482  -27.892  -28.377  -28.920  -29.497  -30.089  -30.683  -31.261  -31.845  -32.488  -33.302  -34.435  -36.054  -38.282  -41.077  -44.223  -47.337  -50.047  -52.094  -53.395  -54.014  -54.121  -53.937  -53.692  -53.599  -53.807  -54.409  -55.409  -56.732  -58.197  -59.553  -60.528  -60.839
  -6.582   -6.242   -5.800   -5.151   -4.338   -3.455   -2.612   -1.930   -1.484   -1.247   -1.171   -1.145   -1.135   -1.097   -1.042   -0.988   -0.941   -0.921   -0.940   -0.979   -1.021   -1.044   -1.055   -1.036   -1.018   -1.027   -1.058   -1.140   -1.283   -1.513   -1.843   -2.243   -2.721   -3.268   -3.884   -4.565   -5.337   -6.206   -7.207   -8.315   -9.498  -10.666  -11.742  -12.700  -13.531  -14.288  -15.007  -15.722  -16.460  -17.221  -18.014  -18.830  -19.656  -20.451  -21.175  -21.796  -22.300  -22.679  -22.968  -23.207  -23.428  -23.672  -23.939  -24.232  -24.563  -24.935  -25.360  -25.857  -26.432  -27.068  -27.737  -28.414  -29.074  -29.701  -30.288  -30.869  -31.508  -32.334  -33.495  -35.137  -37.334  -40.007  -42.928  -45.723  -48.057  -49.724  -50.678  -51.025  -50.955  -50.689  -50.442  -50.390  -50.645  -51.264  -52.235  -53.482  -54.851  -56.120  -57.038  -57.354
  -3.758   -3.547   -3.357   -3.071   -2.689   -2.240   -1.793   -1.402   -1.124   -0.976   -0.933   -0.922   -0.940   -0.935   -0.915   -0.901   -0.888   -0.918   -0.978   -1.056   -1.112   -1.126   -1.100   -1.058   -1.002   -0.968   -0.964   -0.994   -1.058   -1.179   -1.337   -1.547   -1.803   -2.105   -2.464   -2.894   -3.403   -4.058   -4.872   -5.835   -6.894   -7.918   -8.823   -9.552  -10.109  -10.548  -10.917  -11.268  -11.653  -12.105  -12.657  -13.315  -14.089  -14.936  -15.835  -16.746  -17.630  -18.456  -19.214  -19.914  -20.576  -21.212  -21.811  -22.382  -22.929  -23.474  -24.035  -24.641  -25.294  -25.978  -26.664  -27.326  -27.939  -28.501  -29.016  -29.515  -30.088  -30.858  -31.953  -33.503  -35.552  -38.023  -40.677  -43.189  -45.248  -46.676  -47.448  -47.680  -47.562  -47.312  -47.129  -47.150  -47.482  -48.148  -49.129  -50.357  -51.690  -52.927  -53.835  -54.177
  -2.124   -1.981   -1.921   -1.803   -1.635   -1.434   -1.225   -1.031   -0.886   -0.822   -0.805   -0.817   -0.846   -0.866   -0.868   -0.869   -0.895   -0.976   -1.080   -1.171   -1.223   -1.210   -1.147   -1.060   -0.978   -0.930   -0.902   -0.905   -0.932   -0.980   -1.058   -1.163   -1.297   -1.445   -1.634   -1.875   -2.200   -2.643   -3.245   -3.995   -4.836   -5.650   -6.334   -6.852   -7.191   -7.398   -7.523   -7.637   -7.778   -8.009   -8.364   -8.888   -9.590  -10.460  -11.475  -12.593  -13.755  -14.910  -16.024  -17.105  -18.150  -19.146  -20.068  -20.907  -21.663  -22.362  -23.021  -23.672  -24.314  -24.940  -25.520  -26.040  -26.502  -26.914  -27.287  -27.668  -28.140  -28.814  -29.813  -31.231  -33.104  -35.361  -37.782  -40.079  -41.981  -43.310  -44.046  -44.295  -44.234  -44.066  -43.974  -44.088  -44.499  -45.227  -46.252  -47.508  -48.861  -50.117  -51.045  -51.419
  -1.354   -1.239   -1.201   -1.160   -1.082   -0.986   -0.898   -0.807   -0.756   -0.727   -0.727   -0.764   -0.811   -0.837   -0.856   -0.874   -0.933   -1.051   -1.203   -1.320   -1.349   -1.280   -1.166   -1.042   -0.935   -0.877   -0.844   -0.833   -0.841   -0.866   -0.903   -0.957   -1.015   -1.090   -1.187   -1.313   -1.495   -1.771   -2.159   -2.669   -3.249   -3.808   -4.269   -4.594   -4.779   -4.855   -4.870   -4.862   -4.877   -4.984   -5.208   -5.608   -6.214   -7.030   -8.049   -9.226  -10.489  -11.812  -13.147  -14.497  -15.850  -17.171  -18.413  -19.527  -20.506  -21.359  -22.103  -22.757  -23.335  -23.826  -24.228  -24.546  -24.805  -25.033  -25.249  -25.516  -25.901  -26.511  -27.435  -28.753  -30.483  -32.561  -34.804  -36.957  -38.780  -40.106  -40.904  -41.268  -41.342  -41.313  -41.341  -41.558  -42.047  -42.836  -43.914  -45.215  -46.605  -47.889  -48.836  -49.226
  -1.037   -0.927   -0.897   -0.867   -0.822   -0.782   -0.736   -0.695   -0.681   -0.668   -0.687   -0.718   -0.761   -0.797   -0.822   -0.856   -0.947   -1.113   -1.298   -1.422   -1.417   -1.297   -1.130   -0.974   -0.870   -0.813   -0.781   -0.770   -0.783   -0.786   -0.810   -0.843   -0.873   -0.914   -0.955   -1.028   -1.121   -1.269   -1.492   -1.785   -2.113   -2.446   -2.704   -2.884   -2.979   -3.009   -2.988   -2.952   -2.940   -2.994   -3.134   -3.417   -3.890   -4.565   -5.452   -6.516   -7.711   -8.998  -10.386  -11.867  -13.430  -15.021  -16.555  -17.950  -19.167  -20.187  -21.018  -21.686  -22.202  -22.561  -22.791  -22.924  -23.009  -23.089  -23.209  -23.415  -23.777  -24.381  -25.289  -26.557  -28.196  -30.124  -32.206  -34.237  -35.992  -37.341  -38.240  -38.761  -39.022  -39.178  -39.360  -39.699  -40.267  -41.123  -42.246  -43.571  -44.977  -46.263  -47.202  -47.568
  -0.890   -0.787   -0.773   -0.737   -0.708   -0.685   -0.662   -0.638   -0.628   -0.634   -0.643   -0.664   -0.703   -0.729   -0.758   -0.813   -0.921   -1.102   -1.303   -1.426   -1.410   -1.259   -1.057   -0.896   -0.796   -0.743   -0.723   -0.720   -0.717   -0.727   -0.744   -0.762   -0.785   -0.805   -0.839   -0.871   -0.922   -0.997   -1.110   -1.247   -1.413   -1.568   -1.701   -1.791   -1.834   -1.851   -1.838   -1.824   -1.810   -1.842   -1.932   -2.117   -2.432   -2.917   -3.568   -4.386   -5.354   -6.465   -7.737   -9.195  -10.829  -12.582  -14.333  -15.976  -17.419  -18.626  -19.583  -20.302  -20.798  -21.098  -21.235  -21.272  -21.275  -21.308  -21.417  -21.646  -22.052  -22.699  -23.632  -24.870  -26.405  -28.166  -30.053  -31.899  -33.533  -34.854  -35.825  -36.487  -36.941  -37.296  -37.657  -38.133  -38.811  -39.733  -40.896  -42.233  -43.622  -44.875  -45.783  -46.098
  -0.819   -0.722   -0.696   -0.673   -0.653   -0.632   -0.618   -0.607   -0.598   -0.592   -0.605   -0.614   -0.639   -0.654   -0.681   -0.735   -0.841   -1.012   -1.207   -1.322   -1.292   -1.140   -0.962   -0.810   -0.722   -0.678   -0.670   -0.664   -0.670   -0.684   -0.698   -0.713   -0.728   -0.744   -0.760   -0.782   -0.815   -0.850   -0.898   -0.967   -1.038   -1.103   -1.162   -1.202   -1.235   -1.241   -1.246   -1.244   -1.255   -1.273   -1.328   -1.427   -1.610   -1.899   -2.311   -2.848   -3.513   -4.336   -5.361   -6.640   -8.180   -9.917  -11.746  -13.530  -15.155  -16.539  -17.638  -18.453  -19.012  -19.344  -19.499  -19.564  -19.598  -19.683  -19.870  -20.197  -20.693  -21.402  -22.340  -23.501  -24.862  -26.387  -27.993  -29.556  -30.978  -32.176  -33.133  -33.873  -34.465  -34.986  -35.512  -36.136  -36.926  -37.933  -39.138  -40.484  -41.848  -43.059  -43.927  -44.203
  -0.781   -0.688   -0.664   -0.641   -0.623   -0.608   -0.596   -0.586   -0.577   -0.570   -0.565   -0.580   -0.588   -0.590   -0.612   -0.661   -0.741   -0.879   -1.022   -1.110   -1.098   -0.980   -0.845   -0.728   -0.662   -0.630   -0.620   -0.624   -0.635   -0.647   -0.659   -0.671   -0.684   -0.698   -0.711   -0.725   -0.740   -0.760   -0.791   -0.818   -0.852   -0.875   -0.906   -0.930   -0.948   -0.960   -0.968   -0.982   -0.984   -1.005   -1.035   -1.093   -1.183   -1.331   -1.545   -1.843   -2.237   -2.764   -3.488   -4.458   -5.730   -7.267   -8.979  -10.744  -12.420  -13.897  -15.103  -16.032  -16.695  -17.136  -17.409  -17.592  -17.757  -17.984  -18.321  -18.785  -19.399  -20.152  -21.036  -22.043  -23.159  -24.352  -25.586  -26.793  -27.910  -28.889  -29.728  -30.451  -31.089  -31.699  -32.336  -33.063  -33.945  -35.006  -36.242  -37.583  -38.919  -40.100  -40.952  -41.236
  -0.753   -0.664   -0.641   -0.620   -0.602   -0.588   -0.576   -0.567   -0.559   -0.552   -0.546   -0.543   -0.545   -0.555   -0.562   -0.592   -0.645   -0.729   -0.822   -0.884   -0.880   -0.804   -0.722   -0.640   -0.602   -0.592   -0.586   -0.595   -0.605   -0.614   -0.625   -0.635   -0.647   -0.658   -0.670   -0.682   -0.695   -0.707   -0.720   -0.737   -0.752   -0.777   -0.792   -0.807   -0.824   -0.834   -0.844   -0.857   -0.870   -0.883   -0.900   -0.925   -0.972   -1.040   -1.133   -1.274   -1.471   -1.766   -2.206   -2.847   -3.761   -4.944   -6.348   -7.878   -9.414  -10.828  -12.036  -13.017  -13.777  -14.350  -14.779  -15.125  -15.478  -15.902  -16.452  -17.103  -17.842  -18.627  -19.423  -20.217  -21.032  -21.843  -22.653  -23.453  -24.206  -24.895  -25.530  -26.130  -26.714  -27.312  -27.958  -28.706  -29.596  -30.646  -31.846  -33.138  -34.418  -35.559  -36.402  -36.737
  -0.730   -0.644   -0.622   -0.601   -0.584   -0.571   -0.560   -0.550   -0.542   -0.536   -0.531   -0.526   -0.523   -0.520   -0.529   -0.543   -0.572   -0.609   -0.664   -0.695   -0.694   -0.661   -0.617   -0.586   -0.566   -0.555   -0.562   -0.570   -0.578   -0.587   -0.596   -0.605   -0.614   -0.624   -0.634   -0.645   -0.656   -0.667   -0.677   -0.688   -0.699   -0.711   -0.722   -0.733   -0.744   -0.756   -0.767   -0.779   -0.790   -0.802   -0.814   -0.833   -0.860   -0.886   -0.933   -0.985   -1.077   -1.218   -1.443   -1.814   -2.376   -3.156   -4.144   -5.289   -6.503   -7.674   -8.743   -9.657  -10.432  -11.071  -11.623  -12.139  -12.691  -13.357  -14.142  -15.022  -15.907  -16.730  -17.431  -18.014  -18.508  -18.935  -19.330  -19.699  -20.059  -20.424  -20.795  -21.195  -21.644  -22.135  -22.696  -23.359  -24.153  -25.081  -26.141  -27.278  -28.429  -29.476  -30.272  -30.675
  -0.709   -0.626   -0.605   -0.584   -0.568   -0.555   -0.544   -0.535   -0.528   -0.521   -0.516   -0.513   -0.509   -0.507   -0.506   -0.506   -0.527   -0.543   -0.561   -0.585   -0.584   -0.568   -0.554   -0.541   -0.530   -0.536   -0.542   -0.548   -0.555   -0.562   -0.570   -0.578   -0.587   -0.596   -0.604   -0.613   -0.623   -0.632   -0.641   -0.652   -0.661   -0.671   -0.681   -0.691   -0.701   -0.711   -0.721   -0.731   -0.742   -0.752   -0.763   -0.773   -0.785   -0.801   -0.821   -0.850   -0.889   -0.948   -1.057   -1.242   -1.535   -1.976   -2.560   -3.279   -4.087   -4.917   -5.706   -6.440   -7.102   -7.713   -8.305   -8.929   -9.650  -10.526  -11.542  -12.627  -13.663  -14.519  -15.142  -15.540  -15.747  -15.838  -15.844  -15.826  -15.809  -15.843  -15.952  -16.136  -16.405  -16.743  -17.157  -17.657  -18.266  -18.985  -19.810  -20.690  -21.604  -22.463  -23.138  -23.579
  -0.691   -0.609   -0.589   -0.569   -0.554   -0.542   -0.531   -0.523   -0.515   -0.509   -0.504   -0.500   -0.497   -0.495   -0.494   -0.492   -0.494   -0.504   -0.515   -0.523   -0.524   -0.522   -0.512   -0.509   -0.513   -0.518   -0.524   -0.530   -0.536   -0.542   -0.549   -0.556   -0.563   -0.570   -0.578   -0.586   -0.595   -0.603   -0.611   -0.620   -0.628   -0.637   -0.646   -0.655   -0.664   -0.673   -0.682   -0.691   -0.700   -0.709   -0.719   -0.728   -0.738   -0.748   -0.759   -0.772   -0.795   -0.823   -0.873   -0.949   -1.084   -1.294   -1.590   -1.972   -2.416   -2.904   -3.396   -3.872   -4.361   -4.850   -5.380   -6.011   -6.793   -7.770   -8.909  -10.099  -11.189  -12.049  -12.597  -12.851  -12.856  -12.692  -12.410  -12.081  -11.761  -11.535  -11.416  -11.427  -11.541  -11.733  -12.000  -12.337  -12.744  -13.232  -13.787  -14.382  -15.010  -15.611  -16.104  -16.531
  -0.675   -0.596   -0.576   -0.557   -0.543   -0.530   -0.520   -0.512   -0.505   -0.499   -0.494   -0.491   -0.487   -0.485   -0.483   -0.482   -0.482   -0.482   -0.483   -0.484   -0.486   -0.489   -0.492   -0.496   -0.499   -0.504   -0.508   -0.513   -0.518   -0.524   -0.530   -0.536   -0.543   -0.549   -0.556   -0.563   -0.570   -0.577   -0.585   -0.592   -0.601   -0.609   -0.616   -0.624   -0.632   -0.640   -0.648   -0.656   -0.665   -0.673   -0.681   -0.690   -0.699   -0.708   -0.718   -0.727   -0.737   -0.750   -0.773   -0.812   -0.860   -0.952   -1.079   -1.253   -1.454   -1.689   -1.942   -2.216   -2.502   -2.831   -3.242   -3.781   -4.498   -5.408   -6.488   -7.594   -8.598   -9.365   -9.809   -9.960   -9.855   -9.553   -9.126   -8.633   -8.167   -7.800   -7.567   -7.473   -7.492   -7.589   -7.748   -7.963   -8.243   -8.560   -8.929   -9.327   -9.731  -10.116  -10.447  -10.808
  -0.663   -0.585   -0.566   -0.548   -0.533   -0.521   -0.512   -0.504   -0.497   -0.491   -0.486   -0.482   -0.479   -0.477   -0.475   -0.474   -0.474   -0.474   -0.474   -0.475   -0.477   -0.479   -0.482   -0.485   -0.488   -0.491   -0.495   -0.500   -0.504   -0.509   -0.514   -0.519   -0.525   -0.531   -0.538   -0.544   -0.550   -0.557   -0.563   -0.570   -0.577   -0.584   -0.591   -0.598   -0.605   -0.613   -0.620   -0.627   -0.635   -0.642   -0.650   -0.658   -0.666   -0.674   -0.682   -0.691   -0.700   -0.709   -0.719   -0.736   -0.763   -0.800   -0.846   -0.908   -0.996   -1.092   -1.201   -1.331   -1.476   -1.670   -1.937   -2.322   -2.875   -3.583   -4.421   -5.287   -6.064   -6.644   -6.968   -7.037   -6.902   -6.603   -6.168   -5.688   -5.243   -4.881   -4.650   -4.533   -4.508   -4.563   -4.665   -4.832   -5.040   -5.317   -5.635   -5.971   -6.309   -6.621   -6.869   -7.182
  -0.653   -0.576   -0.558   -0.540   -0.526   -0.514   -0.505   -0.497   -0.490   -0.485   -0.480   -0.476   -0.473   -0.471   -0.469   -0.468   -0.467   -0.467   -0.467   -0.468   -0.469   -0.471   -0.473   -0.475   -0.478   -0.481   -0.485   -0.489   -0.493   -0.497   -0.502   -0.506   -0.511   -0.516   -0.522   -0.527   -0.533   -0.539   -0.545   -0.551   -0.557   -0.564   -0.570   -0.576   -0.583   -0.589   -0.596   -0.602   -0.610   -0.616   -0.623   -0.631   -0.638   -0.645   -0.653   -0.661   -0.669   -0.677   -0.686   -0.695   -0.704   -0.720   -0.747   -0.769   -0.802   -0.840   -0.879   -0.936   -1.005   -1.108   -1.253   -1.487   -1.833   -2.298   -2.826   -3.381   -3.877   -4.240   -4.431   -4.465   -4.358   -4.131   -3.820   -3.472   -3.146   -2.888   -2.719   -2.626   -2.609   -2.642   -2.731   -2.877   -3.096   -3.402   -3.766   -4.169   -4.567   -4.919   -5.184   -5.469
  -0.647   -0.570   -0.552   -0.535   -0.521   -0.509   -0.500   -0.493   -0.486   -0.481   -0.476   -0.472   -0.469   -0.467   -0.465   -0.463   -0.463   -0.462   -0.462   -0.463   -0.464   -0.465   -0.467   -0.469   -0.471   -0.474   -0.477   -0.481   -0.484   -0.488   -0.492   -0.496   -0.501   -0.505   -0.510   -0.515   -0.520   -0.525   -0.530   -0.536   -0.541   -0.547   -0.553   -0.559   -0.565   -0.571   -0.577   -0.583   -0.589   -0.595   -0.601   -0.608   -0.615   -0.621   -0.628   -0.636   -0.643   -0.650   -0.658   -0.666   -0.675   -0.683   -0.692   -0.705   -0.717   -0.743   -0.756   -0.785   -0.811   -0.862   -0.941   -1.056   -1.241   -1.472   -1.753   -2.042   -2.298   -2.490   -2.585   -2.607   -2.543   -2.411   -2.240   -2.042   -1.865   -1.721   -1.639   -1.594   -1.587   -1.618   -1.696   -1.834   -2.056   -2.389   -2.812   -3.298   -3.790   -4.225   -4.557   -4.858
  -0.644   -0.568   -0.550   -0.532   -0.519   -0.508   -0.498   -0.491   -0.485   -0.479   -0.475   -0.471   -0.468   -0.465   -0.463   -0.462   -0.461   -0.460   -0.460   -0.461   -0.461   -0.462   -0.464   -0.465   -0.467   -0.470   -0.472   -0.475   -0.479   -0.482   -0.486   -0.489   -0.493   -0.497   -0.502   -0.506   -0.510   -0.515   -0.520   -0.525   -0.530   -0.535   -0.540   -0.545   -0.551   -0.556   -0.562   -0.567   -0.573   -0.579   -0.585   -0.591   -0.597   -0.603   -0.609   -0.615   -0.622   -0.629   -0.636   -0.643   -0.651   -0.659   -0.666   -0.675   -0.683   -0.691   -0.700   -0.713   -0.733   -0.759   -0.792   -0.846   -0.925   -1.022   -1.152   -1.279   -1.380   -1.470   -1.510   -1.518   -1.489   -1.441   -1.372   -1.289   -1.216   -1.161   -1.125   -1.107   -1.113   -1.146   -1.201   -1.317   -1.524   -1.849   -2.272   -2.769   -3.313   -3.832   -4.223   -4.542
  -0.646   -0.570   -0.552   -0.534   -0.520   -0.509   -0.500   -0.493   -0.486   -0.481   -0.477   -0.473   -0.470   -0.467   -0.465   -0.464   -0.463   -0.462   -0.462   -0.462   -0.462   -0.463   -0.464   -0.465   -0.467   -0.469   -0.471   -0.474   -0.477   -0.480   -0.483   -0.486   -0.490   -0.493   -0.497   -0.501   -0.505   -0.509   -0.514   -0.518   -0.523   -0.527   -0.532   -0.537   -0.541   -0.546   -0.551   -0.557   -0.562   -0.567   -0.573   -0.578   -0.584   -0.590   -0.595   -0.601   -0.607   -0.613   -0.620   -0.627   -0.633   -0.640   -0.647   -0.655   -0.662   -0.670   -0.678   -0.686   -0.693   -0.704   -0.725   -0.749   -0.782   -0.819   -0.868   -0.910   -0.954   -0.986   -0.997   -1.006   -1.010   -0.996   -0.977   -0.957   -0.939   -0.918   -0.907   -0.914   -0.921   -0.945   -0.985   -1.071   -1.233   -1.488   -1.854   -2.318   -2.848   -3.375   -3.808   -4.147
  -0.655   -0.572   -0.554   -0.537   -0.523   -0.512   -0.503   -0.495   -0.489   -0.484   -0.479   -0.475   -0.472   -0.470   -0.468   -0.466   -0.465   -0.464   -0.463   -0.463   -0.464   -0.464   -0.465   -0.466   -0.467   -0.469   -0.471   -0.473   -0.476   -0.478   -0.481   -0.484   -0.487   -0.490   -0.494   -0.497   -0.501   -0.505   -0.509   -0.513   -0.517   -0.521   -0.525   -0.530   -0.534   -0.539   -0.543   -0.548   -0.553   -0.558   -0.563   -0.568   -0.573   -0.578   -0.584   -0.589   -0.595   -0.600   -0.606   -0.612   -0.618   -0.625   -0.631   -0.638   -0.645   -0.651   -0.658   -0.666   -0.673   -0.680   -0.687   -0.698   -0.718   -0.735   -0.748   -0.772   -0.789   -0.797   -0.805   -0.813   -0.821   -0.830   -0.822   -0.820   -0.823   -0.827   -0.820   -0.823   -0.833   -0.854   -0.888   -0.945   -1.051   -1.239   -1.516   -1.920   -2.407   -2.929   -3.363   -3.721
  -0.836   -0.637   -0.613   -0.594   -0.579   -0.568   -0.558   -0.550   -0.544   -0.538   -0.533   -0.529   -0.526   -0.523   -0.521   -0.519   -0.518   -0.516   -0.516   -0.515   -0.515   -0.516   -0.516   -0.517   -0.518   -0.519   -0.521   -0.523   -0.525   -0.527   -0.529   -0.532   -0.535   -0.538   -0.541   -0.544   -0.547   -0.551   -0.554   -0.558   -0.562   -0.566   -0.570   -0.574   -0.578   -0.582   -0.587   -0.591   -0.596   -0.600   -0.605   -0.610   -0.615   -0.620   -0.625   -0.631   -0.636   -0.642   -0.647   -0.653   -0.659   -0.665   -0.671   -0.678   -0.684   -0.691   -0.698   -0.705   -0.712   -0.719   -0.726   -0.734   -0.741   -0.748   -0.759   -0.770   -0.796   -0.805   -0.813   -0.821   -0.829   -0.821   -0.821   -0.829   -0.834   -0.841   -0.849   -0.857   -0.865   -0.875   -0.908   -0.947   -1.030   -1.184   -1.424   -1.774   -2.241   -2.743   -3.187   -3.693
