DSAA
 100 100
 0.0 400.0
 0.0 400.0
 -87.68024 -1.131628
  -1.687   -1.499   -1.592   -1.770   -2.025   -2.318   -2.621   -2.879   -3.043   -3.077   -2.949   -2.670   -2.297   -1.909   -1.582   -1.368   -1.308   -1.413   -1.714   -2.189   -2.741   -3.191   -3.370   -3.242   -2.941   -2.670   -2.574   -2.625   -2.702   -2.707   -2.613   -2.460   -2.315   -2.189   -2.089   -2.001   -1.942   -1.952   -2.080   -2.346   -2.726   -3.143   -3.537   -3.872   -4.106   -4.189   -4.099   -3.914   -3.763   -3.716   -3.750   -3.802   -3.823   -3.808   -3.755   -3.652   -3.471   -3.230   -2.991   -2.833   -2.826   -2.916   -2.969   -2.857   -2.554   -2.159   -1.829   -1.676   -1.701   -1.837   -1.984   -2.109   -2.236   -2.376   -2.483   -2.471   -2.319   -2.105   -1.920   -1.821   -1.818   -1.882   -1.994   -2.096   -2.168   -2.233   -2.347   -2.563   -2.898   -3.326   -3.777   -4.157   -4.362   -4.301   -3.949   -3.389   -2.756   -2.192   -1.813   -1.859
  -1.794   -1.722   -1.847   -2.050   -2.314   -2.618   -2.915   -3.159   -3.303   -3.305   -3.141   -2.828   -2.418   -1.991   -1.630   -1.382   -1.295   -1.376   -1.645   -2.081   -2.590   -3.005   -3.167   -3.049   -2.765   -2.512   -2.410   -2.452   -2.535   -2.572   -2.530   -2.432   -2.311   -2.187   -2.076   -1.977   -1.919   -1.926   -2.042   -2.277   -2.603   -2.957   -3.286   -3.562   -3.766   -3.863   -3.839   -3.760   -3.730   -3.798   -3.912   -4.004   -4.035   -4.002   -3.916   -3.766   -3.526   -3.217   -2.897   -2.675   -2.604   -2.648   -2.677   -2.577   -2.312   -1.971   -1.697   -1.582   -1.625   -1.769   -1.914   -2.024   -2.131   -2.263   -2.368   -2.368   -2.235   -2.045   -1.891   -1.818   -1.835   -1.921   -2.032   -2.139   -2.226   -2.324   -2.479   -2.741   -3.129   -3.613   -4.130   -4.584   -4.838   -4.789   -4.392   -3.741   -3.001   -2.342   -1.888   -1.809
  -2.464   -2.419   -2.566   -2.796   -3.076   -3.374   -3.651   -3.855   -3.945   -3.884   -3.664   -3.298   -2.836   -2.348   -1.920   -1.606   -1.449   -1.466   -1.665   -2.008   -2.418   -2.749   -2.879   -2.787   -2.558   -2.349   -2.251   -2.272   -2.356   -2.444   -2.493   -2.483   -2.410   -2.300   -2.180   -2.086   -2.037   -2.053   -2.153   -2.334   -2.571   -2.817   -3.041   -3.228   -3.378   -3.474   -3.532   -3.600   -3.743   -3.959   -4.176   -4.318   -4.353   -4.296   -4.159   -3.939   -3.623   -3.237   -2.844   -2.548   -2.399   -2.370   -2.358   -2.272   -2.077   -1.842   -1.662   -1.600   -1.665   -1.792   -1.916   -2.009   -2.094   -2.207   -2.312   -2.340   -2.255   -2.128   -2.041   -2.026   -2.082   -2.174   -2.276   -2.367   -2.463   -2.605   -2.827   -3.159   -3.608   -4.166   -4.784   -5.356   -5.714   -5.704   -5.280   -4.537   -3.675   -2.905   -2.376   -2.244
  -3.384   -3.361   -3.522   -3.760   -4.034   -4.310   -4.537   -4.688   -4.716   -4.596   -4.322   -3.904   -3.387   -2.833   -2.320   -1.912   -1.656   -1.569   -1.647   -1.861   -2.133   -2.359   -2.456   -2.398   -2.248   -2.098   -2.015   -2.017   -2.094   -2.222   -2.343   -2.410   -2.392   -2.310   -2.214   -2.154   -2.146   -2.189   -2.281   -2.417   -2.581   -2.750   -2.898   -3.024   -3.123   -3.206   -3.290   -3.421   -3.633   -3.906   -4.155   -4.303   -4.330   -4.241   -4.073   -3.822   -3.498   -3.120   -2.754   -2.462   -2.291   -2.213   -2.153   -2.062   -1.924   -1.780   -1.678   -1.656   -1.712   -1.812   -1.915   -1.992   -2.070   -2.176   -2.290   -2.354   -2.343   -2.304   -2.304   -2.357   -2.444   -2.524   -2.586   -2.634   -2.713   -2.866   -3.127   -3.499   -3.988   -4.604   -5.311   -6.006   -6.489   -6.574   -6.193   -5.448   -4.559   -3.752   -3.192   -3.038
  -4.376   -4.363   -4.516   -4.733   -4.968   -5.193   -5.372   -5.462   -5.440   -5.278   -4.973   -4.532   -3.984   -3.386   -2.805   -2.304   -1.925   -1.704   -1.639   -1.695   -1.821   -1.938   -2.001   -1.978   -1.899   -1.808   -1.740   -1.722   -1.780   -1.905   -2.049   -2.149   -2.173   -2.134   -2.097   -2.097   -2.146   -2.227   -2.325   -2.446   -2.583   -2.735   -2.878   -2.994   -3.079   -3.139   -3.197   -3.286   -3.434   -3.625   -3.798   -3.897   -3.893   -3.796   -3.639   -3.430   -3.186   -2.933   -2.695   -2.498   -2.356   -2.244   -2.128   -1.997   -1.869   -1.768   -1.716   -1.711   -1.754   -1.829   -1.914   -1.997   -2.088   -2.196   -2.312   -2.408   -2.471   -2.533   -2.627   -2.744   -2.837   -2.882   -2.880   -2.867   -2.906   -3.047   -3.303   -3.676   -4.170   -4.812   -5.591   -6.386   -6.991   -7.197   -6.940   -6.312   -5.524   -4.792   -4.277   -4.133
  -5.289   -5.272   -5.390   -5.557   -5.736   -5.899   -6.012   -6.053   -6.004   -5.835   -5.533   -5.107   -4.570   -3.971   -3.362   -2.799   -2.327   -1.984   -1.770   -1.670   -1.650   -1.665   -1.684   -1.677   -1.646   -1.593   -1.538   -1.500   -1.522   -1.609   -1.732   -1.828   -1.868   -1.877   -1.896   -1.945   -2.024   -2.120   -2.225   -2.347   -2.487   -2.651   -2.824   -2.972   -3.086   -3.154   -3.191   -3.212   -3.235   -3.276   -3.316   -3.335   -3.302   -3.229   -3.124   -3.006   -2.891   -2.791   -2.696   -2.605   -2.490   -2.337   -2.150   -1.961   -1.811   -1.723   -1.697   -1.711   -1.760   -1.839   -1.942   -2.053   -2.163   -2.268   -2.370   -2.471   -2.589   -2.735   -2.906   -3.055   -3.138   -3.144   -3.100   -3.060   -3.076   -3.206   -3.453   -3.817   -4.312   -4.980   -5.815   -6.696   -7.406   -7.742   -7.633   -7.177   -6.550   -5.935   -5.494   -5.359
  -6.016   -5.986   -6.057   -6.165   -6.279   -6.373   -6.431   -6.437   -6.378   -6.222   -5.955   -5.574   -5.089   -4.536   -3.948   -3.384   -2.870   -2.445   -2.119   -1.893   -1.750   -1.677   -1.644   -1.634   -1.621   -1.589   -1.537   -1.492   -1.479   -1.526   -1.612   -1.694   -1.744   -1.778   -1.802   -1.831   -1.880   -1.942   -2.021   -2.130   -2.263   -2.422   -2.600   -2.773   -2.924   -3.037   -3.092   -3.089   -3.040   -2.973   -2.918   -2.870   -2.835   -2.799   -2.768   -2.737   -2.713   -2.703   -2.680   -2.619   -2.488   -2.290   -2.052   -1.826   -1.666   -1.596   -1.598   -1.649   -1.730   -1.845   -1.990   -2.145   -2.275   -2.366   -2.445   -2.543   -2.692   -2.883   -3.075   -3.210   -3.265   -3.253   -3.217   -3.216   -3.288   -3.454   -3.720   -4.100   -4.617   -5.326   -6.226   -7.188   -8.006   -8.469   -8.512   -8.208   -7.699   -7.153   -6.723   -6.578
  -6.528   -6.478   -6.506   -6.560   -6.609   -6.647   -6.664   -6.647   -6.585   -6.454   -6.229   -5.906   -5.489   -5.013   -4.497   -3.976   -3.472   -3.014   -2.625   -2.312   -2.086   -1.942   -1.873   -1.857   -1.852   -1.829   -1.790   -1.759   -1.756   -1.798   -1.873   -1.953   -2.007   -2.021   -1.995   -1.938   -1.884   -1.851   -1.865   -1.918   -1.999   -2.106   -2.241   -2.397   -2.562   -2.710   -2.809   -2.838   -2.795   -2.702   -2.607   -2.547   -2.530   -2.549   -2.575   -2.591   -2.595   -2.576   -2.533   -2.440   -2.281   -2.063   -1.822   -1.623   -1.504   -1.477   -1.510   -1.593   -1.710   -1.862   -2.048   -2.240   -2.388   -2.484   -2.561   -2.667   -2.829   -3.014   -3.172   -3.257   -3.270   -3.260   -3.292   -3.395   -3.582   -3.843   -4.171   -4.584   -5.136   -5.885   -6.842   -7.891   -8.817   -9.428   -9.624   -9.445   -9.006   -8.459   -7.985   -7.801
  -6.845   -6.780   -6.775   -6.785   -6.793   -6.793   -6.779   -6.747   -6.686   -6.577   -6.388   -6.114   -5.761   -5.359   -4.921   -4.460   -3.992   -3.533   -3.115   -2.753   -2.479   -2.301   -2.222   -2.206   -2.216   -2.222   -2.229   -2.259   -2.327   -2.424   -2.537   -2.631   -2.671   -2.635   -2.514   -2.333   -2.138   -1.985   -1.894   -1.860   -1.863   -1.886   -1.942   -2.035   -2.162   -2.307   -2.429   -2.497   -2.482   -2.410   -2.315   -2.259   -2.264   -2.320   -2.393   -2.433   -2.423   -2.370   -2.282   -2.159   -1.995   -1.808   -1.643   -1.531   -1.496   -1.520   -1.573   -1.647   -1.755   -1.910   -2.102   -2.307   -2.478   -2.608   -2.725   -2.868   -3.037   -3.198   -3.299   -3.326   -3.317   -3.342   -3.465   -3.698   -4.010   -4.362   -4.744   -5.185   -5.753   -6.528   -7.517   -8.631   -9.663  -10.413  -10.771  -10.728  -10.373   -9.844   -9.349   -9.130
  -7.016   -6.938   -6.916   -6.902   -6.890   -6.872   -6.846   -6.812   -6.755   -6.659   -6.491   -6.249   -5.937   -5.581   -5.192   -4.771   -4.320   -3.863   -3.428   -3.045   -2.746   -2.561   -2.492   -2.505   -2.554   -2.623   -2.722   -2.869   -3.062   -3.280   -3.467   -3.574   -3.579   -3.463   -3.231   -2.923   -2.610   -2.353   -2.172   -2.056   -1.972   -1.913   -1.884   -1.891   -1.950   -2.043   -2.142   -2.207   -2.201   -2.124   -2.022   -1.951   -1.950   -2.020   -2.112   -2.172   -2.173   -2.125   -2.046   -1.945   -1.833   -1.734   -1.684   -1.698   -1.756   -1.811   -1.842   -1.862   -1.906   -2.012   -2.175   -2.362   -2.543   -2.714   -2.890   -3.084   -3.282   -3.439   -3.520   -3.543   -3.567   -3.660   -3.880   -4.201   -4.577   -4.960   -5.344   -5.775   -6.331   -7.102   -8.099   -9.242  -10.336  -11.194  -11.694  -11.813  -11.604  -11.192  -10.769  -10.563
  -7.090   -7.006   -6.974   -6.956   -6.937   -6.920   -6.904   -6.877   -6.830   -6.746   -6.594   -6.368   -6.074   -5.728   -5.338   -4.913   -4.447   -3.970   -3.509   -3.103   -2.800   -2.628   -2.587   -2.644   -2.771   -2.947   -3.183   -3.486   -3.839   -4.184   -4.438   -4.547   -4.491   -4.279   -3.945   -3.548   -3.167   -2.853   -2.619   -2.443   -2.301   -2.181   -2.083   -2.023   -2.004   -2.028   -2.069   -2.090   -2.051   -1.938   -1.784   -1.664   -1.623   -1.671   -1.768   -1.858   -1.913   -1.932   -1.926   -1.907   -1.889   -1.904   -1.979   -2.103   -2.228   -2.293   -2.268   -2.203   -2.165   -2.205   -2.319   -2.475   -2.643   -2.826   -3.039   -3.283   -3.522   -3.722   -3.859   -3.959   -4.079   -4.266   -4.547   -4.890   -5.243   -5.575   -5.898   -6.274   -6.798   -7.546   -8.530   -9.659  -10.774  -11.684  -12.278  -12.536  -12.507  -12.292  -12.033  -11.893
  -7.118   -7.025   -6.997   -6.974   -6.959   -6.953   -6.944   -6.936   -6.904   -6.838   -6.704   -6.495   -6.205   -5.854   -5.437   -4.966   -4.448   -3.919   -3.416   -2.985   -2.675   -2.517   -2.515   -2.646   -2.876   -3.190   -3.583   -4.046   -4.537   -4.970   -5.252   -5.336   -5.207   -4.908   -4.501   -4.066   -3.676   -3.362   -3.103   -2.885   -2.693   -2.533   -2.406   -2.309   -2.246   -2.219   -2.208   -2.177   -2.079   -1.902   -1.681   -1.489   -1.390   -1.401   -1.488   -1.614   -1.738   -1.848   -1.943   -2.024   -2.114   -2.240   -2.409   -2.603   -2.757   -2.803   -2.727   -2.607   -2.532   -2.555   -2.660   -2.795   -2.939   -3.098   -3.307   -3.570   -3.851   -4.121   -4.362   -4.584   -4.814   -5.078   -5.375   -5.677   -5.946   -6.171   -6.401   -6.705   -7.182   -7.888   -8.829   -9.921  -11.008  -11.920  -12.558  -12.910  -13.030  -13.001  -12.917  -12.858
  -7.115   -7.023   -6.995   -6.972   -6.961   -6.960   -6.965   -6.969   -6.954   -6.904   -6.799   -6.616   -6.344   -5.986   -5.541   -5.012   -4.431   -3.834   -3.276   -2.815   -2.495   -2.349   -2.382   -2.584   -2.918   -3.362   -3.894   -4.473   -5.039   -5.498   -5.772   -5.810   -5.624   -5.272   -4.846   -4.433   -4.083   -3.784   -3.504   -3.234   -2.989   -2.798   -2.672   -2.588   -2.529   -2.494   -2.456   -2.385   -2.239   -2.007   -1.732   -1.485   -1.337   -1.312   -1.389   -1.535   -1.708   -1.892   -2.067   -2.236   -2.414   -2.615   -2.843   -3.065   -3.221   -3.254   -3.180   -3.095   -3.094   -3.198   -3.361   -3.511   -3.638   -3.756   -3.931   -4.175   -4.475   -4.801   -5.121   -5.429   -5.722   -6.007   -6.278   -6.510   -6.677   -6.799   -6.935   -7.169   -7.588   -8.225   -9.088  -10.103  -11.130  -12.015  -12.659  -13.059  -13.267  -13.354  -13.377  -13.379
  -7.104   -7.011   -6.978   -6.957   -6.946   -6.947   -6.956   -6.963   -6.962   -6.929   -6.854   -6.710   -6.470   -6.127   -5.673   -5.111   -4.472   -3.820   -3.215   -2.716   -2.376   -2.227   -2.274   -2.513   -2.910   -3.435   -4.044   -4.674   -5.255   -5.703   -5.948   -5.952   -5.737   -5.381   -4.990   -4.640   -4.344   -4.068   -3.759   -3.432   -3.141   -2.938   -2.834   -2.793   -2.783   -2.773   -2.745   -2.660   -2.485   -2.217   -1.905   -1.627   -1.449   -1.394   -1.459   -1.611   -1.813   -2.040   -2.262   -2.489   -2.736   -3.000   -3.277   -3.526   -3.700   -3.766   -3.775   -3.822   -3.991   -4.256   -4.525   -4.721   -4.841   -4.932   -5.071   -5.285   -5.565   -5.885   -6.212   -6.520   -6.798   -7.043   -7.252   -7.405   -7.495   -7.542   -7.614   -7.792   -8.138   -8.680   -9.424  -10.319  -11.251  -12.086  -12.723  -13.140  -13.382  -13.506  -13.563  -13.594
  -7.090   -6.994   -6.960   -6.937   -6.925   -6.923   -6.928   -6.935   -6.936   -6.918   -6.868   -6.765   -6.574   -6.268   -5.838   -5.279   -4.632   -3.955   -3.326   -2.800   -2.434   -2.248   -2.262   -2.464   -2.839   -3.353   -3.955   -4.581   -5.154   -5.595   -5.828   -5.824   -5.617   -5.293   -4.962   -4.690   -4.455   -4.200   -3.878   -3.529   -3.231   -3.055   -3.003   -3.029   -3.079   -3.107   -3.088   -2.987   -2.782   -2.479   -2.137   -1.833   -1.630   -1.553   -1.600   -1.755   -1.970   -2.223   -2.495   -2.794   -3.125   -3.483   -3.848   -4.176   -4.426   -4.591   -4.745   -4.977   -5.329   -5.737   -6.095   -6.330   -6.449   -6.537   -6.655   -6.836   -7.067   -7.325   -7.581   -7.819   -8.024   -8.189   -8.326   -8.416   -8.454   -8.463   -8.502   -8.632   -8.903   -9.333   -9.936  -10.677  -11.478  -12.225  -12.826  -13.244  -13.493  -13.617  -13.671  -13.706
  -7.071   -6.974   -6.945   -6.923   -6.912   -6.905   -6.905   -6.902   -6.903   -6.889   -6.860   -6.787   -6.646   -6.403   -6.032   -5.531   -4.923   -4.275   -3.651   -3.115   -2.712   -2.461   -2.378   -2.470   -2.726   -3.136   -3.668   -4.258   -4.833   -5.295   -5.556   -5.572   -5.384   -5.088   -4.807   -4.591   -4.411   -4.200   -3.920   -3.624   -3.397   -3.301   -3.335   -3.436   -3.532   -3.581   -3.545   -3.399   -3.134   -2.770   -2.375   -2.023   -1.777   -1.670   -1.707   -1.872   -2.126   -2.443   -2.808   -3.230   -3.713   -4.235   -4.754   -5.227   -5.611   -5.915   -6.212   -6.576   -7.024   -7.486   -7.857   -8.091   -8.214   -8.302   -8.413   -8.567   -8.737   -8.911   -9.075   -9.217   -9.327   -9.414   -9.481   -9.528   -9.541   -9.541   -9.560   -9.655   -9.856  -10.182  -10.645  -11.221  -11.860  -12.478  -13.002  -13.395  -13.645  -13.775  -13.832  -13.868
  -7.062   -6.964   -6.936   -6.917   -6.906   -6.901   -6.893   -6.885   -6.878   -6.865   -6.845   -6.802   -6.707   -6.534   -6.247   -5.840   -5.325   -4.752   -4.171   -3.644   -3.199   -2.868   -2.659   -2.588   -2.666   -2.912   -3.331   -3.876   -4.462   -4.972   -5.284   -5.336   -5.161   -4.872   -4.599   -4.406   -4.274   -4.134   -3.964   -3.798   -3.711   -3.750   -3.886   -4.055   -4.182   -4.216   -4.134   -3.915   -3.559   -3.101   -2.612   -2.178   -1.868   -1.722   -1.762   -1.969   -2.315   -2.765   -3.307   -3.938   -4.641   -5.374   -6.091   -6.729   -7.245   -7.658   -8.026   -8.412   -8.832   -9.236   -9.548   -9.741   -9.853   -9.941  -10.048  -10.177  -10.304  -10.411  -10.498  -10.553  -10.585  -10.605  -10.624  -10.647  -10.657  -10.656  -10.670  -10.733  -10.877  -11.119  -11.462  -11.887  -12.354  -12.818  -13.233  -13.576  -13.826  -13.979  -14.060  -14.106
  -7.063   -6.964   -6.932   -6.919   -6.908   -6.901   -6.891   -6.876   -6.867   -6.854   -6.843   -6.816   -6.764   -6.652   -6.460   -6.166   -5.771   -5.303   -4.796   -4.299   -3.842   -3.451   -3.129   -2.898   -2.790   -2.858   -3.142   -3.623   -4.215   -4.772   -5.132   -5.215   -5.048   -4.746   -4.459   -4.269   -4.174   -4.126   -4.089   -4.090   -4.167   -4.338   -4.565   -4.785   -4.923   -4.937   -4.800   -4.507   -4.063   -3.502   -2.896   -2.355   -1.962   -1.779   -1.843   -2.148   -2.651   -3.317   -4.105   -4.985   -5.922   -6.858   -7.729   -8.471   -9.053   -9.494   -9.840  -10.156  -10.465  -10.749  -10.967  -11.101  -11.190  -11.270  -11.367  -11.476  -11.578  -11.649  -11.682  -11.683  -11.661  -11.638  -11.632  -11.642  -11.657  -11.664  -11.674  -11.712  -11.806  -11.982  -12.235  -12.539  -12.856  -13.165  -13.460  -13.738  -13.983  -14.172  -14.295  -14.361
  -7.066   -6.967   -6.940   -6.923   -6.912   -6.903   -6.893   -6.878   -6.869   -6.855   -6.849   -6.839   -6.813   -6.757   -6.642   -6.454   -6.181   -5.826   -5.420   -4.986   -4.558   -4.144   -3.762   -3.422   -3.170   -3.082   -3.229   -3.627   -4.186   -4.748   -5.140   -5.253   -5.103   -4.804   -4.515   -4.332   -4.270   -4.299   -4.378   -4.510   -4.708   -4.962   -5.234   -5.466   -5.604   -5.605   -5.448   -5.123   -4.624   -3.985   -3.279   -2.622   -2.136   -1.925   -2.046   -2.488   -3.205   -4.121   -5.170   -6.286   -7.404   -8.460   -9.384  -10.134  -10.688  -11.073  -11.338  -11.546  -11.729  -11.895  -12.026  -12.114  -12.176  -12.239  -12.319  -12.411  -12.492  -12.548  -12.559  -12.528  -12.475  -12.430  -12.411  -12.421  -12.442  -12.451  -12.454  -12.471  -12.528  -12.651  -12.837  -13.052  -13.253  -13.434  -13.617  -13.827  -14.060  -14.277  -14.443  -14.533
  -7.072   -6.971   -6.944   -6.929   -6.923   -6.910   -6.900   -6.889   -6.877   -6.868   -6.865   -6.861   -6.854   -6.833   -6.774   -6.667   -6.494   -6.252   -5.953   -5.611   -5.252   -4.879   -4.495   -4.110   -3.775   -3.575   -3.600   -3.892   -4.376   -4.903   -5.291   -5.433   -5.326   -5.077   -4.826   -4.674   -4.641   -4.709   -4.847   -5.037   -5.271   -5.534   -5.793   -6.002   -6.123   -6.122   -5.973   -5.664   -5.170   -4.505   -3.737   -2.988   -2.422   -2.195   -2.388   -2.985   -3.915   -5.064   -6.327   -7.612   -8.829   -9.906  -10.788  -11.458  -11.917  -12.205  -12.375  -12.486  -12.574  -12.660  -12.737  -12.795  -12.838  -12.887  -12.945  -13.022  -13.092  -13.134  -13.129  -13.082  -13.012  -12.962  -12.943  -12.956  -12.975  -12.980  -12.968  -12.963  -12.991  -13.074  -13.212  -13.366  -13.487  -13.576  -13.672  -13.819  -14.030  -14.259  -14.450  -14.563
  -7.086   -6.984   -6.957   -6.941   -6.930   -6.923   -6.913   -6.903   -6.893   -6.886   -6.883   -6.881   -6.882   -6.878   -6.852   -6.795   -6.698   -6.551   -6.356   -6.123   -5.856   -5.555   -5.218   -4.852   -4.498   -4.238   -4.176   -4.356   -4.732   -5.185   -5.547   -5.715   -5.677   -5.510   -5.330   -5.223   -5.214   -5.291   -5.425   -5.600   -5.802   -6.015   -6.213   -6.372   -6.463   -6.467   -6.346   -6.075   -5.624   -4.979   -4.195   -3.395   -2.778   -2.537   -2.788   -3.520   -4.619   -5.943   -7.357   -8.738   -9.984  -11.020  -11.809  -12.354  -12.696  -12.885  -12.980  -13.030  -13.069  -13.114  -13.167  -13.210  -13.247  -13.286  -13.332  -13.391  -13.442  -13.464  -13.448  -13.393  -13.325  -13.278  -13.265  -13.280  -13.290  -13.278  -13.247  -13.219  -13.222  -13.281  -13.385  -13.492  -13.565  -13.600  -13.637  -13.736  -13.910  -14.129  -14.324  -14.444
  -7.099   -6.994   -6.967   -6.954   -6.943   -6.936   -6.927   -6.920   -6.913   -6.904   -6.900   -6.897   -6.898   -6.895   -6.885   -6.858   -6.812   -6.738   -6.631   -6.490   -6.316   -6.096   -5.833   -5.527   -5.208   -4.948   -4.835   -4.921   -5.184   -5.538   -5.853   -6.032   -6.060   -5.983   -5.886   -5.826   -5.831   -5.887   -5.981   -6.101   -6.240   -6.379   -6.507   -6.607   -6.666   -6.660   -6.561   -6.332   -5.931   -5.333   -4.561   -3.742   -3.090   -2.836   -3.117   -3.930   -5.141   -6.578   -8.086   -9.525  -10.779  -11.760  -12.452  -12.887  -13.128  -13.239  -13.286  -13.308  -13.327  -13.359  -13.400  -13.437  -13.473  -13.506  -13.543  -13.582  -13.610  -13.616  -13.592  -13.539  -13.484  -13.448  -13.442  -13.452  -13.446  -13.414  -13.361  -13.312  -13.302  -13.344  -13.423  -13.499  -13.543  -13.553  -13.563  -13.628  -13.765  -13.950  -14.125  -14.242
  -7.115   -7.008   -6.978   -6.960   -6.950   -6.948   -6.942   -6.936   -6.925   -6.916   -6.911   -6.908   -6.904   -6.900   -6.896   -6.886   -6.867   -6.839   -6.792   -6.720   -6.615   -6.473   -6.285   -6.057   -5.810   -5.595   -5.472   -5.492   -5.657   -5.908   -6.160   -6.334   -6.402   -6.393   -6.353   -6.328   -6.331   -6.360   -6.408   -6.472   -6.545   -6.623   -6.688   -6.737   -6.762   -6.739   -6.639   -6.428   -6.054   -5.486   -4.738   -3.915   -3.242   -2.967   -3.249   -4.089   -5.358   -6.872   -8.458   -9.954  -11.229  -12.191  -12.823  -13.180  -13.349  -13.415  -13.435  -13.449  -13.462  -13.487  -13.516  -13.547  -13.573  -13.597  -13.619  -13.637  -13.651  -13.645  -13.621  -13.585  -13.547  -13.524  -13.522  -13.528  -13.510  -13.466  -13.401  -13.348  -13.330  -13.358  -13.410  -13.459  -13.486  -13.492  -13.499  -13.549  -13.647  -13.791  -13.927  -14.029
  -7.131   -7.020   -6.985   -6.966   -6.953   -6.950   -6.945   -6.941   -6.931   -6.920   -6.913   -6.909   -6.909   -6.905   -6.900   -6.894   -6.887   -6.879   -6.865   -6.831   -6.776   -6.691   -6.571   -6.425   -6.260   -6.107   -6.007   -5.996   -6.085   -6.254   -6.438   -6.583   -6.661   -6.680   -6.672   -6.660   -6.654   -6.660   -6.676   -6.698   -6.728   -6.757   -6.783   -6.793   -6.778   -6.720   -6.588   -6.346   -5.959   -5.388   -4.646   -3.829   -3.148   -2.856   -3.118   -3.950   -5.242   -6.818   -8.494  -10.084  -11.422  -12.406  -13.020  -13.340  -13.470  -13.509  -13.519  -13.527  -13.541  -13.559  -13.576  -13.586  -13.591  -13.596  -13.601  -13.605  -13.606  -13.601  -13.590  -13.573  -13.555  -13.544  -13.545  -13.546  -13.530  -13.492  -13.441  -13.399  -13.381  -13.392  -13.415  -13.439  -13.453  -13.458  -13.475  -13.514  -13.586  -13.687  -13.786  -13.871
  -7.128   -7.015   -6.985   -6.966   -6.954   -6.945   -6.939   -6.934   -6.927   -6.917   -6.907   -6.906   -6.906   -6.906   -6.896   -6.887   -6.883   -6.880   -6.876   -6.863   -6.835   -6.784   -6.723   -6.645   -6.556   -6.465   -6.398   -6.382   -6.428   -6.530   -6.656   -6.761   -6.826   -6.848   -6.847   -6.835   -6.824   -6.813   -6.810   -6.807   -6.814   -6.814   -6.808   -6.786   -6.724   -6.602   -6.397   -6.079   -5.623   -5.009   -4.255   -3.459   -2.804   -2.511   -2.743   -3.551   -4.852   -6.487   -8.274   -9.988  -11.433  -12.480  -13.114  -13.425  -13.537  -13.558  -13.563  -13.573  -13.587  -13.598  -13.599  -13.588  -13.572  -13.555  -13.544  -13.539  -13.536  -13.538  -13.540  -13.542  -13.540  -13.533  -13.530  -13.531  -13.530  -13.518  -13.504  -13.488  -13.478  -13.477  -13.473  -13.471  -13.466  -13.471  -13.489  -13.524  -13.577  -13.646  -13.717  -13.785
  -7.116   -7.001   -6.971   -6.953   -6.941   -6.935   -6.933   -6.927   -6.920   -6.908   -6.901   -6.898   -6.897   -6.893   -6.884   -6.871   -6.859   -6.855   -6.856   -6.850   -6.836   -6.814   -6.790   -6.755   -6.719   -6.678   -6.643   -6.632   -6.657   -6.717   -6.793   -6.860   -6.907   -6.919   -6.915   -6.899   -6.884   -6.870   -6.857   -6.848   -6.839   -6.823   -6.786   -6.715   -6.590   -6.377   -6.059   -5.617   -5.053   -4.379   -3.625   -2.877   -2.287   -2.030   -2.255   -3.027   -4.314   -6.001   -7.897   -9.748  -11.317  -12.449  -13.130  -13.447  -13.547  -13.557  -13.556  -13.568  -13.586  -13.596  -13.587  -13.565  -13.535  -13.510  -13.498  -13.492  -13.490  -13.495  -13.504  -13.512  -13.513  -13.506  -13.500  -13.498  -13.508  -13.530  -13.557  -13.577  -13.589  -13.586  -13.569  -13.547  -13.527  -13.521  -13.532  -13.558  -13.593  -13.640  -13.692  -13.749
  -7.107   -6.990   -6.960   -6.945   -6.937   -6.931   -6.927   -6.925   -6.916   -6.905   -6.893   -6.886   -6.882   -6.877   -6.864   -6.848   -6.834   -6.831   -6.830   -6.834   -6.831   -6.828   -6.819   -6.808   -6.795   -6.776   -6.759   -6.755   -6.775   -6.808   -6.850   -6.893   -6.920   -6.923   -6.915   -6.901   -6.887   -6.874   -6.864   -6.853   -6.832   -6.792   -6.716   -6.578   -6.357   -6.023   -5.564   -4.985   -4.313   -3.591   -2.876   -2.224   -1.749   -1.571   -1.805   -2.542   -3.796   -5.508   -7.482   -9.444  -11.122  -12.339  -13.066  -13.400  -13.494  -13.495  -13.490  -13.506  -13.530  -13.539  -13.532  -13.506  -13.485  -13.473  -13.474  -13.476  -13.477  -13.478  -13.476  -13.481  -13.481  -13.471  -13.457  -13.450  -13.467  -13.503  -13.558  -13.611  -13.652  -13.665  -13.655  -13.632  -13.607  -13.591  -13.587  -13.594  -13.611  -13.637  -13.677  -13.724
  -7.125   -7.007   -6.981   -6.970   -6.962   -6.959   -6.957   -6.956   -6.948   -6.932   -6.917   -6.902   -6.894   -6.881   -6.866   -6.852   -6.843   -6.845   -6.851   -6.861   -6.867   -6.868   -6.863   -6.854   -6.837   -6.821   -6.804   -6.797   -6.806   -6.825   -6.850   -6.877   -6.890   -6.890   -6.885   -6.876   -6.867   -6.860   -6.854   -6.838   -6.798   -6.721   -6.581   -6.350   -6.000   -5.525   -4.923   -4.229   -3.495   -2.789   -2.165   -1.663   -1.338   -1.262   -1.524   -2.231   -3.445   -5.136   -7.139   -9.162  -10.904  -12.178  -12.942  -13.293  -13.388  -13.382  -13.373  -13.389  -13.413  -13.425  -13.415  -13.402  -13.398  -13.410  -13.434  -13.451  -13.453  -13.442  -13.429  -13.423  -13.421  -13.409  -13.395  -13.378  -13.386  -13.421  -13.481  -13.547  -13.606  -13.647  -13.663  -13.662  -13.649  -13.634  -13.618  -13.606  -13.598  -13.604  -13.624  -13.661
  -7.248   -7.126   -7.102   -7.088   -7.084   -7.076   -7.075   -7.072   -7.066   -7.048   -7.029   -7.008   -6.994   -6.980   -6.968   -6.958   -6.962   -6.969   -6.987   -7.002   -7.012   -7.010   -6.998   -6.971   -6.930   -6.890   -6.849   -6.821   -6.808   -6.815   -6.831   -6.847   -6.857   -6.858   -6.855   -6.852   -6.850   -6.849   -6.839   -6.807   -6.732   -6.590   -6.354   -6.002   -5.512   -4.891   -4.178   -3.431   -2.718   -2.107   -1.635   -1.314   -1.152   -1.181   -1.480   -2.158   -3.322   -4.968   -6.939   -8.951  -10.702  -11.989  -12.771  -13.132  -13.228  -13.216  -13.198  -13.204  -13.220  -13.226  -13.218  -13.216  -13.227  -13.261  -13.303  -13.333  -13.335  -13.318  -13.294  -13.280  -13.278  -13.274  -13.262  -13.244  -13.237  -13.254  -13.296  -13.352  -13.415  -13.474  -13.520  -13.550  -13.567  -13.567  -13.553  -13.529  -13.503  -13.483  -13.485  -13.515
  -7.566   -7.442   -7.412   -7.395   -7.387   -7.377   -7.370   -7.364   -7.358   -7.341   -7.322   -7.304   -7.285   -7.276   -7.271   -7.272   -7.281   -7.297   -7.318   -7.338   -7.348   -7.338   -7.307   -7.242   -7.152   -7.053   -6.957   -6.882   -6.837   -6.822   -6.823   -6.833   -6.842   -6.847   -6.848   -6.847   -6.849   -6.846   -6.819   -6.749   -6.606   -6.370   -6.015   -5.522   -4.892   -4.168   -3.407   -2.682   -2.074   -1.629   -1.360   -1.237   -1.236   -1.366   -1.698   -2.354   -3.449   -5.008   -6.886   -8.812  -10.498  -11.746  -12.512  -12.871  -12.967  -12.949  -12.918  -12.905  -12.903  -12.897  -12.888  -12.888  -12.908  -12.947  -12.990  -13.018  -13.022  -13.003  -12.983  -12.973  -12.977  -12.985  -12.982  -12.965  -12.947  -12.940  -12.952  -12.985  -13.033  -13.091  -13.155  -13.210  -13.253  -13.278  -13.279  -13.259  -13.225  -13.196  -13.185  -13.208
  -8.164   -8.035   -7.998   -7.975   -7.957   -7.940   -7.931   -7.925   -7.918   -7.905   -7.893   -7.879   -7.869   -7.864   -7.862   -7.869   -7.881   -7.901   -7.921   -7.940   -7.942   -7.921   -7.857   -7.732   -7.563   -7.366   -7.173   -7.017   -6.912   -6.862   -6.848   -6.850   -6.858   -6.863   -6.866   -6.863   -6.862   -6.841   -6.784   -6.652   -6.419   -6.061   -5.566   -4.940   -4.215   -3.447   -2.710   -2.083   -1.635   -1.389   -1.333   -1.416   -1.582   -1.820   -2.190   -2.814   -3.813   -5.224   -6.929   -8.680  -10.219  -11.365  -12.071  -12.402  -12.490  -12.472  -12.434  -12.404  -12.382  -12.365  -12.351  -12.349  -12.365  -12.390  -12.416  -12.436  -12.439  -12.427  -12.413  -12.415  -12.432  -12.447  -12.452  -12.438  -12.413  -12.389  -12.377  -12.381  -12.407  -12.455  -12.514  -12.576  -12.634  -12.677  -12.699  -12.694  -12.669  -12.647  -12.639  -12.669
  -9.053   -8.924   -8.882   -8.849   -8.819   -8.800   -8.788   -8.781   -8.780   -8.775   -8.770   -8.764   -8.760   -8.756   -8.755   -8.763   -8.773   -8.791   -8.808   -8.821   -8.817   -8.771   -8.659   -8.456   -8.170   -7.832   -7.494   -7.218   -7.028   -6.925   -6.884   -6.876   -6.880   -6.885   -6.887   -6.883   -6.873   -6.834   -6.734   -6.531   -6.188   -5.696   -5.073   -4.351   -3.590   -2.854   -2.210   -1.720   -1.436   -1.370   -1.506   -1.780   -2.117   -2.477   -2.901   -3.486   -4.352   -5.548   -6.988   -8.475   -9.784  -10.758  -11.361  -11.642  -11.715  -11.697  -11.663  -11.633  -11.604  -11.579  -11.560  -11.552  -11.555  -11.563  -11.570  -11.578  -11.578  -11.571  -11.569  -11.576  -11.594  -11.613  -11.619  -11.609  -11.583  -11.552  -11.528  -11.520  -11.528  -11.559  -11.602  -11.653  -11.710  -11.758  -11.792  -11.804  -11.802  -11.796  -11.802  -11.853
 -10.131  -10.014   -9.968   -9.932   -9.903   -9.882   -9.872   -9.871   -9.876   -9.879   -9.877   -9.873   -9.868   -9.863   -9.861   -9.865   -9.874   -9.886   -9.899   -9.903   -9.884   -9.811   -9.640   -9.338   -8.906   -8.391   -7.877   -7.450   -7.153   -6.984   -6.913   -6.893   -6.890   -6.891   -6.891   -6.887   -6.874   -6.821   -6.681   -6.408   -5.971   -5.370   -4.652   -3.892   -3.163   -2.518   -2.003   -1.649   -1.484   -1.541   -1.812   -2.234   -2.728   -3.217   -3.695   -4.233   -4.939   -5.874   -6.992   -8.151   -9.172   -9.934  -10.396  -10.605  -10.658  -10.647  -10.627  -10.610  -10.591  -10.566  -10.547  -10.536  -10.529  -10.527  -10.522  -10.522  -10.517  -10.513  -10.514  -10.521  -10.533  -10.544  -10.545  -10.535  -10.514  -10.488  -10.468  -10.460  -10.465  -10.482  -10.509  -10.544  -10.582  -10.619  -10.651  -10.671  -10.683  -10.700  -10.727  -10.803
 -11.240  -11.141  -11.098  -11.064  -11.040  -11.026  -11.019  -11.021  -11.029  -11.036  -11.035  -11.029  -11.019  -11.007  -11.003  -11.007  -11.014  -11.025  -11.032  -11.029  -10.996  -10.890  -10.654  -10.246   -9.663   -8.968   -8.268   -7.677   -7.262   -7.024   -6.919   -6.886   -6.879   -6.878   -6.881   -6.878   -6.861   -6.798   -6.637   -6.327   -5.834   -5.177   -4.436   -3.700   -3.057   -2.532   -2.140   -1.884   -1.787   -1.895   -2.225   -2.730   -3.330   -3.909   -4.426   -4.908   -5.449   -6.120   -6.913   -7.738   -8.464   -8.998   -9.312   -9.441   -9.470   -9.466   -9.466   -9.474   -9.477   -9.469   -9.457   -9.445   -9.436   -9.433   -9.428   -9.428   -9.420   -9.414   -9.410   -9.411   -9.410   -9.408   -9.399   -9.386   -9.372   -9.358   -9.352   -9.352   -9.361   -9.377   -9.393   -9.411   -9.426   -9.441   -9.458   -9.475   -9.495   -9.523   -9.563   -9.668
 -12.217  -12.133  -12.094  -12.068  -12.050  -12.043  -12.039  -12.043  -12.049  -12.053  -12.051  -12.038  -12.021  -12.006  -12.000  -12.002  -12.009  -12.021  -12.031  -12.021  -11.976  -11.837  -11.543  -11.043  -10.329   -9.471   -8.605   -7.869   -7.348   -7.048   -6.913   -6.871   -6.862   -6.863   -6.868   -6.871   -6.855   -6.791   -6.627   -6.309   -5.821   -5.191   -4.503   -3.855   -3.318   -2.907   -2.607   -2.415   -2.350   -2.459   -2.774   -3.281   -3.897   -4.503   -5.015   -5.432   -5.829   -6.275   -6.792   -7.329   -7.796   -8.128   -8.309   -8.370   -8.374   -8.370   -8.393   -8.425   -8.456   -8.472   -8.473   -8.466   -8.463   -8.465   -8.465   -8.466   -8.460   -8.451   -8.443   -8.437   -8.427   -8.410   -8.392   -8.374   -8.365   -8.363   -8.366   -8.379   -8.396   -8.411   -8.421   -8.422   -8.416   -8.411   -8.414   -8.423   -8.442   -8.471   -8.513   -8.637
 -12.956  -12.877  -12.840  -12.821  -12.810  -12.804  -12.803  -12.804  -12.808  -12.805  -12.796  -12.778  -12.758  -12.738  -12.728  -12.731  -12.740  -12.757  -12.768  -12.757  -12.701  -12.540  -12.203  -11.631  -10.822   -9.844   -8.852   -8.009   -7.410   -7.064   -6.908   -6.862   -6.861   -6.870   -6.879   -6.881   -6.867   -6.808   -6.659   -6.375   -5.947   -5.408   -4.836   -4.309   -3.882   -3.562   -3.330   -3.183   -3.132   -3.220   -3.485   -3.926   -4.477   -5.031   -5.493   -5.835   -6.115   -6.399   -6.711   -7.032   -7.302   -7.480   -7.557   -7.565   -7.551   -7.550   -7.580   -7.630   -7.679   -7.713   -7.729   -7.729   -7.729   -7.737   -7.743   -7.747   -7.744   -7.735   -7.728   -7.722   -7.709   -7.688   -7.665   -7.644   -7.637   -7.639   -7.648   -7.669   -7.686   -7.701   -7.703   -7.688   -7.670   -7.655   -7.650   -7.655   -7.669   -7.694   -7.734   -7.866
 -13.430  -13.350  -13.320  -13.300  -13.289  -13.283  -13.279  -13.279  -13.275  -13.268  -13.253  -13.231  -13.205  -13.184  -13.170  -13.172  -13.180  -13.202  -13.214  -13.207  -13.145  -12.972  -12.612  -11.995  -11.124  -10.076   -9.009   -8.093   -7.446   -7.073   -6.916   -6.882   -6.891   -6.908   -6.921   -6.925   -6.911   -6.854   -6.728   -6.501   -6.170   -5.764   -5.335   -4.937   -4.605   -4.350   -4.169   -4.061   -4.033   -4.109   -4.315   -4.656   -5.089   -5.535   -5.905   -6.169   -6.360   -6.533   -6.717   -6.896   -7.035   -7.116   -7.129   -7.109   -7.083   -7.076   -7.092   -7.135   -7.182   -7.224   -7.249   -7.258   -7.262   -7.272   -7.280   -7.286   -7.280   -7.279   -7.277   -7.281   -7.277   -7.260   -7.237   -7.214   -7.201   -7.201   -7.214   -7.237   -7.258   -7.268   -7.258   -7.237   -7.210   -7.197   -7.195   -7.203   -7.218   -7.240   -7.277   -7.405
 -13.695  -13.612  -13.579  -13.556  -13.541  -13.534  -13.527  -13.521  -13.514  -13.505  -13.487  -13.461  -13.433  -13.409  -13.393  -13.390  -13.399  -13.417  -13.432  -13.429  -13.368  -13.190  -12.818  -12.182  -11.280  -10.193   -9.087   -8.138   -7.464   -7.081   -6.930   -6.915   -6.943   -6.971   -6.987   -6.984   -6.964   -6.909   -6.806   -6.642   -6.420   -6.155   -5.867   -5.585   -5.329   -5.122   -4.976   -4.907   -4.909   -4.991   -5.153   -5.393   -5.692   -6.002   -6.261   -6.443   -6.571   -6.679   -6.788   -6.891   -6.964   -6.998   -6.991   -6.958   -6.921   -6.894   -6.881   -6.892   -6.917   -6.953   -6.979   -6.991   -7.003   -7.015   -7.023   -7.023   -7.020   -7.023   -7.036   -7.051   -7.055   -7.045   -7.020   -6.995   -6.978   -6.980   -7.000   -7.030   -7.054   -7.061   -7.042   -7.014   -6.987   -6.980   -6.990   -7.008   -7.030   -7.056   -7.089   -7.210
 -13.820  -13.731  -13.697  -13.670  -13.655  -13.644  -13.636  -13.629  -13.622  -13.612  -13.594  -13.567  -13.540  -13.513  -13.493  -13.485  -13.491  -13.505  -13.523  -13.520  -13.460  -13.284  -12.905  -12.262  -11.347  -10.245   -9.122   -8.152   -7.465   -7.081   -6.939   -6.940   -6.987   -7.027   -7.044   -7.033   -6.997   -6.940   -6.856   -6.750   -6.626   -6.484   -6.316   -6.130   -5.935   -5.765   -5.648   -5.604   -5.638   -5.730   -5.863   -6.028   -6.209   -6.386   -6.532   -6.640   -6.718   -6.794   -6.875   -6.951   -7.007   -7.031   -7.026   -7.000   -6.953   -6.900   -6.852   -6.820   -6.814   -6.829   -6.844   -6.858   -6.876   -6.891   -6.900   -6.897   -6.889   -6.892   -6.912   -6.936   -6.947   -6.946   -6.925   -6.894   -6.875   -6.877   -6.908   -6.953   -6.985   -6.995   -6.974   -6.941   -6.912   -6.909   -6.926   -6.960   -6.994   -7.026   -7.057   -7.172
 -13.879  -13.780  -13.742  -13.717  -13.702  -13.692  -13.685  -13.684  -13.678  -13.667  -13.655  -13.632  -13.609  -13.583  -13.559  -13.543  -13.544  -13.554  -13.568  -13.566  -13.508  -13.329  -12.949  -12.302  -11.380  -10.272   -9.139   -8.162   -7.466   -7.077   -6.936   -6.940   -6.996   -7.041   -7.051   -7.026   -6.976   -6.912   -6.844   -6.788   -6.746   -6.701   -6.628   -6.517   -6.376   -6.243   -6.151   -6.126   -6.174   -6.273   -6.395   -6.512   -6.607   -6.678   -6.728   -6.769   -6.811   -6.868   -6.936   -7.005   -7.061   -7.094   -7.104   -7.089   -7.044   -6.977   -6.903   -6.841   -6.804   -6.788   -6.785   -6.795   -6.814   -6.832   -6.839   -6.832   -6.820   -6.819   -6.839   -6.867   -6.887   -6.890   -6.872   -6.845   -6.829   -6.837   -6.876   -6.934   -6.978   -6.991   -6.970   -6.929   -6.898   -6.892   -6.914   -6.956   -6.999   -7.035   -7.070   -7.183
 -13.909  -13.802  -13.759  -13.740  -13.727  -13.721  -13.718  -13.719  -13.720  -13.717  -13.711  -13.698  -13.678  -13.656  -13.632  -13.609  -13.600  -13.605  -13.612  -13.602  -13.542  -13.362  -12.981  -12.331  -11.406  -10.296   -9.161   -8.179   -7.475   -7.076   -6.921   -6.914   -6.956   -6.991   -6.989   -6.954   -6.897   -6.833   -6.783   -6.764   -6.780   -6.805   -6.803   -6.754   -6.668   -6.576   -6.509   -6.497   -6.548   -6.645   -6.760   -6.855   -6.899   -6.899   -6.877   -6.859   -6.864   -6.894   -6.948   -7.004   -7.058   -7.099   -7.125   -7.125   -7.097   -7.039   -6.970   -6.898   -6.836   -6.786   -6.756   -6.748   -6.763   -6.783   -6.794   -6.786   -6.771   -6.771   -6.791   -6.826   -6.856   -6.865   -6.853   -6.830   -6.815   -6.828   -6.869   -6.932   -6.976   -6.990   -6.966   -6.921   -6.882   -6.870   -6.890   -6.927   -6.969   -7.008   -7.044   -7.162
 -13.927  -13.810  -13.772  -13.755  -13.745  -13.742  -13.743  -13.749  -13.754  -13.762  -13.766  -13.765  -13.752  -13.732  -13.707  -13.677  -13.658  -13.646  -13.643  -13.629  -13.567  -13.386  -13.003  -12.349  -11.424  -10.315   -9.184   -8.202   -7.493   -7.081   -6.901   -6.862   -6.876   -6.889   -6.875   -6.840   -6.789   -6.742   -6.714   -6.724   -6.773   -6.832   -6.872   -6.872   -6.836   -6.789   -6.751   -6.751   -6.799   -6.889   -6.993   -7.069   -7.091   -7.053   -6.981   -6.916   -6.879   -6.878   -6.901   -6.935   -6.975   -7.019   -7.057   -7.080   -7.079   -7.055   -7.007   -6.941   -6.866   -6.788   -6.724   -6.690   -6.694   -6.713   -6.727   -6.732   -6.731   -6.749   -6.783   -6.828   -6.862   -6.876   -6.865   -6.844   -6.829   -6.836   -6.867   -6.914   -6.950   -6.955   -6.929   -6.882   -6.839   -6.821   -6.827   -6.855   -6.888   -6.918   -6.954   -7.078
 -13.951  -13.824  -13.786  -13.766  -13.757  -13.757  -13.758  -13.765  -13.773  -13.791  -13.805  -13.811  -13.804  -13.788  -13.757  -13.720  -13.688  -13.664  -13.652  -13.633  -13.566  -13.384  -13.001  -12.348  -11.425  -10.317   -9.190   -8.217   -7.513   -7.090   -6.884   -6.812   -6.793   -6.785   -6.765   -6.743   -6.716   -6.700   -6.694   -6.715   -6.769   -6.832   -6.885   -6.912   -6.914   -6.901   -6.888   -6.902   -6.944   -7.017   -7.106   -7.166   -7.174   -7.116   -7.019   -6.923   -6.856   -6.828   -6.820   -6.832   -6.857   -6.895   -6.940   -6.983   -7.009   -7.016   -6.994   -6.940   -6.863   -6.770   -6.684   -6.633   -6.624   -6.640   -6.664   -6.683   -6.709   -6.759   -6.819   -6.875   -6.906   -6.916   -6.896   -6.867   -6.840   -6.832   -6.847   -6.873   -6.891   -6.888   -6.862   -6.824   -6.786   -6.769   -6.766   -6.779   -6.793   -6.809   -6.833   -6.966
 -14.000  -13.860  -13.815  -13.791  -13.781  -13.776  -13.774  -13.776  -13.781  -13.798  -13.813  -13.824  -13.822  -13.802  -13.769  -13.730  -13.689  -13.663  -13.647  -13.623  -13.555  -13.372  -12.989  -12.335  -11.413  -10.309   -9.190   -8.229   -7.532   -7.104   -6.885   -6.789   -6.747   -6.724   -6.713   -6.712   -6.726   -6.740   -6.753   -6.771   -6.806   -6.851   -6.891   -6.919   -6.932   -6.937   -6.942   -6.958   -6.991   -7.047   -7.109   -7.147   -7.140   -7.076   -6.971   -6.870   -6.799   -6.758   -6.742   -6.743   -6.755   -6.794   -6.845   -6.895   -6.934   -6.954   -6.941   -6.896   -6.823   -6.737   -6.662   -6.615   -6.606   -6.620   -6.641   -6.666   -6.713   -6.784   -6.869   -6.929   -6.956   -6.949   -6.914   -6.869   -6.830   -6.804   -6.802   -6.812   -6.819   -6.818   -6.808   -6.792   -6.774   -6.775   -6.777   -6.778   -6.774   -6.770   -6.784   -6.921
 -14.111  -13.956  -13.902  -13.876  -13.857  -13.844  -13.832  -13.826  -13.821  -13.828  -13.835  -13.844  -13.843  -13.828  -13.798  -13.760  -13.725  -13.701  -13.687  -13.663  -13.593  -13.407  -13.019  -12.363  -11.440  -10.341   -9.229   -8.278   -7.586   -7.152   -6.922   -6.810   -6.759   -6.734   -6.740   -6.773   -6.826   -6.872   -6.901   -6.915   -6.925   -6.935   -6.941   -6.941   -6.940   -6.939   -6.943   -6.955   -6.979   -7.008   -7.036   -7.040   -7.009   -6.941   -6.847   -6.763   -6.712   -6.687   -6.682   -6.685   -6.702   -6.745   -6.798   -6.849   -6.886   -6.893   -6.874   -6.830   -6.778   -6.728   -6.691   -6.673   -6.672   -6.675   -6.672   -6.682   -6.724   -6.800   -6.887   -6.948   -6.967   -6.944   -6.900   -6.847   -6.793   -6.758   -6.742   -6.752   -6.773   -6.803   -6.835   -6.869   -6.902   -6.945   -6.977   -6.988   -6.975   -6.958   -6.969   -7.104
 -14.354  -14.183  -14.122  -14.089  -14.063  -14.041  -14.019  -14.001  -13.983  -13.975  -13.973  -13.974  -13.971  -13.957  -13.935  -13.909  -13.887  -13.877  -13.870  -13.851  -13.779  -13.587  -13.193  -12.531  -11.604  -10.504   -9.393   -8.440   -7.736   -7.285   -7.031   -6.899   -6.835   -6.819   -6.848   -6.919   -7.016   -7.105   -7.162   -7.180   -7.166   -7.129   -7.078   -7.024   -6.976   -6.948   -6.943   -6.953   -6.961   -6.957   -6.938   -6.899   -6.842   -6.768   -6.694   -6.641   -6.625   -6.631   -6.647   -6.662   -6.687   -6.735   -6.791   -6.840   -6.865   -6.861   -6.829   -6.790   -6.765   -6.763   -6.781   -6.801   -6.808   -6.785   -6.743   -6.715   -6.732   -6.795   -6.870   -6.920   -6.929   -6.909   -6.867   -6.815   -6.763   -6.725   -6.714   -6.740   -6.804   -6.896   -7.012   -7.145   -7.289   -7.428   -7.541   -7.601   -7.608   -7.596   -7.597   -7.736
 -14.808  -14.623  -14.559  -14.521  -14.489  -14.463  -14.435  -14.406  -14.377  -14.353  -14.342  -14.335  -14.328  -14.317  -14.299  -14.286  -14.281  -14.284  -14.290  -14.276  -14.202  -14.004  -13.603  -12.936  -12.006  -10.901   -9.774   -8.791   -8.045   -7.546   -7.242   -7.073   -6.990   -6.979   -7.041   -7.168   -7.330   -7.481   -7.585   -7.621   -7.580   -7.478   -7.340   -7.191   -7.072   -7.001   -6.978   -6.980   -6.973   -6.932   -6.863   -6.783   -6.701   -6.628   -6.572   -6.552   -6.572   -6.612   -6.648   -6.674   -6.701   -6.745   -6.799   -6.842   -6.861   -6.853   -6.823   -6.797   -6.807   -6.848   -6.908   -6.954   -6.954   -6.906   -6.823   -6.757   -6.745   -6.779   -6.834   -6.870   -6.871   -6.851   -6.820   -6.784   -6.750   -6.730   -6.745   -6.807   -6.936   -7.126   -7.389   -7.708   -8.057   -8.396   -8.672   -8.840   -8.906   -8.913   -8.915   -9.041
 -15.525  -15.334  -15.271  -15.232  -15.203  -15.175  -15.142  -15.105  -15.068  -15.037  -15.016  -15.003  -14.991  -14.977  -14.966  -14.957  -14.962  -14.976  -14.989  -14.979  -14.907  -14.709  -14.310  -13.641  -12.706  -11.588  -10.429   -9.388   -8.559   -7.967   -7.575   -7.334   -7.216   -7.213   -7.326   -7.538   -7.799   -8.049   -8.219   -8.271   -8.187   -7.988   -7.723   -7.451   -7.234   -7.102   -7.049   -7.040   -7.019   -6.951   -6.846   -6.729   -6.637   -6.567   -6.531   -6.535   -6.586   -6.651   -6.704   -6.728   -6.740   -6.763   -6.799   -6.835   -6.860   -6.862   -6.855   -6.851   -6.881   -6.950   -7.026   -7.079   -7.070   -7.001   -6.898   -6.811   -6.774   -6.783   -6.808   -6.818   -6.807   -6.786   -6.771   -6.759   -6.759   -6.769   -6.820   -6.933   -7.146   -7.484   -7.974   -8.595   -9.285   -9.950  -10.483  -10.833  -10.999  -11.045  -11.052  -11.149
 -16.511  -16.317  -16.256  -16.220  -16.193  -16.165  -16.125  -16.084  -16.042  -16.005  -15.979  -15.960  -15.942  -15.925  -15.911  -15.901  -15.906  -15.920  -15.934  -15.928  -15.861  -15.670  -15.276  -14.612  -13.674  -12.535  -11.325  -10.195   -9.250   -8.526   -8.010   -7.675   -7.509   -7.517   -7.700   -8.033   -8.432   -8.803   -9.050   -9.105   -8.947   -8.609   -8.176   -7.750   -7.418   -7.212   -7.125   -7.102   -7.076   -6.994   -6.865   -6.736   -6.640   -6.588   -6.575   -6.598   -6.662   -6.734   -6.784   -6.799   -6.785   -6.777   -6.791   -6.819   -6.857   -6.881   -6.896   -6.912   -6.949   -7.016   -7.085   -7.131   -7.116   -7.048   -6.954   -6.872   -6.822   -6.809   -6.804   -6.782   -6.752   -6.726   -6.726   -6.742   -6.773   -6.818   -6.906   -7.075   -7.388   -7.919   -8.716   -9.754  -10.912  -12.018  -12.899  -13.485  -13.787  -13.887  -13.902  -13.951
 -17.709  -17.517  -17.460  -17.430  -17.399  -17.358  -17.303  -17.243  -17.181  -17.135  -17.105  -17.082  -17.062  -17.041  -17.019  -17.003  -17.001  -17.006  -17.016  -17.011  -16.948  -16.765  -16.379  -15.721  -14.778  -13.610  -12.337  -11.105  -10.025   -9.149   -8.491   -8.050   -7.831   -7.855   -8.129   -8.606   -9.165   -9.666   -9.985  -10.025   -9.764   -9.258   -8.629   -8.029   -7.567   -7.285   -7.161   -7.125   -7.097   -7.013   -6.883   -6.756   -6.677   -6.653   -6.668   -6.706   -6.765   -6.824   -6.859   -6.852   -6.814   -6.781   -6.774   -6.802   -6.847   -6.889   -6.917   -6.938   -6.968   -7.012   -7.061   -7.090   -7.078   -7.031   -6.969   -6.914   -6.871   -6.840   -6.812   -6.771   -6.731   -6.707   -6.717   -6.755   -6.804   -6.867   -6.974   -7.184   -7.601   -8.351   -9.514  -11.042  -12.738  -14.336  -15.605  -16.447  -16.897  -17.069  -17.098  -17.090
 -19.125  -18.936  -18.884  -18.847  -18.797  -18.713  -18.593  -18.463  -18.347  -18.266  -18.218  -18.192  -18.172  -18.149  -18.122  -18.096  -18.083  -18.080  -18.082  -18.071  -18.009  -17.828  -17.447  -16.790  -15.836  -14.636  -13.300  -11.966  -10.752   -9.732   -8.942   -8.399   -8.134   -8.187   -8.559   -9.177   -9.889  -10.507  -10.877  -10.891  -10.521   -9.843   -9.021   -8.240   -7.640   -7.275   -7.109   -7.067   -7.043   -6.973   -6.860   -6.758   -6.715   -6.732   -6.778   -6.824   -6.860   -6.886   -6.893   -6.870   -6.821   -6.778   -6.763   -6.786   -6.831   -6.875   -6.901   -6.910   -6.921   -6.940   -6.965   -6.980   -6.975   -6.957   -6.935   -6.915   -6.896   -6.870   -6.837   -6.796   -6.765   -6.758   -6.785   -6.823   -6.867   -6.917   -7.009   -7.233   -7.742   -8.712  -10.245  -12.263  -14.487  -16.556  -18.186  -19.271  -19.867  -20.115  -20.167  -20.100
 -20.962  -20.780  -20.736  -20.680  -20.552  -20.331  -20.035  -19.721  -19.455  -19.274  -19.174  -19.129  -19.107  -19.083  -19.054  -19.025  -19.005  -18.994  -18.988  -18.971  -18.904  -18.719  -18.334  -17.668  -16.698  -15.463  -14.067  -12.642  -11.316  -10.177   -9.284   -8.671   -8.387   -8.481   -8.947   -9.687  -10.512  -11.212  -11.608  -11.584  -11.120  -10.298   -9.307   -8.361   -7.632   -7.181   -6.978   -6.935   -6.931   -6.888   -6.810   -6.747   -6.748   -6.805   -6.872   -6.910   -6.918   -6.909   -6.889   -6.863   -6.824   -6.785   -6.765   -6.778   -6.812   -6.844   -6.859   -6.855   -6.845   -6.844   -6.850   -6.859   -6.862   -6.867   -6.879   -6.893   -6.903   -6.894   -6.873   -6.850   -6.845   -6.866   -6.908   -6.943   -6.960   -6.966   -7.013   -7.233   -7.810   -8.969  -10.831  -13.270  -15.934  -18.392  -20.318  -21.605  -22.320  -22.632  -22.707  -22.588
 -23.722  -23.571  -23.539  -23.414  -23.092  -22.549  -21.849  -21.127  -20.525  -20.124  -19.907  -19.814  -19.777  -19.751  -19.726  -19.699  -19.679  -19.667  -19.657  -19.634  -19.557  -19.363  -18.964  -18.283  -17.287  -16.013  -14.562  -13.063  -11.655  -10.438   -9.492   -8.859   -8.599   -8.754   -9.299  -10.119  -11.004  -11.732  -12.118  -12.052  -11.513  -10.591   -9.478   -8.411   -7.576   -7.059   -6.838   -6.805   -6.835   -6.828   -6.785   -6.757   -6.785   -6.855   -6.918   -6.938   -6.919   -6.891   -6.871   -6.858   -6.834   -6.803   -6.777   -6.774   -6.796   -6.820   -6.829   -6.817   -6.796   -6.784   -6.784   -6.795   -6.808   -6.827   -6.853   -6.883   -6.900   -6.901   -6.894   -6.901   -6.936   -6.991   -7.047   -7.069   -7.046   -7.001   -7.005   -7.209   -7.836   -9.142  -11.250  -14.004  -16.986  -19.716  -21.852  -23.278  -24.076  -24.430  -24.516  -24.362
 -28.122  -28.043  -27.995  -27.686  -26.955  -25.788  -24.338  -22.876  -21.673  -20.872  -20.437  -20.252  -20.187  -20.157  -20.135  -20.118  -20.102  -20.094  -20.084  -20.058  -19.973  -19.765  -19.346  -18.639  -17.608  -16.291  -14.787  -13.231  -11.772  -10.527   -9.585   -9.001   -8.822   -9.057   -9.667  -10.517  -11.398  -12.091  -12.428  -12.306  -11.710  -10.729   -9.554   -8.417   -7.522   -6.973   -6.751   -6.746   -6.811   -6.838   -6.819   -6.799   -6.823   -6.875   -6.912   -6.909   -6.884   -6.859   -6.853   -6.852   -6.838   -6.810   -6.780   -6.772   -6.793   -6.825   -6.842   -6.829   -6.801   -6.786   -6.793   -6.816   -6.843   -6.862   -6.880   -6.889   -6.883   -6.874   -6.881   -6.925   -7.003   -7.091   -7.153   -7.159   -7.103   -7.023   -7.001   -7.197   -7.864   -9.267  -11.529  -14.469  -17.638  -20.528  -22.783  -24.284  -25.121  -25.489  -25.573  -25.400
 -34.626  -34.652  -34.480  -33.782  -32.357  -30.222  -27.648  -25.086  -22.989  -21.590  -20.838  -20.515  -20.405  -20.370  -20.354  -20.343  -20.335  -20.331  -20.324  -20.297  -20.204  -19.982  -19.539  -18.797  -17.723  -16.356  -14.800  -13.202  -11.722  -10.500   -9.633   -9.166   -9.117   -9.460  -10.117  -10.944  -11.758  -12.365  -12.616  -12.426  -11.782  -10.774   -9.577   -8.426   -7.515   -6.959   -6.749   -6.762   -6.851   -6.895   -6.877   -6.848   -6.851   -6.876   -6.885   -6.872   -6.850   -6.831   -6.829   -6.828   -6.813   -6.778   -6.748   -6.754   -6.795   -6.852   -6.885   -6.879   -6.847   -6.834   -6.852   -6.891   -6.926   -6.939   -6.929   -6.890   -6.839   -6.808   -6.827   -6.904   -7.020   -7.133   -7.197   -7.191   -7.120   -7.029   -7.007   -7.217   -7.910   -9.361  -11.690  -14.704  -17.939  -20.883  -23.174  -24.692  -25.530  -25.887  -25.961  -25.781
 -42.850  -42.957  -42.479  -41.147  -38.774  -35.431  -31.495  -27.608  -24.429  -22.311  -21.175  -20.689  -20.524  -20.479  -20.465  -20.457  -20.452  -20.447  -20.441  -20.413  -20.319  -20.085  -19.620  -18.840  -17.714  -16.290  -14.687  -13.067  -11.605  -10.456   -9.718   -9.419   -9.532   -9.981  -10.660  -11.428  -12.134  -12.621  -12.772  -12.512  -11.834  -10.818   -9.633   -8.492   -7.585   -7.027   -6.807   -6.810   -6.886   -6.927   -6.911   -6.877   -6.869   -6.882   -6.888   -6.876   -6.851   -6.825   -6.802   -6.780   -6.747   -6.703   -6.678   -6.703   -6.774   -6.861   -6.914   -6.914   -6.886   -6.870   -6.890   -6.936   -6.977   -6.985   -6.951   -6.873   -6.784   -6.731   -6.750   -6.844   -6.978   -7.092   -7.152   -7.145   -7.078   -7.007   -7.008   -7.244   -7.955   -9.413  -11.724  -14.705  -17.909  -20.817  -23.075  -24.563  -25.373  -25.709  -25.771  -25.591
 -51.525  -51.632  -50.678  -48.525  -45.069  -40.460  -35.173  -29.993  -25.767  -22.961  -21.463  -20.826  -20.610  -20.554  -20.538  -20.527  -20.513  -20.500  -20.486  -20.458  -20.370  -20.136  -19.654  -18.840  -17.662  -16.184  -14.544  -12.929  -11.529  -10.494   -9.916   -9.800  -10.066  -10.591  -11.251  -11.929  -12.508  -12.876  -12.936  -12.628  -11.941  -10.940   -9.777   -8.650   -7.744   -7.163   -6.899   -6.847   -6.878   -6.896   -6.882   -6.872   -6.889   -6.924   -6.949   -6.940   -6.893   -6.831   -6.772   -6.722   -6.672   -6.622   -6.598   -6.630   -6.719   -6.824   -6.893   -6.895   -6.862   -6.838   -6.849   -6.895   -6.945   -6.967   -6.937   -6.853   -6.749   -6.678   -6.681   -6.760   -6.875   -6.974   -7.024   -7.018   -6.978   -6.941   -6.984   -7.247   -7.960   -9.372  -11.593  -14.456  -17.529  -20.321  -22.483  -23.903  -24.668  -24.979  -25.032  -24.867
 -59.373  -59.341  -57.799  -54.697  -50.093  -44.285  -37.847  -31.660  -26.675  -23.401  -21.667  -20.934  -20.689  -20.626  -20.609  -20.587  -20.559  -20.531  -20.512  -20.492  -20.421  -20.200  -19.712  -18.863  -17.636  -16.110  -14.455  -12.879  -11.575  -10.689  -10.280  -10.321  -10.687  -11.234  -11.834  -12.392  -12.833  -13.085  -13.076  -12.745  -12.074  -11.107   -9.977   -8.867   -7.956   -7.337   -7.000   -6.860   -6.818   -6.807   -6.812   -6.847   -6.918   -6.996   -7.038   -7.011   -6.928   -6.833   -6.750   -6.692   -6.641   -6.588   -6.560   -6.585   -6.664   -6.763   -6.825   -6.822   -6.777   -6.739   -6.740   -6.788   -6.861   -6.920   -6.930   -6.873   -6.774   -6.689   -6.657   -6.688   -6.753   -6.817   -6.849   -6.850   -6.837   -6.843   -6.925   -7.208   -7.889   -9.200  -11.251  -13.900  -16.750  -19.343  -21.350  -22.666  -23.371  -23.655  -23.702  -23.565
 -65.757  -65.351  -63.025  -58.819  -53.046  -46.182  -38.899  -32.151  -26.881  -23.499  -21.735  -20.998  -20.758  -20.705  -20.695  -20.677  -20.648  -20.622  -20.616  -20.625  -20.592  -20.394  -19.895  -18.998  -17.704  -16.130  -14.475  -12.968  -11.793  -11.066  -10.808  -10.957  -11.363  -11.879  -12.381  -12.798  -13.091  -13.217  -13.131  -12.779  -12.131  -11.210  -10.124   -9.040   -8.127   -7.474   -7.070   -6.852   -6.748   -6.717   -6.747   -6.833   -6.956   -7.058   -7.092   -7.035   -6.925   -6.824   -6.769   -6.750   -6.723   -6.673   -6.629   -6.624   -6.670   -6.737   -6.772   -6.750   -6.689   -6.642   -6.642   -6.704   -6.812   -6.924   -6.983   -6.957   -6.864   -6.758   -6.687   -6.665   -6.678   -6.699   -6.705   -6.710   -6.713   -6.748   -6.850   -7.120   -7.728   -8.875  -10.672  -13.001  -15.526  -17.831  -19.621  -20.793  -21.418  -21.669  -21.714  -21.616
 -70.135  -69.071  -65.708  -60.352  -53.551  -45.863  -38.108  -31.328  -26.309  -23.209  -21.632  -20.992  -20.811  -20.814  -20.867  -20.915  -20.945  -20.980  -21.046  -21.134  -21.163  -20.979  -20.423  -19.405  -17.973  -16.300  -14.626  -13.192  -12.158  -11.586  -11.453  -11.659  -12.061  -12.513  -12.905  -13.181  -13.317  -13.299  -13.107  -12.704  -12.059  -11.173  -10.134   -9.090   -8.190   -7.525   -7.093   -6.836   -6.708   -6.681   -6.744   -6.871   -7.011   -7.103   -7.098   -7.004   -6.895   -6.845   -6.876   -6.933   -6.954   -6.918   -6.857   -6.817   -6.815   -6.832   -6.825   -6.774   -6.702   -6.656   -6.669   -6.744   -6.871   -7.010   -7.093   -7.076   -6.981   -6.857   -6.763   -6.711   -6.691   -6.682   -6.672   -6.660   -6.661   -6.692   -6.777   -7.001   -7.493   -8.423   -9.884  -11.796  -13.883  -15.806  -17.307  -18.291  -18.812  -19.012  -19.046  -19.003
 -71.478  -69.736  -65.431  -59.220  -51.687  -43.480  -35.702  -29.430  -25.125  -22.607  -21.379  -20.926  -20.892  -21.066  -21.327  -21.602  -21.861  -22.113  -22.378  -22.620  -22.718  -22.473  -21.707  -20.377  -18.616  -16.699  -14.927  -13.526  -12.606  -12.164  -12.122  -12.353  -12.721  -13.104  -13.405  -13.563  -13.560  -13.395  -13.076  -12.592  -11.919  -11.057  -10.061   -9.060   -8.188   -7.533   -7.106   -6.866   -6.765   -6.777   -6.872   -7.009   -7.128   -7.169   -7.109   -6.993   -6.919   -6.963   -7.110   -7.268   -7.348   -7.329   -7.255   -7.179   -7.132   -7.099   -7.050   -6.979   -6.910   -6.873   -6.891   -6.955   -7.054   -7.158   -7.210   -7.180   -7.082   -6.967   -6.878   -6.831   -6.808   -6.788   -6.764   -6.736   -6.720   -6.718   -6.763   -6.911   -7.256   -7.929   -9.000  -10.415  -11.972  -13.419  -14.556  -15.293  -15.672  -15.800  -15.809  -15.826
 -69.140  -67.089  -62.403  -55.807  -47.870  -39.567  -32.306  -26.993  -23.656  -21.830  -21.016  -20.844  -21.111  -21.697  -22.480  -23.337  -24.172  -24.941  -25.608  -26.083  -26.177  -25.650  -24.348  -22.325  -19.879  -17.443  -15.395  -13.934  -13.071  -12.715  -12.723  -12.947  -13.270  -13.586  -13.814  -13.895  -13.800  -13.532  -13.112  -12.555  -11.856  -11.008  -10.054   -9.096   -8.253   -7.622   -7.230   -7.044   -7.008   -7.076   -7.194   -7.310   -7.372   -7.345   -7.235   -7.113   -7.095   -7.243   -7.505   -7.755   -7.887   -7.888   -7.808   -7.715   -7.634   -7.567   -7.496   -7.428   -7.371   -7.340   -7.331   -7.337   -7.357   -7.376   -7.369   -7.324   -7.242   -7.162   -7.107   -7.084   -7.073   -7.056   -7.030   -6.985   -6.945   -6.912   -6.907   -6.973   -7.174   -7.580   -8.238   -9.109  -10.077  -10.974  -11.670  -12.106  -12.302  -12.330  -12.298  -12.360
 -63.926  -61.888  -57.280  -50.648  -42.758  -34.988  -28.763  -24.612  -22.212  -20.997  -20.572  -20.784  -21.612  -23.034  -24.883  -26.900  -28.832  -30.505  -31.780  -32.476  -32.353  -31.168  -28.843  -25.597  -21.966  -18.618  -16.041  -14.377  -13.498  -13.175  -13.191  -13.383  -13.640  -13.882  -14.049  -14.088  -13.965  -13.674  -13.236  -12.669  -11.973  -11.154  -10.247   -9.337   -8.539   -7.954   -7.616   -7.501   -7.537   -7.646   -7.760   -7.824   -7.814   -7.720   -7.574   -7.468   -7.508   -7.736   -8.078   -8.386   -8.560   -8.588   -8.525   -8.435   -8.351   -8.280   -8.217   -8.170   -8.130   -8.087   -8.032   -7.955   -7.877   -7.814   -7.762   -7.720   -7.679   -7.643   -7.623   -7.617   -7.617   -7.606   -7.578   -7.531   -7.470   -7.411   -7.375   -7.383   -7.457   -7.622   -7.883   -8.220   -8.579   -8.888   -9.097   -9.180   -9.147   -9.039   -8.940   -9.028
 -57.293  -55.239  -50.846  -44.562  -37.393  -30.786  -25.836  -22.714  -20.972  -20.140  -20.030  -20.749  -22.506  -25.335  -28.921  -32.714  -36.185  -38.979  -40.861  -41.611  -40.987  -38.794  -35.040  -30.114  -24.829  -20.171  -16.805  -14.807  -13.843  -13.514  -13.512  -13.649  -13.824  -13.978  -14.080  -14.100  -14.006  -13.784  -13.426  -12.928  -12.292  -11.530  -10.688   -9.850   -9.129   -8.616   -8.350   -8.299   -8.383   -8.497   -8.573   -8.570   -8.488   -8.346   -8.195   -8.113   -8.196   -8.463   -8.843   -9.188   -9.404   -9.476   -9.458   -9.404   -9.351   -9.306   -9.277   -9.262   -9.244   -9.190   -9.090   -8.958   -8.827   -8.725   -8.674   -8.654   -8.647   -8.643   -8.635   -8.627   -8.626   -8.619   -8.595   -8.545   -8.473   -8.406   -8.361   -8.339   -8.323   -8.282   -8.194   -8.043   -7.829   -7.567   -7.277   -6.972   -6.662   -6.381   -6.187   -6.269
 -50.493  -48.431  -44.534  -39.167  -33.281  -28.018  -24.087  -21.528  -19.997  -19.241  -19.340  -20.703  -23.777  -28.564  -34.378  -40.192  -45.176  -48.880  -51.100  -51.677  -50.413  -47.134  -41.889  -35.163  -28.017  -21.834  -17.539  -15.142  -14.075  -13.731  -13.705  -13.787  -13.877  -13.942  -13.981  -13.991  -13.954  -13.843  -13.622  -13.252  -12.724  -12.058  -11.316  -10.588   -9.981   -9.566   -9.372   -9.367   -9.457   -9.545   -9.561   -9.495   -9.363   -9.202   -9.064   -9.016   -9.127   -9.422   -9.828  -10.216  -10.493  -10.638  -10.695  -10.707  -10.706  -10.710  -10.725  -10.746  -10.746  -10.696  -10.595  -10.462  -10.344  -10.264  -10.240  -10.250  -10.262  -10.259  -10.243  -10.225  -10.217  -10.220  -10.202  -10.150  -10.072  -10.003   -9.960   -9.921   -9.837   -9.637   -9.267   -8.714   -8.022   -7.260   -6.496   -5.791   -5.176   -4.692   -4.380   -4.433
 -45.799  -44.007  -40.945  -36.738  -32.018  -27.560  -23.911  -21.210  -19.352  -18.326  -18.496  -20.587  -25.245  -32.249  -40.285  -47.802  -53.856  -58.098  -60.437  -60.761  -58.850  -54.551  -47.993  -39.687  -30.826  -23.190  -18.026  -15.295  -14.171  -13.840  -13.811  -13.854  -13.879  -13.873  -13.857  -13.854  -13.862  -13.850  -13.758  -13.525  -13.128  -12.593  -11.987  -11.401  -10.922  -10.610  -10.474  -10.480  -10.546  -10.590  -10.560  -10.455  -10.310  -10.162  -10.059  -10.054  -10.209  -10.547  -11.009  -11.477  -11.854  -12.107  -12.259  -12.348  -12.406  -12.453  -12.499  -12.544  -12.566  -12.538  -12.470  -12.388  -12.326  -12.304  -12.315  -12.343  -12.360  -12.348  -12.318  -12.300  -12.307  -12.331  -12.323  -12.273  -12.187  -12.111  -12.062  -12.008  -11.869  -11.551  -10.983  -10.152   -9.115   -7.968   -6.819   -5.753   -4.843   -4.145   -3.708   -3.716
 -45.750  -44.435  -42.061  -38.546  -34.212  -29.627  -25.369  -21.812  -19.116  -17.506  -17.585  -20.357  -26.575  -35.591  -45.354  -54.014  -60.828  -65.582  -68.108  -68.145  -65.415  -59.992  -52.292  -42.780  -32.599  -23.859  -18.106  -15.224  -14.137  -13.866  -13.862  -13.892  -13.884  -13.839  -13.787  -13.767  -13.786  -13.816  -13.795  -13.662  -13.386  -12.992  -12.537  -12.098  -11.741  -11.510  -11.406  -11.400  -11.428  -11.434  -11.378  -11.270  -11.141  -11.035  -10.986  -11.047  -11.279  -11.707  -12.275  -12.877  -13.394  -13.770  -14.019  -14.172  -14.268  -14.338  -14.397  -14.446  -14.474  -14.474  -14.451  -14.429  -14.430  -14.462  -14.506  -14.550  -14.571  -14.561  -14.542  -14.545  -14.588  -14.642  -14.654  -14.603  -14.513  -14.428  -14.368  -14.296  -14.116  -13.726  -13.052  -12.082  -10.867   -9.505   -8.108   -6.792   -5.654   -4.788   -4.250   -4.216
 -49.742  -48.867  -46.735  -43.266  -38.625  -33.278  -27.888  -23.075  -19.269  -16.896  -16.737  -19.979  -27.355  -37.748  -48.539  -57.887  -65.381  -70.753  -73.478  -73.044  -69.289  -62.759  -54.192  -43.901  -32.936  -23.655  -17.748  -14.959  -14.022  -13.854  -13.894  -13.930  -13.911  -13.855  -13.789  -13.753  -13.753  -13.774  -13.763  -13.675  -13.487  -13.212  -12.893  -12.582  -12.324  -12.145  -12.050  -12.020  -12.011  -11.989  -11.927  -11.840  -11.750  -11.694  -11.709  -11.851  -12.190  -12.748  -13.467  -14.226  -14.895  -15.395  -15.722  -15.918  -16.029  -16.097  -16.148  -16.185  -16.210  -16.219  -16.227  -16.246  -16.288  -16.351  -16.419  -16.476  -16.511  -16.522  -16.534  -16.576  -16.658  -16.744  -16.779  -16.741  -16.654  -16.570  -16.505  -16.420  -16.222  -15.815  -15.133  -14.162  -12.939  -11.554  -10.106   -8.709   -7.479   -6.534   -5.944   -5.869
 -54.756  -54.138  -51.937  -48.171  -42.989  -36.814  -30.344  -24.382  -19.579  -16.520  -16.057  -19.406  -27.206  -38.093  -49.214  -58.783  -66.524  -72.064  -74.649  -73.722  -69.341  -62.342  -53.444  -42.844  -31.730  -22.605  -17.045  -14.592  -13.884  -13.834  -13.919  -13.968  -13.954  -13.899  -13.837  -13.793  -13.772  -13.758  -13.727  -13.647  -13.508  -13.319  -13.101  -12.886  -12.699  -12.558  -12.466  -12.413  -12.377  -12.336  -12.279  -12.215  -12.162  -12.150  -12.226  -12.451  -12.896  -13.586  -14.455  -15.367  -16.169  -16.769  -17.156  -17.372  -17.481  -17.535  -17.566  -17.585  -17.599  -17.607  -17.623  -17.654  -17.705  -17.774  -17.846  -17.910  -17.961  -17.998  -18.041  -18.115  -18.224  -18.330  -18.382  -18.360  -18.291  -18.223  -18.170  -18.088  -17.904  -17.538  -16.938  -16.090  -15.028  -13.810  -12.515  -11.231  -10.073   -9.161   -8.580   -8.474
 -58.475  -57.886  -55.445  -51.270  -45.589  -38.824  -31.687  -25.062  -19.720  -16.287  -15.557  -18.597  -25.943  -36.346  -47.120  -56.365  -63.603  -68.538  -70.645  -69.562  -65.410  -58.770  -50.057  -39.647  -29.120  -20.890  -16.139  -14.203  -13.757  -13.815  -13.936  -13.993  -13.985  -13.942  -13.890  -13.845  -13.810  -13.775  -13.725  -13.647  -13.537  -13.404  -13.259  -13.112  -12.981  -12.871  -12.788  -12.726  -12.675  -12.627  -12.576  -12.527  -12.497  -12.518  -12.635  -12.924  -13.449  -14.237  -15.215  -16.232  -17.129  -17.798  -18.223  -18.450  -18.551  -18.592  -18.605  -18.610  -18.611  -18.612  -18.621  -18.642  -18.679  -18.732  -18.793  -18.853  -18.908  -18.957  -19.014  -19.096  -19.203  -19.304  -19.358  -19.352  -19.307  -19.264  -19.230  -19.175  -19.038  -18.761  -18.318  -17.705  -16.953  -16.086  -15.135  -14.141  -13.188  -12.393  -11.859  -11.726
 -59.597  -58.894  -56.210  -51.738  -45.765  -38.753  -31.457  -24.786  -19.477  -16.067  -15.161  -17.552  -23.674  -32.656  -42.358  -50.857  -57.308  -61.448  -63.101  -62.126  -58.529  -52.476  -44.243  -34.635  -25.486  -18.776  -15.148  -13.821  -13.629  -13.772  -13.910  -13.968  -13.963  -13.933  -13.894  -13.856  -13.821  -13.784  -13.736  -13.670  -13.588  -13.499  -13.410  -13.320  -13.237  -13.164  -13.100  -13.044  -12.995  -12.947  -12.901  -12.863  -12.846  -12.880  -13.018  -13.336  -13.900  -14.733  -15.761  -16.831  -17.778  -18.486  -18.935  -19.172  -19.275  -19.309  -19.314  -19.310  -19.302  -19.296  -19.294  -19.298  -19.314  -19.344  -19.384  -19.430  -19.473  -19.514  -19.562  -19.622  -19.700  -19.770  -19.810  -19.805  -19.782  -19.760  -19.749  -19.728  -19.662  -19.522  -19.310  -19.051  -18.763  -18.434  -18.007  -17.446  -16.783  -16.140  -15.659  -15.496
 -58.020  -57.173  -54.361  -49.795  -43.790  -36.886  -29.905  -23.699  -18.859  -15.748  -14.735  -16.307  -20.767  -27.636  -35.510  -42.794  -48.453  -52.059  -53.467  -52.593  -49.375  -43.892  -36.575  -28.523  -21.406  -16.550  -14.134  -13.398  -13.425  -13.625  -13.767  -13.824  -13.827  -13.809  -13.785  -13.763  -13.740  -13.719  -13.690  -13.651  -13.604  -13.559  -13.518  -13.482  -13.445  -13.410  -13.374  -13.342  -13.305  -13.266  -13.232  -13.200  -13.190  -13.228  -13.368  -13.682  -14.246  -15.074  -16.100  -17.177  -18.138  -18.870  -19.344  -19.601  -19.718  -19.758  -19.765  -19.759  -19.749  -19.738  -19.725  -19.717  -19.713  -19.723  -19.743  -19.770  -19.799  -19.823  -19.847  -19.875  -19.908  -19.936  -19.948  -19.936  -19.919  -19.910  -19.915  -19.935  -19.960  -20.007  -20.124  -20.367  -20.750  -21.179  -21.472  -21.471  -21.157  -20.675  -20.230  -20.009
 -54.704  -53.710  -50.870  -46.380  -40.590  -34.118  -27.772  -22.267  -18.021  -15.246  -14.117  -14.870  -17.654  -22.223  -27.774  -33.243  -37.737  -40.723  -41.922  -41.182  -38.460  -33.939  -28.207  -22.315  -17.473  -14.421  -13.085  -12.838  -13.026  -13.255  -13.399  -13.458  -13.471  -13.469  -13.468  -13.471  -13.483  -13.495  -13.501  -13.502  -13.500  -13.504  -13.511  -13.521  -13.529  -13.529  -13.529  -13.525  -13.517  -13.504  -13.488  -13.468  -13.459  -13.491  -13.614  -13.901  -14.426  -15.209  -16.199  -17.254  -18.218  -18.973  -19.483  -19.781  -19.932  -19.997  -20.016  -20.013  -20.002  -19.989  -19.973  -19.958  -19.945  -19.944  -19.950  -19.965  -19.979  -19.991  -19.995  -19.996  -19.996  -19.987  -19.972  -19.948  -19.929  -19.924  -19.946  -20.011  -20.154  -20.454  -21.026  -21.967  -23.258  -24.685  -25.890  -26.578  -26.685  -26.397  -25.994  -25.663
 -50.702  -49.610  -46.865  -42.642  -37.311  -31.472  -25.829  -20.947  -17.136  -14.536  -13.219  -13.262  -14.675  -17.280  -20.619  -24.062  -27.021  -29.070  -29.920  -29.395  -27.465  -24.344  -20.560  -16.886  -14.068  -12.467  -11.936  -12.023  -12.304  -12.546  -12.688  -12.753  -12.782  -12.803  -12.831  -12.872  -12.931  -12.999  -13.063  -13.125  -13.184  -13.246  -13.309  -13.365  -13.410  -13.447  -13.483  -13.523  -13.558  -13.586  -13.600  -13.596  -13.587  -13.601  -13.687  -13.922  -14.374  -15.084  -16.011  -17.032  -17.997  -18.788  -19.357  -19.721  -19.930  -20.038  -20.079  -20.087  -20.079  -20.065  -20.050  -20.038  -20.027  -20.023  -20.029  -20.038  -20.049  -20.059  -20.064  -20.057  -20.041  -20.017  -19.991  -19.967  -19.950  -19.950  -19.989  -20.109  -20.402  -21.019  -22.155  -23.944  -26.306  -28.859  -31.064  -32.517  -33.139  -33.151  -32.857  -32.382
 -46.861  -45.777  -43.261  -39.466  -34.726  -29.541  -24.474  -19.982  -16.349  -13.714  -12.134  -11.610  -12.067  -13.306  -15.023  -16.835  -18.404  -19.488  -19.910  -19.559  -18.418  -16.639  -14.559  -12.642  -11.289  -10.660  -10.621  -10.885  -11.200  -11.434  -11.576  -11.652  -11.698  -11.740  -11.795  -11.880  -12.000  -12.143  -12.293  -12.437  -12.579  -12.717  -12.843  -12.947  -13.032  -13.104  -13.183  -13.273  -13.366  -13.449  -13.505  -13.521  -13.508  -13.491  -13.523  -13.677  -14.037  -14.648  -15.493  -16.467  -17.434  -18.273  -18.922  -19.374  -19.664  -19.827  -19.903  -19.925  -19.925  -19.915  -19.906  -19.905  -19.909  -19.919  -19.937  -19.961  -19.992  -20.024  -20.049  -20.062  -20.061  -20.050  -20.035  -20.023  -20.019  -20.031  -20.089  -20.269  -20.716  -21.653  -23.348  -25.958  -29.317  -32.884  -35.986  -38.175  -39.380  -39.819  -39.754  -39.159
 -43.643  -42.646  -40.417  -37.089  -32.929  -28.320  -23.690  -19.427  -15.814  -13.037  -11.178  -10.223  -10.059  -10.481  -11.219  -12.010  -12.652  -13.036  -13.098  -12.811  -12.189  -11.317  -10.363   -9.552   -9.067   -8.968   -9.161   -9.477   -9.777   -9.999  -10.145  -10.236  -10.291  -10.331  -10.392  -10.508  -10.689  -10.914  -11.160  -11.405  -11.647  -11.872  -12.070  -12.226  -12.347  -12.453  -12.574  -12.719  -12.874  -13.017  -13.118  -13.158  -13.141  -13.086  -13.051  -13.112  -13.363  -13.862  -14.610  -15.524  -16.482  -17.364  -18.091  -18.637  -19.010  -19.234  -19.346  -19.388  -19.397  -19.398  -19.409  -19.433  -19.470  -19.516  -19.577  -19.649  -19.734  -19.824  -19.907  -19.974  -20.022  -20.050  -20.069  -20.082  -20.098  -20.126  -20.204  -20.428  -20.978  -22.131  -24.199  -27.352  -31.369  -35.617  -39.371  -42.183  -43.977  -44.928  -45.199  -44.585
 -41.027  -40.131  -38.168  -35.257  -31.606  -27.505  -23.281  -19.251  -15.691  -12.817  -10.746   -9.486   -8.926   -8.858   -9.040   -9.258   -9.379   -9.350   -9.170   -8.866   -8.479   -8.052   -7.662   -7.389   -7.306   -7.423   -7.672   -7.966   -8.240   -8.466   -8.633   -8.742   -8.781   -8.782   -8.805   -8.908   -9.117   -9.406   -9.738  -10.076  -10.411  -10.719  -10.981  -11.182  -11.332  -11.458  -11.606  -11.789  -11.994  -12.188  -12.335  -12.402  -12.388  -12.300  -12.202  -12.172  -12.314  -12.700  -13.343  -14.179  -15.102  -15.995  -16.768  -17.378  -17.807  -18.074  -18.215  -18.277  -18.300  -18.326  -18.372  -18.442  -18.534  -18.650  -18.795  -18.961  -19.154  -19.355  -19.551  -19.723  -19.861  -19.961  -20.031  -20.082  -20.121  -20.161  -20.246  -20.476  -21.035  -22.210  -24.323  -27.570  -31.745  -36.233  -40.324  -43.580  -45.905  -47.401  -48.090  -47.611
 -38.784  -37.959  -36.207  -33.638  -30.438  -26.833  -23.070  -19.403  -16.063  -13.258  -11.121   -9.683   -8.850   -8.447   -8.265   -8.133   -7.944   -7.668   -7.322   -6.939   -6.566   -6.250   -6.026   -5.920   -5.947   -6.089   -6.313   -6.577   -6.854   -7.122   -7.342   -7.469   -7.473   -7.388   -7.311   -7.340   -7.517   -7.818   -8.189   -8.580   -8.967   -9.321   -9.619   -9.840   -9.994  -10.120  -10.268  -10.459  -10.681  -10.903  -11.081  -11.177  -11.172  -11.069  -10.926  -10.828  -10.881  -11.166  -11.699  -12.438  -13.285  -14.131  -14.886  -15.494  -15.932  -16.207  -16.356  -16.429  -16.478  -16.540  -16.634  -16.770  -16.948  -17.171  -17.442  -17.762  -18.123  -18.503  -18.877  -19.213  -19.485  -19.692  -19.835  -19.930  -19.991  -20.041  -20.118  -20.309  -20.775  -21.770  -23.595  -26.463  -30.269  -34.519  -38.580  -42.028  -44.742  -46.725  -47.856  -47.654
 -36.765  -35.980  -34.386  -32.101  -29.306  -26.200  -22.967  -19.790  -16.847  -14.298  -12.260  -10.765   -9.748   -9.083   -8.613   -8.210   -7.795   -7.329   -6.826   -6.306   -5.817   -5.408   -5.123   -4.970   -4.952   -5.043   -5.217   -5.470   -5.790   -6.141   -6.449   -6.615   -6.577   -6.384   -6.169   -6.070   -6.159   -6.404   -6.746   -7.121   -7.493   -7.835   -8.113   -8.306   -8.431   -8.531   -8.650   -8.809   -9.010   -9.224   -9.407   -9.520   -9.523   -9.420   -9.257   -9.119   -9.109   -9.309   -9.735  -10.352  -11.075  -11.810  -12.476  -13.015  -13.400  -13.641  -13.777  -13.857  -13.932  -14.035  -14.191  -14.405  -14.685  -15.039  -15.473  -15.990  -16.568  -17.183  -17.791  -18.339  -18.787  -19.122  -19.352  -19.494  -19.577  -19.628  -19.681  -19.803  -20.118  -20.815  -22.142  -24.310  -27.326  -30.885  -34.516  -37.851  -40.730  -43.053  -44.558  -44.701
 -34.952  -34.192  -32.716  -30.662  -28.226  -25.588  -22.891  -20.255  -17.793  -15.610  -13.781  -12.327  -11.210  -10.345   -9.634   -8.999   -8.377   -7.737   -7.068   -6.385   -5.724   -5.148   -4.710   -4.430   -4.308   -4.323   -4.455   -4.711   -5.084   -5.529   -5.929   -6.149   -6.104   -5.837   -5.509   -5.288   -5.261   -5.408   -5.662   -5.954   -6.240   -6.491   -6.684   -6.806   -6.874   -6.921   -6.986   -7.087   -7.231   -7.396   -7.547   -7.646   -7.646   -7.543   -7.376   -7.221   -7.169   -7.292   -7.608   -8.081   -8.644   -9.223   -9.744  -10.162  -10.455  -10.633  -10.741  -10.821  -10.916  -11.059  -11.268  -11.555  -11.935  -12.419  -13.015  -13.728  -14.532  -15.391  -16.244  -17.015  -17.648  -18.112  -18.421  -18.603  -18.701  -18.743  -18.765  -18.812  -18.968  -19.361  -20.166  -21.556  -23.601  -26.180  -29.022  -31.887  -34.623  -37.041  -38.770  -39.253
 -33.314  -32.579  -31.195  -29.327  -27.186  -24.949  -22.725  -20.583  -18.582  -16.769  -15.182  -13.824  -12.666  -11.666  -10.764   -9.921   -9.111   -8.310   -7.501   -6.683   -5.891   -5.181   -4.616   -4.236   -4.032   -3.980   -4.071   -4.313   -4.707   -5.200   -5.661   -5.932   -5.919   -5.661   -5.310   -5.031   -4.921   -4.969   -5.110   -5.283   -5.442   -5.562   -5.631   -5.651   -5.642   -5.631   -5.630   -5.663   -5.725   -5.813   -5.900   -5.952   -5.930   -5.821   -5.654   -5.483   -5.388   -5.429   -5.624   -5.947   -6.347   -6.761   -7.129   -7.412   -7.600   -7.710   -7.778   -7.848   -7.950   -8.111   -8.348   -8.676   -9.118   -9.691  -10.397  -11.239  -12.197  -13.234  -14.270  -15.210  -15.975  -16.527  -16.884  -17.087  -17.183  -17.208  -17.192  -17.170  -17.199  -17.357  -17.751  -18.496  -19.673  -21.258  -23.157  -25.269  -27.513  -29.684  -31.373  -32.086
 -31.669  -30.964  -29.664  -27.953  -26.056  -24.141  -22.296  -20.554  -18.928  -17.428  -16.059  -14.806  -13.651  -12.562  -11.521  -10.514   -9.549   -8.625   -7.736   -6.877   -6.064   -5.349   -4.785   -4.398   -4.178   -4.103   -4.168   -4.376   -4.732   -5.189   -5.627   -5.909   -5.948   -5.758   -5.468   -5.218   -5.088   -5.076   -5.135   -5.202   -5.244   -5.241   -5.188   -5.111   -5.026   -4.960   -4.911   -4.877   -4.864   -4.868   -4.877   -4.872   -4.819   -4.700   -4.524   -4.335   -4.187   -4.137   -4.217   -4.415   -4.684   -4.975   -5.227   -5.406   -5.507   -5.554   -5.580   -5.618   -5.698   -5.835   -6.052   -6.369   -6.810   -7.383   -8.092   -8.933   -9.899  -10.951  -12.013  -12.981  -13.762  -14.314  -14.660  -14.853  -14.935  -14.936  -14.880  -14.800  -14.743  -14.755  -14.897  -15.221  -15.780  -16.596  -17.661  -18.982  -20.543  -22.188  -23.565  -24.320
 -29.721  -29.042  -27.840  -26.289  -24.615  -22.969  -21.424  -19.989  -18.649  -17.392  -16.203  -15.058  -13.938  -12.824  -11.710  -10.622   -9.583   -8.628   -7.770   -7.003   -6.331   -5.777   -5.362   -5.099   -4.974   -4.961   -5.048   -5.230   -5.509   -5.846   -6.169   -6.376   -6.405   -6.265   -6.045   -5.847   -5.728   -5.699   -5.711   -5.717   -5.684   -5.595   -5.458   -5.298   -5.155   -5.039   -4.942   -4.854   -4.777   -4.713   -4.666   -4.624   -4.556   -4.440   -4.274   -4.072   -3.878   -3.756   -3.750   -3.876   -4.092   -4.335   -4.535   -4.658   -4.707   -4.702   -4.681   -4.670   -4.689   -4.757   -4.902   -5.155   -5.525   -6.012   -6.594   -7.277   -8.057   -8.911   -9.776  -10.554  -11.167  -11.589  -11.850  -11.992  -12.041  -12.019  -11.936  -11.824  -11.724  -11.669  -11.687  -11.793  -12.003  -12.342  -12.847  -13.573  -14.538  -15.637  -16.611  -17.283
 -27.247  -26.589  -25.516  -24.161  -22.723  -21.332  -20.044  -18.859  -17.745  -16.683  -15.654  -14.635  -13.605  -12.561  -11.509  -10.486   -9.538   -8.724   -8.066   -7.567   -7.209   -6.981   -6.874   -6.881   -6.984   -7.151   -7.358   -7.583   -7.802   -7.993   -8.112   -8.121   -7.997   -7.769   -7.496   -7.257   -7.100   -7.025   -6.994   -6.957   -6.882   -6.738   -6.532   -6.294   -6.061   -5.851   -5.665   -5.493   -5.334   -5.202   -5.107   -5.052   -5.001   -4.925   -4.798   -4.619   -4.417   -4.266   -4.239   -4.361   -4.597   -4.861   -5.072   -5.185   -5.209   -5.174   -5.108   -5.037   -4.986   -4.972   -5.027   -5.189   -5.458   -5.803   -6.195   -6.617   -7.066   -7.532   -7.974   -8.338   -8.584   -8.728   -8.806   -8.847   -8.855   -8.813   -8.722   -8.608   -8.507   -8.452   -8.445   -8.477   -8.542   -8.668   -8.908   -9.337   -9.974  -10.739  -11.442  -12.019
 -24.325  -23.695  -22.799  -21.690  -20.521  -19.398  -18.360  -17.400  -16.497  -15.627  -14.783  -13.951  -13.127  -12.315  -11.529  -10.812  -10.219   -9.795   -9.573   -9.537   -9.660   -9.906  -10.248  -10.671  -11.147  -11.650  -12.124  -12.513  -12.760  -12.830  -12.700  -12.378  -11.901  -11.331  -10.760  -10.267   -9.901   -9.664   -9.519   -9.403   -9.262   -9.049   -8.738   -8.356   -7.938   -7.515   -7.105   -6.725   -6.382   -6.112   -5.924   -5.818   -5.766   -5.725   -5.648   -5.514   -5.349   -5.223   -5.225   -5.388   -5.673   -5.981   -6.215   -6.338   -6.359   -6.311   -6.222   -6.116   -6.016   -5.947   -5.952   -6.057   -6.250   -6.488   -6.710   -6.884   -6.997   -7.030   -6.962   -6.784   -6.535   -6.286   -6.102   -5.998   -5.935   -5.870   -5.787   -5.696   -5.631   -5.622   -5.659   -5.716   -5.784   -5.882   -6.082   -6.471   -7.055   -7.749   -8.371   -8.908
 -21.425  -20.849  -20.170  -19.347  -18.481  -17.651  -16.886  -16.181  -15.530  -14.919  -14.354  -13.844  -13.404  -13.054  -12.811  -12.709  -12.773  -13.026  -13.465  -14.072  -14.802  -15.623  -16.511  -17.456  -18.436  -19.409  -20.290  -20.977  -21.364  -21.388  -21.021  -20.289  -19.279  -18.119  -16.955  -15.920  -15.096  -14.504  -14.100  -13.802  -13.515  -13.150  -12.651  -12.014  -11.275  -10.472   -9.654   -8.864   -8.157   -7.572   -7.132   -6.838   -6.662   -6.551   -6.450   -6.316   -6.168   -6.059   -6.078   -6.254   -6.543   -6.848   -7.076   -7.189   -7.203   -7.149   -7.059   -6.955   -6.856   -6.794   -6.813   -6.930   -7.118   -7.320   -7.470   -7.521   -7.440   -7.186   -6.734   -6.108   -5.403   -4.769   -4.305   -4.020   -3.858   -3.751   -3.657   -3.587   -3.570   -3.625   -3.753   -3.911   -4.076   -4.259   -4.535   -4.999   -5.661   -6.417   -7.075   -7.598
 -19.174  -18.690  -18.242  -17.722  -17.184  -16.683  -16.250  -15.890  -15.598  -15.379  -15.256  -15.259  -15.428  -15.794  -16.378  -17.159  -18.117  -19.214  -20.421  -21.709  -23.052  -24.440  -25.873  -27.360  -28.883  -30.376  -31.721  -32.770  -33.381  -33.450  -32.933  -31.855  -30.315  -28.486  -26.582  -24.810  -23.324  -22.185  -21.356  -20.731  -20.175  -19.554  -18.778  -17.808  -16.658  -15.373  -14.018  -12.676  -11.418  -10.306   -9.381   -8.653   -8.099   -7.681   -7.340   -7.032   -6.748   -6.540   -6.463   -6.535   -6.714   -6.917   -7.061   -7.122   -7.108   -7.043   -6.960   -6.879   -6.815   -6.801   -6.871   -7.040   -7.272   -7.509   -7.692   -7.772   -7.704   -7.419   -6.871   -6.078   -5.160   -4.300   -3.635   -3.196   -2.917   -2.731   -2.598   -2.515   -2.526   -2.655   -2.901   -3.214   -3.524   -3.828   -4.182   -4.687   -5.377   -6.144   -6.799   -7.287
 -17.957  -17.584  -17.362  -17.149  -16.967  -16.855  -16.846  -16.944  -17.150  -17.473  -17.944  -18.617  -19.555  -20.794  -22.317  -24.058  -25.912  -27.788  -29.638  -31.448  -33.238  -35.042  -36.899  -38.832  -40.817  -42.759  -44.507  -45.883  -46.728  -46.932  -46.435  -45.247  -43.448  -41.206  -38.758  -36.364  -34.246  -32.522  -31.189  -30.141  -29.223  -28.276  -27.181  -25.878  -24.354  -22.647  -20.817  -18.942  -17.099  -15.351  -13.755  -12.341  -11.113  -10.058   -9.140   -8.329   -7.617   -7.045   -6.640   -6.407   -6.305   -6.269   -6.235   -6.178   -6.097   -6.008   -5.916   -5.841   -5.800   -5.825   -5.941   -6.149   -6.417   -6.695   -6.952   -7.152   -7.246   -7.159   -6.805   -6.174   -5.359   -4.533   -3.838   -3.325   -2.958   -2.678   -2.471   -2.348   -2.367   -2.568   -2.947   -3.426   -3.889   -4.279   -4.636   -5.062   -5.614   -6.232   -6.766   -7.165
 -17.880  -17.618  -17.614  -17.704  -17.903  -18.234  -18.714  -19.343  -20.110  -21.016  -22.105  -23.446  -25.115  -27.135  -29.453  -31.936  -34.423  -36.796  -39.007  -41.088  -43.107  -45.145  -47.272  -49.516  -51.835  -54.106  -56.151  -57.784  -58.850  -59.245  -58.916  -57.868  -56.168  -53.953  -51.427  -48.838  -46.425  -44.346  -42.639  -41.225  -39.961  -38.700  -37.322  -35.763  -34.000  -32.048  -29.947  -27.739  -25.472  -23.187  -20.923  -18.725  -16.629  -14.662  -12.835  -11.156   -9.656   -8.372   -7.329   -6.525   -5.931   -5.498   -5.175   -4.932   -4.738   -4.585   -4.456   -4.356   -4.303   -4.318   -4.416   -4.598   -4.844   -5.122   -5.422   -5.730   -6.012   -6.200   -6.188   -5.926   -5.447   -4.877   -4.332   -3.866   -3.467   -3.125   -2.855   -2.699   -2.726   -2.987   -3.466   -4.066   -4.628   -5.037   -5.303   -5.529   -5.808   -6.139   -6.438   -6.720
 -19.175  -19.017  -19.205  -19.572  -20.124  -20.868  -21.798  -22.894  -24.127  -25.492  -27.038  -28.844  -30.985  -33.474  -36.227  -39.077  -41.845  -44.409  -46.745  -48.914  -51.024  -53.186  -55.488  -57.959  -60.545  -63.105  -65.445  -67.366  -68.702  -69.342  -69.239  -68.416  -66.965  -65.021  -62.766  -60.395  -58.103  -56.030  -54.226  -52.641  -51.171  -49.700  -48.135  -46.423  -44.548  -42.515  -40.333  -38.011  -35.546  -32.936  -30.189  -27.335  -24.417  -21.498  -18.638  -15.902  -13.364  -11.090   -9.133   -7.512   -6.221   -5.229   -4.505   -3.996   -3.641   -3.393   -3.203   -3.055   -2.954   -2.911   -2.937   -3.042   -3.208   -3.428   -3.696   -4.029   -4.408   -4.790   -5.076   -5.185   -5.097   -4.870   -4.568   -4.239   -3.897   -3.563   -3.282   -3.125   -3.165   -3.448   -3.960   -4.588   -5.138   -5.481   -5.601   -5.593   -5.579   -5.604   -5.664   -5.828
 -22.347  -22.303  -22.625  -23.172  -23.948  -24.949  -26.146  -27.492  -28.952  -30.515  -32.231  -34.179  -36.431  -38.997  -41.790  -44.646  -47.393  -49.925  -52.227  -54.372  -56.483  -58.684  -61.074  -63.688  -66.475  -69.301  -71.970  -74.268  -75.995  -77.004  -77.239  -76.729  -75.591  -73.993  -72.119  -70.137  -68.189  -66.366  -64.694  -63.137  -61.620  -60.064  -58.407  -56.620  -54.696  -52.636  -50.441  -48.089  -45.547  -42.776  -39.748  -36.465  -32.962  -29.305  -25.584  -21.898  -18.361  -15.074  -12.124   -9.568   -7.443   -5.767   -4.532   -3.678   -3.111   -2.733   -2.462   -2.255   -2.100   -1.999   -1.958   -1.979   -2.060   -2.187   -2.378   -2.649   -3.007   -3.427   -3.840   -4.166   -4.358   -4.408   -4.346   -4.189   -3.957   -3.693   -3.462   -3.339   -3.389   -3.650   -4.099   -4.623   -5.056   -5.266   -5.238   -5.065   -4.864   -4.702   -4.622   -4.726
 -27.530  -27.655  -28.033  -28.620  -29.434  -30.465  -31.670  -32.998  -34.408  -35.892  -37.488  -39.273  -41.310  -43.615  -46.118  -48.686  -51.175  -53.493  -55.628  -57.645  -59.656  -61.779  -64.108  -66.679  -69.454  -72.315  -75.097  -77.610  -79.666  -81.129  -81.920  -82.035  -81.551  -80.587  -79.304  -77.857  -76.369  -74.907  -73.485  -72.064  -70.596  -69.026  -67.325  -65.482  -63.502  -61.394  -59.151  -56.743  -54.122  -51.234  -48.034  -44.502  -40.661  -36.569  -32.318  -28.020  -23.787  -19.730  -15.947  -12.529   -9.567   -7.152   -5.318   -4.025   -3.163   -2.597   -2.217   -1.947   -1.755   -1.632   -1.568   -1.551   -1.580   -1.637   -1.750   -1.929   -2.196   -2.547   -2.937   -3.302   -3.596   -3.789   -3.875   -3.855   -3.745   -3.579   -3.428   -3.347   -3.385   -3.566   -3.864   -4.192   -4.429   -4.483   -4.355   -4.134   -3.908   -3.744   -3.663   -3.779
 -33.802  -34.163  -34.565  -35.107  -35.830  -36.729  -37.766  -38.894  -40.074  -41.301  -42.605  -44.046  -45.681  -47.530  -49.551  -51.651  -53.729  -55.710  -57.581  -59.386  -61.204  -63.124  -65.216  -67.510  -69.973  -72.513  -75.008  -77.331  -79.393  -81.133  -82.513  -83.491  -84.039  -84.151  -83.865  -83.266  -82.447  -81.480  -80.395  -79.179  -77.803  -76.250  -74.510  -72.596  -70.525  -68.315  -65.964  -63.444  -60.709  -57.703  -54.378  -50.713  -46.724  -42.467  -38.028  -33.503  -28.984  -24.547  -20.264  -16.225  -12.565   -9.430   -6.935   -5.093   -3.810   -2.954   -2.399   -2.048   -1.835   -1.730   -1.690   -1.688   -1.697   -1.708   -1.743   -1.833   -2.014   -2.274   -2.596   -2.919   -3.211   -3.436   -3.572   -3.623   -3.588   -3.508   -3.417   -3.360   -3.362   -3.428   -3.533   -3.630   -3.652   -3.559   -3.387   -3.214   -3.108   -3.078   -3.108   -3.284
 -39.563  -40.187  -40.634  -41.139  -41.767  -42.517  -43.360  -44.259  -45.183  -46.127  -47.115  -48.193  -49.409  -50.783  -52.302  -53.913  -55.549  -57.164  -58.739  -60.291  -61.857  -63.483  -65.207  -67.045  -68.974  -70.940  -72.875  -74.739  -76.530  -78.279  -80.002  -81.676  -83.219  -84.517  -85.453  -85.973  -86.070  -85.783  -85.155  -84.216  -82.984  -81.469  -79.695  -77.690  -75.498  -73.146  -70.647  -67.988  -65.135  -62.041  -58.664  -54.989  -51.032  -46.847  -42.510  -38.098  -33.663  -29.231  -24.823  -20.493  -16.372  -12.649   -9.503   -7.019   -5.179   -3.896   -3.054   -2.557   -2.316   -2.243   -2.263   -2.296   -2.296   -2.240   -2.172   -2.158   -2.247   -2.449   -2.729   -3.029   -3.305   -3.524   -3.668   -3.727   -3.719   -3.674   -3.610   -3.547   -3.495   -3.440   -3.367   -3.254   -3.093   -2.896   -2.724   -2.659   -2.734   -2.907   -3.099   -3.357
 -43.542  -44.376  -44.902  -45.426  -46.023  -46.695  -47.418  -48.162  -48.903  -49.640  -50.392  -51.196  -52.091  -53.103  -54.233  -55.460  -56.746  -58.060  -59.378  -60.694  -62.008  -63.322  -64.640  -65.956  -67.258  -68.531  -69.786  -71.067  -72.456  -74.042  -75.873  -77.928  -80.119  -82.299  -84.283  -85.890  -86.983  -87.508  -87.465  -86.908  -85.889  -84.463  -82.681  -80.602  -78.286  -75.786  -73.145  -70.373  -67.451  -64.347  -61.030  -57.489  -53.738  -49.825  -45.810  -41.742  -37.639  -33.479  -29.234  -24.915  -20.619  -16.532  -12.862   -9.760   -7.300   -5.482   -4.256   -3.541   -3.221   -3.167   -3.238   -3.295   -3.245   -3.069   -2.841   -2.661   -2.635   -2.774   -3.030   -3.333   -3.624   -3.845   -3.978   -4.020   -4.001   -3.949   -3.882   -3.800   -3.695   -3.540   -3.341   -3.098   -2.832   -2.606   -2.498   -2.588   -2.873   -3.270   -3.644   -3.988
 -45.156  -46.092  -46.700  -47.291  -47.928  -48.604  -49.297  -49.983  -50.645  -51.281  -51.909  -52.563  -53.279  -54.088  -55.002  -56.014  -57.105  -58.245  -59.407  -60.566  -61.694  -62.765  -63.751  -64.620  -65.354  -65.961  -66.505  -67.113  -67.961  -69.214  -70.958  -73.163  -75.704  -78.398  -81.047  -83.433  -85.350  -86.644  -87.243  -87.158  -86.456  -85.206  -83.486  -81.381  -78.979  -76.377  -73.642  -70.816  -67.906  -64.893  -61.753  -58.471  -55.059  -51.546  -47.968  -44.346  -40.665  -36.881  -32.939  -28.822  -24.592  -20.409  -16.460  -12.926   -9.946   -7.615   -5.972   -4.972   -4.506   -4.404   -4.463   -4.495   -4.355   -4.017   -3.568   -3.174   -2.972   -2.997   -3.198   -3.489   -3.777   -3.998   -4.112   -4.125   -4.077   -4.000   -3.918   -3.818   -3.679   -3.480   -3.232   -2.959   -2.714   -2.572   -2.627   -2.934   -3.464   -4.087   -4.636   -5.050
 -44.472  -45.383  -46.052  -46.726  -47.437  -48.168  -48.894  -49.596  -50.259  -50.884  -51.488  -52.104  -52.772  -53.528  -54.391  -55.363  -56.423  -57.543  -58.682  -59.801  -60.859  -61.811  -62.607  -63.197  -63.543  -63.649  -63.597  -63.559  -63.780  -64.514  -65.926  -68.024  -70.666  -73.619  -76.635  -79.476  -81.923  -83.782  -84.922  -85.305  -84.963  -83.960  -82.381  -80.325  -77.916  -75.278  -72.522  -69.720  -66.901  -64.064  -61.185  -58.243  -55.233  -52.158  -49.028  -45.837  -42.555  -39.131  -35.508  -31.666  -27.650  -23.583  -19.623  -15.930  -12.668   -9.986   -7.988   -6.686   -5.990   -5.726   -5.678   -5.612   -5.351   -4.842   -4.188   -3.575   -3.172   -3.031   -3.110   -3.312   -3.544   -3.725   -3.808   -3.791   -3.716   -3.619   -3.524   -3.418   -3.280   -3.095   -2.889   -2.701   -2.598   -2.661   -2.967   -3.546   -4.324   -5.154   -5.844   -6.305
 -42.187  -42.982  -43.672  -44.406  -45.182  -45.971  -46.750  -47.498  -48.203  -48.865  -49.502  -50.151  -50.861  -51.672  -52.608  -53.670  -54.832  -56.055  -57.287  -58.478  -59.576  -60.528  -61.277  -61.757  -61.916  -61.743  -61.311  -60.798  -60.473  -60.637  -61.530  -63.245  -65.698  -68.666  -71.852  -74.959  -77.725  -79.937  -81.441  -82.172  -82.135  -81.374  -79.966  -78.018  -75.666  -73.066  -70.356  -67.640  -64.972  -62.362  -59.782  -57.199  -54.580  -51.907  -49.164  -46.326  -43.361  -40.227  -36.881  -33.312  -29.561  -25.730  -21.941  -18.324  -15.021  -12.186   -9.955   -8.379   -7.404   -6.891   -6.646   -6.422   -6.031   -5.392   -4.591   -3.817   -3.241   -2.922   -2.829   -2.880   -2.996   -3.096   -3.130   -3.089   -3.000   -2.900   -2.804   -2.712   -2.611   -2.498   -2.404   -2.383   -2.499   -2.825   -3.412   -4.239   -5.215   -6.179   -6.936   -7.414
 -39.447  -40.109  -40.782  -41.529  -42.327  -43.143  -43.950  -44.731  -45.472  -46.177  -46.861  -47.567  -48.348  -49.254  -50.311  -51.513  -52.825  -54.196  -55.566  -56.871  -58.058  -59.072  -59.851  -60.326  -60.435  -60.156  -59.549  -58.777  -58.100  -57.823  -58.217  -59.442  -61.501  -64.241  -67.380  -70.578  -73.514  -75.932  -77.658  -78.613  -78.784  -78.210  -76.957  -75.132  -72.881  -70.370  -67.760  -65.179  -62.697  -60.328  -58.039  -55.778  -53.492  -51.141  -48.691  -46.114  -43.381  -40.464  -37.339  -34.003  -30.501  -26.920  -23.359  -19.916  -16.707  -13.864  -11.518   -9.735   -8.501   -7.728   -7.255   -6.879   -6.382   -5.666   -4.792   -3.934   -3.244   -2.787   -2.533   -2.433   -2.415   -2.421   -2.406   -2.351   -2.265   -2.172   -2.091   -2.025   -1.982   -1.959   -1.996   -2.147   -2.479   -3.032   -3.828   -4.824   -5.908   -6.915   -7.685   -8.162
 -37.288  -37.893  -38.532  -39.249  -40.020  -40.814  -41.608  -42.383  -43.127  -43.842  -44.546  -45.282  -46.107  -47.074  -48.204  -49.488  -50.885  -52.340  -53.784  -55.153  -56.392  -57.446  -58.253  -58.746  -58.860  -58.571  -57.928  -57.079  -56.261  -55.758  -55.836  -56.678  -58.343  -60.743  -63.648  -66.740  -69.678  -72.175  -74.026  -75.119  -75.426  -74.975  -73.834  -72.115  -69.970  -67.577  -65.105  -62.689  -60.401  -58.252  -56.205  -54.195  -52.159  -50.044  -47.812  -45.432  -42.884  -40.148  -37.211  -34.076  -30.786  -27.419  -24.057  -20.782  -17.684  -14.884  -12.504  -10.616   -9.230   -8.290   -7.674   -7.188   -6.628   -5.881   -4.993   -4.110   -3.373   -2.841   -2.501   -2.302   -2.205   -2.151   -2.104   -2.041   -1.960   -1.876   -1.806   -1.763   -1.754   -1.793   -1.909   -2.166   -2.605   -3.275   -4.166   -5.228   -6.335   -7.337   -8.102   -8.626
