DSAA
 100 100
 0.0 400.0
 0.0 400.0
 -277.9879 -0.4989508
 -30.115  -30.427  -30.886  -31.575  -32.503  -33.610  -34.787  -35.893  -36.735  -37.131  -36.882  -35.737  -33.498  -30.160  -26.046  -21.808  -18.263  -15.989  -15.109  -15.353  -16.365  -17.846  -19.672  -21.758  -23.933  -25.867  -27.151  -27.472  -26.759  -25.113  -22.689  -19.749  -16.668  -13.973  -12.151  -11.347  -11.354  -11.771  -12.218  -12.458  -12.429  -12.179  -11.819  -11.500  -11.306  -11.301  -11.476  -11.773  -12.114  -12.485  -12.890  -13.349  -13.814  -14.107  -13.955  -13.092  -11.380   -9.029   -6.474   -4.231   -2.616   -1.629   -1.099   -0.855   -0.766   -0.712   -0.696   -0.680   -0.668   -0.651   -0.643   -0.643   -0.644   -0.648   -0.652   -0.657   -0.645   -0.642   -0.650   -0.677   -0.696   -0.708   -0.726   -0.764   -0.815   -0.904   -1.040   -1.267   -1.618   -2.145   -2.916   -3.909   -5.124   -6.524   -8.150  -10.081  -12.300  -14.573  -16.456  -17.682
 -29.813  -30.079  -30.479  -31.073  -31.870  -32.836  -33.888  -34.873  -35.629  -35.982  -35.735  -34.668  -32.557  -29.388  -25.443  -21.358  -17.886  -15.602  -14.645  -14.786  -15.661  -17.019  -18.726  -20.709  -22.804  -24.704  -26.054  -26.567  -26.161  -24.877  -22.829  -20.175  -17.291  -14.669  -12.750  -11.702  -11.390  -11.511  -11.774  -11.938  -11.910  -11.708  -11.419  -11.158  -11.027  -11.063  -11.260  -11.559  -11.886  -12.232  -12.620  -13.065  -13.533  -13.876  -13.823  -13.111  -11.601   -9.438   -7.012   -4.798   -3.110   -2.009   -1.383   -1.066   -0.914   -0.844   -0.801   -0.767   -0.730   -0.701   -0.674   -0.651   -0.650   -0.646   -0.634   -0.638   -0.640   -0.647   -0.655   -0.668   -0.684   -0.717   -0.747   -0.817   -0.924   -1.107   -1.396   -1.839   -2.470   -3.361   -4.552   -6.032   -7.716   -9.537  -11.517  -13.695  -16.080  -18.439  -20.322  -21.439
 -28.967  -29.172  -29.447  -29.854  -30.399  -31.082  -31.854  -32.587  -33.136  -33.365  -33.110  -32.187  -30.389  -27.659  -24.212  -20.559  -17.351  -15.127  -14.051  -13.975  -14.583  -15.658  -17.087  -18.787  -20.617  -22.351  -23.723  -24.526  -24.654  -24.055  -22.720  -20.744  -18.379  -16.020  -14.037  -12.591  -11.674  -11.197  -11.030  -11.012  -11.011  -10.958  -10.875  -10.827  -10.891  -11.064  -11.301  -11.546  -11.761  -11.993  -12.269  -12.643  -13.071  -13.451  -13.549  -13.131  -12.042  -10.320   -8.238   -6.173   -4.431   -3.149   -2.327   -1.847   -1.596   -1.462   -1.367   -1.282   -1.178   -1.067   -0.994   -0.937   -0.905   -0.890   -0.883   -0.871   -0.862   -0.866   -0.877   -0.901   -0.940   -0.991   -1.072   -1.230   -1.502   -1.969   -2.657   -3.617   -4.886   -6.522   -8.540  -10.866  -13.330  -15.768  -18.155  -20.557  -22.982  -25.238  -26.980  -27.858
 -27.397  -27.511  -27.627  -27.787  -28.013  -28.346  -28.775  -29.206  -29.509  -29.574  -29.300  -28.544  -27.148  -25.032  -22.299  -19.301  -16.557  -14.518  -13.391  -13.091  -13.384  -14.095  -15.124  -16.410  -17.826  -19.237  -20.514  -21.525  -22.168  -22.317  -21.866  -20.798  -19.239  -17.413  -15.514  -13.692  -12.089  -10.875  -10.141   -9.863   -9.884  -10.095  -10.437  -10.890  -11.418  -11.910  -12.249  -12.370  -12.302  -12.183  -12.150  -12.279  -12.568  -12.913  -13.161  -13.086  -12.495  -11.373   -9.826   -8.101   -6.466   -5.110   -4.117   -3.477   -3.101   -2.897   -2.731   -2.553   -2.320   -2.074   -1.867   -1.742   -1.674   -1.645   -1.617   -1.575   -1.539   -1.523   -1.542   -1.605   -1.686   -1.805   -2.002   -2.346   -2.957   -3.942   -5.337   -7.145   -9.327  -11.892  -14.797  -17.891  -20.934  -23.719  -26.197  -28.478  -30.615  -32.523  -33.926  -34.460
 -24.976  -24.960  -24.897  -24.788  -24.685  -24.677  -24.776  -24.914  -24.984  -24.901  -24.611  -24.048  -23.104  -21.685  -19.799  -17.633  -15.534  -13.874  -12.833  -12.409  -12.442  -12.792  -13.371  -14.144  -15.025  -15.959  -16.940  -17.932  -18.879  -19.653  -20.110  -20.137  -19.654  -18.605  -16.966  -14.886  -12.671  -10.736   -9.414   -8.827   -8.873   -9.456  -10.446  -11.727  -13.068  -14.173  -14.766  -14.743  -14.217  -13.482  -12.857  -12.504  -12.446  -12.598  -12.855  -13.026  -12.923  -12.423  -11.528  -10.346   -9.047   -7.841   -6.848   -6.149   -5.733   -5.492   -5.294   -5.012   -4.616   -4.173   -3.810   -3.585   -3.484   -3.435   -3.377   -3.287   -3.204   -3.174   -3.214   -3.344   -3.527   -3.771   -4.139   -4.801   -5.921   -7.644   -9.942  -12.697  -15.784  -19.107  -22.565  -25.985  -29.080  -31.675  -33.776  -35.549  -37.120  -38.476  -39.435  -39.621
 -21.822  -21.670  -21.409  -21.035  -20.622  -20.302  -20.122  -20.035  -19.931  -19.744  -19.476  -19.115  -18.632  -17.934  -16.952  -15.721  -14.420  -13.307  -12.545  -12.153  -12.043  -12.108  -12.290  -12.543  -12.827  -13.175  -13.652  -14.352  -15.313  -16.514  -17.849  -19.112  -19.915  -19.824  -18.597  -16.378  -13.684  -11.149   -9.276   -8.312   -8.297   -9.213  -10.949  -13.243  -15.669  -17.661  -18.742  -18.726  -17.790  -16.397  -15.023  -13.950  -13.261  -12.958  -12.988  -13.215  -13.447  -13.488  -13.231  -12.660  -11.892  -11.054  -10.281   -9.701   -9.369   -9.192   -9.032   -8.727   -8.233   -7.663   -7.183   -6.898   -6.789   -6.751   -6.684   -6.567   -6.453   -6.412   -6.496   -6.712   -7.030   -7.461   -8.086   -9.125  -10.811  -13.247  -16.325  -19.783  -23.415  -27.073  -30.641  -33.895  -36.571  -38.519  -39.857  -40.849  -41.719  -42.494  -43.031  -42.946
 -18.431  -18.121  -17.656  -17.029  -16.349  -15.779  -15.400  -15.161  -14.967  -14.746  -14.515  -14.342  -14.288  -14.289  -14.209  -13.946  -13.517  -13.064  -12.723  -12.525  -12.410  -12.327  -12.217  -12.048  -11.796  -11.529  -11.391  -11.572  -12.265  -13.646  -15.737  -18.206  -20.313  -21.232  -20.528  -18.375  -15.442  -12.522  -10.183   -8.736   -8.399   -9.357  -11.612  -14.832  -18.344  -21.325  -23.114  -23.422  -22.443  -20.700  -18.743  -16.914  -15.401  -14.364  -13.908  -13.983  -14.358  -14.743  -14.942  -14.904  -14.654  -14.265  -13.844  -13.517  -13.382  -13.380  -13.371  -13.183  -12.757  -12.227  -11.778  -11.549  -11.506  -11.526  -11.503  -11.408  -11.309  -11.297  -11.440  -11.757  -12.231  -12.864  -13.754  -15.137  -17.221  -20.084  -23.519  -27.207  -30.919  -34.536  -37.913  -40.774  -42.788  -43.859  -44.225  -44.324  -44.479  -44.749  -44.953  -44.671
 -15.481  -15.019  -14.342  -13.468  -12.572  -11.844  -11.362  -11.074  -10.874  -10.658  -10.476  -10.469  -10.779  -11.397  -12.146  -12.797  -13.226  -13.463  -13.596  -13.666  -13.667  -13.556  -13.308  -12.867  -12.238  -11.471  -10.733  -10.284  -10.492  -11.745  -14.224  -17.522  -20.626  -22.440  -22.369  -20.628  -17.941  -15.063  -12.464  -10.440   -9.401   -9.874  -12.124  -15.817  -20.111  -23.962  -26.549  -27.484  -26.930  -25.362  -23.266  -20.952  -18.687  -16.842  -15.775  -15.559  -15.906  -16.415  -16.828  -17.060  -17.136  -17.088  -16.987  -16.923  -17.007  -17.233  -17.455  -17.517  -17.342  -17.022  -16.777  -16.718  -16.813  -16.939  -16.988  -16.966  -16.930  -16.978  -17.194  -17.610  -18.222  -19.027  -20.122  -21.695  -23.931  -26.833  -30.175  -33.656  -37.113  -40.482  -43.600  -46.049  -47.410  -47.579  -46.947  -46.150  -45.647  -45.493  -45.448  -45.035
 -13.595  -12.990  -12.080  -10.953   -9.886   -9.065   -8.584   -8.353   -8.213   -8.064   -7.950   -8.085   -8.706   -9.837  -11.271  -12.691  -13.862  -14.701  -15.269  -15.603  -15.735  -15.671  -15.382  -14.838  -14.006  -12.926  -11.721  -10.658  -10.219  -10.973  -13.252  -16.689  -20.205  -22.608  -23.283  -22.420  -20.629  -18.431  -15.980  -13.447  -11.414  -10.819  -12.366  -15.912  -20.515  -24.956  -28.237  -29.911  -30.061  -29.060  -27.252  -24.859  -22.197  -19.815  -18.309  -17.852  -18.103  -18.566  -18.927  -19.134  -19.250  -19.315  -19.366  -19.488  -19.766  -20.213  -20.702  -21.066  -21.218  -21.215  -21.239  -21.383  -21.614  -21.809  -21.892  -21.902  -21.929  -22.056  -22.355  -22.860  -23.579  -24.505  -25.703  -27.304  -29.445  -32.110  -35.071  -38.105  -41.141  -44.193  -47.047  -49.147  -49.947  -49.338  -47.836  -46.264  -45.194  -44.676  -44.421  -43.906
 -13.026  -12.267  -11.110   -9.723   -8.478   -7.626   -7.201   -7.083   -7.076   -7.048   -7.062   -7.400   -8.298   -9.836  -11.779  -13.757  -15.448  -16.718  -17.571  -18.082  -18.294  -18.259  -17.969  -17.407  -16.506  -15.258  -13.730  -12.154  -11.014  -10.945  -12.431  -15.251  -18.507  -21.147  -22.606  -22.999  -22.678  -21.738  -19.929  -17.169  -14.149  -12.205  -12.534  -15.357  -19.781  -24.433  -28.153  -30.393  -31.173  -30.797  -29.486  -27.381  -24.810  -22.416  -20.882  -20.402  -20.592  -20.901  -21.038  -21.006  -20.926  -20.880  -20.932  -21.139  -21.571  -22.221  -22.975  -23.643  -24.098  -24.374  -24.601  -24.873  -25.134  -25.266  -25.249  -25.169  -25.179  -25.371  -25.771  -26.389  -27.191  -28.162  -29.315  -30.765  -32.629  -34.894  -37.367  -39.868  -42.418  -45.100  -47.659  -49.443  -49.799  -48.617  -46.488  -44.353  -42.837  -41.982  -41.494  -40.905
 -13.634  -12.755  -11.345   -9.705   -8.296   -7.411   -7.056   -7.051   -7.175   -7.289   -7.524   -8.123   -9.341  -11.184  -13.425  -15.687  -17.648  -19.118  -20.083  -20.608  -20.803  -20.734  -20.422  -19.841  -18.921  -17.585  -15.835  -13.841  -12.042  -11.058  -11.414  -13.133  -15.645  -18.191  -20.335  -22.068  -23.404  -23.961  -23.090  -20.511  -16.879  -13.758  -12.792  -14.600  -18.466  -22.946  -26.724  -29.164  -30.263  -30.304  -29.494  -27.948  -25.948  -24.087  -22.954  -22.671  -22.839  -22.965  -22.831  -22.519  -22.178  -21.938  -21.895  -22.114  -22.655  -23.481  -24.462  -25.385  -26.078  -26.507  -26.785  -27.005  -27.115  -27.004  -26.697  -26.367  -26.254  -26.474  -27.003  -27.736  -28.576  -29.462  -30.395  -31.508  -32.938  -34.710  -36.654  -38.615  -40.667  -42.920  -45.129  -46.591  -46.625  -45.118  -42.687  -40.264  -38.448  -37.270  -36.508  -35.890
 -15.072  -14.117  -12.535  -10.714   -9.180   -8.235   -7.890   -7.920   -8.085   -8.349   -8.840   -9.791  -11.332  -13.395  -15.731  -18.016  -19.962  -21.388  -22.262  -22.652  -22.703  -22.506  -22.104  -21.474  -20.518  -19.110  -17.210  -14.921  -12.601  -10.818  -10.119  -10.691  -12.321  -14.557  -17.129  -19.900  -22.584  -24.425  -24.530  -22.441  -18.755  -15.043  -13.136  -13.957  -17.041  -21.000  -24.468  -26.749  -27.843  -28.081  -27.722  -26.904  -25.813  -24.867  -24.397  -24.408  -24.559  -24.511  -24.189  -23.693  -23.188  -22.807  -22.662  -22.858  -23.428  -24.347  -25.457  -26.513  -27.292  -27.709  -27.855  -27.821  -27.595  -27.082  -26.346  -25.659  -25.346  -25.555  -26.164  -26.953  -27.727  -28.371  -28.922  -29.530  -30.416  -31.640  -33.069  -34.543  -36.128  -37.927  -39.727  -40.872  -40.718  -39.181  -36.813  -34.411  -32.468  -31.022  -29.986  -29.353
 -16.890  -15.956  -14.350  -12.488  -10.894   -9.870   -9.417   -9.338   -9.468   -9.826  -10.595  -11.922  -13.776  -15.968  -18.222  -20.310  -21.999  -23.161  -23.751  -23.858  -23.634  -23.218  -22.658  -21.922  -20.896  -19.445  -17.467  -15.022  -12.420  -10.161   -8.763   -8.546   -9.472  -11.340  -13.958  -17.160  -20.497  -23.083  -23.927  -22.520  -19.307  -15.692  -13.413  -13.500  -15.753  -18.986  -21.925  -23.876  -24.837  -25.171  -25.224  -25.156  -25.070  -25.109  -25.316  -25.585  -25.697  -25.546  -25.181  -24.729  -24.270  -23.874  -23.677  -23.803  -24.293  -25.114  -26.111  -27.048  -27.705  -27.940  -27.793  -27.371  -26.704  -25.748  -24.590  -23.553  -23.019  -23.119  -23.673  -24.373  -24.930  -25.227  -25.299  -25.373  -25.712  -26.455  -27.467  -28.579  -29.788  -31.172  -32.538  -33.374  -33.166  -31.860  -29.873  -27.778  -25.894  -24.290  -23.054  -22.416
 -18.650  -17.810  -16.345  -14.598  -13.023  -11.902  -11.243  -10.955  -10.967  -11.396  -12.416  -14.097  -16.212  -18.461  -20.553  -22.302  -23.588  -24.327  -24.494  -24.202  -23.615  -22.898  -22.116  -21.221  -20.114  -18.645  -16.688  -14.283  -11.681   -9.356   -7.797   -7.301   -7.891   -9.405  -11.692  -14.599  -17.768  -20.429  -21.678  -20.990  -18.622  -15.648  -13.518  -13.222  -14.767  -17.281  -19.704  -21.369  -22.254  -22.685  -23.044  -23.542  -24.221  -25.000  -25.686  -26.083  -26.126  -25.943  -25.728  -25.553  -25.356  -25.107  -24.922  -24.944  -25.225  -25.715  -26.309  -26.845  -27.133  -27.020  -26.498  -25.670  -24.617  -23.353  -21.961  -20.734  -20.016  -19.924  -20.270  -20.694  -20.918  -20.823  -20.478  -20.133  -20.100  -20.534  -21.319  -22.256  -23.250  -24.285  -25.227  -25.736  -25.516  -24.534  -23.061  -21.394  -19.708  -18.109  -16.818  -16.206
 -19.892  -19.221  -17.992  -16.482  -14.997  -13.769  -12.899  -12.381  -12.287  -12.794  -14.058  -16.001  -18.291  -20.530  -22.433  -23.850  -24.728  -25.023  -24.742  -24.010  -23.022  -21.971  -20.929  -19.881  -18.707  -17.266  -15.457  -13.300  -11.010   -9.011   -7.742   -7.435   -8.011   -9.195  -10.834  -12.871  -15.179  -17.308  -18.590  -18.508  -17.096  -15.021  -13.362  -12.997  -14.112  -16.152  -18.260  -19.829  -20.739  -21.215  -21.657  -22.341  -23.315  -24.385  -25.228  -25.593  -25.532  -25.361  -25.393  -25.610  -25.787  -25.775  -25.640  -25.552  -25.569  -25.625  -25.664  -25.629  -25.414  -24.889  -24.006  -22.875  -21.639  -20.344  -19.053  -17.925  -17.193  -16.945  -17.005  -17.092  -16.953  -16.527  -15.917  -15.374  -15.180  -15.480  -16.182  -17.066  -17.928  -18.663  -19.181  -19.320  -18.975  -18.193  -17.100  -15.799  -14.376  -12.943  -11.759  -11.248
 -20.257  -19.752  -18.802  -17.554  -16.221  -14.977  -13.962  -13.331  -13.236  -13.868  -15.308  -17.390  -19.730  -21.902  -23.640  -24.830  -25.428  -25.406  -24.797  -23.734  -22.432  -21.100  -19.843  -18.655  -17.469  -16.149  -14.617  -12.886  -11.133   -9.715   -9.010   -9.150   -9.861  -10.737  -11.553  -12.397  -13.434  -14.604  -15.541  -15.778  -15.118  -13.877  -12.785  -12.607  -13.632  -15.526  -17.587  -19.221  -20.184  -20.616  -20.886  -21.363  -22.173  -23.115  -23.805  -23.980  -23.752  -23.550  -23.736  -24.247  -24.717  -24.883  -24.790  -24.624  -24.443  -24.175  -23.777  -23.277  -22.659  -21.819  -20.709  -19.485  -18.325  -17.342  -16.510  -15.848  -15.421  -15.224  -15.109  -14.890  -14.436  -13.762  -13.015  -12.402  -12.133  -12.311  -12.871  -13.598  -14.241  -14.643  -14.716  -14.433  -13.833  -13.033  -12.098  -11.064   -9.933   -8.793   -7.873   -7.521
 -19.534  -19.138  -18.421  -17.433  -16.293  -15.152  -14.195  -13.622  -13.665  -14.467  -16.023  -18.114  -20.353  -22.411  -24.049  -25.158  -25.681  -25.589  -24.890  -23.729  -22.304  -20.842  -19.485  -18.267  -17.133  -16.026  -14.856  -13.627  -12.476  -11.702  -11.595  -12.158  -12.996  -13.553  -13.560  -13.203  -12.904  -12.941  -13.196  -13.317  -12.991  -12.295  -11.713  -11.865  -13.067  -15.079  -17.274  -19.027  -20.011  -20.286  -20.233  -20.297  -20.700  -21.277  -21.652  -21.553  -21.115  -20.759  -20.861  -21.353  -21.840  -22.004  -21.886  -21.698  -21.492  -21.199  -20.737  -20.136  -19.417  -18.513  -17.411  -16.314  -15.468  -15.027  -14.934  -15.032  -15.204  -15.301  -15.169  -14.688  -13.901  -12.971  -12.083  -11.397  -11.008  -10.934  -11.129  -11.450  -11.679  -11.656  -11.295  -10.630   -9.775   -8.883   -8.040   -7.219   -6.406   -5.642   -5.060   -4.891
 -17.783  -17.438  -16.858  -16.077  -15.160  -14.253  -13.533  -13.219  -13.509  -14.499  -16.087  -18.063  -20.121  -22.030  -23.626  -24.813  -25.489  -25.577  -25.079  -24.105  -22.820  -21.449  -20.146  -18.994  -18.008  -17.143  -16.326  -15.530  -14.870  -14.578  -14.871  -15.671  -16.492  -16.739  -16.117  -14.858  -13.500  -12.480  -11.900  -11.543  -11.145  -10.690  -10.509  -11.065  -12.568  -14.795  -17.127  -18.918  -19.789  -19.798  -19.350  -18.954  -18.898  -19.077  -19.145  -18.830  -18.207  -17.626  -17.422  -17.567  -17.746  -17.710  -17.505  -17.368  -17.360  -17.394  -17.319  -17.081  -16.642  -15.958  -15.084  -14.275  -13.834  -13.964  -14.603  -15.484  -16.284  -16.681  -16.467  -15.637  -14.423  -13.155  -12.107  -11.349  -10.812  -10.406  -10.107   -9.859   -9.585   -9.131   -8.439   -7.548   -6.592   -5.726   -5.022   -4.439   -3.959   -3.556   -3.272   -3.260
 -15.424  -15.048  -14.515  -13.842  -13.154  -12.562  -12.206  -12.262  -12.852  -13.983  -15.517  -17.277  -19.086  -20.826  -22.424  -23.789  -24.777  -25.273  -25.227  -24.685  -23.788  -22.714  -21.629  -20.645  -19.833  -19.168  -18.582  -18.040  -17.616  -17.516  -17.898  -18.646  -19.293  -19.275  -18.307  -16.608  -14.683  -12.998  -11.741  -10.854  -10.232   -9.901  -10.099  -11.077  -12.909  -15.288  -17.595  -19.181  -19.705  -19.243  -18.258  -17.328  -16.803  -16.619  -16.449  -16.027  -15.333  -14.588  -14.043  -13.741  -13.496  -13.196  -12.940  -12.966  -13.358  -14.005  -14.644  -15.076  -15.158  -14.870  -14.342  -13.842  -13.711  -14.184  -15.220  -16.509  -17.579  -17.991  -17.492  -16.189  -14.496  -12.921  -11.750  -10.975  -10.368   -9.738   -9.041   -8.345   -7.659   -6.926   -6.089   -5.190   -4.333   -3.645   -3.161   -2.830   -2.598   -2.465   -2.400   -2.501
 -13.206  -12.744  -12.131  -11.472  -10.939  -10.654  -10.699  -11.119  -11.953  -13.116  -14.475  -15.921  -17.405  -18.934  -20.512  -22.081  -23.462  -24.497  -25.058  -25.141  -24.808  -24.190  -23.443  -22.701  -22.049  -21.478  -20.941  -20.399  -19.930  -19.720  -19.879  -20.313  -20.644  -20.402  -19.366  -17.683  -15.757  -13.959  -12.479  -11.401  -10.763  -10.712  -11.388  -12.861  -15.004  -17.403  -19.431  -20.496  -20.334  -19.108  -17.360  -15.732  -14.618  -13.998  -13.589  -13.101  -12.443  -11.672  -10.966  -10.378   -9.875   -9.460   -9.281   -9.605  -10.530  -11.887  -13.313  -14.442  -15.077  -15.207  -14.995  -14.720  -14.694  -15.140  -16.070  -17.202  -18.028  -18.071  -17.094  -15.320  -13.285  -11.562  -10.415   -9.716   -9.134   -8.441   -7.588   -6.696   -5.854   -5.064   -4.308   -3.596   -3.001   -2.579   -2.330   -2.202   -2.157   -2.175   -2.229   -2.385
 -11.986  -11.394  -10.611   -9.838   -9.354   -9.290   -9.629  -10.306  -11.218  -12.247  -13.284  -14.284  -15.332  -16.546  -18.012  -19.707  -21.458  -23.044  -24.288  -25.098  -25.449  -25.414  -25.098  -24.635  -24.110  -23.533  -22.863  -22.114  -21.370  -20.790  -20.496  -20.435  -20.356  -19.932  -18.999  -17.653  -16.161  -14.759  -13.594  -12.817  -12.591  -13.100  -14.407  -16.436  -18.873  -21.194  -22.765  -23.089  -22.021  -19.831  -17.151  -14.657  -12.801  -11.615  -10.853  -10.241   -9.608   -8.911   -8.222   -7.597   -7.097   -6.785   -6.867   -7.581   -9.028  -10.985  -13.021  -14.682  -15.739  -16.190  -16.233  -16.105  -16.035  -16.194  -16.619  -17.135  -17.315  -16.742  -15.266  -13.185  -11.053   -9.394   -8.370   -7.783   -7.277   -6.638   -5.831   -5.001   -4.247   -3.612   -3.075   -2.649   -2.373   -2.244   -2.203   -2.216   -2.276   -2.367   -2.472   -2.645
 -12.325  -11.605  -10.593   -9.627   -9.081   -9.083   -9.546  -10.261  -11.048  -11.749  -12.288  -12.702  -13.174  -13.938  -15.147  -16.807  -18.776  -20.829  -22.742  -24.307  -25.409  -26.041  -26.245  -26.108  -25.703  -25.046  -24.156  -23.075  -21.920  -20.850  -19.998  -19.364  -18.845  -18.244  -17.470  -16.579  -15.712  -14.997  -14.527  -14.432  -14.901  -16.108  -18.060  -20.571  -23.211  -25.404  -26.527  -26.168  -24.285  -21.260  -17.766  -14.490  -11.892  -10.079   -8.876   -8.025   -7.320   -6.668   -6.053   -5.538   -5.182   -5.120   -5.522   -6.622   -8.447  -10.753  -13.087  -14.991  -16.251  -16.918  -17.179  -17.206  -17.100  -16.950  -16.789  -16.534  -15.936  -14.732  -12.894  -10.721   -8.708   -7.222   -6.317   -5.774   -5.303   -4.757   -4.114   -3.490   -2.974   -2.581   -2.317   -2.196   -2.204   -2.299   -2.413   -2.506   -2.602   -2.725   -2.850   -3.017
 -14.088  -13.291  -12.106  -10.956  -10.288  -10.250  -10.668  -11.237  -11.708  -11.899  -11.808  -11.521  -11.335  -11.520  -12.310  -13.755  -15.741  -18.075  -20.501  -22.754  -24.607  -25.930  -26.698  -26.931  -26.675  -25.963  -24.847  -23.428  -21.850  -20.287  -18.893  -17.743  -16.816  -16.046  -15.397  -14.910  -14.665  -14.692  -15.006  -15.671  -16.813  -18.550  -20.869  -23.559  -26.187  -28.184  -28.959  -28.179  -25.893  -22.525  -18.725  -15.108  -12.099   -9.821   -8.196   -7.047   -6.169   -5.459   -4.879   -4.463   -4.287   -4.468   -5.167   -6.505   -8.465  -10.789  -13.057  -14.881  -16.118  -16.860  -17.307  -17.540  -17.526  -17.212  -16.612  -15.718  -14.478  -12.820  -10.817   -8.730   -6.908   -5.565   -4.700   -4.140   -3.699   -3.253   -2.822   -2.447   -2.182   -2.042   -2.009   -2.108   -2.296   -2.502   -2.672   -2.765   -2.848   -2.959   -3.067   -3.229
 -16.490  -15.721  -14.505  -13.298  -12.581  -12.492  -12.802  -13.131  -13.187  -12.806  -12.029  -11.057  -10.201   -9.815  -10.117  -11.192  -12.972  -15.326  -18.020  -20.750  -23.193  -25.110  -26.386  -26.983  -26.920  -26.234  -24.992  -23.332  -21.424  -19.477  -17.673  -16.140  -14.930  -14.024  -13.451  -13.254  -13.494  -14.143  -15.110  -16.348  -17.858  -19.724  -21.939  -24.367  -26.649  -28.278  -28.769  -27.868  -25.679  -22.617  -19.215  -15.934  -13.040  -10.667   -8.816   -7.403   -6.326   -5.517   -4.924   -4.585   -4.553   -4.916   -5.760   -7.128   -8.936  -10.943  -12.802  -14.239  -15.205  -15.868  -16.412  -16.857  -17.007  -16.677  -15.846  -14.577  -12.965  -11.104   -9.130   -7.255   -5.643   -4.427   -3.596   -3.039   -2.646   -2.347   -2.118   -1.965   -1.917   -1.962   -2.106   -2.315   -2.562   -2.768   -2.875   -2.896   -2.899   -2.949   -3.025   -3.167
 -18.714  -18.065  -17.016  -15.958  -15.338  -15.256  -15.470  -15.575  -15.245  -14.361  -13.035  -11.512  -10.149   -9.291   -9.162   -9.820  -11.261  -13.383  -16.020  -18.864  -21.551  -23.778  -25.356  -26.229  -26.356  -25.773  -24.537  -22.789  -20.722  -18.553  -16.517  -14.781  -13.425  -12.474  -11.960  -11.956  -12.518  -13.574  -14.952  -16.462  -18.007  -19.608  -21.312  -23.070  -24.659  -25.720  -25.926  -25.114  -23.422  -21.186  -18.756  -16.363  -14.100  -12.024  -10.195   -8.670   -7.469   -6.580   -5.995   -5.717   -5.774   -6.187   -6.992   -8.150   -9.550  -10.963  -12.165  -12.996  -13.515  -13.946  -14.467  -15.013  -15.284  -15.004  -14.106  -12.720  -11.039   -9.258   -7.534   -5.980   -4.672   -3.640   -2.902   -2.415   -2.130   -1.986   -1.924   -1.951   -2.052   -2.232   -2.464   -2.718   -2.937   -3.051   -3.026   -2.905   -2.784   -2.741   -2.766   -2.902
 -20.303  -19.855  -19.125  -18.415  -18.018  -18.021  -18.194  -18.152  -17.584  -16.401  -14.755  -12.942  -11.316  -10.202   -9.792  -10.121  -11.176  -12.893  -15.147  -17.670  -20.141  -22.250  -23.806  -24.731  -24.979  -24.527  -23.405  -21.722  -19.655  -17.442  -15.339  -13.548  -12.176  -11.258  -10.833  -10.969  -11.709  -12.959  -14.483  -16.009  -17.378  -18.549  -19.589  -20.537  -21.304  -21.730  -21.654  -21.055  -20.052  -18.858  -17.608  -16.302  -14.877  -13.326  -11.731  -10.242   -9.003   -8.096   -7.527   -7.281   -7.314   -7.622   -8.181   -8.913   -9.705  -10.403  -10.870  -11.065  -11.104  -11.246  -11.632  -12.147  -12.432  -12.190  -11.364  -10.102   -8.652   -7.217   -5.928   -4.822   -3.889   -3.142   -2.588   -2.238   -2.082   -2.053   -2.109   -2.236   -2.428   -2.672   -2.941   -3.185   -3.335   -3.328   -3.158   -2.879   -2.625   -2.488   -2.467   -2.586
 -21.271  -21.049  -20.736  -20.451  -20.370  -20.515  -20.695  -20.599  -19.954  -18.715  -17.014  -15.176  -13.526  -12.368  -11.843  -11.971  -12.687  -13.933  -15.572  -17.419  -19.239  -20.813  -22.002  -22.740  -22.968  -22.618  -21.663  -20.144  -18.209  -16.097  -14.063  -12.318  -11.003  -10.156   -9.814  -10.030  -10.814  -12.062  -13.520  -14.923  -16.061  -16.886  -17.425  -17.755  -17.900  -17.869  -17.677  -17.390  -17.078  -16.807  -16.523  -16.115  -15.417  -14.366  -13.050  -11.662  -10.419   -9.468   -8.841   -8.479   -8.347   -8.392   -8.562   -8.763   -8.929   -8.977   -8.844   -8.575   -8.293   -8.213   -8.449   -8.838   -9.078   -8.889   -8.255   -7.324   -6.326   -5.423   -4.673   -4.056   -3.514   -3.054   -2.704   -2.510   -2.450   -2.496   -2.607   -2.762   -2.957   -3.195   -3.424   -3.582   -3.628   -3.509   -3.233   -2.867   -2.540   -2.356   -2.291   -2.406
 -21.794  -21.813  -21.908  -22.074  -22.314  -22.613  -22.839  -22.757  -22.175  -21.047  -19.493  -17.794  -16.265  -15.169  -14.625  -14.619  -15.080  -15.860  -16.811  -17.823  -18.764  -19.558  -20.172  -20.570  -20.661  -20.358  -19.564  -18.265  -16.565  -14.671  -12.805  -11.176   -9.925   -9.102   -8.757   -8.930   -9.613  -10.695  -11.954  -13.162  -14.129  -14.783  -15.120  -15.213  -15.149  -15.052  -15.038  -15.172  -15.451  -15.814  -16.119  -16.201  -15.916  -15.168  -14.016  -12.668  -11.361  -10.266   -9.439   -8.830   -8.386   -8.074   -7.822   -7.577   -7.283   -6.924   -6.506   -6.079   -5.743   -5.624   -5.778   -6.061   -6.252   -6.180   -5.826   -5.334   -4.848   -4.470   -4.203   -3.971   -3.740   -3.512   -3.349   -3.289   -3.323   -3.419   -3.538   -3.665   -3.778   -3.860   -3.906   -3.891   -3.793   -3.585   -3.279   -2.930   -2.631   -2.464   -2.405   -2.504
 -22.048  -22.262  -22.704  -23.255  -23.780  -24.213  -24.467  -24.411  -23.930  -22.984  -21.667  -20.197  -18.841  -17.808  -17.228  -17.098  -17.300  -17.655  -17.992  -18.213  -18.314  -18.357  -18.393  -18.437  -18.396  -18.135  -17.513  -16.480  -15.107  -13.538  -11.948  -10.467   -9.235   -8.332   -7.836   -7.788   -8.191   -8.962   -9.914  -10.869  -11.696  -12.300  -12.660  -12.834  -12.933  -13.132  -13.553  -14.198  -14.973  -15.715  -16.280  -16.531  -16.357  -15.676  -14.537  -13.126  -11.685  -10.387   -9.274   -8.343   -7.566   -6.933   -6.378   -5.878   -5.402   -4.975   -4.594   -4.289   -4.111   -4.128   -4.315   -4.595   -4.812   -4.894   -4.835   -4.708   -4.605   -4.585   -4.605   -4.603   -4.556   -4.518   -4.557   -4.663   -4.826   -4.991   -5.118   -5.166   -5.092   -4.890   -4.619   -4.293   -3.972   -3.671   -3.395   -3.147   -2.959   -2.872   -2.855   -2.974
 -22.092  -22.430  -23.110  -23.918  -24.620  -25.103  -25.321  -25.233  -24.806  -24.026  -22.946  -21.718  -20.529  -19.559  -18.912  -18.607  -18.532  -18.502  -18.335  -17.967  -17.470  -16.979  -16.629  -16.454  -16.372  -16.220  -15.841  -15.170  -14.238  -13.127  -11.905  -10.645   -9.425   -8.338   -7.510   -7.048   -6.998   -7.304   -7.830   -8.456   -9.085   -9.633  -10.068  -10.439  -10.867  -11.510  -12.442  -13.573  -14.729  -15.707  -16.369  -16.633  -16.419  -15.686  -14.474  -12.973  -11.410   -9.950   -8.641   -7.488   -6.500   -5.681   -5.021   -4.502   -4.105   -3.842   -3.697   -3.652   -3.728   -3.919   -4.225   -4.564   -4.878   -5.131   -5.297   -5.386   -5.457   -5.557   -5.657   -5.723   -5.794   -5.946   -6.230   -6.602   -6.982   -7.277   -7.429   -7.374   -7.047   -6.482   -5.764   -5.050   -4.440   -3.995   -3.719   -3.556   -3.494   -3.514   -3.576   -3.730
 -21.927  -22.332  -23.132  -24.042  -24.771  -25.176  -25.225  -24.976  -24.483  -23.767  -22.873  -21.872  -20.879  -19.992  -19.296  -18.808  -18.445  -18.075  -17.553  -16.837  -16.041  -15.321  -14.822  -14.612  -14.612  -14.688  -14.679  -14.505  -14.160  -13.654  -12.940  -12.007  -10.838   -9.529   -8.267   -7.245   -6.591   -6.300   -6.294   -6.480   -6.806   -7.211   -7.655   -8.173   -8.874   -9.866  -11.156  -12.599  -13.971  -15.067  -15.775  -16.024  -15.754  -14.961  -13.708  -12.185  -10.617   -9.172   -7.889   -6.751   -5.775   -4.990   -4.407   -4.041   -3.873   -3.880   -4.006   -4.205   -4.472   -4.812   -5.200   -5.610   -6.028   -6.412   -6.682   -6.821   -6.869   -6.905   -6.949   -7.015   -7.185   -7.571   -8.182   -8.915   -9.590  -10.071  -10.276  -10.120   -9.556   -8.636   -7.489   -6.352   -5.384   -4.683   -4.290   -4.118   -4.105   -4.181   -4.303   -4.488
 -21.627  -22.046  -22.861  -23.739  -24.351  -24.515  -24.236  -23.662  -22.941  -22.160  -21.362  -20.560  -19.783  -19.042  -18.367  -17.752  -17.166  -16.541  -15.821  -14.988  -14.140  -13.424  -12.977  -12.858  -13.041  -13.418  -13.885  -14.338  -14.722  -14.947  -14.882  -14.380  -13.362  -11.904  -10.249   -8.668   -7.387   -6.455   -5.853   -5.529   -5.465   -5.641   -6.000   -6.548   -7.347   -8.434   -9.772  -11.209  -12.547  -13.613  -14.291  -14.526  -14.256  -13.476  -12.277  -10.862   -9.463   -8.241   -7.230   -6.370   -5.644   -5.095   -4.763   -4.662   -4.793   -5.058   -5.398   -5.741   -6.100   -6.470   -6.862   -7.281   -7.731   -8.136   -8.382   -8.434   -8.322   -8.202   -8.143   -8.213   -8.520   -9.189  -10.181  -11.319  -12.318  -13.005  -13.271  -13.055  -12.333  -11.143   -9.662   -8.129   -6.768   -5.732   -5.068   -4.716   -4.623   -4.679   -4.813   -5.012
 -21.351  -21.748  -22.520  -23.283  -23.671  -23.469  -22.727  -21.674  -20.566  -19.584  -18.773  -18.116  -17.557  -17.010  -16.432  -15.796  -15.102  -14.369  -13.597  -12.810  -12.066  -11.476  -11.146  -11.153  -11.514  -12.205  -13.164  -14.291  -15.457  -16.480  -17.108  -17.122  -16.386  -14.961  -13.098  -11.135   -9.366   -7.903   -6.762   -5.960   -5.525   -5.450   -5.677   -6.145   -6.838   -7.737   -8.780   -9.849  -10.825  -11.622  -12.144  -12.332  -12.090  -11.414  -10.394   -9.228   -8.153   -7.321   -6.748   -6.354   -6.091   -5.942   -5.979   -6.230   -6.644   -7.128   -7.590   -7.979   -8.304   -8.600   -8.909   -9.254   -9.612   -9.917  -10.014   -9.863   -9.562   -9.283   -9.159   -9.286   -9.774  -10.729  -12.074  -13.556  -14.833  -15.685  -16.008  -15.759  -14.943  -13.595  -11.883  -10.025   -8.292   -6.891   -5.906   -5.309   -5.028   -4.999   -5.101   -5.307
 -21.238  -21.611  -22.321  -22.946  -23.068  -22.466  -21.208  -19.589  -17.991  -16.678  -15.750  -15.164  -14.781  -14.435  -14.009  -13.460  -12.796  -12.088  -11.395  -10.740  -10.152   -9.708   -9.471   -9.565  -10.045  -10.962  -12.322  -14.040  -15.919  -17.658  -18.940  -19.483  -19.141  -17.949  -16.152  -14.102  -12.111  -10.337   -8.855   -7.734   -7.041   -6.780   -6.867   -7.179   -7.621   -8.104   -8.562   -8.964   -9.287   -9.560   -9.758   -9.796   -9.580   -9.077   -8.345   -7.560   -6.922   -6.583   -6.552   -6.725   -6.998   -7.342   -7.810   -8.418   -9.088   -9.711  -10.189  -10.518  -10.753  -10.937  -11.110  -11.313  -11.520  -11.653  -11.557  -11.214  -10.749  -10.373  -10.256  -10.486  -11.154  -12.310  -13.848  -15.479  -16.864  -17.742  -18.030  -17.731  -16.853  -15.417  -13.560  -11.489   -9.509   -7.854   -6.621   -5.812   -5.378   -5.247   -5.327   -5.537
 -21.284  -21.654  -22.322  -22.833  -22.735  -21.787  -20.057  -17.889  -15.765  -14.067  -12.951  -12.357  -12.086  -11.903  -11.638  -11.231  -10.708  -10.142   -9.601   -9.105   -8.666   -8.321   -8.157   -8.273   -8.781   -9.805  -11.404  -13.512  -15.903  -18.193  -20.006  -21.033  -21.122  -20.316  -18.827  -16.956  -15.015  -13.210  -11.642  -10.419   -9.627   -9.260   -9.220   -9.328   -9.415   -9.352   -9.098   -8.673   -8.198   -7.799   -7.544   -7.353   -7.140   -6.819   -6.428   -6.095   -5.965   -6.163   -6.695   -7.441   -8.265   -9.106   -9.974  -10.868  -11.696  -12.351  -12.778  -13.020  -13.139  -13.215  -13.289  -13.377  -13.459  -13.434  -13.209  -12.766  -12.254  -11.896  -11.842  -12.157  -12.882  -14.024  -15.460  -16.937  -18.128  -18.807  -18.917  -18.481  -17.519  -16.041  -14.139  -12.019   -9.999   -8.308   -7.036   -6.174   -5.684   -5.545   -5.626   -5.855
 -21.249  -21.621  -22.285  -22.760  -22.537  -21.360  -19.283  -16.686  -14.108  -12.036  -10.700  -10.057   -9.847   -9.794   -9.679   -9.447   -9.114   -8.745   -8.380   -8.040   -7.715   -7.440   -7.314   -7.425   -7.895   -8.878  -10.517  -12.799  -15.471  -18.113  -20.294  -21.709  -22.216  -21.847  -20.767  -19.243  -17.551  -15.923  -14.495  -13.366  -12.607  -12.185  -11.993  -11.848  -11.531  -10.906   -9.945   -8.741   -7.524   -6.504   -5.809   -5.405   -5.175   -5.017   -4.941   -5.030   -5.405   -6.131   -7.174   -8.424   -9.730  -10.988  -12.168  -13.230  -14.102  -14.711  -15.051  -15.199  -15.243  -15.275  -15.318  -15.365  -15.394  -15.333  -15.111  -14.727  -14.314  -14.049  -14.055  -14.358  -14.941  -15.772  -16.759  -17.708  -18.396  -18.646  -18.418  -17.758  -16.687  -15.215  -13.407  -11.463   -9.649   -8.173   -7.083   -6.350   -5.953   -5.864   -5.985   -6.252
 -20.647  -21.041  -21.736  -22.224  -21.996  -20.751  -18.509  -15.660  -12.796  -10.452   -8.954   -8.263   -8.089   -8.122   -8.137   -8.065   -7.941   -7.795   -7.609   -7.397   -7.158   -6.948   -6.853   -6.940   -7.324   -8.181   -9.715  -11.966  -14.717  -17.511  -19.912  -21.604  -22.445  -22.464  -21.783  -20.637  -19.290  -17.964  -16.809  -15.892  -15.224  -14.769  -14.409  -13.979  -13.268  -12.124  -10.573   -8.784   -7.052   -5.662   -4.747   -4.246   -4.031   -4.003   -4.149   -4.553   -5.317   -6.446   -7.898   -9.530  -11.188  -12.745  -14.109  -15.227  -16.046  -16.566  -16.826  -16.924  -16.953  -16.987  -17.057  -17.138  -17.196  -17.182  -17.069  -16.847  -16.608  -16.468  -16.495  -16.673  -16.941  -17.248  -17.524  -17.704  -17.672  -17.339  -16.683  -15.767  -14.597  -13.205  -11.653  -10.086   -8.702   -7.630   -6.875   -6.388   -6.144   -6.159   -6.333   -6.629
 -19.047  -19.434  -20.164  -20.737  -20.601  -19.433  -17.228  -14.366  -11.443   -9.037   -7.487   -6.779   -6.624   -6.696   -6.793   -6.854   -6.908   -6.930   -6.906   -6.807   -6.663   -6.530   -6.462   -6.524   -6.812   -7.522   -8.885  -10.977  -13.624  -16.399  -18.868  -20.709  -21.771  -22.071  -21.718  -20.916  -19.928  -18.956  -18.129  -17.455  -16.900  -16.407  -15.881  -15.186  -14.127  -12.592  -10.644   -8.534   -6.608   -5.166   -4.297   -3.895   -3.785   -3.857   -4.142   -4.728   -5.696   -7.054   -8.714  -10.543  -12.380  -14.084  -15.516  -16.599  -17.317  -17.740  -17.943  -18.020  -18.054  -18.118  -18.230  -18.362  -18.472  -18.545  -18.560  -18.514  -18.444  -18.386  -18.386  -18.387  -18.301  -18.049  -17.602  -16.991  -16.220  -15.298  -14.250  -13.116  -11.930  -10.718   -9.526   -8.434   -7.560   -6.944   -6.560   -6.363   -6.315   -6.432   -6.671   -6.985
 -16.382  -16.717  -17.459  -18.117  -18.148  -17.202  -15.239  -12.601   -9.875   -7.628   -6.180   -5.509   -5.350   -5.406   -5.524   -5.642   -5.771   -5.901   -5.983   -5.998   -5.949   -5.913   -5.899   -5.964   -6.201   -6.796   -7.969   -9.827  -12.210  -14.789  -17.165  -19.012  -20.177  -20.641  -20.512  -20.007  -19.357  -18.750  -18.243  -17.804  -17.361  -16.828  -16.154  -15.233  -13.937  -12.181  -10.075   -7.923   -6.102   -4.869   -4.250   -4.085   -4.163   -4.369   -4.733   -5.377   -6.387   -7.748   -9.398  -11.202  -13.026  -14.712  -16.090  -17.073  -17.669  -17.996  -18.144  -18.200  -18.229  -18.310  -18.444  -18.605  -18.756  -18.893  -18.998  -19.065  -19.089  -19.070  -19.017  -18.862  -18.506  -17.842  -16.869  -15.672  -14.370  -13.043  -11.751  -10.541   -9.436   -8.472   -7.664   -7.032   -6.613   -6.381   -6.321   -6.372   -6.518   -6.763   -7.054   -7.411
 -13.082  -13.333  -14.044  -14.751  -14.973  -14.332  -12.763  -10.554   -8.243   -6.350   -5.125   -4.532   -4.345   -4.343   -4.395   -4.488   -4.620   -4.766   -4.899   -5.006   -5.085   -5.166   -5.257   -5.390   -5.645   -6.178   -7.178   -8.723  -10.725  -12.939  -15.045  -16.756  -17.886  -18.402  -18.407  -18.126  -17.774  -17.494  -17.270  -17.028  -16.662  -16.103  -15.328  -14.279  -12.872  -11.095   -9.077   -7.130   -5.598   -4.701   -4.405   -4.511   -4.796   -5.139   -5.577   -6.198   -7.090   -8.270   -9.693  -11.275  -12.889  -14.387  -15.606  -16.435  -16.902  -17.125  -17.211  -17.228  -17.235  -17.290  -17.412  -17.578  -17.738  -17.896  -18.033  -18.142  -18.188  -18.164  -18.061  -17.820  -17.335  -16.494  -15.298  -13.862  -12.353  -10.892   -9.582   -8.465   -7.566   -6.880   -6.420   -6.142   -6.041   -6.071   -6.220   -6.460   -6.791   -7.166   -7.534   -7.928
 -10.002  -10.143  -10.766  -11.471  -11.833  -11.504  -10.370   -8.681   -6.905   -5.456   -4.511   -4.012   -3.791   -3.705   -3.670   -3.686   -3.766   -3.885   -4.046   -4.229   -4.439   -4.663   -4.892   -5.140   -5.451   -5.966   -6.813   -8.053   -9.620  -11.365  -13.066  -14.495  -15.467  -15.935  -16.001  -15.874  -15.752  -15.718  -15.692  -15.561  -15.236  -14.678  -13.881  -12.829  -11.480   -9.875   -8.154   -6.582   -5.427   -4.855   -4.797   -5.070   -5.493   -5.940   -6.419   -6.987   -7.680   -8.531   -9.557  -10.726  -11.953  -13.121  -14.079  -14.718  -15.050  -15.171  -15.190  -15.153  -15.121  -15.136  -15.227  -15.376  -15.533  -15.675  -15.802  -15.890  -15.901  -15.847  -15.724  -15.480  -15.000  -14.203  -13.057  -11.709  -10.293   -8.980   -7.867   -6.994   -6.374   -5.985   -5.797   -5.763   -5.830   -5.989   -6.250   -6.599   -7.050   -7.535   -7.968   -8.379
  -8.029   -8.040   -8.508   -9.112   -9.507   -9.380   -8.626   -7.434   -6.174   -5.144   -4.462   -4.051   -3.792   -3.611   -3.497   -3.440   -3.469   -3.579   -3.762   -4.018   -4.337   -4.684   -5.048   -5.399   -5.786   -6.321   -7.079   -8.100   -9.314  -10.618  -11.885  -12.947  -13.683  -14.034  -14.100  -14.085  -14.127  -14.230  -14.276  -14.146  -13.828  -13.318  -12.607  -11.697  -10.577   -9.307   -8.012   -6.886   -6.103   -5.757   -5.791   -6.076   -6.503   -6.971   -7.445   -7.910   -8.353   -8.804   -9.305   -9.911  -10.599  -11.304  -11.902  -12.302  -12.483  -12.512  -12.467  -12.387  -12.330  -12.316  -12.389  -12.521  -12.656  -12.780  -12.867  -12.895  -12.854  -12.771  -12.660  -12.470  -12.105  -11.466  -10.563   -9.491   -8.391   -7.404   -6.620   -6.067   -5.742   -5.624   -5.661   -5.774   -5.935   -6.129   -6.394   -6.761   -7.233   -7.746   -8.196   -8.632
  -7.650   -7.547   -7.814   -8.191   -8.471   -8.383   -7.835   -6.991   -6.126   -5.415   -4.903   -4.522   -4.215   -3.970   -3.795   -3.707   -3.723   -3.841   -4.067   -4.377   -4.762   -5.187   -5.618   -6.032   -6.490   -7.067   -7.849   -8.824   -9.900  -10.961  -11.905  -12.652  -13.152  -13.391  -13.476  -13.564  -13.718  -13.852  -13.843  -13.640  -13.300  -12.876  -12.358  -11.714  -10.941  -10.093   -9.267   -8.575   -8.113   -7.904   -7.916   -8.095   -8.396   -8.787   -9.186   -9.498   -9.660   -9.650   -9.554   -9.487   -9.500   -9.610   -9.746   -9.838   -9.847   -9.784   -9.681   -9.580   -9.521   -9.508   -9.578   -9.703   -9.829   -9.940   -9.991   -9.964   -9.877   -9.781   -9.706   -9.594   -9.374   -8.957   -8.352   -7.622   -6.907   -6.300   -5.869   -5.645   -5.606   -5.700   -5.895   -6.105   -6.313   -6.502   -6.711   -6.997   -7.399   -7.850   -8.261   -8.696
  -8.892   -8.680   -8.731   -8.829   -8.837   -8.573   -8.003   -7.278   -6.586   -6.023   -5.574   -5.180   -4.826   -4.542   -4.351   -4.266   -4.303   -4.451   -4.701   -5.040   -5.439   -5.863   -6.288   -6.704   -7.202   -7.882   -8.832   -9.978  -11.178  -12.265  -13.135  -13.746  -14.125  -14.349  -14.520  -14.732  -14.947  -15.046  -14.927  -14.612  -14.250  -13.934  -13.647  -13.310  -12.905  -12.472  -12.083  -11.788  -11.600  -11.482  -11.423  -11.443  -11.587  -11.842  -12.106  -12.244  -12.106  -11.635  -10.917  -10.093   -9.329   -8.722   -8.295   -8.015   -7.810   -7.646   -7.506   -7.388   -7.332   -7.330   -7.403   -7.531   -7.655   -7.763   -7.797   -7.752   -7.661   -7.583   -7.548   -7.526   -7.438   -7.226   -6.888   -6.477   -6.096   -5.815   -5.682   -5.709   -5.877   -6.141   -6.448   -6.735   -6.972   -7.141   -7.288   -7.471   -7.771   -8.137   -8.495   -8.943
 -11.479  -11.196  -11.075  -10.890  -10.524   -9.874   -9.011   -8.121   -7.353   -6.742   -6.249   -5.827   -5.470   -5.206   -5.039   -4.991   -5.054   -5.208   -5.438   -5.742   -6.077   -6.429   -6.768   -7.148   -7.674   -8.501   -9.710  -11.206  -12.770  -14.154  -15.208  -15.897  -16.331  -16.648  -16.965  -17.298  -17.548  -17.590  -17.370  -16.986  -16.631  -16.406  -16.289  -16.196  -16.085  -15.992  -15.958  -15.980  -16.002  -15.974  -15.871  -15.789  -15.814  -15.943  -16.078  -16.037  -15.634  -14.777  -13.505  -11.972  -10.409   -9.038   -8.006   -7.315   -6.884   -6.607   -6.430   -6.298   -6.223   -6.214   -6.274   -6.393   -6.522   -6.632   -6.700   -6.697   -6.649   -6.611   -6.621   -6.656   -6.667   -6.614   -6.467   -6.281   -6.130   -6.067   -6.121   -6.296   -6.585   -6.940   -7.340   -7.708   -8.014   -8.212   -8.347   -8.482   -8.710   -9.035   -9.361   -9.832
 -14.981  -14.700  -14.486  -14.057  -13.288  -12.137  -10.767   -9.439   -8.350   -7.532   -6.924   -6.481   -6.167   -5.979   -5.872   -5.845   -5.903   -6.002   -6.151   -6.331   -6.535   -6.737   -6.958   -7.261   -7.805   -8.777  -10.273  -12.180  -14.213  -16.048  -17.475  -18.430  -19.044  -19.519  -19.972  -20.380  -20.635  -20.633  -20.385  -20.012  -19.690  -19.523  -19.483  -19.514  -19.583  -19.709  -19.900  -20.118  -20.295  -20.344  -20.266  -20.169  -20.153  -20.215  -20.255  -20.087  -19.524  -18.427  -16.781  -14.713  -12.492  -10.476   -8.925   -7.903   -7.301   -6.951   -6.735   -6.580   -6.487   -6.456   -6.496   -6.578   -6.706   -6.844   -6.957   -7.035   -7.076   -7.105   -7.169   -7.255   -7.338   -7.381   -7.352   -7.287   -7.228   -7.221   -7.312   -7.511   -7.826   -8.246   -8.737   -9.252   -9.702  -10.030  -10.221  -10.352  -10.542  -10.839  -11.150  -11.650
 -18.950  -18.689  -18.432  -17.839  -16.706  -15.042  -13.078  -11.186   -9.635   -8.500   -7.731   -7.257   -6.994   -6.867   -6.797   -6.758   -6.755   -6.754   -6.762   -6.780   -6.788   -6.814   -6.886   -7.084   -7.600   -8.660  -10.362  -12.608  -15.087  -17.414  -19.285  -20.584  -21.446  -22.074  -22.609  -23.030  -23.262  -23.244  -23.033  -22.736  -22.481  -22.337  -22.322  -22.392  -22.534  -22.743  -23.010  -23.305  -23.541  -23.644  -23.632  -23.587  -23.603  -23.675  -23.679  -23.464  -22.854  -21.690  -19.895  -17.560  -14.997  -12.643  -10.843   -9.704   -9.074   -8.736   -8.535   -8.392   -8.291   -8.252   -8.281   -8.365   -8.488   -8.660   -8.841   -9.027   -9.202   -9.353   -9.489   -9.628   -9.761   -9.862   -9.871   -9.808   -9.697   -9.589   -9.546   -9.641   -9.916  -10.397  -11.050  -11.803  -12.505  -13.036  -13.316  -13.429  -13.531  -13.728  -13.975  -14.466
 -22.996  -22.736  -22.427  -21.685  -20.271  -18.183  -15.694  -13.245  -11.184   -9.675   -8.692   -8.128   -7.860   -7.729   -7.645   -7.558   -7.461   -7.344   -7.202   -7.054   -6.894   -6.750   -6.665   -6.748   -7.204   -8.265  -10.060  -12.514  -15.320  -18.054  -20.337  -21.993  -23.097  -23.852  -24.404  -24.789  -24.972  -24.966  -24.838  -24.663  -24.504  -24.414  -24.413  -24.491  -24.639  -24.830  -25.058  -25.297  -25.506  -25.624  -25.671  -25.708  -25.799  -25.919  -25.944  -25.739  -25.165  -24.057  -22.327  -20.052  -17.541  -15.273  -13.616  -12.647  -12.185  -11.994  -11.902  -11.824  -11.767  -11.758  -11.832  -11.958  -12.122  -12.341  -12.599  -12.917  -13.271  -13.615  -13.901  -14.129  -14.322  -14.453  -14.466  -14.320  -14.015  -13.619  -13.267  -13.117  -13.301  -13.867  -14.773  -15.871  -16.924  -17.703  -18.081  -18.128  -18.065  -18.076  -18.182  -18.676
 -27.273  -26.954  -26.511  -25.566  -23.877  -21.442  -18.516  -15.555  -12.973  -11.033   -9.755   -9.028   -8.666   -8.482   -8.353   -8.208   -8.032   -7.825   -7.587   -7.330   -7.057   -6.811   -6.632   -6.635   -7.022   -8.033   -9.813  -12.333  -15.317  -18.320  -20.907  -22.856  -24.174  -25.021  -25.561  -25.876  -26.016  -26.047  -26.031  -26.013  -26.008  -26.029  -26.098  -26.212  -26.342  -26.478  -26.600  -26.718  -26.821  -26.898  -26.965  -27.065  -27.223  -27.391  -27.462  -27.317  -26.841  -25.908  -24.439  -22.527  -20.471  -18.702  -17.543  -17.013  -16.907  -16.974  -17.045  -17.074  -17.092  -17.158  -17.297  -17.497  -17.718  -17.977  -18.314  -18.784  -19.379  -20.000  -20.535  -20.946  -21.260  -21.469  -21.509  -21.263  -20.700  -19.888  -19.072  -18.562  -18.609  -19.310  -20.560  -22.126  -23.663  -24.813  -25.388  -25.469  -25.369  -25.366  -25.490  -26.126
 -32.886  -32.417  -31.698  -30.387  -28.311  -25.472  -22.074  -18.546  -15.359  -12.870  -11.173  -10.172   -9.645   -9.388   -9.220   -9.047   -8.835   -8.587   -8.318   -8.035   -7.752   -7.485   -7.303   -7.301   -7.666   -8.619  -10.332  -12.807  -15.819  -18.922  -21.685  -23.832  -25.305  -26.218  -26.731  -26.986  -27.104  -27.193  -27.324  -27.513  -27.743  -27.990  -28.242  -28.470  -28.645  -28.745  -28.770  -28.747  -28.711  -28.696  -28.721  -28.815  -28.985  -29.185  -29.330  -29.318  -29.055  -28.445  -27.461  -26.195  -24.899  -23.918  -23.482  -23.551  -23.899  -24.258  -24.495  -24.614  -24.687  -24.800  -24.962  -25.160  -25.365  -25.608  -25.988  -26.624  -27.527  -28.525  -29.434  -30.165  -30.741  -31.195  -31.408  -31.213  -30.476  -29.313  -28.064  -27.236  -27.221  -28.181  -29.961  -32.242  -34.541  -36.427  -37.656  -38.373  -38.955  -39.674  -40.414  -41.537
 -41.526  -40.896  -39.728  -37.827  -35.139  -31.691  -27.631  -23.330  -19.302  -16.029  -13.721  -12.301  -11.526  -11.143  -10.933  -10.754  -10.543  -10.307  -10.058   -9.816   -9.596   -9.426   -9.338   -9.404   -9.792  -10.694  -12.308  -14.670  -17.568  -20.637  -23.430  -25.668  -27.226  -28.169  -28.657  -28.866  -28.988  -29.151  -29.460  -29.936  -30.544  -31.203  -31.823  -32.323  -32.653  -32.797  -32.771  -32.625  -32.436  -32.275  -32.182  -32.184  -32.297  -32.515  -32.796  -33.051  -33.187  -33.132  -32.873  -32.483  -32.148  -32.100  -32.472  -33.184  -33.986  -34.626  -35.000  -35.169  -35.250  -35.321  -35.390  -35.445  -35.499  -35.643  -36.048  -36.879  -38.142  -39.620  -41.044  -42.300  -43.414  -44.404  -45.110  -45.281  -44.759  -43.672  -42.478  -41.819  -42.229  -43.888  -46.628  -50.051  -53.629  -56.895  -59.636  -62.034  -64.429  -66.865  -68.853  -70.486
 -54.149  -53.475  -51.799  -49.170  -45.688  -41.408  -36.445  -31.098  -25.935  -21.585  -18.419  -16.384  -15.223  -14.622  -14.313  -14.106  -13.888  -13.659  -13.438  -13.273  -13.166  -13.144  -13.227  -13.452  -13.911  -14.768  -16.240  -18.382  -21.072  -23.976  -26.689  -28.909  -30.484  -31.426  -31.877  -32.047  -32.167  -32.425  -32.960  -33.822  -34.965  -36.254  -37.476  -38.455  -39.090  -39.361  -39.327  -39.076  -38.724  -38.380  -38.099  -37.936  -37.935  -38.184  -38.691  -39.387  -40.151  -40.887  -41.553  -42.179  -42.867  -43.759  -44.921  -46.247  -47.483  -48.400  -48.944  -49.211  -49.333  -49.368  -49.323  -49.208  -49.117  -49.225  -49.761  -50.901  -52.625  -54.676  -56.763  -58.761  -60.691  -62.539  -64.107  -65.138  -65.499  -65.378  -65.294  -65.912  -67.722  -70.856  -75.092  -80.010  -85.133  -90.075  -94.699  -99.132 -103.474 -107.388 -110.071 -111.166
 -69.609  -69.144  -67.080  -63.804  -59.560  -54.441  -48.514  -42.037  -35.624  -30.051  -25.843  -23.030  -21.334  -20.394  -19.895  -19.588  -19.306  -19.030  -18.803  -18.676  -18.697  -18.865  -19.182  -19.613  -20.175  -20.991  -22.263  -24.114  -26.486  -29.120  -31.668  -33.818  -35.370  -36.286  -36.680  -36.788  -36.887  -37.237  -38.022  -39.340  -41.142  -43.212  -45.204  -46.808  -47.848  -48.303  -48.276  -47.930  -47.433  -46.911  -46.443  -46.100  -46.003  -46.324  -47.147  -48.413  -49.947  -51.582  -53.217  -54.830  -56.465  -58.195  -60.050  -61.923  -63.591  -64.871  -65.740  -66.306  -66.689  -66.937  -67.062  -67.117  -67.250  -67.687  -68.678  -70.358  -72.666  -75.344  -78.138  -80.940  -83.756  -86.556  -89.177  -91.434  -93.300  -95.008  -97.022  -99.837 -103.726 -108.644 -114.308 -120.353 -126.447 -132.361 -138.020 -143.430 -148.431 -152.449 -154.536 -153.849
 -85.066  -85.034  -82.826  -79.169  -74.419  -68.699  -62.049  -54.700  -47.281  -40.674  -35.536  -31.976  -29.719  -28.382  -27.607  -27.116  -26.687  -26.281  -25.944  -25.790  -25.893  -26.261  -26.848  -27.532  -28.234  -29.026  -30.098  -31.630  -33.640  -35.970  -38.334  -40.409  -41.947  -42.832  -43.151  -43.166  -43.219  -43.628  -44.636  -46.382  -48.808  -51.615  -54.339  -56.536  -57.964  -58.601  -58.602  -58.204  -57.628  -57.019  -56.462  -56.048  -55.957  -56.439  -57.637  -59.493  -61.768  -64.217  -66.676  -69.078  -71.440  -73.813  -76.214  -78.551  -80.666  -82.430  -83.846  -85.014  -86.038  -86.965  -87.815  -88.656  -89.633  -90.948  -92.788  -95.221  -98.155 -101.382 -104.721 -108.106 -111.549 -115.049 -118.533 -121.937 -125.319 -128.893 -132.961 -137.754 -143.302 -149.432 -155.867 -162.340 -168.652 -174.679 -180.353 -185.543 -189.876 -192.641 -192.830 -189.857
 -97.702  -98.159  -96.023  -92.268  -87.337  -81.376  -74.418  -66.693  -58.824  -51.714  -46.068  -42.044  -39.376  -37.688  -36.639  -35.922  -35.284  -34.656  -34.119  -33.825  -33.925  -34.457  -35.318  -36.294  -37.204  -38.045  -38.987  -40.263  -41.986  -44.093  -46.354  -48.435  -50.018  -50.913  -51.180  -51.108  -51.096  -51.516  -52.647  -54.653  -57.464  -60.726  -63.898  -66.465  -68.139  -68.915  -68.982  -68.626  -68.105  -67.575  -67.117  -66.833  -66.932  -67.701  -69.307  -71.671  -74.517  -77.546  -80.549  -83.449  -86.258  -89.029  -91.791  -94.497  -97.054  -99.398 -101.550 -103.600 -105.630 -107.673 -109.739 -111.861 -114.118 -116.623 -119.467 -122.655 -126.100 -129.670 -133.267 -136.874 -140.539 -144.317 -148.232 -152.322 -156.678 -161.443 -166.743 -172.592 -178.852 -185.276 -191.610 -197.659 -203.306 -208.474 -213.052 -216.795 -219.310 -220.012 -217.852 -215.389
-105.723 -106.552 -104.586 -100.932  -96.083  -90.215  -83.381  -75.817  -68.130  -61.173  -55.590  -51.522  -48.717  -46.846  -45.607  -44.682  -43.823  -42.936  -42.121  -41.602  -41.610  -42.235  -43.350  -44.645  -45.841  -46.849  -47.815  -49.015  -50.651  -52.745  -55.095  -57.348  -59.099  -60.113  -60.422  -60.340  -60.298  -60.693  -61.817  -63.826  -66.648  -69.927  -73.120  -75.722  -77.452  -78.304  -78.487  -78.292  -77.980  -77.707  -77.552  -77.618  -78.107  -79.283  -81.295  -84.041  -87.231  -90.554  -93.801  -96.897  -99.874 -102.802 -105.743 -108.707 -111.670 -114.621 -117.601 -120.676 -123.889 -127.234 -130.669 -134.158 -137.691 -141.290 -144.967 -148.702 -152.436 -156.104 -159.679 -163.196 -166.741 -170.417 -174.319 -178.540 -183.166 -188.255 -193.793 -199.653 -205.635 -211.527 -217.181 -222.514 -227.482 -232.024 -236.044 -239.384 -241.789 -242.658 -240.078 -244.614
-108.363 -109.345 -107.539 -104.082  -99.489  -93.963  -87.599  -80.648  -73.678  -67.425  -62.408  -58.691  -56.044  -54.197  -52.894  -51.849  -50.823  -49.713  -48.635  -47.878  -47.747  -48.410  -49.737  -51.365  -52.915  -54.236  -55.456  -56.862  -58.722  -61.105  -63.817  -66.460  -68.577  -69.890  -70.429  -70.499  -70.533  -70.920  -71.932  -73.711  -76.196  -79.079  -81.897  -84.223  -85.819  -86.684  -87.005  -87.043  -87.031  -87.114  -87.374  -87.910  -88.891  -90.518  -92.883  -95.858  -99.168 -102.529 -105.757 -108.802 -111.720 -114.613 -117.585 -120.701 -123.997 -127.510 -131.281 -135.339 -139.665 -144.181 -148.776 -153.340 -157.799 -162.114 -166.264 -170.229 -173.986 -177.526 -180.872 -184.099 -187.318 -190.667 -194.278 -198.269 -202.727 -207.688 -213.110 -218.903 -224.934 -231.060 -237.124 -242.961 -248.421 -253.350 -257.684 -261.254 -263.738 -264.282 -260.399 -271.784
-105.672 -106.551 -104.830 -101.586  -97.330  -92.301  -86.639  -80.607  -74.696  -69.490  -65.339  -62.232  -59.961  -58.322  -57.104  -56.067  -54.990  -53.782  -52.567  -51.662  -51.449  -52.156  -53.692  -55.669  -57.671  -59.495  -61.248  -63.220  -65.687  -68.725  -72.114  -75.411  -78.133  -79.988  -80.995  -81.437  -81.705  -82.150  -83.024  -84.453  -86.405  -88.653  -90.858  -92.707  -94.028  -94.824  -95.234  -95.460  -95.690  -96.058  -96.658  -97.584  -98.967 -100.934 -103.501 -106.524 -109.752 -112.945 -115.963 -118.788 -121.507 -124.253 -127.167 -130.356 -133.899 -137.857 -142.257 -147.074 -152.211 -157.519 -162.827 -167.984 -172.890 -177.489 -181.762 -185.699 -189.309 -192.613 -195.663 -198.548 -201.395 -204.358 -207.592 -211.232 -215.382 -220.083 -225.314 -230.984 -236.943 -243.003 -248.927 -254.539 -259.667 -264.192 -267.972 -270.759 -272.145 -271.235 -265.557 -276.782
 -98.367  -98.920  -97.185  -94.115  -90.206  -85.735  -80.883  -75.902  -71.182  -67.130  -63.938  -61.547  -59.775  -58.469  -57.471  -56.584  -55.619  -54.513  -53.388  -52.572  -52.471  -53.363  -55.204  -57.645  -60.275  -62.877  -65.529  -68.487  -71.984  -76.045  -80.404  -84.587  -88.120  -90.723  -92.403  -93.395  -94.028  -94.614  -95.384  -96.470  -97.873  -99.453 -100.996 -102.300 -103.257 -103.865 -104.210 -104.429 -104.674 -105.072 -105.733 -106.762 -108.257 -110.281 -112.794 -115.637 -118.591 -121.462 -124.153 -126.680 -129.154 -131.729 -134.561 -137.774 -141.461 -145.681 -150.432 -155.632 -161.128 -166.722 -172.220 -177.473 -182.383 -186.904 -191.022 -194.739 -198.067 -201.041 -203.721 -206.200 -208.607 -211.096 -213.828 -216.937 -220.520 -224.599 -229.134 -234.003 -239.051 -244.108 -249.035 -253.756 -258.165 -262.209 -265.660 -268.258 -269.510 -268.546 -263.174 -269.473
 -87.790  -87.871  -86.044  -83.089  -79.487  -75.553  -71.497  -67.535  -63.941  -60.956  -58.657  -56.961  -55.726  -54.832  -54.162  -53.572  -52.933  -52.197  -51.500  -51.144  -51.530  -52.941  -55.385  -58.580  -62.165  -65.926  -69.887  -74.214  -79.050  -84.338  -89.772  -94.889  -99.257 -102.638 -105.026 -106.601 -107.630 -108.385 -109.088 -109.888 -110.824 -111.832 -112.786 -113.567 -114.103 -114.383 -114.452 -114.403 -114.361 -114.458 -114.822 -115.569 -116.790 -118.510 -120.658 -123.080 -125.587 -128.028 -130.339 -132.561 -134.812 -137.242 -139.994 -143.175 -146.864 -151.093 -155.831 -160.961 -166.304 -171.659 -176.842 -181.722 -186.224 -190.312 -193.985 -197.245 -200.118 -202.645 -204.885 -206.932 -208.906 -210.945 -213.196 -215.785 -218.799 -222.268 -226.161 -230.396 -234.846 -239.394 -243.939 -248.395 -252.681 -256.661 -260.164 -262.889 -264.425 -263.951 -259.665 -260.848
 -75.817  -75.408  -73.467  -70.591  -67.250  -63.787  -60.420  -57.318  -54.648  -52.527  -50.959  -49.872  -49.156  -48.724  -48.491  -48.380  -48.319  -48.303  -48.462  -49.066  -50.463  -52.916  -56.442  -60.830  -65.764  -71.003  -76.481  -82.253  -88.352  -94.667 -100.903 -106.663 -111.603 -115.530 -118.436 -120.445 -121.769 -122.638 -123.270 -123.828 -124.387 -124.934 -125.399 -125.704 -125.793 -125.646 -125.285 -124.783 -124.249 -123.819 -123.632 -123.816 -124.464 -125.591 -127.129 -128.943 -130.884 -132.835 -134.759 -136.699 -138.759 -141.056 -143.691 -146.734 -150.227 -154.172 -158.513 -163.130 -167.857 -172.518 -176.967 -181.108 -184.891 -188.305 -191.355 -194.056 -196.433 -198.525 -200.387 -202.095 -203.748 -205.467 -207.379 -209.596 -212.206 -215.248 -218.718 -222.566 -226.711 -231.056 -235.509 -239.964 -244.308 -248.384 -252.004 -254.853 -256.560 -256.406 -253.029 -250.738
 -64.631  -63.849  -61.865  -59.108  -56.034  -52.990  -50.187  -47.748  -45.762  -44.276  -43.283  -42.715  -42.499  -42.582  -42.923  -43.502  -44.308  -45.369  -46.806  -48.824  -51.697  -55.624  -60.610  -66.450  -72.825  -79.439  -86.140  -92.893  -99.684 -106.413 -112.859 -118.738 -123.797 -127.891 -130.997 -133.199 -134.649 -135.541 -136.072 -136.409 -136.651 -136.819 -136.873 -136.757 -136.418 -135.832 -135.015 -134.033 -132.990 -132.015 -131.246 -130.813 -130.806 -131.251 -132.100 -133.252 -134.597 -136.057 -137.603 -139.270 -141.126 -143.239 -145.660 -148.409 -151.489 -154.878 -158.513 -162.290 -166.080 -169.757 -173.226 -176.434 -179.364 -182.020 -184.412 -186.556 -188.470 -190.183 -191.737 -193.191 -194.620 -196.123 -197.804 -199.761 -202.068 -204.769 -207.870 -211.343 -215.142 -219.198 -223.440 -227.779 -232.103 -236.255 -240.012 -243.055 -244.973 -245.160 -242.570 -238.514
 -56.321  -55.388  -53.526  -51.037  -48.337  -45.744  -43.446  -41.530  -40.058  -39.056  -38.522  -38.418  -38.709  -39.358  -40.378  -41.794  -43.636  -45.931  -48.748  -52.227  -56.548  -61.840  -68.085  -75.053  -82.390  -89.761  -96.968 -103.948 -110.698 -117.177 -123.264 -128.781 -133.557 -137.478 -140.509 -142.692 -144.128 -144.966 -145.379 -145.523 -145.504 -145.363 -145.083 -144.616 -143.918 -142.966 -141.782 -140.431 -139.011 -137.643 -136.448 -135.545 -135.016 -134.893 -135.150 -135.723 -136.543 -137.557 -138.745 -140.121 -141.716 -143.552 -145.629 -147.933 -150.436 -153.102 -155.873 -158.672 -161.412 -164.024 -166.464 -168.720 -170.799 -172.714 -174.477 -176.099 -177.593 -178.980 -180.291 -181.565 -182.859 -184.244 -185.802 -187.607 -189.719 -192.173 -194.979 -198.120 -201.569 -205.284 -209.217 -213.300 -217.443 -221.504 -225.270 -228.438 -230.588 -231.156 -229.298 -224.845
 -52.393  -51.576  -50.071  -48.083  -45.957  -43.950  -42.196  -40.770  -39.710  -39.068  -38.868  -39.133  -39.830  -40.969  -42.572  -44.694  -47.365  -50.570  -54.307  -58.649  -63.721  -69.635  -76.359  -83.663  -91.177  -98.555 -105.576 -112.175 -118.373 -124.191 -129.589 -134.476 -138.743 -142.299 -145.097 -147.143 -148.494 -149.258 -149.575 -149.583 -149.385 -149.029 -148.513 -147.804 -146.866 -145.687 -144.295 -142.759 -141.170 -139.634 -138.252 -137.117 -136.299 -135.826 -135.689 -135.851 -136.271 -136.919 -137.778 -138.848 -140.126 -141.603 -143.249 -145.027 -146.897 -148.817 -150.740 -152.614 -154.393 -156.051 -157.588 -159.020 -160.372 -161.662 -162.897 -164.084 -165.232 -166.359 -167.484 -168.639 -169.861 -171.196 -172.703 -174.436 -176.439 -178.736 -181.332 -184.215 -187.364 -190.753 -194.346 -198.096 -201.930 -205.731 -209.318 -212.420 -214.657 -215.508 -214.246 -210.165
 -53.315  -52.865  -51.919  -50.651  -49.302  -48.023  -46.883  -45.899  -45.119  -44.614  -44.476  -44.783  -45.541  -46.783  -48.534  -50.845  -53.716  -57.091  -60.906  -65.198  -70.085  -75.696  -82.034  -88.891  -95.912 -102.739 -109.139 -115.035 -120.461 -125.471 -130.083 -134.268 -137.960 -141.093 -143.614 -145.503 -146.780 -147.516 -147.816 -147.797 -147.550 -147.122 -146.522 -145.731 -144.725 -143.503 -142.103 -140.593 -139.058 -137.580 -136.240 -135.105 -134.223 -133.619 -133.289 -133.214 -133.373 -133.749 -134.331 -135.108 -136.061 -137.161 -138.368 -139.639 -140.933 -142.212 -143.438 -144.580 -145.618 -146.558 -147.424 -148.254 -149.077 -149.910 -150.758 -151.621 -152.506 -153.429 -154.409 -155.468 -156.630 -157.927 -159.399 -161.084 -163.013 -165.202 -167.649 -170.336 -173.243 -176.345 -179.616 -183.020 -186.501 -189.967 -193.270 -196.180 -198.364 -199.360 -198.527 -195.053
 -58.124  -58.208  -57.867  -57.341  -56.776  -56.207  -55.609  -54.926  -54.169  -53.447  -52.929  -52.771  -53.053  -53.818  -55.106  -56.948  -59.312  -62.114  -65.259  -68.759  -72.747  -77.384  -82.721  -88.601  -94.693 -100.645 -106.207 -111.285 -115.902 -120.123 -123.998 -127.533 -130.702 -133.459 -135.756 -137.556 -138.852 -139.681 -140.115 -140.242 -140.135 -139.837 -139.359 -138.693 -137.828 -136.775 -135.575 -134.294 -133.000 -131.759 -130.627 -129.650 -128.861 -128.279 -127.905 -127.730 -127.746 -127.948 -128.329 -128.873 -129.553 -130.336 -131.179 -132.046 -132.902 -133.716 -134.460 -135.113 -135.672 -136.155 -136.601 -137.051 -137.537 -138.071 -138.656 -139.290 -139.977 -140.735 -141.582 -142.539 -143.626 -144.865 -146.284 -147.915 -149.781 -151.891 -154.233 -156.780 -159.503 -162.374 -165.371 -168.469 -171.629 -174.784 -177.814 -180.527 -182.635 -183.728 -183.233 -180.361
 -64.542  -65.144  -65.233  -65.197  -65.134  -65.007  -64.689  -64.042  -63.032  -61.774  -60.506  -59.471  -58.833  -58.673  -59.032  -59.925  -61.314  -63.090  -65.146  -67.481  -70.223  -73.556  -77.581  -82.197  -87.127  -92.039  -96.679 -100.936 -104.809 -108.353 -111.623 -114.645 -117.421 -119.932 -122.139 -123.997 -125.481 -126.593 -127.374 -127.876 -128.147 -128.217 -128.095 -127.774 -127.256 -126.560 -125.725 -124.810 -123.869 -122.948 -122.089 -121.327 -120.692 -120.203 -119.865 -119.680 -119.649 -119.774 -120.051 -120.463 -120.979 -121.560 -122.171 -122.781 -123.368 -123.907 -124.376 -124.759 -125.059 -125.297 -125.516 -125.753 -126.037 -126.382 -126.787 -127.253 -127.785 -128.399 -129.116 -129.959 -130.948 -132.106 -133.462 -135.043 -136.870 -138.942 -141.235 -143.704 -146.305 -149.006 -151.788 -154.643 -157.553 -160.472 -163.308 -165.900 -167.987 -169.200 -169.015 -166.692
 -69.831  -70.736  -70.897  -70.902  -70.877  -70.770  -70.389  -69.518  -68.068  -66.139  -64.001  -61.975  -60.293  -59.070  -58.353  -58.148  -58.410  -59.037  -59.922  -61.050  -62.527  -64.541  -67.209  -70.494  -74.195  -78.027  -81.758  -85.268  -88.532  -91.577  -94.442  -97.153  -99.735 -102.189 -104.495 -106.609 -108.486 -110.101 -111.452 -112.554 -113.420 -114.057 -114.464 -114.637 -114.585 -114.332 -113.917 -113.386 -112.782 -112.145 -111.513 -110.928 -110.426 -110.031 -109.761 -109.620 -109.618 -109.763 -110.048 -110.453 -110.937 -111.459 -111.981 -112.482 -112.949 -113.364 -113.711 -113.975 -114.161 -114.289 -114.396 -114.518 -114.679 -114.894 -115.167 -115.499 -115.898 -116.378 -116.960 -117.677 -118.556 -119.632 -120.941 -122.513 -124.362 -126.474 -128.799 -131.266 -133.812 -136.397 -139.015 -141.681 -144.403 -147.163 -149.892 -152.445 -154.582 -155.952 -156.069 -154.236
 -71.809  -72.657  -72.476  -72.030  -71.552  -71.038  -70.276  -69.004  -67.064  -64.527  -61.668  -58.845  -56.327  -54.246  -52.642  -51.507  -50.805  -50.459  -50.372  -50.520  -50.981  -51.918  -53.440  -55.552  -58.133  -60.985  -63.935  -66.871  -69.749  -72.545  -75.267  -77.930  -80.557  -83.169  -85.758  -88.288  -90.701  -92.941  -94.970  -96.757  -98.276  -99.510 -100.450 -101.095 -101.461 -101.579 -101.487 -101.224 -100.829 -100.347  -99.828  -99.327  -98.895  -98.570  -98.376  -98.321  -98.416  -98.668  -99.066  -99.578 -100.149 -100.726 -101.271 -101.765 -102.202 -102.575 -102.877 -103.099 -103.243 -103.326 -103.381 -103.437 -103.518 -103.640 -103.808 -104.026 -104.302 -104.649 -105.090 -105.670 -106.435 -107.443 -108.745 -110.377 -112.343 -114.601 -117.061 -119.615 -122.171 -124.689 -127.181 -129.690 -132.262 -134.911 -137.586 -140.154 -142.381 -143.923 -144.321 -142.925
 -69.348  -69.755  -68.877  -67.572  -66.230  -64.959  -63.592  -61.837  -59.493  -56.581  -53.363  -50.182  -47.309  -44.855  -42.829  -41.206  -39.961  -39.040  -38.387  -37.972  -37.850  -38.127  -38.896  -40.183  -41.945  -44.091  -46.526  -49.168  -51.953  -54.801  -57.673  -60.546  -63.437  -66.354  -69.298  -72.243  -75.132  -77.893  -80.456  -82.755  -84.736  -86.366  -87.634  -88.551  -89.142  -89.442  -89.491  -89.322  -88.976  -88.509  -87.992  -87.501  -87.101  -86.838  -86.737  -86.808  -87.053  -87.472  -88.042  -88.712  -89.416  -90.086  -90.684  -91.190  -91.608  -91.944  -92.203  -92.388  -92.503  -92.562  -92.589  -92.608  -92.640  -92.699  -92.793  -92.919  -93.084  -93.297  -93.590  -94.022  -94.670  -95.624  -96.963  -98.729 -100.908 -103.418 -106.115 -108.839 -111.470 -113.967 -116.362 -118.736 -121.173 -123.726 -126.365 -128.963 -131.282 -132.985 -133.631 -132.616
 -62.462  -62.173  -60.418  -58.051  -55.633  -53.432  -51.370  -49.177  -46.632  -43.713  -40.641  -37.687  -35.070  -32.833  -30.956  -29.396  -28.123  -27.125  -26.361  -25.832  -25.558  -25.605  -26.040  -26.896  -28.212  -29.992  -32.230  -34.875  -37.839  -40.994  -44.227  -47.478  -50.723  -53.953  -57.167  -60.347  -63.455  -66.424  -69.176  -71.630  -73.726  -75.433  -76.751  -77.698  -78.310  -78.621  -78.667  -78.476  -78.095  -77.590  -77.057  -76.584  -76.243  -76.081  -76.111  -76.334  -76.743  -77.317  -78.022  -78.792  -79.557  -80.249  -80.826  -81.277  -81.607  -81.838  -81.996  -82.099  -82.156  -82.179  -82.185  -82.189  -82.206  -82.245  -82.300  -82.369  -82.445  -82.533  -82.674  -82.949  -83.478  -84.388  -85.788  -87.734  -90.190  -93.024  -96.027  -98.984 -101.748 -104.266 -106.591 -108.842 -111.147 -113.595 -116.185 -118.798 -121.194 -123.033 -123.888 -123.199
 -52.308  -51.315  -48.816  -45.563  -42.243  -39.256  -36.650  -34.215  -31.756  -29.219  -26.751  -24.503  -22.591  -20.985  -19.649  -18.526  -17.593  -16.856  -16.307  -15.940  -15.777  -15.851  -16.214  -16.919  -18.044  -19.692  -21.918  -24.713  -27.972  -31.515  -35.158  -38.793  -42.344  -45.779  -49.087  -52.266  -55.305  -58.159  -60.768  -63.060  -64.990  -66.543  -67.734  -68.593  -69.151  -69.437  -69.473  -69.288  -68.928  -68.470  -68.018  -67.664  -67.476  -67.480  -67.675  -68.040  -68.551  -69.176  -69.869  -70.569  -71.217  -71.761  -72.169  -72.433  -72.566  -72.601  -72.577  -72.532  -72.486  -72.450  -72.430  -72.434  -72.468  -72.526  -72.591  -72.645  -72.665  -72.652  -72.653  -72.780  -73.190  -74.064  -75.541  -77.685  -80.442  -83.626  -86.962  -90.181  -93.098  -95.654  -97.915 -100.036 -102.185 -104.495 -106.998 -109.594 -112.039 -113.985 -115.016 -114.603
 -41.068  -39.645  -36.878  -33.333  -29.711  -26.456  -23.679  -21.287  -19.132  -17.172  -15.444  -13.983  -12.796  -11.838  -11.054  -10.396   -9.863   -9.465   -9.188   -9.041   -9.037   -9.195   -9.556  -10.182  -11.201  -12.748  -14.952  -17.837  -21.294  -25.108  -29.049  -32.936  -36.652  -40.135  -43.375  -46.380  -49.169  -51.724  -54.017  -56.007  -57.678  -59.033  -60.105  -60.921  -61.507  -61.879  -62.042  -62.020  -61.852  -61.618  -61.415  -61.324  -61.382  -61.598  -61.945  -62.378  -62.864  -63.368  -63.847  -64.264  -64.587  -64.798  -64.880  -64.838  -64.686  -64.462  -64.210  -63.979  -63.797  -63.680  -63.627  -63.637  -63.707  -63.812  -63.920  -63.992  -63.995  -63.920  -63.823  -63.842  -64.178  -65.051  -66.636  -69.008  -72.075  -75.602  -79.251  -82.697  -85.727  -88.273  -90.421  -92.356  -94.290  -96.401  -98.760 -101.288 -103.742 -105.766 -106.939 -106.757
 -31.384  -29.923  -27.404  -24.192  -20.868  -17.821  -15.194  -13.004  -11.189   -9.723   -8.560   -7.657   -6.933   -6.351   -5.863   -5.491   -5.208   -5.014   -4.917   -4.902   -4.985   -5.172   -5.487   -6.021   -6.876   -8.246  -10.276  -13.036  -16.442  -20.281  -24.283  -28.214  -31.915  -35.296  -38.352  -41.100  -43.583  -45.810  -47.781  -49.495  -50.967  -52.225  -53.301  -54.217  -54.991  -55.624  -56.105  -56.441  -56.659  -56.827  -57.020  -57.284  -57.631  -58.042  -58.465  -58.854  -59.171  -59.388  -59.481  -59.449  -59.303  -59.058  -58.734  -58.338  -57.891  -57.419  -56.963  -56.566  -56.261  -56.065  -55.985  -56.006  -56.105  -56.255  -56.409  -56.518  -56.536  -56.455  -56.339  -56.350  -56.720  -57.699  -59.491  -62.154  -65.553  -69.385  -73.255  -76.807  -79.815  -82.223  -84.142  -85.789  -87.422  -89.259  -91.407  -93.806  -96.220  -98.282  -99.561  -99.567
 -25.110  -23.833  -21.723  -18.991  -16.052  -13.242  -10.775   -8.755   -7.214   -6.111   -5.343   -4.774   -4.285   -3.825   -3.422   -3.110   -2.904   -2.779   -2.738   -2.762   -2.851   -3.007   -3.241   -3.632   -4.291   -5.365   -7.057   -9.441  -12.500  -16.042  -19.816  -23.545  -27.049  -30.215  -33.027  -35.508  -37.713  -39.676  -41.417  -42.962  -44.356  -45.637  -46.840  -47.986  -49.077  -50.102  -51.034  -51.856  -52.584  -53.247  -53.886  -54.516  -55.119  -55.657  -56.071  -56.316  -56.366  -56.200  -55.831  -55.296  -54.652  -53.957  -53.249  -52.552  -51.884  -51.248  -50.677  -50.195  -49.828  -49.596  -49.505  -49.534  -49.653  -49.833  -50.025  -50.186  -50.259  -50.245  -50.224  -50.370  -50.945  -52.217  -54.369  -57.408  -61.129  -65.162  -69.078  -72.522  -75.294  -77.377  -78.916  -80.173  -81.433  -82.943  -84.834  -87.057  -89.382  -91.434  -92.776  -92.932
 -22.181  -21.086  -19.208  -16.674  -13.832  -11.032   -8.565   -6.628   -5.297   -4.498   -4.043   -3.714   -3.360   -2.940   -2.533   -2.202   -1.971   -1.832   -1.784   -1.797   -1.863   -1.961   -2.117   -2.375   -2.805   -3.560   -4.793   -6.627   -9.079  -12.057  -15.322  -18.616  -21.748  -24.606  -27.145  -29.381  -31.377  -33.165  -34.775  -36.255  -37.657  -39.028  -40.407  -41.810  -43.232  -44.659  -46.047  -47.363  -48.588  -49.716  -50.755  -51.686  -52.476  -53.075  -53.429  -53.503  -53.270  -52.741  -51.960  -51.004  -49.967  -48.940  -47.982  -47.121  -46.363  -45.700  -45.132  -44.673  -44.330  -44.127  -44.063  -44.120  -44.268  -44.483  -44.726  -44.954  -45.134  -45.274  -45.471  -45.913  -46.875  -48.610  -51.246  -54.693  -58.646  -62.684  -66.391  -69.468  -71.774  -73.359  -74.416  -75.230  -76.107  -77.297  -78.932  -80.964  -83.164  -85.159  -86.517  -86.782
 -20.825  -19.849  -18.038  -15.517  -12.613   -9.712   -7.192   -5.326   -4.166   -3.603   -3.389   -3.244   -2.996   -2.634   -2.238   -1.891   -1.626   -1.463   -1.399   -1.389   -1.426   -1.479   -1.584   -1.727   -1.992   -2.456   -3.245   -4.484   -6.243   -8.469  -11.023  -13.701  -16.333  -18.779  -21.009  -23.027  -24.856  -26.525  -28.070  -29.535  -30.962  -32.409  -33.917  -35.497  -37.145  -38.846  -40.554  -42.223  -43.802  -45.259  -46.571  -47.704  -48.614  -49.248  -49.555  -49.508  -49.087  -48.328  -47.306  -46.125  -44.910  -43.771  -42.765  -41.920  -41.231  -40.678  -40.234  -39.898  -39.673  -39.573  -39.598  -39.733  -39.949  -40.235  -40.559  -40.888  -41.220  -41.576  -42.073  -42.924  -44.388  -46.662  -49.789  -53.544  -57.542  -61.340  -64.589  -67.078  -68.763  -69.766  -70.322  -70.726  -71.280  -72.216  -73.645  -75.505  -77.565  -79.466  -80.792  -81.126
 -19.028  -18.156  -16.467  -14.081  -11.298   -8.506   -6.089   -4.354   -3.332   -2.923   -2.832   -2.791   -2.631   -2.357   -2.027   -1.718   -1.471   -1.304   -1.217   -1.202   -1.218   -1.255   -1.323   -1.407   -1.544   -1.798   -2.253   -2.989   -4.107   -5.593   -7.399   -9.375  -11.394  -13.370  -15.241  -17.005  -18.660  -20.217  -21.701  -23.148  -24.583  -26.049  -27.579  -29.185  -30.872  -32.628  -34.422  -36.195  -37.898  -39.477  -40.901  -42.118  -43.089  -43.761  -44.087  -44.038  -43.606  -42.839  -41.830  -40.701  -39.585  -38.582  -37.747  -37.094  -36.611  -36.274  -36.044  -35.916  -35.882  -35.959  -36.140  -36.411  -36.756  -37.154  -37.591  -38.053  -38.546  -39.134  -39.956  -41.228  -43.179  -45.930  -49.398  -53.259  -57.068  -60.420  -63.049  -64.855  -65.891  -66.348  -66.482  -66.582  -66.919  -67.691  -68.973  -70.686  -72.600  -74.378  -75.634  -75.994
 -15.794  -15.056  -13.688  -11.729   -9.423   -7.081   -5.045   -3.550   -2.672   -2.317   -2.251   -2.238   -2.150   -1.964   -1.733   -1.508   -1.318   -1.187   -1.115   -1.108   -1.125   -1.155   -1.197   -1.235   -1.299   -1.426   -1.659   -2.066   -2.697   -3.597   -4.737   -6.059   -7.476   -8.934  -10.404  -11.853  -13.289  -14.697  -16.088  -17.483  -18.900  -20.334  -21.801  -23.291  -24.824  -26.402  -28.015  -29.627  -31.194  -32.677  -34.032  -35.228  -36.209  -36.938  -37.368  -37.458  -37.217  -36.691  -35.963  -35.158  -34.386  -33.726  -33.227  -32.885  -32.691  -32.613  -32.638  -32.754  -32.963  -33.270  -33.659  -34.115  -34.619  -35.158  -35.717  -36.291  -36.925  -37.706  -38.800  -40.406  -42.710  -45.744  -49.326  -53.060  -56.500  -59.298  -61.281  -62.452  -62.945  -62.985  -62.839  -62.773  -63.013  -63.700  -64.878  -66.457  -68.220  -69.855  -71.020  -71.374
 -11.489  -10.920  -10.005   -8.685   -7.098   -5.446   -3.952   -2.818   -2.113   -1.793   -1.711   -1.685   -1.641   -1.538   -1.416   -1.283   -1.161   -1.081   -1.054   -1.072   -1.097   -1.122   -1.149   -1.157   -1.187   -1.237   -1.338   -1.541   -1.874   -2.362   -3.028   -3.836   -4.735   -5.722   -6.770   -7.877   -9.021  -10.226  -11.491  -12.815  -14.189  -15.570  -16.915  -18.202  -19.451  -20.685  -21.926  -23.167  -24.401  -25.602  -26.756  -27.827  -28.785  -29.588  -30.186  -30.545  -30.658  -30.560  -30.320  -30.023  -29.741  -29.540  -29.443  -29.444  -29.543  -29.726  -29.995  -30.350  -30.803  -31.338  -31.938  -32.575  -33.229  -33.885  -34.523  -35.168  -35.878  -36.777  -38.028  -39.816  -42.277  -45.363  -48.838  -52.277  -55.269  -57.530  -58.966  -59.651  -59.768  -59.565  -59.295  -59.192  -59.422  -60.086  -61.191  -62.651  -64.269  -65.767  -66.844  -67.188
  -7.268   -6.893   -6.405   -5.689   -4.791   -3.816   -2.885   -2.131   -1.639   -1.378   -1.294   -1.264   -1.253   -1.212   -1.151   -1.091   -1.040   -1.016   -1.038   -1.082   -1.128   -1.153   -1.164   -1.144   -1.124   -1.134   -1.169   -1.259   -1.417   -1.671   -2.035   -2.476   -3.005   -3.610   -4.290   -5.041   -5.893   -6.853   -7.959   -9.183  -10.489  -11.779  -12.967  -14.026  -14.943  -15.779  -16.573  -17.363  -18.178  -19.018  -19.895  -20.795  -21.707  -22.585  -23.385  -24.071  -24.627  -25.046  -25.365  -25.628  -25.872  -26.141  -26.437  -26.760  -27.126  -27.537  -28.006  -28.555  -29.190  -29.892  -30.632  -31.379  -32.107  -32.800  -33.448  -34.090  -34.796  -35.708  -36.990  -38.803  -41.229  -44.181  -47.407  -50.493  -53.071  -54.913  -55.967  -56.349  -56.272  -55.977  -55.706  -55.648  -55.930  -56.613  -57.686  -59.064  -60.575  -61.976  -62.990  -63.339
  -4.150   -3.917   -3.708   -3.391   -2.970   -2.474   -1.979   -1.548   -1.242   -1.078   -1.030   -1.019   -1.038   -1.033   -1.011   -0.995   -0.981   -1.013   -1.080   -1.166   -1.229   -1.243   -1.215   -1.168   -1.106   -1.068   -1.064   -1.097   -1.168   -1.301   -1.477   -1.708   -1.991   -2.324   -2.721   -3.196   -3.758   -4.482   -5.380   -6.444   -7.613   -8.744   -9.744  -10.550  -11.164  -11.649  -12.056  -12.444  -12.869  -13.368  -13.977  -14.705  -15.559  -16.495  -17.488  -18.493  -19.470  -20.382  -21.219  -21.992  -22.724  -23.425  -24.087  -24.717  -25.322  -25.924  -26.543  -27.213  -27.933  -28.689  -29.446  -30.178  -30.854  -31.474  -32.043  -32.595  -33.228  -34.078  -35.287  -36.999  -39.262  -41.991  -44.922  -47.696  -49.969  -51.547  -52.399  -52.656  -52.526  -52.249  -52.046  -52.071  -52.436  -53.172  -54.255  -55.612  -57.084  -58.450  -59.453  -59.831
  -2.346   -2.188   -2.122   -1.990   -1.805   -1.584   -1.353   -1.139   -0.978   -0.908   -0.889   -0.902   -0.935   -0.956   -0.958   -0.959   -0.989   -1.078   -1.193   -1.292   -1.351   -1.336   -1.267   -1.171   -1.080   -1.027   -0.996   -1.000   -1.028   -1.082   -1.169   -1.284   -1.432   -1.596   -1.805   -2.071   -2.429   -2.919   -3.584   -4.412   -5.341   -6.240   -6.995   -7.567   -7.941   -8.171   -8.308   -8.434   -8.590   -8.844   -9.237   -9.816  -10.591  -11.551  -12.672  -13.908  -15.191  -16.465  -17.696  -18.890  -20.044  -21.143  -22.162  -23.088  -23.924  -24.695  -25.424  -26.142  -26.851  -27.543  -28.183  -28.757  -29.268  -29.723  -30.135  -30.555  -31.076  -31.821  -32.924  -34.490  -36.559  -39.051  -41.725  -44.261  -46.361  -47.829  -48.642  -48.917  -48.850  -48.664  -48.562  -48.689  -49.142  -49.946  -51.078  -52.465  -53.959  -55.346  -56.372  -56.784
  -1.495   -1.367   -1.326   -1.281   -1.195   -1.089   -0.991   -0.891   -0.835   -0.802   -0.803   -0.843   -0.895   -0.924   -0.945   -0.965   -1.031   -1.161   -1.329   -1.458   -1.490   -1.413   -1.287   -1.151   -1.032   -0.969   -0.932   -0.921   -0.928   -0.956   -0.997   -1.056   -1.121   -1.204   -1.311   -1.451   -1.651   -1.956   -2.383   -2.948   -3.588   -4.205   -4.714   -5.073   -5.277   -5.362   -5.378   -5.370   -5.386   -5.504   -5.751   -6.193   -6.863   -7.764   -8.888  -10.188  -11.584  -13.045  -14.519  -16.009  -17.504  -18.962  -20.335  -21.564  -22.646  -23.588  -24.409  -25.131  -25.771  -26.312  -26.756  -27.107  -27.393  -27.644  -27.884  -28.178  -28.604  -29.277  -30.298  -31.753  -33.664  -35.958  -38.435  -40.814  -42.827  -44.291  -45.173  -45.574  -45.655  -45.623  -45.655  -45.894  -46.434  -47.307  -48.496  -49.933  -51.468  -52.887  -53.932  -54.363
  -1.144   -1.024   -0.991   -0.958   -0.907   -0.863   -0.812   -0.769   -0.752   -0.737   -0.759   -0.793   -0.840   -0.881   -0.907   -0.945   -1.046   -1.230   -1.434   -1.570   -1.565   -1.432   -1.248   -1.075   -0.960   -0.898   -0.862   -0.850   -0.865   -0.868   -0.895   -0.931   -0.964   -1.009   -1.055   -1.135   -1.238   -1.402   -1.647   -1.971   -2.334   -2.702   -2.987   -3.184   -3.290   -3.323   -3.300   -3.261   -3.247   -3.306   -3.461   -3.774   -4.296   -5.041   -6.021   -7.196   -8.516   -9.937  -11.469  -13.104  -14.831  -16.589  -18.282  -19.822  -21.166  -22.293  -23.211  -23.949  -24.518  -24.916  -25.169  -25.316  -25.410  -25.499  -25.631  -25.858  -26.258  -26.925  -27.928  -29.328  -31.138  -33.267  -35.566  -37.809  -39.748  -41.237  -42.231  -42.806  -43.093  -43.267  -43.468  -43.841  -44.469  -45.414  -46.654  -48.117  -49.671  -51.091  -52.128  -52.532
  -0.982   -0.869   -0.853   -0.814   -0.782   -0.756   -0.731   -0.704   -0.694   -0.700   -0.710   -0.734   -0.776   -0.806   -0.837   -0.898   -1.018   -1.216   -1.439   -1.576   -1.557   -1.390   -1.168   -0.989   -0.880   -0.821   -0.799   -0.795   -0.793   -0.803   -0.822   -0.841   -0.867   -0.889   -0.927   -0.962   -1.018   -1.101   -1.226   -1.377   -1.561   -1.732   -1.878   -1.977   -2.025   -2.044   -2.031   -2.014   -1.999   -2.034   -2.133   -2.338   -2.686   -3.222   -3.941   -4.844   -5.913   -7.140   -8.545  -10.155  -11.958  -13.894  -15.829  -17.643  -19.237  -20.569  -21.627  -22.420  -22.969  -23.300  -23.451  -23.491  -23.495  -23.532  -23.652  -23.905  -24.354  -25.067  -26.098  -27.465  -29.160  -31.105  -33.190  -35.227  -37.032  -38.492  -39.563  -40.294  -40.796  -41.188  -41.586  -42.111  -42.861  -43.879  -45.164  -46.640  -48.174  -49.559  -50.560  -50.908
  -0.905   -0.797   -0.770   -0.742   -0.722   -0.697   -0.682   -0.670   -0.660   -0.654   -0.668   -0.679   -0.705   -0.722   -0.752   -0.811   -0.929   -1.117   -1.334   -1.460   -1.426   -1.259   -1.063   -0.895   -0.798   -0.749   -0.740   -0.733   -0.740   -0.755   -0.771   -0.787   -0.804   -0.821   -0.839   -0.864   -0.900   -0.939   -0.991   -1.068   -1.147   -1.218   -1.284   -1.327   -1.364   -1.370   -1.376   -1.374   -1.386   -1.406   -1.466   -1.576   -1.778   -2.097   -2.553   -3.146   -3.879   -4.788   -5.921   -7.333   -9.034  -10.951  -12.972  -14.942  -16.737  -18.265  -19.479  -20.379  -20.996  -21.361  -21.533  -21.605  -21.643  -21.737  -21.943  -22.305  -22.853  -23.635  -24.672  -25.953  -27.456  -29.140  -30.914  -32.640  -34.210  -35.533  -36.590  -37.408  -38.061  -38.636  -39.218  -39.906  -40.780  -41.891  -43.223  -44.709  -46.215  -47.553  -48.511  -48.814
  -0.863   -0.760   -0.733   -0.708   -0.688   -0.671   -0.658   -0.647   -0.637   -0.629   -0.625   -0.641   -0.649   -0.651   -0.676   -0.730   -0.818   -0.970   -1.129   -1.226   -1.213   -1.082   -0.932   -0.803   -0.731   -0.695   -0.684   -0.689   -0.702   -0.714   -0.728   -0.742   -0.756   -0.770   -0.785   -0.801   -0.817   -0.839   -0.873   -0.903   -0.941   -0.966   -1.001   -1.027   -1.047   -1.061   -1.069   -1.084   -1.087   -1.110   -1.143   -1.207   -1.307   -1.470   -1.707   -2.035   -2.470   -3.053   -3.852   -4.923   -6.328   -8.025   -9.915  -11.866  -13.716  -15.348  -16.679  -17.704  -18.438  -18.924  -19.227  -19.427  -19.610  -19.861  -20.233  -20.744  -21.423  -22.255  -23.231  -24.343  -25.576  -26.893  -28.256  -29.589  -30.822  -31.904  -32.831  -33.628  -34.332  -35.006  -35.711  -36.512  -37.487  -38.658  -40.024  -41.505  -42.980  -44.283  -45.225  -45.539
  -0.833   -0.734   -0.708   -0.684   -0.665   -0.649   -0.636   -0.626   -0.617   -0.609   -0.603   -0.600   -0.601   -0.613   -0.620   -0.653   -0.713   -0.806   -0.908   -0.976   -0.972   -0.889   -0.798   -0.706   -0.665   -0.654   -0.647   -0.657   -0.667   -0.679   -0.690   -0.702   -0.714   -0.727   -0.740   -0.753   -0.767   -0.780   -0.794   -0.814   -0.830   -0.858   -0.874   -0.891   -0.910   -0.921   -0.932   -0.946   -0.961   -0.975   -0.994   -1.021   -1.074   -1.149   -1.252   -1.408   -1.625   -1.951   -2.436   -3.144   -4.154   -5.459   -7.010   -8.701  -10.396  -11.957  -13.292  -14.375  -15.214  -15.848  -16.320  -16.703  -17.094  -17.561  -18.169  -18.888  -19.704  -20.571  -21.449  -22.326  -23.226  -24.122  -25.017  -25.900  -26.731  -27.492  -28.195  -28.857  -29.502  -30.163  -30.875  -31.701  -32.684  -33.844  -35.169  -36.596  -38.008  -39.269  -40.200  -40.570
  -0.806   -0.711   -0.687   -0.664   -0.645   -0.630   -0.618   -0.607   -0.599   -0.592   -0.586   -0.581   -0.577   -0.575   -0.584   -0.600   -0.631   -0.673   -0.733   -0.767   -0.767   -0.729   -0.682   -0.647   -0.625   -0.614   -0.621   -0.629   -0.639   -0.648   -0.658   -0.668   -0.679   -0.689   -0.701   -0.712   -0.724   -0.736   -0.748   -0.761   -0.773   -0.784   -0.797   -0.810   -0.822   -0.835   -0.847   -0.860   -0.873   -0.886   -0.899   -0.920   -0.949   -0.979   -1.031   -1.088   -1.189   -1.345   -1.593   -2.003   -2.624   -3.485   -4.577   -5.841   -7.181   -8.475   -9.656  -10.665  -11.520  -12.227  -12.836  -13.406  -14.016  -14.751  -15.618  -16.589  -17.567  -18.476  -19.250  -19.894  -20.441  -20.911  -21.347  -21.754  -22.153  -22.556  -22.965  -23.407  -23.903  -24.446  -25.064  -25.796  -26.673  -27.698  -28.869  -30.124  -31.396  -32.552  -33.431  -33.876
  -0.783   -0.691   -0.668   -0.645   -0.627   -0.613   -0.601   -0.591   -0.583   -0.576   -0.570   -0.566   -0.563   -0.560   -0.559   -0.559   -0.582   -0.599   -0.621   -0.646   -0.645   -0.627   -0.611   -0.598   -0.585   -0.591   -0.598   -0.605   -0.613   -0.621   -0.630   -0.639   -0.648   -0.658   -0.667   -0.677   -0.687   -0.698   -0.709   -0.720   -0.730   -0.741   -0.752   -0.763   -0.774   -0.785   -0.797   -0.808   -0.819   -0.830   -0.842   -0.854   -0.867   -0.884   -0.907   -0.938   -0.981   -1.047   -1.168   -1.371   -1.695   -2.182   -2.827   -3.621   -4.514   -5.430   -6.301   -7.111   -7.843   -8.518   -9.172   -9.861  -10.656  -11.624  -12.746  -13.945  -15.089  -16.034  -16.721  -17.162  -17.391  -17.491  -17.498  -17.477  -17.459  -17.496  -17.616  -17.821  -18.116  -18.490  -18.947  -19.500  -20.173  -20.965  -21.877  -22.849  -23.857  -24.806  -25.552  -26.039
  -0.763   -0.674   -0.650   -0.629   -0.612   -0.598   -0.587   -0.577   -0.569   -0.563   -0.557   -0.553   -0.549   -0.547   -0.545   -0.544   -0.546   -0.556   -0.570   -0.577   -0.578   -0.576   -0.566   -0.563   -0.566   -0.572   -0.579   -0.585   -0.591   -0.598   -0.606   -0.613   -0.621   -0.630   -0.639   -0.648   -0.657   -0.666   -0.675   -0.684   -0.694   -0.704   -0.714   -0.723   -0.733   -0.743   -0.753   -0.763   -0.773   -0.783   -0.794   -0.804   -0.816   -0.827   -0.838   -0.853   -0.878   -0.909   -0.964   -1.048   -1.197   -1.429   -1.756   -2.177   -2.668   -3.207   -3.750   -4.275   -4.816   -5.356   -5.942   -6.638   -7.502   -8.581   -9.839  -11.153  -12.356  -13.307  -13.912  -14.192  -14.198  -14.016  -13.704  -13.343  -12.989  -12.739  -12.608  -12.620  -12.746  -12.958  -13.251  -13.625  -14.075  -14.613  -15.225  -15.882  -16.577  -17.240  -17.784  -18.255
  -0.747   -0.658   -0.636   -0.616   -0.599   -0.586   -0.575   -0.566   -0.558   -0.551   -0.546   -0.542   -0.538   -0.536   -0.534   -0.533   -0.532   -0.532   -0.534   -0.535   -0.537   -0.540   -0.543   -0.547   -0.551   -0.556   -0.561   -0.566   -0.572   -0.579   -0.586   -0.592   -0.599   -0.606   -0.614   -0.622   -0.629   -0.638   -0.646   -0.655   -0.663   -0.672   -0.680   -0.689   -0.698   -0.707   -0.716   -0.725   -0.734   -0.743   -0.753   -0.762   -0.772   -0.782   -0.792   -0.803   -0.814   -0.829   -0.854   -0.897   -0.950   -1.051   -1.191   -1.384   -1.606   -1.866   -2.144   -2.447   -2.763   -3.127   -3.581   -4.175   -4.967   -5.972   -7.165   -8.386   -9.495  -10.343  -10.832  -11.000  -10.883  -10.550  -10.079   -9.534   -9.019   -8.614   -8.357   -8.252   -8.274   -8.381   -8.557   -8.794   -9.103   -9.453   -9.861  -10.300  -10.747  -11.172  -11.536  -11.936
  -0.732   -0.646   -0.625   -0.605   -0.589   -0.576   -0.565   -0.556   -0.549   -0.542   -0.537   -0.533   -0.529   -0.527   -0.525   -0.524   -0.523   -0.523   -0.523   -0.525   -0.527   -0.529   -0.532   -0.535   -0.539   -0.543   -0.547   -0.552   -0.557   -0.562   -0.568   -0.574   -0.580   -0.587   -0.594   -0.600   -0.607   -0.615   -0.622   -0.629   -0.637   -0.644   -0.652   -0.661   -0.669   -0.677   -0.685   -0.693   -0.701   -0.709   -0.718   -0.726   -0.735   -0.744   -0.754   -0.763   -0.773   -0.784   -0.795   -0.812   -0.843   -0.884   -0.935   -1.003   -1.099   -1.206   -1.326   -1.469   -1.630   -1.845   -2.139   -2.565   -3.175   -3.957   -4.883   -5.839   -6.696   -7.337   -7.695   -7.771   -7.622   -7.292   -6.812   -6.281   -5.790   -5.390   -5.135   -5.006   -4.978   -5.039   -5.152   -5.336   -5.566   -5.872   -6.223   -6.594   -6.968   -7.312   -7.586   -7.931
  -0.721   -0.636   -0.616   -0.596   -0.581   -0.568   -0.557   -0.549   -0.541   -0.535   -0.530   -0.526   -0.523   -0.520   -0.518   -0.517   -0.516   -0.516   -0.516   -0.517   -0.518   -0.520   -0.522   -0.525   -0.528   -0.532   -0.536   -0.540   -0.544   -0.549   -0.554   -0.559   -0.564   -0.570   -0.576   -0.582   -0.589   -0.596   -0.602   -0.609   -0.615   -0.622   -0.629   -0.636   -0.643   -0.650   -0.658   -0.666   -0.673   -0.681   -0.689   -0.696   -0.704   -0.712   -0.721   -0.730   -0.739   -0.748   -0.758   -0.767   -0.778   -0.795   -0.825   -0.850   -0.885   -0.927   -0.971   -1.034   -1.110   -1.224   -1.384   -1.642   -2.023   -2.538   -3.121   -3.734   -4.282   -4.683   -4.894   -4.931   -4.813   -4.562   -4.218   -3.834   -3.474   -3.189   -3.003   -2.900   -2.881   -2.918   -3.015   -3.178   -3.419   -3.758   -4.159   -4.604   -5.044   -5.432   -5.725   -6.039
  -0.714   -0.630   -0.610   -0.590   -0.575   -0.563   -0.552   -0.544   -0.537   -0.531   -0.526   -0.522   -0.518   -0.515   -0.513   -0.512   -0.511   -0.511   -0.511   -0.511   -0.512   -0.514   -0.515   -0.518   -0.521   -0.524   -0.527   -0.531   -0.535   -0.539   -0.543   -0.548   -0.553   -0.558   -0.563   -0.568   -0.574   -0.580   -0.585   -0.592   -0.598   -0.604   -0.611   -0.617   -0.624   -0.630   -0.637   -0.643   -0.650   -0.657   -0.664   -0.672   -0.679   -0.686   -0.694   -0.702   -0.710   -0.718   -0.727   -0.736   -0.745   -0.754   -0.764   -0.779   -0.791   -0.821   -0.835   -0.867   -0.896   -0.952   -1.039   -1.166   -1.372   -1.626   -1.936   -2.255   -2.537   -2.749   -2.855   -2.879   -2.808   -2.663   -2.473   -2.255   -2.060   -1.900   -1.810   -1.760   -1.753   -1.788   -1.873   -2.026   -2.271   -2.638   -3.106   -3.642   -4.185   -4.666   -5.032   -5.365
  -0.711   -0.627   -0.607   -0.588   -0.573   -0.561   -0.550   -0.542   -0.535   -0.529   -0.524   -0.520   -0.517   -0.514   -0.512   -0.510   -0.509   -0.508   -0.508   -0.509   -0.509   -0.510   -0.512   -0.514   -0.516   -0.519   -0.522   -0.525   -0.529   -0.532   -0.536   -0.540   -0.545   -0.549   -0.554   -0.559   -0.564   -0.569   -0.574   -0.579   -0.585   -0.590   -0.596   -0.602   -0.608   -0.614   -0.620   -0.627   -0.633   -0.639   -0.645   -0.652   -0.659   -0.665   -0.672   -0.680   -0.687   -0.695   -0.703   -0.711   -0.719   -0.727   -0.736   -0.745   -0.754   -0.763   -0.773   -0.787   -0.809   -0.837   -0.875   -0.934   -1.022   -1.128   -1.273   -1.413   -1.524   -1.624   -1.668   -1.676   -1.644   -1.591   -1.514   -1.422   -1.343   -1.282   -1.242   -1.222   -1.229   -1.265   -1.326   -1.454   -1.683   -2.042   -2.509   -3.059   -3.659   -4.232   -4.664   -5.015
  -0.714   -0.629   -0.609   -0.590   -0.575   -0.562   -0.553   -0.544   -0.537   -0.531   -0.526   -0.522   -0.519   -0.516   -0.514   -0.512   -0.511   -0.510   -0.510   -0.510   -0.510   -0.511   -0.512   -0.514   -0.516   -0.518   -0.521   -0.524   -0.527   -0.530   -0.533   -0.537   -0.541   -0.545   -0.549   -0.553   -0.558   -0.562   -0.567   -0.572   -0.577   -0.582   -0.587   -0.592   -0.598   -0.603   -0.609   -0.615   -0.621   -0.627   -0.633   -0.639   -0.645   -0.651   -0.657   -0.664   -0.670   -0.677   -0.684   -0.692   -0.700   -0.707   -0.715   -0.723   -0.731   -0.740   -0.748   -0.757   -0.765   -0.778   -0.801   -0.827   -0.864   -0.905   -0.958   -1.006   -1.054   -1.089   -1.101   -1.111   -1.115   -1.101   -1.080   -1.058   -1.037   -1.014   -1.002   -1.010   -1.017   -1.044   -1.088   -1.183   -1.362   -1.643   -2.047   -2.560   -3.145   -3.727   -4.205   -4.580
  -0.723   -0.631   -0.612   -0.593   -0.577   -0.565   -0.555   -0.547   -0.540   -0.534   -0.529   -0.525   -0.521   -0.519   -0.516   -0.514   -0.513   -0.512   -0.512   -0.512   -0.512   -0.513   -0.513   -0.515   -0.516   -0.518   -0.520   -0.523   -0.525   -0.528   -0.531   -0.535   -0.538   -0.542   -0.546   -0.549   -0.553   -0.558   -0.562   -0.566   -0.571   -0.575   -0.580   -0.585   -0.590   -0.595   -0.600   -0.605   -0.611   -0.616   -0.622   -0.627   -0.633   -0.639   -0.645   -0.651   -0.657   -0.663   -0.669   -0.676   -0.683   -0.690   -0.697   -0.704   -0.712   -0.720   -0.727   -0.735   -0.743   -0.751   -0.759   -0.771   -0.793   -0.812   -0.827   -0.853   -0.872   -0.880   -0.889   -0.898   -0.907   -0.916   -0.907   -0.906   -0.909   -0.913   -0.906   -0.909   -0.920   -0.943   -0.981   -1.044   -1.161   -1.368   -1.673   -2.120   -2.658   -3.235   -3.714   -4.109
  -0.924   -0.704   -0.677   -0.655   -0.640   -0.627   -0.617   -0.608   -0.601   -0.594   -0.589   -0.585   -0.581   -0.578   -0.575   -0.573   -0.572   -0.570   -0.570   -0.569   -0.569   -0.569   -0.570   -0.571   -0.572   -0.573   -0.575   -0.577   -0.579   -0.582   -0.585   -0.587   -0.591   -0.594   -0.597   -0.601   -0.604   -0.608   -0.612   -0.616   -0.620   -0.625   -0.629   -0.634   -0.638   -0.643   -0.648   -0.653   -0.658   -0.663   -0.669   -0.674   -0.679   -0.685   -0.691   -0.697   -0.703   -0.709   -0.715   -0.721   -0.728   -0.734   -0.741   -0.749   -0.756   -0.763   -0.771   -0.778   -0.786   -0.794   -0.802   -0.810   -0.818   -0.826   -0.839   -0.851   -0.879   -0.889   -0.898   -0.907   -0.915   -0.906   -0.907   -0.916   -0.920   -0.929   -0.938   -0.947   -0.955   -0.967   -1.003   -1.046   -1.136   -1.307   -1.572   -1.959   -2.475   -3.029   -3.520   -4.079
