DSAA
 100 100
 0.0 400.0
 0.0 400.0
 -54.72202 -0.098218814
  -5.928   -5.989   -6.080   -6.216   -6.398   -6.616   -6.848   -7.066   -7.231   -7.310   -7.260   -7.035   -6.594   -5.937   -5.127   -4.293   -3.595   -3.148   -2.975   -3.022   -3.222   -3.513   -3.873   -4.283   -4.711   -5.092   -5.345   -5.408   -5.268   -4.943   -4.467   -3.887   -3.281   -2.751   -2.392   -2.234   -2.235   -2.317   -2.405   -2.453   -2.447   -2.397   -2.327   -2.264   -2.226   -2.225   -2.259   -2.318   -2.384   -2.457   -2.538   -2.628   -2.719   -2.777   -2.747   -2.577   -2.240   -1.777   -1.274   -0.833   -0.515   -0.321   -0.216   -0.169   -0.151   -0.140   -0.137   -0.134   -0.132   -0.128   -0.127   -0.126   -0.127   -0.128   -0.129   -0.129   -0.127   -0.127   -0.128   -0.133   -0.137   -0.140   -0.143   -0.150   -0.160   -0.178   -0.205   -0.249   -0.319   -0.422   -0.574   -0.770   -1.009   -1.284   -1.605   -1.984   -2.421   -2.869   -3.239   -3.481
  -5.868   -5.922   -6.000   -6.117   -6.273   -6.464   -6.671   -6.865   -7.014   -7.083   -7.034   -6.825   -6.409   -5.785   -5.008   -4.204   -3.521   -3.071   -2.883   -2.911   -3.083   -3.350   -3.686   -4.077   -4.489   -4.863   -5.129   -5.230   -5.150   -4.897   -4.494   -3.971   -3.404   -2.887   -2.510   -2.304   -2.242   -2.266   -2.318   -2.350   -2.345   -2.305   -2.248   -2.197   -2.171   -2.178   -2.217   -2.276   -2.340   -2.408   -2.484   -2.572   -2.664   -2.732   -2.721   -2.581   -2.284   -1.858   -1.380   -0.945   -0.612   -0.396   -0.273   -0.210   -0.180   -0.166   -0.158   -0.151   -0.144   -0.138   -0.133   -0.128   -0.128   -0.127   -0.125   -0.126   -0.126   -0.127   -0.129   -0.132   -0.135   -0.142   -0.147   -0.161   -0.182   -0.218   -0.275   -0.362   -0.486   -0.662   -0.896   -1.188   -1.519   -1.877   -2.267   -2.695   -3.165   -3.630   -4.001   -4.220
  -5.702   -5.742   -5.797   -5.877   -5.984   -6.119   -6.270   -6.415   -6.523   -6.568   -6.518   -6.336   -5.982   -5.445   -4.766   -4.047   -3.415   -2.978   -2.766   -2.751   -2.871   -3.082   -3.363   -3.699   -4.059   -4.399   -4.670   -4.828   -4.853   -4.735   -4.473   -4.084   -3.618   -3.154   -2.763   -2.478   -2.298   -2.204   -2.171   -2.168   -2.168   -2.157   -2.141   -2.131   -2.144   -2.178   -2.224   -2.273   -2.315   -2.360   -2.415   -2.489   -2.573   -2.648   -2.667   -2.585   -2.371   -2.032   -1.622   -1.216   -0.872   -0.620   -0.458   -0.363   -0.314   -0.288   -0.269   -0.253   -0.232   -0.210   -0.195   -0.185   -0.178   -0.175   -0.174   -0.171   -0.170   -0.171   -0.173   -0.177   -0.185   -0.195   -0.211   -0.243   -0.295   -0.388   -0.524   -0.713   -0.962   -1.284   -1.681   -2.139   -2.624   -3.104   -3.574   -4.046   -4.524   -4.968   -5.311   -5.484
  -5.393   -5.415   -5.439   -5.470   -5.514   -5.580   -5.664   -5.749   -5.808   -5.821   -5.768   -5.619   -5.344   -4.927   -4.389   -3.799   -3.259   -2.858   -2.636   -2.577   -2.635   -2.774   -2.977   -3.230   -3.509   -3.787   -4.038   -4.237   -4.364   -4.393   -4.304   -4.094   -3.787   -3.428   -3.054   -2.696   -2.380   -2.141   -1.996   -1.942   -1.946   -1.987   -2.055   -2.144   -2.248   -2.344   -2.411   -2.435   -2.422   -2.398   -2.392   -2.417   -2.474   -2.542   -2.591   -2.576   -2.460   -2.239   -1.934   -1.595   -1.273   -1.005   -0.810   -0.684   -0.610   -0.570   -0.537   -0.503   -0.457   -0.408   -0.368   -0.343   -0.330   -0.324   -0.318   -0.310   -0.303   -0.300   -0.303   -0.316   -0.332   -0.355   -0.394   -0.462   -0.582   -0.776   -1.050   -1.406   -1.836   -2.341   -2.913   -3.522   -4.121   -4.669   -5.156   -5.606   -6.026   -6.402   -6.679   -6.784
  -4.916   -4.914   -4.901   -4.879   -4.859   -4.858   -4.877   -4.904   -4.918   -4.902   -4.844   -4.734   -4.548   -4.269   -3.897   -3.471   -3.058   -2.731   -2.526   -2.443   -2.449   -2.518   -2.633   -2.784   -2.958   -3.141   -3.335   -3.530   -3.717   -3.869   -3.959   -3.964   -3.869   -3.663   -3.340   -2.931   -2.495   -2.113   -1.853   -1.737   -1.747   -1.862   -2.056   -2.308   -2.572   -2.790   -2.907   -2.902   -2.798   -2.654   -2.531   -2.461   -2.450   -2.480   -2.530   -2.564   -2.544   -2.445   -2.269   -2.036   -1.781   -1.544   -1.348   -1.210   -1.128   -1.081   -1.042   -0.987   -0.908   -0.821   -0.750   -0.706   -0.686   -0.677   -0.665   -0.647   -0.631   -0.625   -0.633   -0.658   -0.694   -0.742   -0.814   -0.945   -1.166   -1.505   -1.957   -2.499   -3.107   -3.761   -4.442   -5.115   -5.724   -6.235   -6.649   -6.998   -7.307   -7.574   -7.762   -7.799
  -4.296   -4.266   -4.215   -4.141   -4.059   -3.996   -3.961   -3.944   -3.924   -3.886   -3.834   -3.763   -3.668   -3.531   -3.337   -3.095   -2.839   -2.620   -2.470   -2.392   -2.371   -2.384   -2.419   -2.469   -2.525   -2.594   -2.688   -2.825   -3.014   -3.251   -3.514   -3.762   -3.920   -3.902   -3.661   -3.224   -2.694   -2.195   -1.826   -1.636   -1.633   -1.814   -2.156   -2.607   -3.084   -3.476   -3.689   -3.686   -3.502   -3.228   -2.957   -2.746   -2.610   -2.551   -2.557   -2.601   -2.647   -2.655   -2.605   -2.492   -2.341   -2.176   -2.024   -1.910   -1.844   -1.809   -1.778   -1.718   -1.621   -1.508   -1.414   -1.358   -1.337   -1.329   -1.315   -1.292   -1.270   -1.262   -1.279   -1.321   -1.384   -1.469   -1.591   -1.797   -2.128   -2.608   -3.214   -3.894   -4.609   -5.329   -6.031   -6.672   -7.199   -7.582   -7.846   -8.041   -8.212   -8.365   -8.470   -8.454
  -3.628   -3.567   -3.476   -3.352   -3.219   -3.106   -3.032   -2.985   -2.947   -2.903   -2.857   -2.823   -2.813   -2.813   -2.797   -2.745   -2.661   -2.571   -2.504   -2.466   -2.443   -2.427   -2.405   -2.372   -2.322   -2.269   -2.242   -2.278   -2.414   -2.686   -3.098   -3.584   -3.999   -4.179   -4.041   -3.617   -3.040   -2.465   -2.005   -1.720   -1.653   -1.842   -2.286   -2.920   -3.611   -4.198   -4.550   -4.611   -4.418   -4.075   -3.690   -3.330   -3.032   -2.827   -2.738   -2.753   -2.827   -2.902   -2.941   -2.933   -2.885   -2.808   -2.725   -2.661   -2.635   -2.634   -2.632   -2.595   -2.512   -2.407   -2.319   -2.274   -2.265   -2.269   -2.264   -2.246   -2.226   -2.224   -2.252   -2.314   -2.408   -2.532   -2.707   -2.979   -3.390   -3.954   -4.630   -5.356   -6.086   -6.799   -7.463   -8.026   -8.422   -8.634   -8.706   -8.725   -8.756   -8.809   -8.849   -8.793
  -3.047   -2.957   -2.823   -2.651   -2.475   -2.331   -2.237   -2.180   -2.141   -2.098   -2.062   -2.061   -2.122   -2.243   -2.391   -2.519   -2.604   -2.650   -2.676   -2.690   -2.690   -2.669   -2.620   -2.533   -2.409   -2.258   -2.113   -2.024   -2.065   -2.312   -2.800   -3.449   -4.060   -4.418   -4.404   -4.061   -3.532   -2.965   -2.453   -2.055   -1.850   -1.944   -2.387   -3.113   -3.959   -4.717   -5.226   -5.410   -5.301   -4.993   -4.580   -4.124   -3.679   -3.316   -3.105   -3.063   -3.131   -3.231   -3.313   -3.358   -3.373   -3.364   -3.344   -3.331   -3.348   -3.392   -3.436   -3.448   -3.413   -3.351   -3.302   -3.291   -3.310   -3.334   -3.344   -3.340   -3.333   -3.342   -3.384   -3.466   -3.587   -3.745   -3.961   -4.271   -4.711   -5.282   -5.940   -6.625   -7.305   -7.969   -8.582   -9.065   -9.333   -9.366   -9.242   -9.084   -8.985   -8.955   -8.946   -8.865
  -2.676   -2.557   -2.378   -2.156   -1.946   -1.785   -1.689   -1.644   -1.617   -1.587   -1.565   -1.592   -1.714   -1.937   -2.219   -2.498   -2.729   -2.894   -3.006   -3.071   -3.097   -3.085   -3.028   -2.921   -2.757   -2.544   -2.307   -2.098   -2.012   -2.160   -2.609   -3.286   -3.977   -4.451   -4.583   -4.413   -4.061   -3.628   -3.146   -2.647   -2.247   -2.130   -2.434   -3.133   -4.038   -4.913   -5.559   -5.888   -5.917   -5.721   -5.365   -4.893   -4.370   -3.901   -3.604   -3.514   -3.564   -3.655   -3.725   -3.767   -3.789   -3.802   -3.812   -3.836   -3.891   -3.979   -4.075   -4.147   -4.177   -4.176   -4.181   -4.209   -4.255   -4.293   -4.310   -4.311   -4.316   -4.341   -4.400   -4.500   -4.642   -4.824   -5.059   -5.375   -5.796   -6.321   -6.904   -7.501   -8.099   -8.700   -9.261   -9.674   -9.832   -9.712   -9.417   -9.107   -8.897   -8.794   -8.744   -8.643
  -2.565   -2.415   -2.187   -1.914   -1.669   -1.501   -1.418   -1.395   -1.393   -1.387   -1.390   -1.457   -1.633   -1.936   -2.318   -2.708   -3.041   -3.291   -3.459   -3.560   -3.601   -3.594   -3.537   -3.427   -3.249   -3.003   -2.703   -2.393   -2.168   -2.155   -2.447   -3.002   -3.643   -4.163   -4.450   -4.527   -4.464   -4.279   -3.923   -3.380   -2.785   -2.403   -2.468   -3.023   -3.894   -4.809   -5.542   -5.983   -6.137   -6.063   -5.804   -5.390   -4.884   -4.413   -4.111   -4.016   -4.053   -4.115   -4.141   -4.135   -4.119   -4.110   -4.121   -4.161   -4.247   -4.374   -4.523   -4.654   -4.744   -4.798   -4.843   -4.897   -4.948   -4.974   -4.970   -4.955   -4.957   -4.994   -5.073   -5.194   -5.352   -5.544   -5.771   -6.056   -6.423   -6.869   -7.356   -7.848   -8.350   -8.878   -9.382   -9.733   -9.803   -9.570   -9.152   -8.731   -8.433   -8.264   -8.168   -8.052
  -2.683   -2.511   -2.233   -1.911   -1.633   -1.459   -1.389   -1.388   -1.413   -1.435   -1.481   -1.599   -1.838   -2.202   -2.643   -3.088   -3.474   -3.763   -3.953   -4.057   -4.095   -4.082   -4.020   -3.906   -3.724   -3.462   -3.117   -2.724   -2.370   -2.177   -2.247   -2.585   -3.079   -3.581   -4.003   -4.344   -4.607   -4.717   -4.545   -4.038   -3.323   -2.708   -2.518   -2.874   -3.635   -4.517   -5.261   -5.741   -5.957   -5.965   -5.806   -5.502   -5.108   -4.741   -4.518   -4.463   -4.496   -4.521   -4.494   -4.433   -4.365   -4.318   -4.310   -4.354   -4.460   -4.622   -4.816   -4.997   -5.133   -5.218   -5.273   -5.316   -5.338   -5.315   -5.256   -5.191   -5.168   -5.212   -5.316   -5.460   -5.626   -5.800   -5.983   -6.203   -6.484   -6.832   -7.216   -7.602   -8.005   -8.449   -8.884   -9.171   -9.178   -8.882   -8.403   -7.926   -7.568   -7.336   -7.186   -7.064
  -2.967   -2.779   -2.468   -2.109   -1.807   -1.621   -1.553   -1.559   -1.592   -1.644   -1.740   -1.927   -2.231   -2.637   -3.097   -3.547   -3.929   -4.210   -4.382   -4.459   -4.469   -4.430   -4.351   -4.227   -4.039   -3.762   -3.388   -2.937   -2.480   -2.130   -1.992   -2.104   -2.425   -2.865   -3.372   -3.918   -4.446   -4.808   -4.829   -4.418   -3.692   -2.961   -2.586   -2.747   -3.355   -4.134   -4.816   -5.265   -5.481   -5.528   -5.457   -5.296   -5.081   -4.895   -4.803   -4.805   -4.835   -4.825   -4.761   -4.664   -4.564   -4.490   -4.461   -4.499   -4.612   -4.792   -5.011   -5.219   -5.372   -5.454   -5.483   -5.476   -5.432   -5.331   -5.186   -5.051   -4.989   -5.031   -5.151   -5.306   -5.458   -5.585   -5.693   -5.813   -5.987   -6.228   -6.509   -6.800   -7.112   -7.466   -7.821   -8.046   -8.016   -7.713   -7.246   -6.774   -6.391   -6.107   -5.903   -5.778
  -3.325   -3.141   -2.825   -2.459   -2.145   -1.943   -1.854   -1.838   -1.864   -1.934   -2.086   -2.347   -2.712   -3.144   -3.587   -3.998   -4.330   -4.559   -4.675   -4.697   -4.652   -4.570   -4.460   -4.315   -4.113   -3.828   -3.438   -2.957   -2.445   -2.000   -1.725   -1.682   -1.864   -2.232   -2.748   -3.378   -4.035   -4.544   -4.710   -4.433   -3.801   -3.089   -2.640   -2.658   -3.101   -3.738   -4.316   -4.700   -4.889   -4.955   -4.965   -4.952   -4.935   -4.943   -4.984   -5.037   -5.058   -5.029   -4.957   -4.868   -4.778   -4.700   -4.661   -4.685   -4.782   -4.944   -5.140   -5.324   -5.454   -5.500   -5.471   -5.388   -5.257   -5.069   -4.841   -4.636   -4.531   -4.551   -4.660   -4.798   -4.908   -4.966   -4.980   -4.995   -5.062   -5.207   -5.407   -5.626   -5.864   -6.136   -6.405   -6.569   -6.529   -6.271   -5.880   -5.468   -5.097   -4.781   -4.538   -4.412
  -3.671   -3.506   -3.217   -2.873   -2.563   -2.343   -2.213   -2.156   -2.159   -2.243   -2.444   -2.775   -3.191   -3.634   -4.046   -4.390   -4.643   -4.789   -4.821   -4.764   -4.648   -4.508   -4.353   -4.177   -3.959   -3.670   -3.285   -2.812   -2.300   -1.842   -1.535   -1.437   -1.553   -1.851   -2.301   -2.874   -3.498   -4.022   -4.267   -4.132   -3.666   -3.080   -2.661   -2.603   -2.907   -3.402   -3.879   -4.207   -4.381   -4.466   -4.536   -4.634   -4.768   -4.922   -5.057   -5.135   -5.143   -5.107   -5.064   -5.030   -4.991   -4.942   -4.906   -4.910   -4.965   -5.062   -5.179   -5.285   -5.341   -5.319   -5.216   -5.053   -4.846   -4.597   -4.323   -4.081   -3.940   -3.922   -3.990   -4.074   -4.118   -4.099   -4.031   -3.963   -3.957   -4.042   -4.196   -4.381   -4.577   -4.780   -4.966   -5.066   -5.023   -4.830   -4.539   -4.211   -3.880   -3.564   -3.311   -3.190
  -3.916   -3.784   -3.542   -3.245   -2.952   -2.711   -2.539   -2.437   -2.419   -2.519   -2.768   -3.149   -3.601   -4.041   -4.416   -4.695   -4.868   -4.926   -4.871   -4.726   -4.532   -4.325   -4.120   -3.914   -3.683   -3.399   -3.043   -2.618   -2.167   -1.774   -1.524   -1.463   -1.577   -1.810   -2.133   -2.534   -2.988   -3.407   -3.659   -3.643   -3.365   -2.957   -2.630   -2.559   -2.778   -3.180   -3.594   -3.903   -4.082   -4.176   -4.263   -4.398   -4.590   -4.800   -4.966   -5.038   -5.026   -4.992   -4.999   -5.041   -5.076   -5.074   -5.047   -5.030   -5.033   -5.044   -5.052   -5.045   -5.003   -4.900   -4.726   -4.503   -4.260   -4.005   -3.751   -3.528   -3.384   -3.335   -3.347   -3.365   -3.337   -3.254   -3.133   -3.026   -2.988   -3.047   -3.186   -3.360   -3.529   -3.674   -3.776   -3.803   -3.735   -3.581   -3.366   -3.110   -2.830   -2.548   -2.315   -2.214
  -3.988   -3.888   -3.701   -3.455   -3.193   -2.948   -2.748   -2.624   -2.605   -2.730   -3.013   -3.424   -3.884   -4.311   -4.653   -4.888   -5.005   -5.002   -4.882   -4.672   -4.416   -4.154   -3.906   -3.673   -3.439   -3.179   -2.877   -2.537   -2.191   -1.912   -1.774   -1.801   -1.941   -2.114   -2.274   -2.440   -2.645   -2.875   -3.059   -3.106   -2.976   -2.732   -2.517   -2.482   -2.684   -3.056   -3.462   -3.784   -3.973   -4.059   -4.111   -4.205   -4.365   -4.550   -4.686   -4.720   -4.675   -4.636   -4.672   -4.773   -4.866   -4.898   -4.880   -4.847   -4.812   -4.759   -4.680   -4.582   -4.461   -4.295   -4.077   -3.836   -3.607   -3.414   -3.250   -3.120   -3.035   -2.997   -2.974   -2.931   -2.842   -2.709   -2.562   -2.442   -2.388   -2.424   -2.534   -2.677   -2.804   -2.883   -2.897   -2.841   -2.723   -2.566   -2.381   -2.178   -1.955   -1.731   -1.550   -1.481
  -3.845   -3.768   -3.626   -3.432   -3.207   -2.983   -2.795   -2.682   -2.690   -2.848   -3.154   -3.566   -4.007   -4.412   -4.734   -4.953   -5.055   -5.037   -4.900   -4.671   -4.391   -4.103   -3.836   -3.596   -3.372   -3.155   -2.924   -2.682   -2.456   -2.304   -2.283   -2.393   -2.558   -2.668   -2.669   -2.599   -2.540   -2.548   -2.598   -2.622   -2.557   -2.420   -2.306   -2.336   -2.573   -2.968   -3.401   -3.745   -3.939   -3.993   -3.983   -3.995   -4.075   -4.188   -4.262   -4.243   -4.156   -4.086   -4.107   -4.203   -4.299   -4.331   -4.308   -4.271   -4.231   -4.173   -4.082   -3.964   -3.822   -3.644   -3.427   -3.211   -3.045   -2.958   -2.940   -2.959   -2.993   -3.012   -2.986   -2.891   -2.736   -2.553   -2.379   -2.243   -2.167   -2.152   -2.190   -2.254   -2.299   -2.294   -2.223   -2.092   -1.924   -1.749   -1.583   -1.421   -1.261   -1.111   -0.996   -0.963
  -3.501   -3.432   -3.319   -3.165   -2.984   -2.806   -2.664   -2.602   -2.659   -2.854   -3.167   -3.556   -3.961   -4.336   -4.651   -4.885   -5.017   -5.035   -4.937   -4.745   -4.492   -4.222   -3.966   -3.739   -3.545   -3.374   -3.214   -3.057   -2.927   -2.869   -2.927   -3.085   -3.247   -3.295   -3.173   -2.925   -2.658   -2.456   -2.343   -2.272   -2.194   -2.105   -2.069   -2.178   -2.474   -2.912   -3.371   -3.724   -3.895   -3.897   -3.809   -3.731   -3.720   -3.755   -3.768   -3.707   -3.584   -3.469   -3.429   -3.458   -3.493   -3.486   -3.446   -3.419   -3.417   -3.424   -3.409   -3.363   -3.276   -3.141   -2.969   -2.810   -2.723   -2.749   -2.875   -3.048   -3.206   -3.284   -3.242   -3.078   -2.839   -2.589   -2.383   -2.234   -2.128   -2.048   -1.990   -1.940   -1.887   -1.797   -1.661   -1.486   -1.298   -1.127   -0.989   -0.874   -0.779   -0.700   -0.644   -0.642
  -3.036   -2.963   -2.857   -2.725   -2.590   -2.473   -2.403   -2.414   -2.530   -2.753   -3.055   -3.401   -3.757   -4.099   -4.414   -4.683   -4.877   -4.975   -4.966   -4.859   -4.683   -4.472   -4.258   -4.064   -3.904   -3.773   -3.658   -3.551   -3.468   -3.448   -3.523   -3.670   -3.798   -3.794   -3.604   -3.269   -2.891   -2.559   -2.311   -2.137   -2.014   -1.949   -1.988   -2.181   -2.541   -3.010   -3.463   -3.776   -3.879   -3.788   -3.594   -3.411   -3.308   -3.272   -3.238   -3.155   -3.018   -2.871   -2.765   -2.705   -2.657   -2.598   -2.547   -2.553   -2.629   -2.757   -2.883   -2.967   -2.984   -2.927   -2.823   -2.725   -2.699   -2.792   -2.996   -3.250   -3.460   -3.542   -3.443   -3.186   -2.853   -2.543   -2.313   -2.161   -2.041   -1.917   -1.780   -1.642   -1.507   -1.363   -1.199   -1.022   -0.853   -0.717   -0.622   -0.557   -0.511   -0.485   -0.472   -0.492
  -2.599   -2.508   -2.388   -2.258   -2.153   -2.097   -2.106   -2.189   -2.353   -2.582   -2.850   -3.134   -3.426   -3.727   -4.037   -4.347   -4.619   -4.822   -4.933   -4.949   -4.884   -4.762   -4.615   -4.469   -4.341   -4.228   -4.122   -4.015   -3.923   -3.882   -3.913   -3.999   -4.064   -4.016   -3.812   -3.481   -3.101   -2.748   -2.457   -2.244   -2.119   -2.109   -2.241   -2.531   -2.954   -3.426   -3.825   -4.034   -4.003   -3.761   -3.417   -3.097   -2.878   -2.756   -2.675   -2.579   -2.449   -2.298   -2.159   -2.043   -1.944   -1.862   -1.827   -1.891   -2.073   -2.340   -2.620   -2.843   -2.968   -2.994   -2.951   -2.898   -2.892   -2.980   -3.163   -3.386   -3.549   -3.557   -3.365   -3.016   -2.615   -2.276   -2.050   -1.913   -1.798   -1.662   -1.494   -1.318   -1.152   -0.997   -0.848   -0.708   -0.591   -0.508   -0.459   -0.434   -0.425   -0.428   -0.438   -0.469
  -2.359   -2.243   -2.088   -1.937   -1.841   -1.829   -1.896   -2.029   -2.208   -2.411   -2.615   -2.812   -3.018   -3.257   -3.546   -3.879   -4.224   -4.536   -4.781   -4.940   -5.010   -5.003   -4.941   -4.849   -4.746   -4.632   -4.501   -4.353   -4.207   -4.093   -4.035   -4.023   -4.007   -3.924   -3.740   -3.475   -3.181   -2.905   -2.676   -2.523   -2.479   -2.578   -2.836   -3.236   -3.715   -4.172   -4.481   -4.545   -4.335   -3.904   -3.376   -2.885   -2.520   -2.286   -2.136   -2.016   -1.891   -1.754   -1.619   -1.496   -1.397   -1.336   -1.352   -1.493   -1.777   -2.163   -2.563   -2.890   -3.098   -3.187   -3.195   -3.170   -3.156   -3.188   -3.271   -3.373   -3.409   -3.295   -3.005   -2.595   -2.176   -1.849   -1.648   -1.532   -1.432   -1.307   -1.148   -0.985   -0.836   -0.711   -0.605   -0.521   -0.467   -0.442   -0.433   -0.436   -0.448   -0.466   -0.487   -0.521
  -2.426   -2.284   -2.085   -1.895   -1.788   -1.788   -1.879   -2.020   -2.175   -2.312   -2.419   -2.501   -2.593   -2.744   -2.981   -3.308   -3.696   -4.100   -4.477   -4.785   -5.002   -5.126   -5.166   -5.139   -5.060   -4.930   -4.755   -4.542   -4.315   -4.104   -3.936   -3.812   -3.710   -3.591   -3.439   -3.264   -3.093   -2.952   -2.860   -2.841   -2.933   -3.171   -3.555   -4.050   -4.569   -5.001   -5.222   -5.151   -4.780   -4.185   -3.497   -2.853   -2.341   -1.984   -1.747   -1.580   -1.441   -1.313   -1.192   -1.090   -1.020   -1.008   -1.087   -1.303   -1.663   -2.117   -2.576   -2.951   -3.199   -3.330   -3.382   -3.387   -3.366   -3.337   -3.305   -3.255   -3.137   -2.900   -2.538   -2.111   -1.714   -1.422   -1.244   -1.137   -1.044   -0.936   -0.810   -0.687   -0.585   -0.508   -0.456   -0.433   -0.434   -0.453   -0.475   -0.494   -0.512   -0.536   -0.561   -0.594
  -2.773   -2.616   -2.383   -2.157   -2.025   -2.018   -2.100   -2.212   -2.305   -2.343   -2.324   -2.268   -2.231   -2.267   -2.423   -2.707   -3.098   -3.558   -4.036   -4.479   -4.844   -5.104   -5.255   -5.301   -5.251   -5.110   -4.891   -4.612   -4.301   -3.993   -3.719   -3.493   -3.310   -3.159   -3.031   -2.935   -2.887   -2.892   -2.954   -3.085   -3.310   -3.652   -4.108   -4.637   -5.155   -5.548   -5.701   -5.547   -5.097   -4.434   -3.686   -2.974   -2.382   -1.933   -1.613   -1.387   -1.214   -1.075   -0.960   -0.879   -0.844   -0.880   -1.017   -1.281   -1.666   -2.124   -2.570   -2.929   -3.173   -3.319   -3.407   -3.453   -3.450   -3.388   -3.270   -3.094   -2.850   -2.524   -2.130   -1.719   -1.360   -1.096   -0.925   -0.815   -0.728   -0.640   -0.556   -0.482   -0.429   -0.402   -0.395   -0.415   -0.452   -0.492   -0.526   -0.544   -0.560   -0.583   -0.604   -0.636
  -3.246   -3.094   -2.855   -2.618   -2.477   -2.459   -2.520   -2.585   -2.596   -2.521   -2.368   -2.177   -2.008   -1.932   -1.991   -2.203   -2.554   -3.017   -3.547   -4.085   -4.566   -4.943   -5.194   -5.312   -5.300   -5.164   -4.920   -4.593   -4.217   -3.834   -3.479   -3.177   -2.939   -2.761   -2.648   -2.609   -2.656   -2.784   -2.974   -3.218   -3.515   -3.882   -4.319   -4.797   -5.246   -5.567   -5.663   -5.486   -5.055   -4.452   -3.782   -3.137   -2.567   -2.100   -1.736   -1.457   -1.245   -1.086   -0.969   -0.902   -0.896   -0.968   -1.134   -1.403   -1.759   -2.154   -2.520   -2.803   -2.993   -3.124   -3.231   -3.318   -3.348   -3.283   -3.119   -2.870   -2.552   -2.186   -1.797   -1.428   -1.111   -0.871   -0.708   -0.598   -0.521   -0.462   -0.417   -0.387   -0.378   -0.386   -0.414   -0.455   -0.504   -0.545   -0.566   -0.570   -0.570   -0.580   -0.595   -0.623
  -3.684   -3.556   -3.349   -3.141   -3.020   -3.003   -3.045   -3.066   -3.001   -2.827   -2.566   -2.266   -1.998   -1.829   -1.804   -1.933   -2.216   -2.635   -3.153   -3.713   -4.242   -4.681   -4.991   -5.163   -5.188   -5.073   -4.830   -4.486   -4.079   -3.652   -3.252   -2.909   -2.642   -2.456   -2.354   -2.353   -2.464   -2.672   -2.943   -3.241   -3.545   -3.860   -4.195   -4.541   -4.854   -5.063   -5.104   -4.944   -4.611   -4.171   -3.692   -3.221   -2.776   -2.367   -2.007   -1.707   -1.470   -1.295   -1.180   -1.125   -1.137   -1.218   -1.376   -1.604   -1.880   -2.158   -2.395   -2.558   -2.661   -2.745   -2.848   -2.955   -3.009   -2.954   -2.777   -2.504   -2.173   -1.822   -1.483   -1.177   -0.920   -0.716   -0.571   -0.476   -0.420   -0.391   -0.379   -0.384   -0.404   -0.440   -0.485   -0.535   -0.578   -0.601   -0.595   -0.572   -0.548   -0.540   -0.544   -0.571
  -3.997   -3.909   -3.765   -3.625   -3.547   -3.547   -3.582   -3.573   -3.461   -3.228   -2.905   -2.548   -2.227   -2.009   -1.928   -1.992   -2.200   -2.538   -2.982   -3.478   -3.965   -4.380   -4.686   -4.868   -4.917   -4.828   -4.607   -4.276   -3.869   -3.433   -3.020   -2.667   -2.397   -2.216   -2.133   -2.159   -2.305   -2.551   -2.851   -3.152   -3.421   -3.651   -3.856   -4.043   -4.194   -4.278   -4.263   -4.145   -3.947   -3.712   -3.466   -3.209   -2.928   -2.623   -2.309   -2.016   -1.772   -1.593   -1.482   -1.433   -1.440   -1.501   -1.611   -1.755   -1.911   -2.048   -2.139   -2.178   -2.186   -2.214   -2.290   -2.391   -2.448   -2.400   -2.237   -1.989   -1.703   -1.420   -1.167   -0.949   -0.765   -0.619   -0.510   -0.441   -0.410   -0.404   -0.415   -0.440   -0.478   -0.526   -0.579   -0.627   -0.657   -0.655   -0.622   -0.567   -0.516   -0.490   -0.486   -0.509
  -4.187   -4.144   -4.082   -4.026   -4.010   -4.038   -4.074   -4.055   -3.928   -3.684   -3.349   -2.988   -2.662   -2.435   -2.332   -2.357   -2.498   -2.743   -3.066   -3.429   -3.787   -4.097   -4.331   -4.476   -4.521   -4.452   -4.264   -3.965   -3.584   -3.169   -2.768   -2.425   -2.166   -1.999   -1.932   -1.974   -2.129   -2.374   -2.662   -2.938   -3.161   -3.324   -3.430   -3.495   -3.524   -3.517   -3.480   -3.423   -3.362   -3.309   -3.253   -3.172   -3.035   -2.828   -2.569   -2.296   -2.051   -1.864   -1.740   -1.669   -1.643   -1.652   -1.685   -1.725   -1.758   -1.767   -1.741   -1.688   -1.633   -1.617   -1.663   -1.740   -1.787   -1.750   -1.625   -1.442   -1.245   -1.068   -0.920   -0.799   -0.692   -0.601   -0.532   -0.494   -0.482   -0.491   -0.513   -0.544   -0.582   -0.629   -0.674   -0.705   -0.714   -0.691   -0.637   -0.565   -0.500   -0.464   -0.451   -0.473
  -4.290   -4.294   -4.312   -4.345   -4.393   -4.451   -4.496   -4.480   -4.365   -4.143   -3.838   -3.503   -3.202   -2.986   -2.879   -2.878   -2.969   -3.122   -3.309   -3.509   -3.694   -3.850   -3.971   -4.049   -4.067   -4.007   -3.851   -3.595   -3.261   -2.888   -2.521   -2.200   -1.953   -1.791   -1.724   -1.758   -1.893   -2.105   -2.353   -2.591   -2.781   -2.910   -2.976   -2.995   -2.982   -2.963   -2.960   -2.987   -3.041   -3.113   -3.173   -3.189   -3.133   -2.986   -2.759   -2.493   -2.237   -2.021   -1.858   -1.738   -1.651   -1.589   -1.540   -1.491   -1.433   -1.363   -1.281   -1.197   -1.131   -1.107   -1.137   -1.193   -1.231   -1.217   -1.147   -1.050   -0.954   -0.880   -0.827   -0.781   -0.736   -0.691   -0.659   -0.647   -0.654   -0.673   -0.696   -0.722   -0.744   -0.760   -0.769   -0.766   -0.747   -0.706   -0.646   -0.577   -0.517   -0.485   -0.473   -0.493
  -4.340   -4.382   -4.470   -4.578   -4.681   -4.767   -4.816   -4.805   -4.710   -4.524   -4.265   -3.976   -3.709   -3.506   -3.392   -3.366   -3.406   -3.475   -3.542   -3.586   -3.605   -3.614   -3.621   -3.629   -3.621   -3.570   -3.448   -3.244   -2.974   -2.665   -2.352   -2.060   -1.818   -1.640   -1.542   -1.533   -1.612   -1.764   -1.951   -2.140   -2.302   -2.421   -2.492   -2.527   -2.546   -2.585   -2.668   -2.795   -2.947   -3.094   -3.205   -3.254   -3.220   -3.086   -2.862   -2.584   -2.300   -2.045   -1.826   -1.642   -1.489   -1.365   -1.255   -1.157   -1.064   -0.980   -0.904   -0.845   -0.809   -0.813   -0.850   -0.905   -0.948   -0.964   -0.952   -0.927   -0.906   -0.903   -0.907   -0.906   -0.897   -0.889   -0.897   -0.918   -0.950   -0.983   -1.008   -1.017   -1.003   -0.962   -0.909   -0.845   -0.781   -0.723   -0.669   -0.619   -0.583   -0.565   -0.562   -0.586
  -4.349   -4.416   -4.549   -4.709   -4.846   -4.941   -4.985   -4.967   -4.883   -4.729   -4.517   -4.275   -4.041   -3.850   -3.723   -3.663   -3.648   -3.642   -3.609   -3.537   -3.439   -3.342   -3.273   -3.239   -3.223   -3.193   -3.118   -2.986   -2.803   -2.584   -2.343   -2.095   -1.855   -1.641   -1.479   -1.388   -1.377   -1.438   -1.541   -1.665   -1.788   -1.896   -1.982   -2.055   -2.139   -2.266   -2.450   -2.672   -2.899   -3.092   -3.222   -3.274   -3.232   -3.088   -2.849   -2.554   -2.246   -1.958   -1.701   -1.474   -1.280   -1.119   -0.988   -0.886   -0.808   -0.756   -0.728   -0.719   -0.734   -0.771   -0.831   -0.898   -0.960   -1.010   -1.043   -1.060   -1.074   -1.094   -1.114   -1.127   -1.141   -1.170   -1.226   -1.300   -1.375   -1.433   -1.463   -1.451   -1.388   -1.276   -1.135   -0.994   -0.874   -0.786   -0.732   -0.700   -0.688   -0.692   -0.704   -0.734
  -4.316   -4.396   -4.553   -4.733   -4.876   -4.956   -4.966   -4.916   -4.819   -4.679   -4.502   -4.305   -4.110   -3.936   -3.798   -3.702   -3.631   -3.558   -3.455   -3.314   -3.158   -3.016   -2.918   -2.876   -2.876   -2.891   -2.890   -2.855   -2.787   -2.688   -2.547   -2.364   -2.133   -1.876   -1.627   -1.426   -1.297   -1.240   -1.239   -1.276   -1.340   -1.419   -1.507   -1.609   -1.747   -1.942   -2.196   -2.480   -2.750   -2.966   -3.105   -3.154   -3.101   -2.945   -2.698   -2.398   -2.090   -1.805   -1.553   -1.329   -1.137   -0.982   -0.867   -0.796   -0.762   -0.764   -0.788   -0.828   -0.880   -0.947   -1.024   -1.104   -1.187   -1.262   -1.315   -1.343   -1.352   -1.359   -1.368   -1.381   -1.414   -1.490   -1.610   -1.755   -1.888   -1.983   -2.023   -1.992   -1.881   -1.700   -1.474   -1.250   -1.060   -0.922   -0.844   -0.811   -0.808   -0.823   -0.847   -0.884
  -4.257   -4.340   -4.500   -4.673   -4.794   -4.826   -4.771   -4.658   -4.516   -4.362   -4.205   -4.047   -3.895   -3.748   -3.615   -3.495   -3.379   -3.256   -3.114   -2.951   -2.784   -2.643   -2.555   -2.531   -2.567   -2.641   -2.733   -2.822   -2.898   -2.942   -2.930   -2.831   -2.630   -2.343   -2.017   -1.706   -1.454   -1.270   -1.152   -1.088   -1.076   -1.111   -1.181   -1.289   -1.446   -1.660   -1.924   -2.206   -2.470   -2.680   -2.813   -2.860   -2.806   -2.653   -2.416   -2.138   -1.863   -1.622   -1.423   -1.254   -1.111   -1.003   -0.938   -0.918   -0.943   -0.996   -1.063   -1.130   -1.201   -1.274   -1.351   -1.433   -1.522   -1.601   -1.650   -1.660   -1.638   -1.614   -1.603   -1.617   -1.677   -1.809   -2.004   -2.228   -2.424   -2.560   -2.612   -2.570   -2.428   -2.194   -1.902   -1.600   -1.332   -1.128   -0.998   -0.929   -0.911   -0.921   -0.948   -0.987
  -4.203   -4.281   -4.433   -4.583   -4.660   -4.620   -4.474   -4.267   -4.049   -3.855   -3.696   -3.566   -3.456   -3.349   -3.234   -3.109   -2.973   -2.829   -2.676   -2.522   -2.375   -2.259   -2.194   -2.196   -2.266   -2.403   -2.592   -2.813   -3.043   -3.244   -3.368   -3.370   -3.225   -2.945   -2.578   -2.192   -1.843   -1.556   -1.331   -1.173   -1.087   -1.073   -1.118   -1.209   -1.346   -1.523   -1.728   -1.939   -2.131   -2.288   -2.391   -2.427   -2.380   -2.247   -2.046   -1.817   -1.605   -1.441   -1.328   -1.251   -1.199   -1.169   -1.177   -1.227   -1.308   -1.403   -1.494   -1.570   -1.635   -1.693   -1.754   -1.822   -1.892   -1.952   -1.971   -1.942   -1.882   -1.828   -1.803   -1.828   -1.924   -2.112   -2.377   -2.668   -2.920   -3.088   -3.151   -3.102   -2.942   -2.676   -2.339   -1.973   -1.632   -1.356   -1.163   -1.045   -0.990   -0.984   -1.004   -1.044
  -4.181   -4.254   -4.394   -4.517   -4.541   -4.423   -4.175   -3.856   -3.541   -3.283   -3.100   -2.985   -2.909   -2.841   -2.758   -2.650   -2.519   -2.380   -2.243   -2.114   -1.998   -1.911   -1.864   -1.883   -1.977   -2.158   -2.426   -2.763   -3.134   -3.476   -3.728   -3.835   -3.768   -3.534   -3.180   -2.776   -2.384   -2.035   -1.743   -1.522   -1.386   -1.335   -1.352   -1.413   -1.500   -1.595   -1.685   -1.765   -1.828   -1.882   -1.921   -1.928   -1.886   -1.787   -1.643   -1.488   -1.362   -1.296   -1.290   -1.324   -1.378   -1.445   -1.538   -1.657   -1.789   -1.912   -2.006   -2.071   -2.117   -2.153   -2.187   -2.227   -2.268   -2.294   -2.275   -2.207   -2.116   -2.042   -2.019   -2.064   -2.196   -2.423   -2.726   -3.047   -3.320   -3.492   -3.549   -3.490   -3.318   -3.035   -2.670   -2.261   -1.872   -1.546   -1.303   -1.144   -1.059   -1.033   -1.049   -1.090
  -4.190   -4.263   -4.394   -4.495   -4.475   -4.289   -3.948   -3.522   -3.103   -2.769   -2.550   -2.433   -2.379   -2.343   -2.291   -2.211   -2.108   -1.996   -1.890   -1.793   -1.706   -1.638   -1.606   -1.628   -1.729   -1.930   -2.245   -2.660   -3.130   -3.581   -3.938   -4.141   -4.158   -3.999   -3.706   -3.338   -2.956   -2.600   -2.292   -2.051   -1.895   -1.823   -1.814   -1.836   -1.853   -1.841   -1.791   -1.707   -1.614   -1.535   -1.485   -1.448   -1.405   -1.342   -1.266   -1.200   -1.174   -1.213   -1.318   -1.465   -1.627   -1.792   -1.963   -2.139   -2.302   -2.431   -2.516   -2.563   -2.587   -2.601   -2.616   -2.633   -2.649   -2.645   -2.600   -2.513   -2.412   -2.341   -2.331   -2.393   -2.536   -2.761   -3.043   -3.334   -3.568   -3.702   -3.724   -3.638   -3.448   -3.158   -2.783   -2.366   -1.968   -1.636   -1.385   -1.216   -1.118   -1.092   -1.108   -1.152
  -4.183   -4.256   -4.387   -4.480   -4.437   -4.205   -3.796   -3.285   -2.777   -2.369   -2.106   -1.980   -1.938   -1.928   -1.905   -1.859   -1.794   -1.722   -1.650   -1.583   -1.518   -1.464   -1.439   -1.462   -1.554   -1.748   -2.070   -2.519   -3.045   -3.566   -3.995   -4.273   -4.373   -4.301   -4.088   -3.788   -3.455   -3.135   -2.853   -2.631   -2.482   -2.399   -2.361   -2.332   -2.270   -2.147   -1.958   -1.721   -1.481   -1.280   -1.144   -1.064   -1.019   -0.987   -0.973   -0.990   -1.064   -1.206   -1.412   -1.658   -1.916   -2.163   -2.395   -2.604   -2.776   -2.896   -2.963   -2.992   -3.000   -3.007   -3.016   -3.025   -3.031   -3.018   -2.975   -2.899   -2.818   -2.765   -2.767   -2.826   -2.941   -3.105   -3.299   -3.486   -3.621   -3.671   -3.626   -3.496   -3.285   -2.995   -2.639   -2.256   -1.899   -1.609   -1.394   -1.250   -1.172   -1.154   -1.178   -1.231
  -4.064   -4.142   -4.278   -4.375   -4.330   -4.085   -3.644   -3.083   -2.519   -2.058   -1.763   -1.627   -1.592   -1.599   -1.602   -1.588   -1.563   -1.535   -1.498   -1.456   -1.409   -1.368   -1.349   -1.366   -1.442   -1.611   -1.912   -2.355   -2.897   -3.447   -3.920   -4.253   -4.419   -4.422   -4.288   -4.063   -3.797   -3.536   -3.309   -3.128   -2.997   -2.907   -2.836   -2.752   -2.612   -2.387   -2.081   -1.729   -1.388   -1.115   -0.935   -0.836   -0.793   -0.788   -0.817   -0.896   -1.047   -1.269   -1.555   -1.876   -2.203   -2.509   -2.777   -2.998   -3.159   -3.261   -3.312   -3.332   -3.337   -3.344   -3.358   -3.374   -3.385   -3.382   -3.360   -3.316   -3.270   -3.242   -3.247   -3.282   -3.335   -3.395   -3.450   -3.485   -3.479   -3.413   -3.284   -3.104   -2.873   -2.600   -2.294   -1.985   -1.713   -1.502   -1.354   -1.257   -1.209   -1.212   -1.247   -1.305
  -3.749   -3.826   -3.969   -4.082   -4.055   -3.825   -3.391   -2.828   -2.253   -1.779   -1.474   -1.335   -1.304   -1.318   -1.337   -1.349   -1.360   -1.364   -1.360   -1.340   -1.312   -1.285   -1.272   -1.284   -1.341   -1.481   -1.749   -2.161   -2.682   -3.228   -3.714   -4.076   -4.286   -4.345   -4.275   -4.117   -3.923   -3.732   -3.569   -3.436   -3.327   -3.230   -3.126   -2.989   -2.781   -2.479   -2.095   -1.680   -1.301   -1.017   -0.846   -0.766   -0.745   -0.760   -0.815   -0.931   -1.121   -1.389   -1.716   -2.075   -2.437   -2.772   -3.054   -3.268   -3.409   -3.492   -3.532   -3.547   -3.554   -3.566   -3.588   -3.615   -3.636   -3.651   -3.654   -3.645   -3.631   -3.620   -3.619   -3.619   -3.603   -3.553   -3.465   -3.344   -3.193   -3.011   -2.805   -2.582   -2.348   -2.110   -1.875   -1.660   -1.488   -1.367   -1.292   -1.252   -1.243   -1.266   -1.313   -1.375
  -3.224   -3.291   -3.437   -3.567   -3.572   -3.386   -3.000   -2.481   -1.944   -1.502   -1.217   -1.084   -1.053   -1.064   -1.088   -1.111   -1.136   -1.162   -1.178   -1.181   -1.171   -1.164   -1.161   -1.174   -1.221   -1.338   -1.569   -1.935   -2.404   -2.911   -3.379   -3.743   -3.972   -4.063   -4.038   -3.938   -3.811   -3.691   -3.591   -3.505   -3.418   -3.313   -3.180   -2.999   -2.744   -2.398   -1.983   -1.560   -1.201   -0.959   -0.837   -0.804   -0.820   -0.860   -0.932   -1.059   -1.257   -1.525   -1.850   -2.205   -2.564   -2.896   -3.167   -3.361   -3.478   -3.543   -3.571   -3.583   -3.588   -3.605   -3.631   -3.662   -3.692   -3.719   -3.740   -3.753   -3.757   -3.754   -3.744   -3.713   -3.643   -3.512   -3.321   -3.085   -2.829   -2.568   -2.313   -2.075   -1.857   -1.668   -1.509   -1.384   -1.302   -1.256   -1.244   -1.254   -1.283   -1.331   -1.389   -1.459
  -2.575   -2.624   -2.765   -2.903   -2.947   -2.821   -2.512   -2.077   -1.622   -1.250   -1.009   -0.892   -0.856   -0.855   -0.865   -0.884   -0.909   -0.938   -0.964   -0.986   -1.001   -1.017   -1.035   -1.061   -1.111   -1.216   -1.413   -1.717   -2.111   -2.547   -2.961   -3.298   -3.521   -3.622   -3.623   -3.568   -3.499   -3.444   -3.400   -3.352   -3.280   -3.170   -3.017   -2.811   -2.534   -2.184   -1.787   -1.404   -1.102   -0.925   -0.867   -0.888   -0.944   -1.012   -1.098   -1.220   -1.396   -1.628   -1.908   -2.219   -2.537   -2.832   -3.072   -3.235   -3.327   -3.371   -3.388   -3.391   -3.393   -3.403   -3.428   -3.460   -3.492   -3.523   -3.550   -3.571   -3.580   -3.575   -3.555   -3.508   -3.412   -3.247   -3.011   -2.729   -2.432   -2.144   -1.886   -1.667   -1.490   -1.354   -1.263   -1.209   -1.189   -1.195   -1.224   -1.272   -1.337   -1.411   -1.483   -1.561
  -1.969   -1.997   -2.119   -2.258   -2.329   -2.264   -2.041   -1.709   -1.359   -1.074   -0.888   -0.790   -0.746   -0.729   -0.722   -0.726   -0.741   -0.765   -0.797   -0.833   -0.874   -0.918   -0.963   -1.012   -1.073   -1.175   -1.341   -1.585   -1.894   -2.237   -2.572   -2.853   -3.045   -3.137   -3.150   -3.125   -3.101   -3.094   -3.089   -3.063   -2.999   -2.889   -2.732   -2.525   -2.260   -1.944   -1.605   -1.296   -1.068   -0.956   -0.944   -0.998   -1.081   -1.169   -1.263   -1.375   -1.512   -1.679   -1.881   -2.112   -2.353   -2.583   -2.771   -2.897   -2.963   -2.987   -2.990   -2.983   -2.976   -2.979   -2.998   -3.027   -3.058   -3.086   -3.110   -3.128   -3.130   -3.120   -3.096   -3.047   -2.953   -2.796   -2.571   -2.305   -2.026   -1.768   -1.549   -1.377   -1.255   -1.179   -1.141   -1.134   -1.148   -1.179   -1.230   -1.299   -1.388   -1.483   -1.569   -1.650
  -1.580   -1.583   -1.675   -1.794   -1.871   -1.847   -1.698   -1.463   -1.216   -1.013   -0.878   -0.798   -0.747   -0.711   -0.689   -0.677   -0.683   -0.705   -0.741   -0.791   -0.854   -0.922   -0.994   -1.063   -1.139   -1.244   -1.394   -1.594   -1.834   -2.090   -2.340   -2.548   -2.693   -2.763   -2.775   -2.772   -2.781   -2.801   -2.811   -2.785   -2.722   -2.622   -2.482   -2.302   -2.082   -1.832   -1.577   -1.356   -1.202   -1.133   -1.140   -1.196   -1.280   -1.372   -1.465   -1.557   -1.644   -1.733   -1.832   -1.951   -2.086   -2.225   -2.343   -2.422   -2.457   -2.463   -2.454   -2.438   -2.428   -2.424   -2.439   -2.465   -2.491   -2.516   -2.533   -2.539   -2.530   -2.514   -2.492   -2.455   -2.383   -2.257   -2.079   -1.868   -1.652   -1.458   -1.303   -1.194   -1.131   -1.107   -1.114   -1.136   -1.168   -1.207   -1.259   -1.331   -1.424   -1.525   -1.614   -1.699
  -1.506   -1.486   -1.538   -1.613   -1.667   -1.650   -1.542   -1.376   -1.206   -1.066   -0.965   -0.890   -0.830   -0.782   -0.747   -0.730   -0.733   -0.756   -0.800   -0.862   -0.937   -1.021   -1.106   -1.188   -1.278   -1.391   -1.545   -1.737   -1.949   -2.157   -2.343   -2.491   -2.589   -2.636   -2.653   -2.670   -2.701   -2.727   -2.725   -2.685   -2.618   -2.535   -2.433   -2.306   -2.154   -1.987   -1.824   -1.688   -1.597   -1.556   -1.558   -1.594   -1.653   -1.730   -1.808   -1.870   -1.901   -1.900   -1.881   -1.867   -1.870   -1.892   -1.919   -1.936   -1.939   -1.926   -1.906   -1.886   -1.874   -1.872   -1.885   -1.910   -1.935   -1.957   -1.967   -1.961   -1.945   -1.925   -1.911   -1.889   -1.845   -1.763   -1.644   -1.500   -1.360   -1.240   -1.155   -1.111   -1.104   -1.122   -1.160   -1.202   -1.243   -1.280   -1.322   -1.377   -1.457   -1.545   -1.626   -1.712
  -1.750   -1.709   -1.719   -1.738   -1.740   -1.687   -1.575   -1.433   -1.296   -1.186   -1.097   -1.020   -0.950   -0.894   -0.857   -0.840   -0.847   -0.876   -0.926   -0.992   -1.071   -1.154   -1.238   -1.320   -1.418   -1.552   -1.739   -1.964   -2.200   -2.414   -2.585   -2.706   -2.781   -2.825   -2.858   -2.900   -2.942   -2.962   -2.939   -2.876   -2.805   -2.743   -2.686   -2.620   -2.540   -2.455   -2.378   -2.321   -2.283   -2.260   -2.248   -2.253   -2.281   -2.331   -2.383   -2.410   -2.383   -2.290   -2.149   -1.987   -1.836   -1.717   -1.633   -1.578   -1.538   -1.505   -1.477   -1.454   -1.443   -1.443   -1.457   -1.482   -1.507   -1.528   -1.535   -1.526   -1.508   -1.493   -1.486   -1.481   -1.464   -1.423   -1.356   -1.275   -1.200   -1.144   -1.118   -1.124   -1.157   -1.209   -1.270   -1.326   -1.373   -1.406   -1.435   -1.471   -1.530   -1.602   -1.672   -1.760
  -2.259   -2.204   -2.180   -2.143   -2.072   -1.944   -1.774   -1.598   -1.447   -1.327   -1.230   -1.147   -1.077   -1.025   -0.992   -0.983   -0.995   -1.025   -1.070   -1.130   -1.196   -1.266   -1.332   -1.407   -1.511   -1.673   -1.912   -2.206   -2.514   -2.786   -2.994   -3.129   -3.215   -3.277   -3.339   -3.405   -3.455   -3.463   -3.420   -3.344   -3.274   -3.229   -3.206   -3.188   -3.166   -3.148   -3.141   -3.146   -3.150   -3.144   -3.124   -3.108   -3.113   -3.138   -3.165   -3.157   -3.078   -2.909   -2.658   -2.357   -2.049   -1.779   -1.576   -1.440   -1.355   -1.301   -1.266   -1.240   -1.225   -1.223   -1.235   -1.259   -1.284   -1.306   -1.319   -1.318   -1.309   -1.301   -1.303   -1.311   -1.312   -1.302   -1.273   -1.237   -1.207   -1.194   -1.205   -1.240   -1.296   -1.366   -1.445   -1.517   -1.577   -1.616   -1.643   -1.670   -1.714   -1.779   -1.843   -1.936
  -2.949   -2.894   -2.852   -2.767   -2.616   -2.389   -2.119   -1.858   -1.644   -1.483   -1.363   -1.276   -1.214   -1.177   -1.156   -1.151   -1.162   -1.182   -1.211   -1.246   -1.286   -1.326   -1.370   -1.429   -1.536   -1.728   -2.022   -2.398   -2.798   -3.159   -3.440   -3.628   -3.749   -3.842   -3.932   -4.012   -4.062   -4.062   -4.013   -3.939   -3.876   -3.843   -3.835   -3.841   -3.855   -3.880   -3.918   -3.960   -3.995   -4.005   -3.989   -3.970   -3.967   -3.979   -3.987   -3.954   -3.843   -3.627   -3.303   -2.896   -2.459   -2.062   -1.757   -1.556   -1.437   -1.368   -1.326   -1.295   -1.277   -1.271   -1.279   -1.295   -1.320   -1.347   -1.369   -1.385   -1.393   -1.399   -1.411   -1.428   -1.444   -1.453   -1.447   -1.434   -1.423   -1.422   -1.440   -1.478   -1.541   -1.623   -1.720   -1.821   -1.910   -1.974   -2.012   -2.038   -2.075   -2.133   -2.195   -2.294
  -3.730   -3.679   -3.628   -3.512   -3.289   -2.961   -2.575   -2.202   -1.897   -1.673   -1.522   -1.428   -1.377   -1.352   -1.338   -1.330   -1.330   -1.330   -1.331   -1.335   -1.336   -1.341   -1.356   -1.395   -1.496   -1.705   -2.040   -2.482   -2.970   -3.428   -3.796   -4.052   -4.222   -4.345   -4.451   -4.533   -4.579   -4.576   -4.534   -4.475   -4.425   -4.397   -4.394   -4.408   -4.436   -4.477   -4.529   -4.588   -4.634   -4.654   -4.652   -4.643   -4.646   -4.660   -4.661   -4.619   -4.499   -4.270   -3.916   -3.457   -2.952   -2.489   -2.134   -1.910   -1.786   -1.720   -1.680   -1.652   -1.632   -1.624   -1.630   -1.647   -1.671   -1.705   -1.740   -1.777   -1.811   -1.841   -1.868   -1.895   -1.922   -1.941   -1.943   -1.930   -1.909   -1.887   -1.879   -1.898   -1.952   -2.047   -2.175   -2.323   -2.462   -2.566   -2.621   -2.643   -2.663   -2.702   -2.751   -2.847
  -4.526   -4.475   -4.415   -4.269   -3.991   -3.580   -3.089   -2.607   -2.202   -1.904   -1.711   -1.600   -1.548   -1.521   -1.505   -1.488   -1.469   -1.446   -1.418   -1.389   -1.357   -1.329   -1.312   -1.329   -1.418   -1.627   -1.980   -2.463   -3.016   -3.554   -4.003   -4.330   -4.547   -4.695   -4.804   -4.879   -4.916   -4.915   -4.889   -4.855   -4.824   -4.806   -4.806   -4.821   -4.850   -4.888   -4.933   -4.980   -5.021   -5.044   -5.053   -5.061   -5.079   -5.102   -5.107   -5.067   -4.954   -4.736   -4.395   -3.947   -3.453   -3.006   -2.680   -2.489   -2.399   -2.361   -2.343   -2.328   -2.316   -2.315   -2.329   -2.354   -2.386   -2.429   -2.480   -2.543   -2.612   -2.680   -2.737   -2.782   -2.819   -2.845   -2.848   -2.819   -2.759   -2.681   -2.612   -2.582   -2.618   -2.730   -2.908   -3.124   -3.332   -3.485   -3.559   -3.569   -3.556   -3.559   -3.579   -3.676
  -5.369   -5.306   -5.219   -5.033   -4.700   -4.221   -3.645   -3.062   -2.554   -2.172   -1.920   -1.777   -1.706   -1.670   -1.644   -1.616   -1.581   -1.540   -1.494   -1.443   -1.389   -1.341   -1.306   -1.306   -1.382   -1.581   -1.932   -2.428   -3.015   -3.606   -4.115   -4.499   -4.759   -4.926   -5.031   -5.094   -5.122   -5.128   -5.124   -5.120   -5.120   -5.124   -5.137   -5.160   -5.185   -5.212   -5.236   -5.260   -5.280   -5.295   -5.308   -5.328   -5.359   -5.392   -5.406   -5.377   -5.283   -5.100   -4.811   -4.434   -4.030   -3.682   -3.453   -3.349   -3.328   -3.341   -3.355   -3.361   -3.364   -3.377   -3.405   -3.444   -3.488   -3.539   -3.605   -3.698   -3.815   -3.937   -4.042   -4.124   -4.185   -4.226   -4.234   -4.186   -4.075   -3.915   -3.754   -3.654   -3.664   -3.801   -4.047   -4.355   -4.658   -4.884   -4.997   -5.014   -4.994   -4.993   -5.017   -5.143
  -6.474   -6.381   -6.240   -5.982   -5.573   -5.014   -4.345   -3.651   -3.024   -2.533   -2.199   -2.002   -1.898   -1.848   -1.815   -1.781   -1.739   -1.690   -1.637   -1.582   -1.526   -1.474   -1.438   -1.437   -1.509   -1.697   -2.034   -2.521   -3.114   -3.725   -4.269   -4.691   -4.981   -5.161   -5.262   -5.312   -5.336   -5.353   -5.378   -5.416   -5.461   -5.510   -5.559   -5.604   -5.639   -5.658   -5.663   -5.659   -5.652   -5.649   -5.654   -5.672   -5.705   -5.745   -5.774   -5.771   -5.720   -5.600   -5.406   -5.157   -4.902   -4.708   -4.623   -4.636   -4.705   -4.775   -4.822   -4.845   -4.860   -4.882   -4.914   -4.952   -4.993   -5.041   -5.116   -5.241   -5.419   -5.615   -5.794   -5.938   -6.052   -6.141   -6.183   -6.144   -5.999   -5.770   -5.524   -5.361   -5.358   -5.547   -5.898   -6.347   -6.800   -7.171   -7.412   -7.554   -7.669   -7.809   -7.955   -8.176
  -8.175   -8.050   -7.820   -7.446   -6.917   -6.238   -5.439   -4.593   -3.800   -3.155   -2.701   -2.421   -2.269   -2.194   -2.152   -2.117   -2.076   -2.029   -1.980   -1.932   -1.889   -1.855   -1.838   -1.851   -1.928   -2.105   -2.423   -2.888   -3.458   -4.062   -4.612   -5.052   -5.359   -5.545   -5.641   -5.682   -5.706   -5.738   -5.800   -5.893   -6.013   -6.142   -6.264   -6.363   -6.428   -6.456   -6.451   -6.422   -6.385   -6.353   -6.335   -6.336   -6.358   -6.401   -6.456   -6.506   -6.533   -6.522   -6.471   -6.395   -6.328   -6.319   -6.392   -6.532   -6.690   -6.816   -6.890   -6.923   -6.939   -6.953   -6.967   -6.978   -6.988   -7.016   -7.096   -7.260   -7.508   -7.799   -8.080   -8.327   -8.546   -8.741   -8.880   -8.914   -8.811   -8.597   -8.362   -8.232   -8.313   -8.639   -9.179   -9.852  -10.557  -11.200  -11.739  -12.212  -12.683  -13.162  -13.554  -13.875
 -10.659  -10.526  -10.197   -9.679   -8.994   -8.151   -7.174   -6.122   -5.105   -4.249   -3.626   -3.225   -2.997   -2.879   -2.818   -2.777   -2.734   -2.688   -2.645   -2.613   -2.592   -2.587   -2.604   -2.648   -2.738   -2.907   -3.197   -3.618   -4.148   -4.720   -5.254   -5.691   -6.001   -6.186   -6.275   -6.309   -6.332   -6.383   -6.488   -6.658   -6.883   -7.137   -7.377   -7.570   -7.695   -7.748   -7.741   -7.692   -7.623   -7.555   -7.500   -7.468   -7.467   -7.517   -7.616   -7.753   -7.904   -8.049   -8.180   -8.303   -8.439   -8.614   -8.843   -9.104   -9.347   -9.527   -9.635   -9.687   -9.712   -9.718   -9.709   -9.687   -9.669   -9.690   -9.795  -10.020  -10.360  -10.763  -11.174  -11.567  -11.947  -12.311  -12.620  -12.823  -12.894  -12.870  -12.853  -12.975  -13.331  -13.948  -14.782  -15.750  -16.758  -17.732  -18.642  -19.514  -20.369  -21.139  -21.668  -21.883
 -13.703  -13.611  -13.204  -12.560  -11.725  -10.717   -9.550   -8.275   -7.012   -5.916   -5.087   -4.534   -4.200   -4.015   -3.916   -3.856   -3.800   -3.746   -3.701   -3.677   -3.681   -3.713   -3.776   -3.861   -3.972   -4.132   -4.382   -4.747   -5.214   -5.732   -6.234   -6.657   -6.963   -7.143   -7.221   -7.242   -7.261   -7.330   -7.485   -7.744   -8.099   -8.506   -8.898   -9.214   -9.419   -9.509   -9.503   -9.435   -9.337   -9.235   -9.142   -9.075   -9.056   -9.119   -9.281   -9.530   -9.832  -10.154  -10.476  -10.794  -11.115  -11.456  -11.821  -12.189  -12.518  -12.770  -12.941  -13.052  -13.128  -13.176  -13.201  -13.212  -13.238  -13.324  -13.519  -13.850  -14.305  -14.832  -15.382  -15.933  -16.488  -17.038  -17.555  -17.999  -18.366  -18.702  -19.099  -19.653  -20.418  -21.387  -22.501  -23.692  -24.891  -26.055  -27.170  -28.235  -29.219  -30.009  -30.420  -30.285
 -16.745  -16.739  -16.304  -15.584  -14.649  -13.523  -12.214  -10.768   -9.307   -8.007   -6.996   -6.295   -5.850   -5.587   -5.434   -5.338   -5.253   -5.174   -5.107   -5.077   -5.097   -5.169   -5.285   -5.420   -5.558   -5.714   -5.925   -6.226   -6.622   -7.081   -7.546   -7.954   -8.258   -8.431   -8.494   -8.497   -8.508   -8.588   -8.787   -9.130   -9.608  -10.161  -10.697  -11.129  -11.411  -11.536  -11.536  -11.457  -11.344  -11.224  -11.114  -11.033  -11.015  -11.110  -11.346  -11.711  -12.159  -12.641  -13.125  -13.598  -14.063  -14.530  -15.003  -15.463  -15.879  -16.226  -16.505  -16.735  -16.937  -17.119  -17.286  -17.452  -17.644  -17.903  -18.265  -18.744  -19.322  -19.957  -20.614  -21.281  -21.958  -22.647  -23.333  -24.003  -24.669  -25.373  -26.173  -27.117  -28.209  -29.416  -30.683  -31.957  -33.199  -34.386  -35.503  -36.524  -37.377  -37.922  -37.959  -37.373
 -19.232  -19.323  -18.902  -18.163  -17.192  -16.019  -14.649  -13.128  -11.580  -10.180   -9.069   -8.277   -7.751   -7.419   -7.213   -7.071   -6.946   -6.822   -6.716   -6.659   -6.678   -6.783   -6.952   -7.145   -7.323   -7.489   -7.675   -7.926   -8.265   -8.680   -9.125   -9.534   -9.846  -10.022  -10.075  -10.061  -10.058  -10.141  -10.364  -10.758  -11.312  -11.954  -12.578  -13.084  -13.413  -13.566  -13.579  -13.509  -13.406  -13.302  -13.212  -13.156  -13.175  -13.327  -13.643  -14.109  -14.669  -15.265  -15.856  -16.427  -16.980  -17.525  -18.069  -18.602  -19.105  -19.566  -19.990  -20.393  -20.793  -21.196  -21.602  -22.020  -22.464  -22.958  -23.517  -24.145  -24.823  -25.526  -26.234  -26.943  -27.665  -28.409  -29.179  -29.985  -30.842  -31.780  -32.823  -33.975  -35.207  -36.472  -37.719  -38.909  -40.021  -41.039  -41.940  -42.676  -43.171  -43.309  -42.884  -42.400
 -20.812  -20.975  -20.588  -19.868  -18.914  -17.759  -16.414  -14.925  -13.411  -12.042  -10.943  -10.142   -9.590   -9.222   -8.978   -8.796   -8.627   -8.452   -8.291   -8.189   -8.191   -8.314   -8.533   -8.788   -9.024   -9.222   -9.413   -9.649   -9.971  -10.383  -10.845  -11.289  -11.634  -11.833  -11.894  -11.878  -11.870  -11.948  -12.169  -12.564  -13.120  -13.765  -14.394  -14.906  -15.246  -15.414  -15.450  -15.412  -15.350  -15.297  -15.266  -15.279  -15.375  -15.607  -16.003  -16.544  -17.171  -17.825  -18.465  -19.074  -19.660  -20.237  -20.816  -21.399  -21.982  -22.563  -23.150  -23.755  -24.388  -25.046  -25.722  -26.409  -27.104  -27.813  -28.537  -29.272  -30.007  -30.729  -31.432  -32.125  -32.823  -33.547  -34.315  -35.145  -36.057  -37.058  -38.148  -39.301  -40.479  -41.639  -42.752  -43.802  -44.780  -45.674  -46.466  -47.123  -47.596  -47.767  -47.259  -48.152
 -21.332  -21.524  -21.169  -20.489  -19.585  -18.497  -17.244  -15.875  -14.503  -13.272  -12.285  -11.553  -11.032  -10.669  -10.412  -10.207  -10.005   -9.786   -9.574   -9.424   -9.399   -9.530   -9.791  -10.111  -10.416  -10.676  -10.916  -11.194  -11.560  -12.028  -12.562  -13.083  -13.499  -13.758  -13.864  -13.878  -13.885  -13.961  -14.160  -14.510  -14.999  -15.567  -16.122  -16.579  -16.893  -17.064  -17.127  -17.135  -17.132  -17.149  -17.199  -17.305  -17.498  -17.819  -18.284  -18.869  -19.521  -20.183  -20.818  -21.418  -21.992  -22.562  -23.147  -23.760  -24.409  -25.100  -25.843  -26.642  -27.493  -28.382  -29.286  -30.185  -31.063  -31.912  -32.729  -33.510  -34.249  -34.946  -35.605  -36.240  -36.874  -37.533  -38.244  -39.029  -39.907  -40.884  -41.951  -43.091  -44.278  -45.484  -46.678  -47.827  -48.902  -49.872  -50.725  -51.428  -51.917  -52.024  -51.260  -53.501
 -20.801  -20.975  -20.636  -19.998  -19.160  -18.170  -17.055  -15.868  -14.704  -13.679  -12.862  -12.251  -11.803  -11.481  -11.241  -11.037  -10.825  -10.587  -10.348  -10.170  -10.128  -10.267  -10.569  -10.958  -11.353  -11.712  -12.057  -12.445  -12.930  -13.528  -14.196  -14.845  -15.380  -15.745  -15.944  -16.031  -16.084  -16.171  -16.343  -16.625  -17.009  -17.452  -17.886  -18.249  -18.510  -18.666  -18.747  -18.791  -18.836  -18.909  -19.027  -19.209  -19.482  -19.869  -20.374  -20.969  -21.604  -22.233  -22.828  -23.383  -23.919  -24.459  -25.033  -25.661  -26.358  -27.137  -28.003  -28.952  -29.963  -31.008  -32.052  -33.068  -34.033  -34.939  -35.780  -36.555  -37.266  -37.916  -38.516  -39.084  -39.645  -40.228  -40.864  -41.581  -42.398  -43.323  -44.353  -45.470  -46.642  -47.835  -49.002  -50.106  -51.116  -52.006  -52.750  -53.299  -53.572  -53.392  -52.275  -54.485
 -19.363  -19.473  -19.131  -18.526  -17.757  -16.877  -15.922  -14.941  -14.012  -13.214  -12.586  -12.116  -11.767  -11.510  -11.313  -11.138  -10.948  -10.731  -10.510  -10.349  -10.329  -10.505  -10.867  -11.347  -11.865  -12.377  -12.900  -13.482  -14.170  -14.969  -15.828  -16.651  -17.346  -17.859  -18.190  -18.385  -18.509  -18.625  -18.776  -18.990  -19.266  -19.577  -19.881  -20.138  -20.326  -20.446  -20.514  -20.557  -20.605  -20.684  -20.814  -21.016  -21.311  -21.709  -22.204  -22.764  -23.345  -23.910  -24.439  -24.937  -25.424  -25.931  -26.488  -27.121  -27.847  -28.677  -29.612  -30.636  -31.718  -32.819  -33.902  -34.936  -35.902  -36.792  -37.603  -38.334  -38.989  -39.575  -40.102  -40.591  -41.064  -41.554  -42.092  -42.704  -43.409  -44.213  -45.105  -46.064  -47.057  -48.053  -49.023  -49.952  -50.820  -51.616  -52.295  -52.806  -53.053  -52.863  -51.806  -53.046
 -17.282  -17.297  -16.938  -16.356  -15.647  -14.873  -14.075  -13.294  -12.587  -11.999  -11.547  -11.213  -10.970  -10.794  -10.662  -10.546  -10.420  -10.275  -10.138  -10.068  -10.144  -10.421  -10.902  -11.531  -12.237  -12.977  -13.757  -14.609  -15.561  -16.602  -17.672  -18.679  -19.539  -20.204  -20.674  -20.985  -21.187  -21.336  -21.474  -21.631  -21.816  -22.014  -22.202  -22.356  -22.461  -22.516  -22.530  -22.520  -22.512  -22.531  -22.603  -22.750  -22.990  -23.329  -23.752  -24.229  -24.722  -25.202  -25.657  -26.094  -26.538  -27.016  -27.558  -28.184  -28.910  -29.743  -30.675  -31.685  -32.737  -33.791  -34.811  -35.772  -36.658  -37.463  -38.186  -38.828  -39.394  -39.891  -40.332  -40.735  -41.123  -41.524  -41.968  -42.478  -43.071  -43.754  -44.520  -45.354  -46.230  -47.125  -48.019  -48.897  -49.740  -50.524  -51.214  -51.750  -52.052  -51.959  -51.115  -51.348
 -14.924  -14.844  -14.462  -13.896  -13.238  -12.556  -11.894  -11.283  -10.757  -10.340  -10.031   -9.817   -9.676   -9.591   -9.546   -9.524   -9.511   -9.509   -9.540   -9.659   -9.934  -10.416  -11.110  -11.975  -12.946  -13.977  -15.055  -16.191  -17.392  -18.636  -19.863  -20.997  -21.969  -22.742  -23.314  -23.710  -23.970  -24.142  -24.266  -24.376  -24.486  -24.593  -24.685  -24.745  -24.762  -24.733  -24.662  -24.563  -24.459  -24.374  -24.337  -24.373  -24.501  -24.723  -25.025  -25.383  -25.764  -26.149  -26.527  -26.909  -27.315  -27.767  -28.286  -28.885  -29.572  -30.349  -31.204  -32.112  -33.043  -33.960  -34.836  -35.651  -36.396  -37.068  -37.668  -38.200  -38.668  -39.080  -39.446  -39.783  -40.108  -40.446  -40.822  -41.259  -41.773  -42.372  -43.055  -43.812  -44.628  -45.483  -46.360  -47.237  -48.092  -48.894  -49.607  -50.168  -50.504  -50.474  -49.809  -49.358
 -12.723  -12.569  -12.178  -11.635  -11.030  -10.432   -9.879   -9.399   -9.008   -8.716   -8.520   -8.408   -8.366   -8.382   -8.449   -8.563   -8.722   -8.931   -9.214   -9.611  -10.176  -10.950  -11.931  -13.081  -14.336  -15.638  -16.957  -18.286  -19.623  -20.947  -22.216  -23.374  -24.370  -25.175  -25.787  -26.220  -26.506  -26.681  -26.786  -26.852  -26.900  -26.933  -26.943  -26.920  -26.854  -26.739  -26.578  -26.384  -26.179  -25.987  -25.836  -25.751  -25.749  -25.837  -26.004  -26.231  -26.496  -26.783  -27.087  -27.416  -27.780  -28.197  -28.673  -29.214  -29.821  -30.488  -31.204  -31.947  -32.693  -33.417  -34.100  -34.731  -35.308  -35.830  -36.301  -36.724  -37.101  -37.438  -37.743  -38.029  -38.311  -38.607  -38.938  -39.323  -39.777  -40.309  -40.919  -41.603  -42.351  -43.149  -43.984  -44.838  -45.689  -46.507  -47.247  -47.845  -48.223  -48.260  -47.750  -46.952
 -11.086  -10.903  -10.536  -10.047   -9.515   -9.005   -8.552   -8.175   -7.885   -7.689   -7.583   -7.562   -7.620   -7.748   -7.948   -8.227   -8.590   -9.042   -9.596  -10.281  -11.131  -12.173  -13.403  -14.774  -16.218  -17.670  -19.088  -20.462  -21.791  -23.066  -24.265  -25.350  -26.291  -27.063  -27.659  -28.089  -28.371  -28.536  -28.618  -28.646  -28.642  -28.615  -28.560  -28.467  -28.330  -28.143  -27.910  -27.644  -27.364  -27.095  -26.860  -26.682  -26.578  -26.554  -26.604  -26.717  -26.879  -27.078  -27.312  -27.583  -27.897  -28.259  -28.667  -29.121  -29.613  -30.138  -30.683  -31.235  -31.774  -32.288  -32.769  -33.213  -33.622  -33.999  -34.346  -34.665  -34.959  -35.232  -35.490  -35.741  -35.996  -36.268  -36.575  -36.930  -37.347  -37.830  -38.382  -39.000  -39.679  -40.410  -41.184  -41.989  -42.804  -43.603  -44.344  -44.968  -45.391  -45.503  -45.137  -44.261
 -10.313  -10.153   -9.856   -9.465   -9.047   -8.652   -8.306   -8.026   -7.817   -7.690   -7.651   -7.703   -7.840   -8.065   -8.380   -8.798   -9.324   -9.955  -10.690  -11.545  -12.544  -13.708  -15.031  -16.469  -17.948  -19.400  -20.783  -22.081  -23.302  -24.447  -25.510  -26.472  -27.311  -28.011  -28.562  -28.965  -29.231  -29.382  -29.444  -29.446  -29.406  -29.336  -29.235  -29.095  -28.911  -28.678  -28.404  -28.102  -27.790  -27.487  -27.215  -26.992  -26.831  -26.738  -26.711  -26.742  -26.825  -26.952  -27.121  -27.332  -27.584  -27.875  -28.199  -28.549  -28.917  -29.295  -29.673  -30.042  -30.393  -30.719  -31.021  -31.303  -31.570  -31.823  -32.067  -32.300  -32.526  -32.748  -32.970  -33.197  -33.437  -33.700  -33.996  -34.338  -34.732  -35.184  -35.695  -36.263  -36.883  -37.550  -38.257  -38.995  -39.750  -40.499  -41.204  -41.815  -42.255  -42.423  -42.174  -41.371
 -10.495  -10.406  -10.220   -9.970   -9.705   -9.453   -9.229   -9.035   -8.882   -8.782   -8.755   -8.815   -8.965   -9.209   -9.554  -10.009  -10.574  -11.238  -11.990  -12.834  -13.796  -14.901  -16.148  -17.498  -18.880  -20.224  -21.484  -22.645  -23.713  -24.699  -25.607  -26.431  -27.158  -27.774  -28.271  -28.642  -28.894  -29.038  -29.098  -29.094  -29.045  -28.961  -28.843  -28.687  -28.489  -28.249  -27.973  -27.676  -27.374  -27.083  -26.819  -26.596  -26.422  -26.303  -26.238  -26.223  -26.255  -26.328  -26.443  -26.596  -26.784  -27.000  -27.238  -27.488  -27.743  -27.994  -28.236  -28.461  -28.665  -28.850  -29.020  -29.184  -29.346  -29.510  -29.676  -29.846  -30.021  -30.202  -30.395  -30.604  -30.833  -31.088  -31.377  -31.709  -32.089  -32.520  -33.002  -33.531  -34.103  -34.714  -35.357  -36.027  -36.713  -37.395  -38.045  -38.618  -39.048  -39.244  -39.080  -38.396
 -11.442  -11.458  -11.391  -11.287  -11.177  -11.064  -10.947  -10.812  -10.663  -10.521  -10.419  -10.388  -10.444  -10.594  -10.848  -11.210  -11.675  -12.227  -12.846  -13.535  -14.320  -15.233  -16.284  -17.441  -18.640  -19.812  -20.907  -21.907  -22.816  -23.646  -24.409  -25.105  -25.729  -26.272  -26.724  -27.078  -27.333  -27.497  -27.582  -27.607  -27.586  -27.527  -27.433  -27.302  -27.131  -26.924  -26.688  -26.436  -26.181  -25.937  -25.714  -25.521  -25.366  -25.252  -25.178  -25.143  -25.147  -25.187  -25.261  -25.369  -25.503  -25.657  -25.823  -25.993  -26.162  -26.322  -26.468  -26.597  -26.707  -26.802  -26.890  -26.978  -27.074  -27.179  -27.294  -27.419  -27.555  -27.704  -27.871  -28.059  -28.273  -28.516  -28.796  -29.117  -29.484  -29.900  -30.361  -30.862  -31.398  -31.964  -32.553  -33.163  -33.785  -34.406  -35.003  -35.537  -35.952  -36.167  -36.069  -35.504
 -12.705  -12.823  -12.841  -12.834  -12.822  -12.796  -12.734  -12.607  -12.408  -12.160  -11.911  -11.707  -11.581  -11.550  -11.621  -11.796  -12.070  -12.419  -12.824  -13.283  -13.824  -14.480  -15.272  -16.180  -17.151  -18.118  -19.032  -19.869  -20.632  -21.329  -21.973  -22.568  -23.114  -23.608  -24.043  -24.409  -24.701  -24.920  -25.074  -25.173  -25.226  -25.240  -25.215  -25.152  -25.050  -24.913  -24.749  -24.569  -24.384  -24.202  -24.033  -23.883  -23.758  -23.662  -23.595  -23.559  -23.553  -23.578  -23.632  -23.713  -23.814  -23.929  -24.049  -24.169  -24.285  -24.391  -24.484  -24.559  -24.618  -24.665  -24.708  -24.754  -24.810  -24.878  -24.958  -25.050  -25.154  -25.276  -25.417  -25.582  -25.777  -26.005  -26.272  -26.583  -26.943  -27.351  -27.802  -28.288  -28.800  -29.332  -29.880  -30.442  -31.014  -31.589  -32.148  -32.657  -33.069  -33.307  -33.271  -32.814
 -13.746  -13.925  -13.956  -13.957  -13.953  -13.931  -13.856  -13.684  -13.399  -13.020  -12.599  -12.200  -11.869  -11.628  -11.487  -11.447  -11.498  -11.621  -11.796  -12.018  -12.309  -12.705  -13.230  -13.877  -14.605  -15.360  -16.094  -16.785  -17.428  -18.027  -18.591  -19.125  -19.633  -20.116  -20.570  -20.986  -21.356  -21.673  -21.940  -22.156  -22.327  -22.452  -22.533  -22.567  -22.556  -22.506  -22.425  -22.320  -22.201  -22.076  -21.951  -21.836  -21.737  -21.660  -21.607  -21.579  -21.578  -21.607  -21.663  -21.742  -21.838  -21.941  -22.043  -22.142  -22.234  -22.316  -22.384  -22.436  -22.473  -22.498  -22.519  -22.543  -22.575  -22.617  -22.671  -22.736  -22.814  -22.909  -23.024  -23.164  -23.338  -23.550  -23.807  -24.116  -24.481  -24.896  -25.354  -25.840  -26.341  -26.850  -27.365  -27.890  -28.426  -28.969  -29.507  -30.009  -30.429  -30.700  -30.723  -30.362
 -14.136  -14.302  -14.267  -14.179  -14.085  -13.984  -13.834  -13.584  -13.201  -12.702  -12.140  -11.583  -11.088  -10.679  -10.362  -10.139  -10.001   -9.933   -9.916   -9.945  -10.036  -10.220  -10.519  -10.935  -11.444  -12.005  -12.586  -13.164  -13.730  -14.281  -14.817  -15.340  -15.858  -16.372  -16.882  -17.380  -17.855  -18.296  -18.695  -19.047  -19.346  -19.589  -19.774  -19.900  -19.973  -19.996  -19.978  -19.926  -19.848  -19.753  -19.651  -19.552  -19.467  -19.404  -19.365  -19.354  -19.373  -19.423  -19.501  -19.602  -19.714  -19.828  -19.935  -20.032  -20.119  -20.192  -20.251  -20.295  -20.323  -20.340  -20.351  -20.362  -20.378  -20.402  -20.434  -20.477  -20.532  -20.600  -20.687  -20.801  -20.952  -21.150  -21.407  -21.728  -22.115  -22.559  -23.044  -23.546  -24.050  -24.545  -25.036  -25.529  -26.036  -26.557  -27.084  -27.590  -28.028  -28.331  -28.409  -28.134
 -13.651  -13.731  -13.558  -13.302  -13.037  -12.788  -12.518  -12.173  -11.711  -11.138  -10.504   -9.879   -9.313   -8.829   -8.431   -8.112   -7.866   -7.685   -7.557   -7.475   -7.451   -7.505   -7.657   -7.910   -8.257   -8.679   -9.159   -9.679  -10.227  -10.787  -11.353  -11.919  -12.487  -13.062  -13.641  -14.221  -14.790  -15.333  -15.838  -16.291  -16.680  -17.001  -17.251  -17.431  -17.548  -17.607  -17.616  -17.583  -17.515  -17.423  -17.321  -17.225  -17.146  -17.094  -17.074  -17.088  -17.136  -17.219  -17.331  -17.463  -17.602  -17.733  -17.851  -17.951  -18.033  -18.099  -18.150  -18.187  -18.209  -18.221  -18.226  -18.230  -18.236  -18.248  -18.266  -18.291  -18.324  -18.366  -18.423  -18.508  -18.636  -18.824  -19.087  -19.435  -19.864  -20.358  -20.888  -21.425  -21.943  -22.435  -22.906  -23.373  -23.853  -24.356  -24.875  -25.386  -25.843  -26.178  -26.305  -26.106
 -12.296  -12.239  -11.893  -11.427  -10.952  -10.518  -10.112   -9.681   -9.180   -8.605   -8.000   -7.419   -6.903   -6.463   -6.093   -5.786   -5.536   -5.339   -5.189   -5.085   -5.031   -5.040   -5.126   -5.294   -5.554   -5.904   -6.344   -6.865   -7.449   -8.069   -8.706   -9.346   -9.985  -10.621  -11.253  -11.879  -12.491  -13.076  -13.617  -14.100  -14.513  -14.849  -15.108  -15.295  -15.415  -15.477  -15.485  -15.448  -15.373  -15.274  -15.169  -15.076  -15.008  -14.977  -14.983  -15.026  -15.107  -15.220  -15.359  -15.510  -15.661  -15.797  -15.910  -15.999  -16.064  -16.110  -16.141  -16.161  -16.172  -16.177  -16.178  -16.179  -16.182  -16.190  -16.201  -16.214  -16.230  -16.247  -16.274  -16.329  -16.433  -16.612  -16.887  -17.270  -17.754  -18.312  -18.902  -19.485  -20.029  -20.525  -20.983  -21.426  -21.879  -22.361  -22.871  -23.385  -23.857  -24.220  -24.388  -24.251
 -10.297  -10.101   -9.610   -8.969   -8.316   -7.728   -7.215   -6.735   -6.251   -5.752   -5.266   -4.824   -4.447   -4.131   -3.868   -3.647   -3.463   -3.318   -3.210   -3.138   -3.105   -3.120   -3.192   -3.330   -3.552   -3.876   -4.315   -4.865   -5.507   -6.204   -6.921   -7.636   -8.336   -9.012   -9.663  -10.289  -10.887  -11.448  -11.962  -12.413  -12.794  -13.099  -13.334  -13.503  -13.612  -13.669  -13.676  -13.639  -13.568  -13.479  -13.389  -13.319  -13.282  -13.283  -13.322  -13.394  -13.494  -13.617  -13.754  -13.891  -14.019  -14.126  -14.207  -14.258  -14.285  -14.292  -14.287  -14.278  -14.269  -14.262  -14.258  -14.259  -14.265  -14.277  -14.289  -14.300  -14.304  -14.302  -14.302  -14.327  -14.408  -14.580  -14.870  -15.293  -15.835  -16.461  -17.119  -17.752  -18.326  -18.830  -19.274  -19.692  -20.115  -20.570  -21.062  -21.574  -22.055  -22.438  -22.641  -22.560
  -8.084   -7.804   -7.260   -6.562   -5.849   -5.208   -4.661   -4.190   -3.766   -3.380   -3.040   -2.753   -2.519   -2.330   -2.176   -2.047   -1.942   -1.863   -1.809   -1.780   -1.779   -1.810   -1.881   -2.005   -2.205   -2.510   -2.943   -3.511   -4.192   -4.943   -5.718   -6.484   -7.215   -7.901   -8.538   -9.130   -9.679  -10.182  -10.633  -11.025  -11.354  -11.621  -11.832  -11.992  -12.108  -12.181  -12.213  -12.209  -12.176  -12.129  -12.089  -12.072  -12.083  -12.126  -12.194  -12.279  -12.375  -12.474  -12.568  -12.650  -12.714  -12.755  -12.772  -12.763  -12.733  -12.689  -12.640  -12.594  -12.559  -12.536  -12.525  -12.527  -12.541  -12.561  -12.583  -12.597  -12.598  -12.582  -12.563  -12.567  -12.633  -12.805  -13.117  -13.584  -14.188  -14.882  -15.601  -16.279  -16.875  -17.377  -17.799  -18.181  -18.561  -18.976  -19.441  -19.939  -20.422  -20.820  -21.051  -21.015
  -6.178   -5.890   -5.394   -4.762   -4.107   -3.508   -2.991   -2.560   -2.202   -1.914   -1.685   -1.507   -1.365   -1.250   -1.154   -1.081   -1.026   -0.987   -0.968   -0.965   -0.981   -1.018   -1.080   -1.185   -1.353   -1.624   -2.023   -2.566   -3.237   -3.992   -4.780   -5.554   -6.283   -6.948   -7.550   -8.091   -8.579   -9.018   -9.406   -9.743  -10.033  -10.280  -10.492  -10.673  -10.825  -10.950  -11.045  -11.110  -11.153  -11.186  -11.224  -11.276  -11.345  -11.425  -11.509  -11.585  -11.648  -11.691  -11.709  -11.702  -11.674  -11.625  -11.562  -11.484  -11.396  -11.303  -11.213  -11.135  -11.075  -11.036  -11.021  -11.025  -11.044  -11.074  -11.104  -11.126  -11.129  -11.113  -11.090  -11.092  -11.165  -11.358  -11.711  -12.235  -12.904  -13.659  -14.421  -15.120  -15.712  -16.186  -16.563  -16.887  -17.209  -17.571  -17.994  -18.466  -18.941  -19.347  -19.599  -19.600
  -4.943   -4.692   -4.276   -3.738   -3.160   -2.607   -2.121   -1.724   -1.420   -1.203   -1.052   -0.940   -0.844   -0.753   -0.674   -0.612   -0.571   -0.547   -0.539   -0.544   -0.561   -0.592   -0.638   -0.715   -0.844   -1.056   -1.390   -1.859   -2.460   -3.158   -3.901   -4.635   -5.325   -5.948   -6.502   -6.990   -7.424   -7.810   -8.153   -8.457   -8.732   -8.984   -9.220   -9.446   -9.661   -9.862  -10.046  -10.208  -10.351  -10.482  -10.608  -10.732  -10.851  -10.956  -11.038  -11.086  -11.096  -11.063  -10.990  -10.885  -10.758  -10.622  -10.482  -10.345  -10.213  -10.088   -9.976   -9.881   -9.808   -9.763   -9.745   -9.751   -9.774   -9.809   -9.848   -9.879   -9.894   -9.891   -9.886   -9.915  -10.028  -10.279  -10.703  -11.301  -12.033  -12.827  -13.598  -14.276  -14.822  -15.231  -15.535  -15.782  -16.030  -16.327  -16.699  -17.138  -17.595  -17.999  -18.263  -18.293
  -4.366   -4.151   -3.781   -3.282   -2.723   -2.172   -1.686   -1.305   -1.043   -0.886   -0.796   -0.732   -0.662   -0.579   -0.499   -0.433   -0.388   -0.361   -0.351   -0.354   -0.367   -0.386   -0.417   -0.468   -0.552   -0.701   -0.943   -1.305   -1.787   -2.374   -3.016   -3.664   -4.281   -4.844   -5.344   -5.784   -6.177   -6.528   -6.845   -7.137   -7.413   -7.683   -7.954   -8.230   -8.510   -8.791   -9.064   -9.324   -9.565   -9.787   -9.991  -10.174  -10.330  -10.448  -10.518  -10.532  -10.486  -10.382  -10.228  -10.040   -9.836   -9.634   -9.445   -9.276   -9.127   -8.996   -8.884   -8.794   -8.726   -8.686   -8.674   -8.685   -8.714   -8.757   -8.805   -8.849   -8.884   -8.912   -8.951   -9.038   -9.227   -9.568  -10.088  -10.766  -11.545  -12.339  -13.069  -13.674  -14.129  -14.440  -14.648  -14.809  -14.981  -15.216  -15.538  -15.938  -16.371  -16.763  -17.031  -17.083
  -4.100   -3.907   -3.551   -3.055   -2.483   -1.912   -1.416   -1.048   -0.820   -0.709   -0.667   -0.638   -0.590   -0.518   -0.440   -0.372   -0.320   -0.288   -0.275   -0.273   -0.281   -0.291   -0.312   -0.340   -0.392   -0.483   -0.639   -0.883   -1.229   -1.667   -2.170   -2.697   -3.215   -3.697   -4.136   -4.533   -4.893   -5.221   -5.526   -5.814   -6.095   -6.380   -6.677   -6.988   -7.312   -7.647   -7.983   -8.312   -8.622   -8.909   -9.167   -9.391   -9.570   -9.695   -9.755   -9.746   -9.663   -9.513   -9.312   -9.080   -8.841   -8.616   -8.418   -8.252   -8.116   -8.007   -7.920   -7.854   -7.810   -7.790   -7.795   -7.821   -7.864   -7.920   -7.984   -8.049   -8.114   -8.184   -8.282   -8.450   -8.738   -9.185   -9.801  -10.540  -11.327  -12.075  -12.714  -13.204  -13.536  -13.733  -13.843  -13.922  -14.032  -14.216  -14.497  -14.863  -15.269  -15.643  -15.904  -15.970
  -3.746   -3.574   -3.241   -2.771   -2.224   -1.675   -1.199   -0.857   -0.656   -0.576   -0.557   -0.549   -0.518   -0.464   -0.399   -0.338   -0.290   -0.256   -0.240   -0.237   -0.240   -0.247   -0.261   -0.277   -0.304   -0.354   -0.443   -0.588   -0.809   -1.101   -1.457   -1.846   -2.243   -2.632   -3.000   -3.348   -3.673   -3.979   -4.272   -4.557   -4.840   -5.128   -5.429   -5.745   -6.077   -6.423   -6.776   -7.125   -7.460   -7.771   -8.051   -8.291   -8.482   -8.615   -8.678   -8.669   -8.584   -8.433   -8.234   -8.012   -7.792   -7.595   -7.430   -7.302   -7.207   -7.140   -7.095   -7.070   -7.063   -7.078   -7.114   -7.167   -7.235   -7.314   -7.400   -7.491   -7.588   -7.703   -7.865   -8.116   -8.499   -9.041   -9.724  -10.484  -11.234  -11.894  -12.411  -12.766  -12.971  -13.061  -13.087  -13.107  -13.173  -13.325  -13.578  -13.915  -14.291  -14.642  -14.889  -14.960
  -3.109   -2.964   -2.694   -2.309   -1.855   -1.394   -0.993   -0.699   -0.526   -0.456   -0.443   -0.441   -0.423   -0.387   -0.341   -0.297   -0.259   -0.234   -0.219   -0.218   -0.222   -0.228   -0.236   -0.243   -0.255   -0.281   -0.327   -0.407   -0.531   -0.708   -0.933   -1.193   -1.472   -1.758   -2.048   -2.333   -2.616   -2.893   -3.167   -3.441   -3.721   -4.003   -4.291   -4.585   -4.887   -5.197   -5.515   -5.832   -6.141   -6.433   -6.699   -6.935   -7.128   -7.271   -7.356   -7.374   -7.326   -7.223   -7.079   -6.921   -6.769   -6.639   -6.541   -6.473   -6.436   -6.420   -6.425   -6.448   -6.489   -6.549   -6.626   -6.715   -6.815   -6.921   -7.031   -7.144   -7.269   -7.423   -7.638   -7.954   -8.407   -9.005   -9.710  -10.445  -11.122  -11.673  -12.064  -12.294  -12.391  -12.399  -12.370  -12.357  -12.404  -12.539  -12.771  -13.082  -13.429  -13.751  -13.980  -14.050
  -2.262   -2.149   -1.970   -1.709   -1.398   -1.072   -0.778   -0.555   -0.416   -0.353   -0.337   -0.332   -0.323   -0.303   -0.279   -0.252   -0.229   -0.213   -0.207   -0.211   -0.216   -0.221   -0.226   -0.228   -0.234   -0.243   -0.263   -0.303   -0.369   -0.465   -0.596   -0.755   -0.932   -1.126   -1.333   -1.551   -1.776   -2.013   -2.262   -2.523   -2.793   -3.065   -3.330   -3.583   -3.829   -4.072   -4.316   -4.561   -4.803   -5.040   -5.267   -5.478   -5.667   -5.824   -5.942   -6.013   -6.035   -6.016   -5.969   -5.910   -5.855   -5.815   -5.796   -5.796   -5.815   -5.851   -5.905   -5.974   -6.063   -6.169   -6.287   -6.413   -6.541   -6.670   -6.796   -6.923   -7.063   -7.239   -7.486   -7.838   -8.322   -8.930   -9.614  -10.290  -10.880  -11.325  -11.608  -11.743  -11.766  -11.725  -11.672  -11.652  -11.697  -11.828  -12.045  -12.333  -12.651  -12.947  -13.158  -13.226
  -1.430   -1.357   -1.261   -1.120   -0.943   -0.751   -0.568   -0.420   -0.323   -0.271   -0.255   -0.249   -0.247   -0.239   -0.227   -0.215   -0.205   -0.200   -0.205   -0.213   -0.222   -0.227   -0.229   -0.225   -0.221   -0.223   -0.230   -0.248   -0.279   -0.329   -0.401   -0.487   -0.591   -0.710   -0.844   -0.992   -1.160   -1.349   -1.567   -1.807   -2.065   -2.319   -2.553   -2.761   -2.942   -3.106   -3.263   -3.418   -3.578   -3.744   -3.916   -4.094   -4.273   -4.446   -4.603   -4.738   -4.848   -4.930   -4.993   -5.045   -5.093   -5.146   -5.204   -5.268   -5.340   -5.421   -5.513   -5.621   -5.746   -5.884   -6.030   -6.177   -6.320   -6.457   -6.584   -6.711   -6.850   -7.030   -7.281   -7.639   -8.116   -8.697   -9.332   -9.940  -10.447  -10.809  -11.017  -11.092  -11.077  -11.019  -10.965  -10.955  -11.010  -11.144  -11.356  -11.627  -11.924  -12.200  -12.400  -12.468
  -0.817   -0.771   -0.730   -0.667   -0.585   -0.487   -0.390   -0.304   -0.244   -0.212   -0.203   -0.200   -0.204   -0.203   -0.199   -0.196   -0.193   -0.200   -0.213   -0.229   -0.242   -0.245   -0.239   -0.230   -0.218   -0.211   -0.209   -0.216   -0.230   -0.256   -0.291   -0.336   -0.392   -0.458   -0.536   -0.629   -0.740   -0.882   -1.059   -1.269   -1.499   -1.721   -1.918   -2.077   -2.198   -2.293   -2.373   -2.450   -2.533   -2.631   -2.751   -2.895   -3.063   -3.247   -3.443   -3.640   -3.833   -4.012   -4.177   -4.329   -4.473   -4.611   -4.742   -4.866   -4.985   -5.103   -5.225   -5.357   -5.499   -5.647   -5.796   -5.941   -6.074   -6.196   -6.308   -6.416   -6.541   -6.708   -6.947   -7.284   -7.729   -8.266   -8.843   -9.389   -9.837  -10.147  -10.315  -10.365  -10.340  -10.285  -10.245  -10.250  -10.322  -10.467  -10.681  -10.947  -11.237  -11.506  -11.704  -11.778
  -0.462   -0.431   -0.418   -0.392   -0.355   -0.311   -0.267   -0.224   -0.193   -0.179   -0.175   -0.178   -0.184   -0.188   -0.189   -0.189   -0.195   -0.212   -0.235   -0.254   -0.266   -0.263   -0.249   -0.231   -0.213   -0.202   -0.196   -0.197   -0.203   -0.213   -0.230   -0.253   -0.282   -0.314   -0.355   -0.408   -0.478   -0.575   -0.706   -0.869   -1.051   -1.228   -1.377   -1.490   -1.563   -1.608   -1.636   -1.660   -1.691   -1.741   -1.818   -1.932   -2.085   -2.274   -2.494   -2.738   -2.990   -3.241   -3.483   -3.719   -3.946   -4.162   -4.362   -4.545   -4.709   -4.861   -5.005   -5.146   -5.285   -5.422   -5.548   -5.661   -5.761   -5.851   -5.932   -6.015   -6.117   -6.264   -6.481   -6.790   -7.197   -7.687   -8.213   -8.713   -9.127   -9.416   -9.575   -9.629   -9.616   -9.580   -9.560   -9.585   -9.673   -9.832  -10.055  -10.328  -10.622  -10.895  -11.097  -11.178
  -0.295   -0.270   -0.261   -0.252   -0.235   -0.214   -0.195   -0.176   -0.164   -0.158   -0.158   -0.166   -0.176   -0.182   -0.186   -0.190   -0.203   -0.229   -0.262   -0.287   -0.293   -0.278   -0.254   -0.227   -0.203   -0.191   -0.183   -0.181   -0.183   -0.188   -0.196   -0.208   -0.221   -0.237   -0.258   -0.286   -0.325   -0.385   -0.470   -0.580   -0.706   -0.828   -0.928   -0.999   -1.039   -1.056   -1.059   -1.057   -1.060   -1.083   -1.132   -1.219   -1.351   -1.528   -1.750   -2.005   -2.280   -2.568   -2.858   -3.151   -3.446   -3.733   -4.003   -4.245   -4.458   -4.643   -4.805   -4.947   -5.073   -5.180   -5.267   -5.336   -5.392   -5.442   -5.489   -5.547   -5.630   -5.763   -5.964   -6.251   -6.627   -7.078   -7.566   -8.034   -8.431   -8.719   -8.892   -8.971   -8.987   -8.981   -8.987   -9.035   -9.141   -9.312   -9.547   -9.829  -10.132  -10.411  -10.617  -10.702
  -0.226   -0.201   -0.195   -0.188   -0.179   -0.170   -0.160   -0.151   -0.148   -0.145   -0.150   -0.156   -0.165   -0.173   -0.179   -0.186   -0.206   -0.242   -0.282   -0.309   -0.308   -0.282   -0.246   -0.212   -0.189   -0.177   -0.170   -0.167   -0.170   -0.171   -0.176   -0.183   -0.190   -0.199   -0.207   -0.223   -0.244   -0.276   -0.324   -0.388   -0.459   -0.532   -0.588   -0.627   -0.648   -0.654   -0.650   -0.642   -0.639   -0.651   -0.681   -0.743   -0.845   -0.993   -1.185   -1.416   -1.676   -1.956   -2.258   -2.579   -2.920   -3.266   -3.599   -3.902   -4.166   -4.388   -4.569   -4.714   -4.826   -4.904   -4.954   -4.983   -5.002   -5.019   -5.045   -5.091   -5.169   -5.300   -5.497   -5.773   -6.130   -6.549   -7.001   -7.443   -7.824   -8.118   -8.313   -8.426   -8.483   -8.517   -8.556   -8.630   -8.754   -8.940   -9.184   -9.472   -9.778  -10.057  -10.261  -10.341
  -0.194   -0.171   -0.168   -0.160   -0.154   -0.149   -0.144   -0.139   -0.137   -0.138   -0.140   -0.144   -0.152   -0.159   -0.165   -0.176   -0.201   -0.239   -0.284   -0.310   -0.307   -0.273   -0.230   -0.194   -0.173   -0.161   -0.157   -0.157   -0.156   -0.158   -0.161   -0.166   -0.171   -0.175   -0.183   -0.189   -0.200   -0.217   -0.241   -0.271   -0.307   -0.341   -0.370   -0.389   -0.399   -0.402   -0.399   -0.396   -0.393   -0.400   -0.420   -0.460   -0.529   -0.634   -0.776   -0.954   -1.164   -1.405   -1.682   -1.999   -2.354   -2.735   -3.116   -3.473   -3.787   -4.049   -4.257   -4.413   -4.521   -4.586   -4.616   -4.624   -4.625   -4.632   -4.656   -4.706   -4.794   -4.934   -5.137   -5.406   -5.740   -6.123   -6.533   -6.934   -7.290   -7.577   -7.788   -7.932   -8.030   -8.107   -8.186   -8.290   -8.437   -8.638   -8.890   -9.181   -9.483   -9.756   -9.953  -10.021
  -0.178   -0.157   -0.152   -0.146   -0.142   -0.137   -0.134   -0.132   -0.130   -0.129   -0.132   -0.134   -0.139   -0.142   -0.148   -0.159   -0.183   -0.220   -0.263   -0.287   -0.280   -0.248   -0.209   -0.176   -0.157   -0.147   -0.146   -0.144   -0.146   -0.149   -0.152   -0.155   -0.158   -0.161   -0.166   -0.170   -0.177   -0.185   -0.195   -0.210   -0.226   -0.240   -0.253   -0.261   -0.268   -0.270   -0.271   -0.271   -0.273   -0.277   -0.289   -0.310   -0.350   -0.413   -0.503   -0.619   -0.764   -0.942   -1.165   -1.444   -1.779   -2.156   -2.554   -2.941   -3.294   -3.596   -3.835   -4.012   -4.133   -4.205   -4.239   -4.253   -4.260   -4.279   -4.320   -4.390   -4.499   -4.653   -4.856   -5.109   -5.404   -5.736   -6.085   -6.425   -6.734   -6.995   -7.203   -7.364   -7.492   -7.605   -7.720   -7.855   -8.028   -8.246   -8.509   -8.801   -9.097   -9.361   -9.549   -9.609
  -0.169   -0.149   -0.144   -0.139   -0.135   -0.132   -0.129   -0.127   -0.125   -0.124   -0.123   -0.126   -0.128   -0.128   -0.133   -0.144   -0.161   -0.191   -0.222   -0.241   -0.239   -0.213   -0.183   -0.158   -0.144   -0.137   -0.135   -0.136   -0.138   -0.141   -0.143   -0.146   -0.149   -0.152   -0.155   -0.157   -0.161   -0.165   -0.172   -0.178   -0.185   -0.191   -0.197   -0.202   -0.206   -0.209   -0.211   -0.213   -0.214   -0.219   -0.225   -0.238   -0.258   -0.289   -0.336   -0.401   -0.486   -0.601   -0.758   -0.969   -1.246   -1.580   -1.952   -2.335   -2.700   -3.021   -3.283   -3.485   -3.629   -3.725   -3.785   -3.824   -3.860   -3.910   -3.983   -4.083   -4.218   -4.381   -4.573   -4.792   -5.035   -5.294   -5.562   -5.824   -6.068   -6.280   -6.463   -6.620   -6.758   -6.891   -7.030   -7.188   -7.379   -7.610   -7.879   -8.170   -8.461   -8.717   -8.903   -8.964
  -0.164   -0.144   -0.139   -0.135   -0.131   -0.128   -0.125   -0.123   -0.121   -0.120   -0.119   -0.118   -0.119   -0.121   -0.122   -0.129   -0.140   -0.159   -0.179   -0.192   -0.191   -0.175   -0.157   -0.139   -0.131   -0.129   -0.128   -0.130   -0.132   -0.134   -0.136   -0.138   -0.141   -0.143   -0.146   -0.148   -0.151   -0.154   -0.156   -0.160   -0.163   -0.169   -0.172   -0.175   -0.179   -0.181   -0.184   -0.187   -0.189   -0.192   -0.195   -0.201   -0.211   -0.226   -0.246   -0.277   -0.320   -0.384   -0.480   -0.619   -0.817   -1.075   -1.380   -1.713   -2.047   -2.354   -2.617   -2.830   -2.995   -3.120   -3.213   -3.288   -3.365   -3.457   -3.576   -3.718   -3.879   -4.050   -4.222   -4.395   -4.572   -4.749   -4.925   -5.099   -5.262   -5.412   -5.550   -5.680   -5.808   -5.938   -6.078   -6.240   -6.434   -6.662   -6.923   -7.204   -7.482   -7.730   -7.913   -7.986
  -0.158   -0.140   -0.135   -0.130   -0.127   -0.124   -0.121   -0.119   -0.118   -0.116   -0.115   -0.114   -0.114   -0.113   -0.115   -0.118   -0.124   -0.132   -0.144   -0.151   -0.151   -0.143   -0.134   -0.127   -0.123   -0.121   -0.122   -0.124   -0.126   -0.128   -0.130   -0.132   -0.134   -0.136   -0.138   -0.140   -0.143   -0.145   -0.147   -0.150   -0.152   -0.154   -0.157   -0.159   -0.162   -0.164   -0.167   -0.169   -0.172   -0.174   -0.177   -0.181   -0.187   -0.193   -0.203   -0.214   -0.234   -0.265   -0.313   -0.395   -0.517   -0.686   -0.901   -1.150   -1.413   -1.668   -1.901   -2.099   -2.268   -2.407   -2.527   -2.639   -2.759   -2.903   -3.074   -3.266   -3.458   -3.637   -3.789   -3.916   -4.023   -4.116   -4.202   -4.282   -4.361   -4.440   -4.521   -4.608   -4.705   -4.812   -4.934   -5.078   -5.251   -5.452   -5.683   -5.930   -6.180   -6.408   -6.581   -6.669
  -0.154   -0.136   -0.131   -0.127   -0.123   -0.121   -0.118   -0.116   -0.115   -0.113   -0.112   -0.111   -0.111   -0.110   -0.110   -0.110   -0.115   -0.118   -0.122   -0.127   -0.127   -0.124   -0.120   -0.118   -0.115   -0.116   -0.117   -0.119   -0.121   -0.122   -0.124   -0.126   -0.128   -0.130   -0.132   -0.134   -0.136   -0.138   -0.140   -0.142   -0.144   -0.146   -0.148   -0.150   -0.153   -0.155   -0.157   -0.159   -0.161   -0.163   -0.166   -0.168   -0.171   -0.174   -0.179   -0.185   -0.193   -0.206   -0.230   -0.270   -0.334   -0.430   -0.556   -0.713   -0.889   -1.069   -1.240   -1.400   -1.544   -1.677   -1.805   -1.941   -2.098   -2.288   -2.509   -2.745   -2.970   -3.156   -3.292   -3.378   -3.424   -3.443   -3.445   -3.441   -3.437   -3.444   -3.468   -3.508   -3.567   -3.640   -3.730   -3.838   -3.971   -4.127   -4.306   -4.498   -4.696   -4.883   -5.030   -5.126
  -0.150   -0.132   -0.128   -0.124   -0.120   -0.118   -0.115   -0.114   -0.112   -0.111   -0.110   -0.109   -0.108   -0.108   -0.107   -0.107   -0.107   -0.110   -0.112   -0.114   -0.114   -0.113   -0.111   -0.110   -0.111   -0.112   -0.114   -0.115   -0.116   -0.118   -0.119   -0.121   -0.122   -0.124   -0.126   -0.128   -0.130   -0.131   -0.133   -0.135   -0.137   -0.139   -0.141   -0.143   -0.145   -0.146   -0.148   -0.150   -0.152   -0.154   -0.156   -0.158   -0.161   -0.163   -0.165   -0.168   -0.173   -0.179   -0.189   -0.206   -0.235   -0.281   -0.346   -0.428   -0.525   -0.631   -0.738   -0.842   -0.948   -1.054   -1.170   -1.307   -1.477   -1.689   -1.937   -2.195   -2.432   -2.619   -2.739   -2.794   -2.795   -2.759   -2.698   -2.626   -2.557   -2.508   -2.482   -2.484   -2.509   -2.551   -2.609   -2.682   -2.770   -2.877   -2.997   -3.126   -3.264   -3.394   -3.501   -3.594
  -0.147   -0.130   -0.125   -0.121   -0.118   -0.115   -0.113   -0.111   -0.110   -0.109   -0.107   -0.107   -0.106   -0.105   -0.105   -0.105   -0.105   -0.105   -0.105   -0.105   -0.105   -0.106   -0.107   -0.108   -0.108   -0.109   -0.110   -0.111   -0.112   -0.114   -0.115   -0.116   -0.118   -0.119   -0.121   -0.122   -0.124   -0.126   -0.128   -0.129   -0.131   -0.133   -0.134   -0.136   -0.138   -0.139   -0.141   -0.143   -0.145   -0.146   -0.148   -0.150   -0.152   -0.154   -0.156   -0.158   -0.160   -0.163   -0.168   -0.177   -0.187   -0.207   -0.235   -0.272   -0.316   -0.367   -0.422   -0.482   -0.544   -0.615   -0.705   -0.822   -0.978   -1.176   -1.410   -1.651   -1.869   -2.036   -2.132   -2.165   -2.142   -2.077   -1.984   -1.876   -1.776   -1.696   -1.645   -1.624   -1.628   -1.650   -1.684   -1.731   -1.792   -1.861   -1.941   -2.027   -2.115   -2.199   -2.271   -2.350
  -0.144   -0.127   -0.123   -0.119   -0.116   -0.113   -0.111   -0.109   -0.108   -0.107   -0.106   -0.105   -0.104   -0.104   -0.103   -0.103   -0.103   -0.103   -0.103   -0.103   -0.104   -0.104   -0.105   -0.105   -0.106   -0.107   -0.107   -0.108   -0.109   -0.110   -0.112   -0.113   -0.114   -0.115   -0.116   -0.118   -0.119   -0.121   -0.123   -0.124   -0.126   -0.127   -0.129   -0.130   -0.132   -0.133   -0.135   -0.137   -0.138   -0.140   -0.141   -0.143   -0.145   -0.147   -0.149   -0.150   -0.152   -0.154   -0.156   -0.160   -0.166   -0.174   -0.184   -0.198   -0.216   -0.238   -0.261   -0.289   -0.321   -0.364   -0.421   -0.505   -0.625   -0.779   -0.961   -1.149   -1.318   -1.444   -1.515   -1.529   -1.500   -1.435   -1.341   -1.236   -1.140   -1.061   -1.011   -0.985   -0.980   -0.992   -1.014   -1.051   -1.096   -1.156   -1.225   -1.298   -1.372   -1.439   -1.493   -1.562
  -0.142   -0.125   -0.121   -0.117   -0.114   -0.112   -0.110   -0.108   -0.107   -0.105   -0.104   -0.104   -0.103   -0.102   -0.102   -0.102   -0.102   -0.101   -0.102   -0.102   -0.102   -0.102   -0.103   -0.103   -0.104   -0.105   -0.105   -0.106   -0.107   -0.108   -0.109   -0.110   -0.111   -0.112   -0.113   -0.114   -0.116   -0.117   -0.118   -0.119   -0.121   -0.123   -0.124   -0.126   -0.127   -0.128   -0.130   -0.131   -0.133   -0.134   -0.136   -0.137   -0.139   -0.140   -0.142   -0.144   -0.146   -0.147   -0.149   -0.151   -0.153   -0.157   -0.162   -0.167   -0.174   -0.183   -0.191   -0.203   -0.218   -0.241   -0.273   -0.323   -0.398   -0.499   -0.614   -0.735   -0.843   -0.921   -0.963   -0.971   -0.947   -0.898   -0.830   -0.755   -0.684   -0.628   -0.591   -0.571   -0.567   -0.574   -0.594   -0.626   -0.673   -0.740   -0.818   -0.906   -0.993   -1.069   -1.127   -1.189
  -0.141   -0.124   -0.120   -0.116   -0.113   -0.111   -0.109   -0.107   -0.106   -0.104   -0.103   -0.103   -0.102   -0.101   -0.101   -0.101   -0.101   -0.100   -0.101   -0.101   -0.101   -0.101   -0.101   -0.102   -0.102   -0.103   -0.104   -0.104   -0.105   -0.106   -0.107   -0.108   -0.109   -0.110   -0.111   -0.112   -0.113   -0.114   -0.115   -0.116   -0.117   -0.119   -0.120   -0.121   -0.123   -0.124   -0.126   -0.127   -0.128   -0.130   -0.131   -0.132   -0.134   -0.135   -0.137   -0.138   -0.140   -0.142   -0.143   -0.145   -0.147   -0.149   -0.151   -0.154   -0.156   -0.162   -0.164   -0.171   -0.177   -0.187   -0.204   -0.229   -0.270   -0.320   -0.381   -0.444   -0.499   -0.541   -0.562   -0.567   -0.553   -0.524   -0.487   -0.444   -0.405   -0.374   -0.357   -0.346   -0.345   -0.352   -0.369   -0.399   -0.447   -0.519   -0.611   -0.717   -0.824   -0.918   -0.991   -1.056
  -0.140   -0.123   -0.120   -0.116   -0.113   -0.110   -0.108   -0.107   -0.105   -0.104   -0.103   -0.102   -0.102   -0.101   -0.101   -0.100   -0.100   -0.100   -0.100   -0.100   -0.100   -0.100   -0.101   -0.101   -0.102   -0.102   -0.103   -0.103   -0.104   -0.105   -0.105   -0.106   -0.107   -0.108   -0.109   -0.110   -0.111   -0.112   -0.113   -0.114   -0.115   -0.116   -0.117   -0.118   -0.119   -0.121   -0.122   -0.124   -0.125   -0.126   -0.127   -0.129   -0.130   -0.131   -0.133   -0.134   -0.135   -0.137   -0.139   -0.140   -0.142   -0.143   -0.145   -0.147   -0.149   -0.150   -0.152   -0.155   -0.159   -0.165   -0.172   -0.184   -0.201   -0.222   -0.251   -0.278   -0.300   -0.320   -0.328   -0.330   -0.324   -0.314   -0.298   -0.280   -0.264   -0.252   -0.245   -0.240   -0.242   -0.249   -0.261   -0.286   -0.332   -0.402   -0.494   -0.602   -0.720   -0.833   -0.918   -0.987
  -0.140   -0.124   -0.120   -0.116   -0.113   -0.111   -0.109   -0.107   -0.106   -0.105   -0.104   -0.103   -0.102   -0.102   -0.101   -0.101   -0.101   -0.100   -0.100   -0.100   -0.100   -0.101   -0.101   -0.101   -0.102   -0.102   -0.102   -0.103   -0.104   -0.104   -0.105   -0.106   -0.106   -0.107   -0.108   -0.109   -0.110   -0.111   -0.111   -0.112   -0.113   -0.114   -0.115   -0.116   -0.117   -0.119   -0.120   -0.121   -0.122   -0.124   -0.125   -0.126   -0.127   -0.128   -0.130   -0.131   -0.132   -0.134   -0.135   -0.136   -0.138   -0.139   -0.141   -0.143   -0.144   -0.146   -0.148   -0.149   -0.151   -0.153   -0.158   -0.163   -0.170   -0.178   -0.189   -0.198   -0.207   -0.214   -0.217   -0.219   -0.220   -0.217   -0.213   -0.208   -0.205   -0.200   -0.197   -0.199   -0.200   -0.206   -0.214   -0.233   -0.268   -0.324   -0.403   -0.504   -0.619   -0.734   -0.828   -0.902
  -0.142   -0.124   -0.121   -0.117   -0.114   -0.111   -0.109   -0.108   -0.106   -0.105   -0.104   -0.103   -0.103   -0.102   -0.102   -0.101   -0.101   -0.101   -0.101   -0.101   -0.101   -0.101   -0.101   -0.101   -0.102   -0.102   -0.102   -0.103   -0.103   -0.104   -0.104   -0.105   -0.106   -0.106   -0.107   -0.108   -0.109   -0.110   -0.110   -0.111   -0.112   -0.113   -0.114   -0.115   -0.116   -0.117   -0.118   -0.119   -0.120   -0.121   -0.123   -0.124   -0.125   -0.126   -0.127   -0.128   -0.129   -0.131   -0.132   -0.133   -0.135   -0.136   -0.137   -0.139   -0.140   -0.142   -0.143   -0.145   -0.147   -0.148   -0.150   -0.152   -0.156   -0.160   -0.163   -0.168   -0.172   -0.173   -0.175   -0.177   -0.179   -0.180   -0.178   -0.178   -0.179   -0.180   -0.178   -0.179   -0.181   -0.186   -0.194   -0.206   -0.228   -0.270   -0.330   -0.417   -0.523   -0.636   -0.731   -0.809
  -0.182   -0.139   -0.133   -0.129   -0.126   -0.123   -0.121   -0.120   -0.118   -0.117   -0.116   -0.115   -0.114   -0.114   -0.113   -0.113   -0.113   -0.112   -0.112   -0.112   -0.112   -0.112   -0.112   -0.112   -0.113   -0.113   -0.113   -0.114   -0.114   -0.114   -0.115   -0.116   -0.116   -0.117   -0.117   -0.118   -0.119   -0.120   -0.120   -0.121   -0.122   -0.123   -0.124   -0.125   -0.125   -0.126   -0.127   -0.128   -0.129   -0.130   -0.132   -0.133   -0.134   -0.135   -0.136   -0.137   -0.138   -0.140   -0.141   -0.142   -0.143   -0.145   -0.146   -0.148   -0.149   -0.150   -0.152   -0.153   -0.155   -0.157   -0.158   -0.160   -0.161   -0.163   -0.165   -0.168   -0.174   -0.175   -0.177   -0.179   -0.180   -0.178   -0.179   -0.180   -0.181   -0.183   -0.185   -0.186   -0.188   -0.190   -0.198   -0.206   -0.223   -0.257   -0.310   -0.385   -0.487   -0.596   -0.693   -0.803
