DSAA
 100 100
 0.0 400.0
 0.0 400.0
 -120.3885 -0.2160831
 -13.042  -13.177  -13.376  -13.675  -14.076  -14.556  -15.065  -15.544  -15.910  -16.081  -15.973  -15.477  -14.507  -13.061  -11.279   -9.444   -7.909   -6.924   -6.543   -6.649   -7.087   -7.728   -8.519   -9.422  -10.365  -11.202  -11.758  -11.897  -11.589  -10.876   -9.825   -8.553   -7.218   -6.051   -5.262   -4.913   -4.917   -5.097   -5.291   -5.395   -5.383   -5.274   -5.118   -4.980   -4.896   -4.894   -4.970   -5.099   -5.246   -5.407   -5.582   -5.781   -5.982   -6.110   -6.044   -5.669   -4.928   -3.910   -2.803   -1.832   -1.133   -0.705   -0.476   -0.371   -0.332   -0.308   -0.301   -0.294   -0.289   -0.282   -0.279   -0.278   -0.279   -0.281   -0.283   -0.285   -0.279   -0.279   -0.282   -0.293   -0.301   -0.307   -0.314   -0.331   -0.353   -0.391   -0.451   -0.548   -0.701   -0.929   -1.263   -1.693   -2.219   -2.825   -3.529   -4.365   -5.327   -6.311   -7.126   -7.658
 -12.911  -13.026  -13.199  -13.457  -13.802  -14.220  -14.677  -15.103  -15.430  -15.583  -15.476  -15.014  -14.099  -12.727  -11.019   -9.250   -7.746   -6.757   -6.342   -6.403   -6.782   -7.370   -8.109   -8.968   -9.876  -10.699  -11.283  -11.505  -11.330  -10.774   -9.886   -8.737   -7.488   -6.353   -5.522   -5.068   -4.932   -4.985   -5.099   -5.170   -5.158   -5.071   -4.945   -4.832   -4.776   -4.790   -4.877   -5.006   -5.147   -5.298   -5.465   -5.658   -5.861   -6.009   -5.987   -5.678   -5.024   -4.088   -3.037   -2.078   -1.347   -0.870   -0.599   -0.462   -0.396   -0.366   -0.347   -0.332   -0.316   -0.303   -0.292   -0.282   -0.281   -0.280   -0.275   -0.276   -0.277   -0.280   -0.284   -0.290   -0.296   -0.310   -0.323   -0.354   -0.401   -0.479   -0.605   -0.796   -1.070   -1.455   -1.971   -2.613   -3.341   -4.130   -4.988   -5.931   -6.964   -7.986   -8.801   -9.285
 -12.545  -12.633  -12.753  -12.929  -13.165  -13.461  -13.795  -14.112  -14.350  -14.449  -14.339  -13.939  -13.161  -11.978  -10.486   -8.903   -7.514   -6.551   -6.085   -6.052   -6.315   -6.781   -7.400   -8.136   -8.929   -9.679  -10.274  -10.622  -10.677  -10.418   -9.839   -8.983   -7.959   -6.938   -6.079   -5.453   -5.055   -4.849   -4.777   -4.769   -4.769   -4.746   -4.709   -4.689   -4.717   -4.791   -4.894   -5.000   -5.093   -5.194   -5.313   -5.475   -5.661   -5.825   -5.868   -5.687   -5.215   -4.470   -3.568   -2.674   -1.919   -1.364   -1.008   -0.800   -0.691   -0.633   -0.592   -0.555   -0.510   -0.462   -0.430   -0.406   -0.392   -0.385   -0.382   -0.377   -0.373   -0.375   -0.380   -0.390   -0.407   -0.429   -0.464   -0.533   -0.650   -0.853   -1.151   -1.567   -2.116   -2.825   -3.699   -4.706   -5.773   -6.829   -7.863   -8.903   -9.953  -10.930  -11.684  -12.065
 -11.865  -11.914  -11.964  -12.034  -12.131  -12.275  -12.461  -12.649  -12.779  -12.808  -12.689  -12.361  -11.757  -10.841   -9.657   -8.358   -7.170   -6.287   -5.799   -5.669   -5.797   -6.104   -6.550   -7.106   -7.720   -8.331   -8.884   -9.322   -9.600   -9.665   -9.469   -9.007   -8.332   -7.541   -6.719   -5.929   -5.235   -4.710   -4.391   -4.271   -4.281   -4.372   -4.520   -4.716   -4.945   -5.158   -5.305   -5.357   -5.327   -5.277   -5.262   -5.318   -5.443   -5.592   -5.700   -5.668   -5.412   -4.925   -4.255   -3.508   -2.801   -2.213   -1.783   -1.506   -1.343   -1.255   -1.183   -1.106   -1.004   -0.898   -0.808   -0.755   -0.725   -0.712   -0.700   -0.682   -0.666   -0.660   -0.667   -0.695   -0.730   -0.781   -0.868   -1.016   -1.281   -1.707   -2.312   -3.094   -4.040   -5.150   -6.408   -7.748   -9.066  -10.272  -11.345  -12.333  -13.259  -14.085  -14.693  -14.924
 -10.816  -10.810  -10.783  -10.735  -10.691  -10.687  -10.730  -10.789  -10.819  -10.784  -10.659  -10.415  -10.005   -9.392   -8.574   -7.637   -6.727   -6.009   -5.557   -5.374   -5.388   -5.540   -5.791   -6.126   -6.507   -6.911   -7.336   -7.766   -8.176   -8.511   -8.709   -8.721   -8.511   -8.057   -7.347   -6.447   -5.487   -4.650   -4.076   -3.822   -3.843   -4.095   -4.524   -5.079   -5.659   -6.138   -6.395   -6.385   -6.157   -5.839   -5.568   -5.415   -5.390   -5.456   -5.567   -5.641   -5.597   -5.380   -4.993   -4.480   -3.918   -3.396   -2.966   -2.663   -2.483   -2.378   -2.292   -2.171   -1.999   -1.807   -1.650   -1.552   -1.509   -1.488   -1.462   -1.423   -1.387   -1.375   -1.392   -1.448   -1.528   -1.633   -1.793   -2.079   -2.565   -3.310   -4.306   -5.499   -6.835   -8.275   -9.772  -11.254  -12.594  -13.718  -14.627  -15.396  -16.076  -16.663  -17.078  -17.158
  -9.451   -9.385   -9.272   -9.109   -8.931   -8.792   -8.714   -8.676   -8.632   -8.550   -8.435   -8.278   -8.069   -7.767   -7.342   -6.808   -6.245   -5.763   -5.433   -5.263   -5.215   -5.244   -5.322   -5.432   -5.555   -5.705   -5.912   -6.215   -6.632   -7.152   -7.730   -8.276   -8.624   -8.585   -8.054   -7.093   -5.926   -4.829   -4.017   -3.599   -3.593   -3.990   -4.742   -5.735   -6.786   -7.648   -8.117   -8.110   -7.704   -7.101   -6.506   -6.042   -5.743   -5.611   -5.625   -5.723   -5.823   -5.841   -5.729   -5.483   -5.150   -4.787   -4.453   -4.201   -4.057   -3.981   -3.912   -3.779   -3.566   -3.318   -3.111   -2.987   -2.940   -2.924   -2.895   -2.844   -2.795   -2.777   -2.813   -2.906   -3.044   -3.232   -3.501   -3.952   -4.682   -5.737   -7.069   -8.567  -10.141  -11.725  -13.270  -14.679  -15.838  -16.682  -17.261  -17.691  -18.067  -18.403  -18.635  -18.599
  -7.982   -7.848   -7.646   -7.375   -7.080   -6.834   -6.670   -6.566   -6.482   -6.386   -6.286   -6.212   -6.187   -6.188   -6.154   -6.040   -5.854   -5.657   -5.510   -5.424   -5.374   -5.338   -5.291   -5.218   -5.109   -4.993   -4.933   -5.012   -5.312   -5.910   -6.815   -7.884   -8.797   -9.195   -8.890   -7.958   -6.687   -5.423   -4.410   -3.783   -3.638   -4.053   -5.029   -6.424   -7.944   -9.235  -10.010  -10.143   -9.719   -8.965   -8.117   -7.325   -6.669   -6.221   -6.023   -6.056   -6.218   -6.385   -6.471   -6.455   -6.346   -6.178   -5.996   -5.854   -5.796   -5.794   -5.791   -5.709   -5.525   -5.295   -5.100   -5.001   -4.983   -4.991   -4.982   -4.941   -4.898   -4.893   -4.954   -5.092   -5.297   -5.571   -5.956   -6.555   -7.458   -8.698  -10.186  -11.783  -13.390  -14.957  -16.419  -17.657  -18.530  -18.994  -19.153  -19.195  -19.263  -19.380  -19.468  -19.346
  -6.705   -6.504   -6.211   -5.832   -5.445   -5.129   -4.920   -4.796   -4.709   -4.616   -4.537   -4.534   -4.668   -4.936   -5.260   -5.542   -5.728   -5.830   -5.888   -5.918   -5.919   -5.871   -5.763   -5.572   -5.300   -4.968   -4.648   -4.454   -4.544   -5.086   -6.160   -7.588   -8.933   -9.718   -9.687   -8.933   -7.769   -6.523   -5.398   -4.521   -4.071   -4.276   -5.251   -6.850   -8.710  -10.377  -11.497  -11.902  -11.663  -10.984  -10.076   -9.074   -8.093   -7.294   -6.832   -6.738   -6.888   -7.109   -7.288   -7.388   -7.421   -7.400   -7.356   -7.329   -7.365   -7.463   -7.559   -7.586   -7.510   -7.372   -7.266   -7.240   -7.281   -7.336   -7.357   -7.347   -7.332   -7.353   -7.446   -7.626   -7.892   -8.240   -8.715   -9.395  -10.364  -11.620  -13.068  -14.575  -16.073  -17.532  -18.882  -19.943  -20.532  -20.605  -20.331  -19.986  -19.768  -19.701  -19.682  -19.503
  -5.888   -5.626   -5.232   -4.743   -4.281   -3.926   -3.717   -3.617   -3.556   -3.493   -3.443   -3.501   -3.770   -4.260   -4.881   -5.497   -6.003   -6.366   -6.613   -6.757   -6.814   -6.786   -6.661   -6.426   -6.066   -5.598   -5.076   -4.616   -4.425   -4.752   -5.739   -7.228   -8.750   -9.791  -10.083   -9.710   -8.934   -7.982   -6.920   -5.823   -4.944   -4.685   -5.355   -6.891   -8.885  -10.808  -12.229  -12.953  -13.019  -12.585  -11.802  -10.765   -9.613   -8.581   -7.929   -7.731   -7.840   -8.040   -8.197   -8.286   -8.336   -8.364   -8.387   -8.440   -8.560   -8.753   -8.965   -9.123   -9.189   -9.187   -9.198   -9.261   -9.360   -9.445   -9.481   -9.485   -9.497   -9.552   -9.681   -9.900  -10.212  -10.613  -11.131  -11.825  -12.752  -13.906  -15.188  -16.503  -17.817  -19.139  -20.375  -21.284  -21.630  -21.366  -20.716  -20.036  -19.572  -19.347  -19.237  -19.014
  -5.642   -5.313   -4.811   -4.211   -3.671   -3.302   -3.118   -3.068   -3.065   -3.052   -3.059   -3.205   -3.594   -4.259   -5.101   -5.958   -6.690   -7.240   -7.610   -7.831   -7.922   -7.907   -7.782   -7.539   -7.148   -6.608   -5.946   -5.264   -4.769   -4.740   -5.384   -6.605   -8.015   -9.158   -9.790   -9.960   -9.822   -9.415   -8.630   -7.435   -6.128   -5.285   -5.428   -6.650   -8.567  -10.582  -12.192  -13.162  -13.500  -13.337  -12.769  -11.857  -10.745   -9.708   -9.044   -8.835   -8.918   -9.051   -9.111   -9.097   -9.062   -9.043   -9.064   -9.155   -9.342   -9.623   -9.950  -10.239  -10.436  -10.555  -10.654  -10.772  -10.885  -10.942  -10.935  -10.900  -10.904  -10.987  -11.160  -11.428  -11.776  -12.196  -12.696  -13.324  -14.131  -15.112  -16.183  -17.265  -18.370  -19.531  -20.640  -21.412  -21.567  -21.055  -20.133  -19.208  -18.552  -18.181  -17.970  -17.715
  -5.904   -5.523   -4.913   -4.203   -3.593   -3.209   -3.056   -3.054   -3.107   -3.157   -3.258   -3.518   -4.045   -4.844   -5.814   -6.794   -7.643   -8.279   -8.697   -8.925   -9.009   -8.979   -8.844   -8.593   -8.194   -7.615   -6.857   -5.994   -5.215   -4.789   -4.944   -5.687   -6.775   -7.878   -8.807   -9.557  -10.136  -10.377  -10.000   -8.883   -7.310   -5.958   -5.540   -6.323   -7.997   -9.937  -11.573  -12.630  -13.106  -13.124  -12.773  -12.104  -11.237  -10.431   -9.941   -9.818   -9.891   -9.946   -9.887   -9.753   -9.605   -9.501   -9.482   -9.577   -9.811  -10.169  -10.594  -10.994  -11.294  -11.480  -11.600  -11.695  -11.743  -11.695  -11.561  -11.419  -11.370  -11.466  -11.694  -12.012  -12.376  -12.759  -13.163  -13.645  -14.265  -15.031  -15.874  -16.723  -17.611  -18.588  -19.544  -20.177  -20.191  -19.539  -18.487  -17.438  -16.650  -16.141  -15.811  -15.543
  -6.527   -6.114   -5.429   -4.640   -3.975   -3.566   -3.417   -3.429   -3.502   -3.616   -3.828   -4.240   -4.907   -5.800   -6.813   -7.802   -8.645   -9.262   -9.641   -9.810   -9.832   -9.746   -9.573   -9.299   -8.886   -8.276   -7.453   -6.462   -5.457   -4.685   -4.382   -4.630   -5.336   -6.304   -7.418   -8.618   -9.781  -10.578  -10.623   -9.718   -8.122   -6.515   -5.689   -6.044   -7.380   -9.095  -10.596  -11.585  -12.058  -12.161  -12.005  -11.651  -11.179  -10.769  -10.566  -10.570  -10.636  -10.615  -10.475  -10.261  -10.042   -9.877   -9.814   -9.899  -10.146  -10.544  -11.025  -11.482  -11.819  -12.000  -12.063  -12.049  -11.951  -11.729  -11.410  -11.112  -10.976  -11.067  -11.331  -11.673  -12.008  -12.287  -12.525  -12.788  -13.172  -13.702  -14.321  -14.960  -15.645  -16.425  -17.204  -17.700  -17.634  -16.969  -15.943  -14.902  -14.061  -13.435  -12.985  -12.712
  -7.314   -6.910   -6.214   -5.408   -4.718   -4.275   -4.078   -4.044   -4.100   -4.256   -4.589   -5.163   -5.966   -6.915   -7.891   -8.795   -9.527  -10.031  -10.286  -10.332  -10.235  -10.055   -9.812   -9.494   -9.049   -8.421   -7.565   -6.506   -5.378   -4.400   -3.795   -3.701   -4.102   -4.911   -6.045   -7.432   -8.877   -9.997  -10.362   -9.753   -8.361   -6.796   -5.808   -5.847   -6.822   -8.222   -9.495  -10.340  -10.756  -10.901  -10.924  -10.895  -10.857  -10.874  -10.964  -11.080  -11.129  -11.063  -10.905  -10.710  -10.511  -10.339  -10.254  -10.308  -10.521  -10.877  -11.308  -11.713  -11.998  -12.100  -12.036  -11.854  -11.565  -11.151  -10.649  -10.200   -9.969  -10.012  -10.252  -10.555  -10.797  -10.925  -10.956  -10.988  -11.135  -11.457  -11.896  -12.377  -12.901  -13.500  -14.091  -14.453  -14.363  -13.798  -12.937  -12.029  -11.214  -10.519   -9.984   -9.708
  -8.076   -7.713   -7.078   -6.322   -5.640   -5.154   -4.869   -4.744   -4.750   -4.935   -5.377   -6.105   -7.021   -7.995   -8.901   -9.659  -10.215  -10.535  -10.608  -10.481  -10.227   -9.916   -9.578   -9.190   -8.711   -8.074   -7.227   -6.186   -5.059   -4.051   -3.377   -3.162   -3.417   -4.073   -5.064   -6.323   -7.695   -8.847   -9.388   -9.090   -8.064   -6.777   -5.855   -5.726   -6.395   -7.484   -8.533   -9.254   -9.638   -9.824   -9.980  -10.195  -10.489  -10.827  -11.124  -11.296  -11.314  -11.235  -11.142  -11.066  -10.981  -10.873  -10.793  -10.803  -10.924  -11.136  -11.394  -11.626  -11.750  -11.701  -11.476  -11.117  -10.661  -10.114   -9.510   -8.979   -8.668   -8.629   -8.779   -8.962   -9.059   -9.018   -8.868   -8.719   -8.704   -8.893   -9.233   -9.638  -10.069  -10.517  -10.925  -11.145  -11.050  -10.625   -9.987   -9.265   -8.534   -7.842   -7.283   -7.018
  -8.615   -8.324   -7.792   -7.138   -6.494   -5.963   -5.587   -5.362   -5.322   -5.541   -6.088   -6.930   -7.921   -8.891   -9.715  -10.328  -10.709  -10.837  -10.715  -10.398   -9.970   -9.515   -9.064   -8.610   -8.102   -7.478   -6.694   -5.760   -4.768   -3.902   -3.353   -3.220   -3.469   -3.982   -4.692   -5.574   -6.573   -7.496   -8.050   -8.015   -7.404   -6.505   -5.786   -5.628   -6.111   -6.995   -7.908   -8.587   -8.982   -9.188   -9.379   -9.675  -10.097  -10.560  -10.926  -11.084  -11.057  -10.983  -10.997  -11.091  -11.167  -11.163  -11.104  -11.066  -11.073  -11.098  -11.114  -11.099  -11.006  -10.778  -10.396   -9.907   -9.371   -8.811   -8.251   -7.763   -7.445   -7.339   -7.364   -7.402   -7.342   -7.157   -6.893   -6.658   -6.574   -6.704   -7.008   -7.391   -7.764   -8.082   -8.307   -8.367   -8.218   -7.879   -7.405   -6.842   -6.226   -5.605   -5.093   -4.871
  -8.772   -8.554   -8.142   -7.602   -7.025   -6.486   -6.047   -5.773   -5.732   -6.006   -6.630   -7.531   -8.544   -9.485  -10.238  -10.753  -11.012  -11.003  -10.739  -10.278   -9.714   -9.138   -8.594   -8.079   -7.565   -6.994   -6.330   -5.580   -4.821   -4.207   -3.902   -3.963   -4.270   -4.649   -5.003   -5.368   -5.818   -6.325   -6.731   -6.833   -6.547   -6.009   -5.537   -5.460   -5.904   -6.724   -7.616   -8.324   -8.741   -8.928   -9.045   -9.251   -9.603  -10.011  -10.309  -10.385  -10.286  -10.199  -10.279  -10.500  -10.705  -10.776  -10.736  -10.664  -10.586  -10.469  -10.297  -10.081   -9.813   -9.449   -8.969   -8.438   -7.936   -7.511   -7.150   -6.864   -6.678   -6.593   -6.543   -6.448   -6.252   -5.960   -5.637   -5.371   -5.254   -5.331   -5.574   -5.889   -6.168   -6.342   -6.373   -6.251   -5.991   -5.644   -5.239   -4.791   -4.302   -3.808   -3.410   -3.257
  -8.459   -8.289   -7.978   -7.549   -7.056   -6.562   -6.148   -5.899   -5.918   -6.265   -6.939   -7.845   -8.815   -9.706  -10.415  -10.895  -11.122  -11.082  -10.779  -10.276   -9.659   -9.026   -8.438   -7.911   -7.420   -6.941   -6.434   -5.902   -5.403   -5.068   -5.021   -5.265   -5.628   -5.869   -5.872   -5.718   -5.588   -5.604   -5.715   -5.767   -5.626   -5.324   -5.072   -5.139   -5.659   -6.530   -7.481   -8.240   -8.666   -8.785   -8.762   -8.790   -8.965   -9.215   -9.376   -9.334   -9.144   -8.990   -9.034   -9.247   -9.458   -9.529   -9.478   -9.397   -9.308   -9.181   -8.980   -8.720   -8.409   -8.017   -7.541   -7.065   -6.698   -6.508   -6.467   -6.510   -6.584   -6.626   -6.569   -6.361   -6.020   -5.617   -5.233   -4.936   -4.767   -4.735   -4.819   -4.959   -5.058   -5.048   -4.892   -4.604   -4.233   -3.847   -3.482   -3.126   -2.774   -2.444   -2.191   -2.118
  -7.702   -7.552   -7.300   -6.963   -6.565   -6.172   -5.861   -5.725   -5.850   -6.279   -6.967   -7.823   -8.713   -9.541  -10.231  -10.746  -11.039  -11.077  -10.861  -10.439   -9.883   -9.289   -8.725   -8.226   -7.799   -7.424   -7.070   -6.725   -6.440   -6.313   -6.440   -6.786   -7.142   -7.249   -6.979   -6.435   -5.847   -5.405   -5.154   -4.999   -4.826   -4.629   -4.551   -4.792   -5.443   -6.407   -7.417   -8.193   -8.570   -8.574   -8.380   -8.208   -8.184   -8.262   -8.291   -8.155   -7.885   -7.633   -7.545   -7.608   -7.685   -7.670   -7.581   -7.521   -7.518   -7.533   -7.500   -7.397   -7.207   -6.911   -6.533   -6.183   -5.991   -6.047   -6.324   -6.706   -7.052   -7.224   -7.132   -6.772   -6.246   -5.697   -5.243   -4.915   -4.682   -4.506   -4.377   -4.269   -4.151   -3.954   -3.654   -3.269   -2.855   -2.480   -2.175   -1.923   -1.715   -1.540   -1.417   -1.412
  -6.680   -6.517   -6.286   -5.995   -5.697   -5.440   -5.286   -5.310   -5.565   -6.056   -6.720   -7.482   -8.266   -9.019   -9.711  -10.302  -10.730  -10.945  -10.925  -10.691  -10.302   -9.837   -9.367   -8.941   -8.589   -8.301   -8.047   -7.813   -7.629   -7.586   -7.751   -8.075   -8.356   -8.347   -7.929   -7.192   -6.359   -5.629   -5.085   -4.701   -4.431   -4.288   -4.374   -4.797   -5.590   -6.621   -7.620   -8.307   -8.534   -8.334   -7.907   -7.504   -7.277   -7.197   -7.124   -6.941   -6.640   -6.318   -6.082   -5.951   -5.845   -5.715   -5.604   -5.615   -5.785   -6.065   -6.342   -6.529   -6.564   -6.440   -6.211   -5.995   -5.938   -6.143   -6.591   -7.150   -7.613   -7.791   -7.576   -7.011   -6.278   -5.596   -5.089   -4.753   -4.490   -4.217   -3.916   -3.614   -3.316   -2.999   -2.637   -2.248   -1.877   -1.578   -1.369   -1.226   -1.125   -1.068   -1.039   -1.083
  -5.719   -5.519   -5.253   -4.968   -4.737   -4.614   -4.634   -4.815   -5.176   -5.681   -6.269   -6.895   -7.537   -8.200   -8.883   -9.563  -10.161  -10.609  -10.852  -10.888  -10.743  -10.476  -10.152   -9.831   -9.549   -9.302   -9.069   -8.834   -8.631   -8.540   -8.609   -8.797   -8.940   -8.836   -8.387   -7.658   -6.824   -6.046   -5.404   -4.938   -4.661   -4.639   -4.932   -5.570   -6.497   -7.537   -8.415   -8.876   -8.806   -8.275   -7.518   -6.813   -6.331   -6.062   -5.885   -5.674   -5.389   -5.055   -4.749   -4.494   -4.277   -4.097   -4.020   -4.160   -4.560   -5.148   -5.765   -6.254   -6.530   -6.586   -6.494   -6.375   -6.363   -6.557   -6.959   -7.450   -7.808   -7.826   -7.403   -6.634   -5.754   -5.007   -4.511   -4.208   -3.956   -3.656   -3.286   -2.900   -2.535   -2.193   -1.866   -1.558   -1.300   -1.117   -1.009   -0.954   -0.934   -0.942   -0.965   -1.033
  -5.191   -4.935   -4.595   -4.261   -4.051   -4.024   -4.170   -4.463   -4.858   -5.304   -5.753   -6.186   -6.640   -7.165   -7.801   -8.535   -9.293   -9.979  -10.518  -10.869  -11.021  -11.006  -10.869  -10.669  -10.441  -10.191   -9.901   -9.576   -9.255   -9.003   -8.876   -8.850   -8.816   -8.632   -8.228   -7.645   -6.999   -6.392   -5.887   -5.551   -5.453   -5.673   -6.239   -7.118   -8.173   -9.178   -9.859   -9.999   -9.537   -8.588   -7.428   -6.347   -5.543   -5.030   -4.700   -4.435   -4.161   -3.859   -3.561   -3.290   -3.074   -2.939   -2.974   -3.283   -3.910   -4.757   -5.639   -6.358   -6.816   -7.011   -7.030   -6.974   -6.944   -7.013   -7.197   -7.421   -7.499   -7.251   -6.611   -5.710   -4.787   -4.068   -3.625   -3.371   -3.151   -2.874   -2.525   -2.166   -1.839   -1.564   -1.332   -1.147   -1.027   -0.972   -0.954   -0.960   -0.985   -1.026   -1.071   -1.146
  -5.337   -5.026   -4.587   -4.169   -3.933   -3.933   -4.134   -4.444   -4.785   -5.088   -5.322   -5.501   -5.705   -6.036   -6.560   -7.278   -8.131   -9.020   -9.849  -10.527  -11.004  -11.278  -11.366  -11.307  -11.131  -10.847  -10.462   -9.993   -9.493   -9.029   -8.660   -8.386   -8.161   -7.901   -7.566   -7.180   -6.804   -6.495   -6.292   -6.250   -6.453   -6.976   -7.821   -8.909  -10.052  -11.002  -11.488  -11.332  -10.517   -9.207   -7.694   -6.276   -5.150   -4.365   -3.844   -3.475   -3.170   -2.888   -2.621   -2.398   -2.244   -2.217   -2.391   -2.868   -3.658   -4.657   -5.667   -6.492   -7.038   -7.326   -7.440   -7.452   -7.405   -7.340   -7.271   -7.160   -6.901   -6.380   -5.584   -4.643   -3.771   -3.128   -2.735   -2.501   -2.296   -2.060   -1.782   -1.511   -1.288   -1.118   -1.003   -0.951   -0.954   -0.996   -1.045   -1.086   -1.127   -1.180   -1.234   -1.306
  -6.101   -5.756   -5.243   -4.745   -4.455   -4.439   -4.620   -4.866   -5.070   -5.153   -5.113   -4.990   -4.909   -4.989   -5.331   -5.957   -6.817   -7.828   -8.878   -9.854  -10.657  -11.230  -11.562  -11.663  -11.552  -11.244  -10.760  -10.146   -9.463   -8.786   -8.182   -7.684   -7.283   -6.949   -6.669   -6.457   -6.351   -6.363   -6.498   -6.787   -7.281   -8.034   -9.037  -10.203  -11.341  -12.206  -12.542  -12.203  -11.213   -9.755   -8.109   -6.543   -5.240   -4.253   -3.550   -3.052   -2.672   -2.364   -2.113   -1.933   -1.856   -1.935   -2.238   -2.817   -3.666   -4.672   -5.655   -6.445   -6.980   -7.301   -7.496   -7.596   -7.590   -7.454   -7.194   -6.807   -6.270   -5.552   -4.684   -3.781   -2.992   -2.410   -2.036   -1.793   -1.602   -1.409   -1.222   -1.059   -0.945   -0.884   -0.870   -0.913   -0.994   -1.084   -1.157   -1.198   -1.233   -1.281   -1.328   -1.398
  -7.141   -6.809   -6.282   -5.759   -5.449   -5.410   -5.544   -5.686   -5.711   -5.546   -5.210   -4.788   -4.418   -4.250   -4.381   -4.847   -5.617   -6.637   -7.804   -8.987  -10.044  -10.875  -11.427  -11.686  -11.658  -11.361  -10.823  -10.104   -9.278   -8.435   -7.654   -6.989   -6.465   -6.074   -5.825   -5.740   -5.844   -6.125   -6.543   -7.080   -7.733   -8.542   -9.501  -10.552  -11.541  -12.247  -12.459  -12.069  -11.121   -9.794   -8.322   -6.901   -5.647   -4.619   -3.818   -3.206   -2.740   -2.389   -2.132   -1.985   -1.971   -2.129   -2.494   -3.087   -3.870   -4.739   -5.544   -6.167   -6.585   -6.872   -7.108   -7.300   -7.365   -7.223   -6.863   -6.313   -5.615   -4.809   -3.954   -3.142   -2.444   -1.917   -1.558   -1.316   -1.146   -1.017   -0.917   -0.851   -0.830   -0.850   -0.912   -1.003   -1.110   -1.199   -1.245   -1.255   -1.255   -1.277   -1.310   -1.371
  -8.104   -7.823   -7.369   -6.911   -6.642   -6.607   -6.699   -6.745   -6.602   -6.220   -5.646   -4.985   -4.395   -4.024   -3.968   -4.253   -4.877   -5.796   -6.938   -8.169   -9.333  -10.298  -10.981  -11.359  -11.414  -11.161  -10.626   -9.869   -8.974   -8.035   -7.153   -6.401   -5.814   -5.402   -5.179   -5.178   -5.421   -5.878   -6.475   -7.129   -7.798   -8.492   -9.230   -9.991  -10.679  -11.139  -11.228  -10.876  -10.143   -9.175   -8.123   -7.086   -6.106   -5.207   -4.415   -3.755   -3.234   -2.850   -2.596   -2.476   -2.501   -2.680   -3.028   -3.530   -4.136   -4.748   -5.269   -5.628   -5.853   -6.040   -6.266   -6.502   -6.619   -6.498   -6.109   -5.508   -4.780   -4.009   -3.263   -2.590   -2.024   -1.576   -1.256   -1.046   -0.922   -0.860   -0.833   -0.845   -0.889   -0.967   -1.067   -1.177   -1.271   -1.321   -1.311   -1.258   -1.206   -1.187   -1.197   -1.257
  -8.793   -8.599   -8.283   -7.975   -7.803   -7.804   -7.879   -7.861   -7.615   -7.103   -6.390   -5.604   -4.900   -4.418   -4.240   -4.383   -4.840   -5.584   -6.560   -7.653   -8.722   -9.636  -10.310  -10.710  -10.818  -10.622  -10.136   -9.407   -8.512   -7.553   -6.643   -5.867   -5.273   -4.875   -4.692   -4.750   -5.071   -5.612   -6.272   -6.933   -7.526   -8.033   -8.483   -8.894   -9.227   -9.411   -9.378   -9.118   -8.684   -8.167   -7.625   -7.060   -6.443   -5.771   -5.081   -4.435   -3.899   -3.506   -3.260   -3.153   -3.168   -3.301   -3.543   -3.860   -4.203   -4.505   -4.707   -4.791   -4.809   -4.870   -5.037   -5.261   -5.384   -5.279   -4.921   -4.375   -3.747   -3.126   -2.567   -2.088   -1.684   -1.361   -1.121   -0.970   -0.901   -0.889   -0.914   -0.968   -1.052   -1.157   -1.274   -1.380   -1.445   -1.441   -1.368   -1.247   -1.136   -1.078   -1.069   -1.120
  -9.212   -9.116   -8.980   -8.857   -8.822   -8.884   -8.963   -8.921   -8.642   -8.105   -7.369   -6.572   -5.857   -5.356   -5.129   -5.184   -5.495   -6.034   -6.744   -7.544   -8.332   -9.013   -9.529   -9.848   -9.947   -9.796   -9.382   -8.724   -7.885   -6.971   -6.090   -5.335   -4.765   -4.399   -4.250   -4.344   -4.683   -5.224   -5.855   -6.463   -6.955   -7.313   -7.546   -7.689   -7.752   -7.738   -7.656   -7.531   -7.396   -7.279   -7.155   -6.979   -6.677   -6.221   -5.652   -5.051   -4.512   -4.100   -3.829   -3.672   -3.615   -3.634   -3.708   -3.795   -3.867   -3.887   -3.830   -3.713   -3.592   -3.557   -3.659   -3.828   -3.931   -3.850   -3.575   -3.172   -2.740   -2.349   -2.024   -1.756   -1.522   -1.323   -1.171   -1.087   -1.061   -1.081   -1.129   -1.196   -1.281   -1.384   -1.483   -1.551   -1.571   -1.520   -1.400   -1.242   -1.100   -1.020   -0.992   -1.042
  -9.438   -9.447   -9.487   -9.560   -9.664   -9.793   -9.891   -9.855   -9.603   -9.115   -8.442   -7.706   -7.044   -6.569   -6.333   -6.331   -6.531   -6.869   -7.280   -7.719   -8.126   -8.470   -8.736   -8.908   -8.948   -8.817   -8.473   -7.910   -7.174   -6.354   -5.545   -4.840   -4.298   -3.942   -3.793   -3.867   -4.163   -4.632   -5.177   -5.700   -6.119   -6.402   -6.548   -6.588   -6.560   -6.519   -6.513   -6.571   -6.692   -6.848   -6.981   -7.016   -6.893   -6.569   -6.070   -5.486   -4.920   -4.446   -4.088   -3.823   -3.632   -3.496   -3.388   -3.281   -3.154   -2.999   -2.817   -2.633   -2.487   -2.436   -2.502   -2.625   -2.707   -2.676   -2.523   -2.310   -2.099   -1.936   -1.820   -1.719   -1.619   -1.521   -1.450   -1.424   -1.439   -1.481   -1.532   -1.587   -1.636   -1.672   -1.692   -1.686   -1.642   -1.552   -1.420   -1.269   -1.139   -1.067   -1.041   -1.084
  -9.548   -9.641   -9.833  -10.071  -10.299  -10.486  -10.596  -10.572  -10.363   -9.954   -9.384   -8.747   -8.160   -7.712   -7.461   -7.405   -7.492   -7.646   -7.792   -7.888   -7.931   -7.950   -7.966   -7.984   -7.967   -7.854   -7.585   -7.137   -6.542   -5.863   -5.174   -4.534   -3.999   -3.608   -3.394   -3.373   -3.547   -3.881   -4.293   -4.707   -5.065   -5.327   -5.483   -5.558   -5.601   -5.687   -5.869   -6.149   -6.484   -6.806   -7.050   -7.159   -7.084   -6.789   -6.296   -5.685   -5.060   -4.498   -4.016   -3.613   -3.276   -3.002   -2.762   -2.546   -2.340   -2.155   -1.990   -1.858   -1.780   -1.788   -1.869   -1.990   -2.084   -2.119   -2.094   -2.039   -1.994   -1.986   -1.995   -1.994   -1.973   -1.957   -1.973   -2.019   -2.090   -2.162   -2.217   -2.237   -2.206   -2.117   -2.001   -1.859   -1.720   -1.589   -1.470   -1.363   -1.282   -1.244   -1.236   -1.288
  -9.567   -9.714  -10.008  -10.358  -10.662  -10.872  -10.966  -10.928  -10.743  -10.405   -9.937   -9.405   -8.891   -8.470   -8.190   -8.058   -8.026   -8.013   -7.940   -7.781   -7.566   -7.354   -7.202   -7.126   -7.090   -7.024   -6.861   -6.570   -6.166   -5.685   -5.156   -4.610   -4.081   -3.611   -3.253   -3.052   -3.031   -3.163   -3.391   -3.662   -3.935   -4.172   -4.360   -4.521   -4.706   -4.985   -5.388   -5.878   -6.379   -6.802   -7.089   -7.203   -7.110   -6.794   -6.268   -5.619   -4.941   -4.309   -3.742   -3.242   -2.815   -2.460   -2.174   -1.949   -1.778   -1.664   -1.601   -1.582   -1.614   -1.697   -1.830   -1.977   -2.113   -2.222   -2.294   -2.333   -2.363   -2.407   -2.450   -2.479   -2.509   -2.575   -2.699   -2.859   -3.024   -3.152   -3.217   -3.193   -3.052   -2.807   -2.497   -2.187   -1.923   -1.730   -1.610   -1.540   -1.513   -1.521   -1.549   -1.615
  -9.496   -9.672  -10.018  -10.412  -10.727  -10.903  -10.924  -10.817  -10.603  -10.292   -9.906   -9.473   -9.042   -8.658   -8.356   -8.145   -7.988   -7.828   -7.602   -7.292   -6.947   -6.635   -6.419   -6.328   -6.328   -6.361   -6.357   -6.282   -6.132   -5.913   -5.604   -5.200   -4.694   -4.126   -3.580   -3.137   -2.854   -2.728   -2.725   -2.806   -2.948   -3.123   -3.315   -3.540   -3.843   -4.273   -4.831   -5.456   -6.051   -6.525   -6.831   -6.940   -6.823   -6.479   -5.936   -5.277   -4.598   -3.972   -3.416   -2.924   -2.501   -2.161   -1.909   -1.750   -1.678   -1.680   -1.735   -1.821   -1.937   -2.084   -2.252   -2.430   -2.611   -2.777   -2.894   -2.954   -2.975   -2.990   -3.009   -3.038   -3.112   -3.279   -3.544   -3.861   -4.154   -4.362   -4.450   -4.383   -4.138   -3.740   -3.243   -2.751   -2.331   -2.028   -1.858   -1.784   -1.777   -1.811   -1.863   -1.944
  -9.366   -9.547   -9.900  -10.281  -10.546  -10.617  -10.496  -10.247   -9.935   -9.597   -9.251   -8.904   -8.568   -8.247   -7.954   -7.688   -7.434   -7.164   -6.852   -6.491   -6.124   -5.814   -5.620   -5.569   -5.648   -5.811   -6.013   -6.209   -6.376   -6.473   -6.445   -6.228   -5.787   -5.155   -4.438   -3.754   -3.199   -2.795   -2.535   -2.394   -2.367   -2.443   -2.599   -2.836   -3.182   -3.652   -4.232   -4.854   -5.434   -5.895   -6.189   -6.291   -6.174   -5.836   -5.317   -4.704   -4.098   -3.569   -3.131   -2.758   -2.444   -2.207   -2.063   -2.019   -2.076   -2.190   -2.338   -2.486   -2.642   -2.802   -2.972   -3.153   -3.349   -3.524   -3.630   -3.652   -3.604   -3.552   -3.526   -3.557   -3.689   -3.979   -4.409   -4.902   -5.335   -5.632   -5.747   -5.654   -5.341   -4.826   -4.184   -3.520   -2.931   -2.482   -2.195   -2.043   -2.002   -2.026   -2.084   -2.170
  -9.247   -9.418   -9.753  -10.083  -10.251  -10.163   -9.843   -9.386   -8.906   -8.482   -8.130   -7.845   -7.603   -7.366   -7.116   -6.841   -6.541   -6.222   -5.888   -5.547   -5.225   -4.970   -4.827   -4.830   -4.986   -5.286   -5.701   -6.189   -6.694   -7.137   -7.409   -7.415   -7.096   -6.479   -5.672   -4.822   -4.056   -3.422   -2.928   -2.581   -2.393   -2.360   -2.458   -2.661   -2.961   -3.351   -3.802   -4.265   -4.688   -5.033   -5.260   -5.341   -5.236   -4.943   -4.501   -3.997   -3.531   -3.170   -2.922   -2.752   -2.638   -2.573   -2.589   -2.698   -2.877   -3.087   -3.287   -3.455   -3.596   -3.725   -3.858   -4.008   -4.163   -4.294   -4.337   -4.271   -4.141   -4.020   -3.966   -4.021   -4.232   -4.646   -5.229   -5.871   -6.424   -6.793   -6.932   -6.825   -6.471   -5.888   -5.146   -4.342   -3.591   -2.984   -2.558   -2.299   -2.178   -2.165   -2.209   -2.298
  -9.198   -9.359   -9.667   -9.937   -9.991   -9.729   -9.184   -8.484   -7.791   -7.222   -6.821   -6.567   -6.401   -6.251   -6.067   -5.829   -5.542   -5.235   -4.935   -4.651   -4.396   -4.204   -4.102   -4.142   -4.350   -4.747   -5.336   -6.080   -6.894   -7.647   -8.202   -8.437   -8.289   -7.773   -6.995   -6.107   -5.245   -4.477   -3.835   -3.349   -3.049   -2.936   -2.974   -3.109   -3.300   -3.510   -3.708   -3.882   -4.022   -4.140   -4.226   -4.242   -4.149   -3.931   -3.614   -3.274   -2.998   -2.851   -2.838   -2.913   -3.031   -3.180   -3.382   -3.646   -3.935   -4.205   -4.413   -4.555   -4.657   -4.736   -4.812   -4.899   -4.989   -5.046   -5.005   -4.856   -4.655   -4.492   -4.442   -4.541   -4.831   -5.331   -5.997   -6.704   -7.303   -7.683   -7.809   -7.679   -7.298   -6.677   -5.872   -4.976   -4.118   -3.401   -2.867   -2.517   -2.329   -2.272   -2.307   -2.398
  -9.217   -9.377   -9.667   -9.888   -9.846   -9.435   -8.686   -7.748   -6.827   -6.092   -5.609   -5.351   -5.234   -5.155   -5.040   -4.864   -4.637   -4.392   -4.158   -3.943   -3.753   -3.604   -3.533   -3.583   -3.803   -4.246   -4.939   -5.852   -6.887   -7.879   -8.664   -9.109   -9.147   -8.798   -8.153   -7.343   -6.503   -5.721   -5.042   -4.512   -4.169   -4.010   -3.993   -4.040   -4.078   -4.050   -3.940   -3.756   -3.550   -3.377   -3.267   -3.185   -3.092   -2.953   -2.784   -2.639   -2.583   -2.669   -2.899   -3.223   -3.580   -3.944   -4.319   -4.707   -5.065   -5.349   -5.534   -5.639   -5.690   -5.723   -5.755   -5.793   -5.829   -5.818   -5.721   -5.528   -5.307   -5.152   -5.128   -5.265   -5.579   -6.074   -6.695   -7.335   -7.851   -8.145   -8.192   -8.004   -7.587   -6.947   -6.123   -5.205   -4.330   -3.598   -3.047   -2.674   -2.461   -2.402   -2.436   -2.535
  -9.202   -9.364   -9.651   -9.856   -9.760   -9.250   -8.350   -7.226   -6.110   -5.212   -4.634   -4.356   -4.264   -4.241   -4.192   -4.091   -3.947   -3.787   -3.630   -3.481   -3.341   -3.222   -3.168   -3.215   -3.419   -3.845   -4.554   -5.543   -6.700   -7.844   -8.789   -9.401   -9.621   -9.461   -8.993   -8.333   -7.601   -6.896   -6.277   -5.789   -5.460   -5.277   -5.194   -5.131   -4.994   -4.723   -4.307   -3.786   -3.258   -2.817   -2.516   -2.341   -2.241   -2.173   -2.140   -2.178   -2.341   -2.655   -3.107   -3.648   -4.214   -4.758   -5.270   -5.729   -6.108   -6.371   -6.518   -6.582   -6.601   -6.615   -6.634   -6.654   -6.667   -6.640   -6.544   -6.378   -6.199   -6.084   -6.087   -6.218   -6.470   -6.830   -7.258   -7.668   -7.966   -8.075   -7.977   -7.691   -7.227   -6.589   -5.806   -4.964   -4.179   -3.539   -3.068   -2.750   -2.578   -2.539   -2.592   -2.707
  -8.942   -9.112   -9.413   -9.625   -9.526   -8.986   -8.015   -6.782   -5.542   -4.527   -3.878   -3.578   -3.503   -3.517   -3.524   -3.493   -3.440   -3.376   -3.295   -3.203   -3.100   -3.009   -2.968   -3.005   -3.171   -3.543   -4.207   -5.182   -6.373   -7.584   -8.623   -9.356   -9.720   -9.729   -9.434   -8.937   -8.354   -7.780   -7.279   -6.883   -6.593   -6.396   -6.240   -6.054   -5.746   -5.250   -4.579   -3.804   -3.054   -2.452   -2.056   -1.839   -1.746   -1.733   -1.797   -1.972   -2.303   -2.792   -3.421   -4.127   -4.845   -5.519   -6.110   -6.594   -6.949   -7.174   -7.287   -7.329   -7.342   -7.357   -7.387   -7.422   -7.447   -7.441   -7.392   -7.296   -7.192   -7.132   -7.144   -7.220   -7.337   -7.469   -7.589   -7.667   -7.653   -7.509   -7.225   -6.828   -6.322   -5.719   -5.047   -4.367   -3.769   -3.304   -2.978   -2.767   -2.661   -2.667   -2.743   -2.871
  -8.249   -8.416   -8.733   -8.981   -8.922   -8.416   -7.461   -6.221   -4.956   -3.913   -3.242   -2.936   -2.869   -2.900   -2.942   -2.968   -2.991   -3.001   -2.990   -2.948   -2.886   -2.828   -2.799   -2.825   -2.950   -3.258   -3.848   -4.754   -5.901   -7.102   -8.171   -8.969   -9.428   -9.558   -9.406   -9.058   -8.630   -8.209   -7.851   -7.560   -7.319   -7.106   -6.878   -6.577   -6.118   -5.453   -4.610   -3.696   -2.862   -2.237   -1.861   -1.686   -1.639   -1.671   -1.794   -2.048   -2.467   -3.055   -3.774   -4.566   -5.362   -6.099   -6.720   -7.189   -7.499   -7.682   -7.770   -7.804   -7.819   -7.847   -7.895   -7.952   -7.999   -8.031   -8.038   -8.018   -7.988   -7.962   -7.963   -7.963   -7.926   -7.817   -7.623   -7.359   -7.024   -6.625   -6.171   -5.680   -5.166   -4.642   -4.126   -3.653   -3.273   -3.007   -2.841   -2.755   -2.735   -2.785   -2.889   -3.026
  -7.094   -7.240   -7.561   -7.846   -7.859   -7.450   -6.600   -5.457   -4.277   -3.304   -2.676   -2.386   -2.317   -2.341   -2.392   -2.443   -2.499   -2.556   -2.591   -2.597   -2.576   -2.561   -2.555   -2.583   -2.685   -2.943   -3.451   -4.256   -5.288   -6.404   -7.434   -8.234   -8.738   -8.939   -8.883   -8.664   -8.383   -8.120   -7.901   -7.710   -7.518   -7.288   -6.996   -6.597   -6.036   -5.275   -4.363   -3.431   -2.643   -2.109   -1.841   -1.769   -1.803   -1.892   -2.050   -2.329   -2.766   -3.355   -4.070   -4.851   -5.641   -6.371   -6.968   -7.394   -7.652   -7.793   -7.858   -7.882   -7.894   -7.929   -7.987   -8.057   -8.123   -8.182   -8.228   -8.257   -8.267   -8.259   -8.236   -8.169   -8.015   -7.727   -7.305   -6.787   -6.223   -5.649   -5.089   -4.565   -4.086   -3.669   -3.319   -3.045   -2.864   -2.764   -2.738   -2.759   -2.823   -2.929   -3.055   -3.209
  -5.665   -5.774   -6.082   -6.388   -6.484   -6.207   -5.527   -4.571   -3.570   -2.750   -2.219   -1.962   -1.882   -1.881   -1.903   -1.944   -2.001   -2.064   -2.122   -2.168   -2.202   -2.238   -2.276   -2.334   -2.445   -2.676   -3.109   -3.778   -4.644   -5.603   -6.516   -7.256   -7.746   -7.969   -7.971   -7.850   -7.698   -7.576   -7.479   -7.374   -7.216   -6.974   -6.638   -6.184   -5.575   -4.805   -3.931   -3.088   -2.424   -2.036   -1.908   -1.954   -2.077   -2.226   -2.415   -2.684   -3.070   -3.582   -4.198   -4.883   -5.582   -6.231   -6.758   -7.118   -7.320   -7.417   -7.454   -7.461   -7.464   -7.488   -7.541   -7.613   -7.682   -7.750   -7.810   -7.857   -7.877   -7.866   -7.821   -7.717   -7.507   -7.143   -6.625   -6.003   -5.350   -4.717   -4.150   -3.666   -3.277   -2.979   -2.780   -2.660   -2.616   -2.629   -2.694   -2.798   -2.941   -3.104   -3.263   -3.433
  -4.332   -4.393   -4.662   -4.968   -5.124   -4.982   -4.491   -3.760   -2.991   -2.363   -1.954   -1.738   -1.641   -1.605   -1.589   -1.596   -1.631   -1.682   -1.752   -1.832   -1.923   -2.019   -2.119   -2.226   -2.361   -2.584   -2.950   -3.487   -4.166   -4.922   -5.659   -6.278   -6.698   -6.901   -6.929   -6.875   -6.822   -6.807   -6.796   -6.739   -6.598   -6.357   -6.011   -5.556   -4.971   -4.276   -3.532   -2.851   -2.350   -2.103   -2.078   -2.196   -2.378   -2.573   -2.780   -3.026   -3.326   -3.694   -4.139   -4.645   -5.176   -5.682   -6.097   -6.374   -6.518   -6.570   -6.578   -6.562   -6.549   -6.555   -6.595   -6.659   -6.727   -6.788   -6.843   -6.881   -6.886   -6.863   -6.810   -6.704   -6.497   -6.151   -5.654   -5.071   -4.457   -3.889   -3.407   -3.029   -2.760   -2.592   -2.511   -2.496   -2.525   -2.594   -2.707   -2.858   -3.053   -3.263   -3.451   -3.629
  -3.477   -3.482   -3.685   -3.946   -4.117   -4.062   -3.736   -3.220   -2.674   -2.228   -1.932   -1.755   -1.642   -1.564   -1.515   -1.490   -1.503   -1.550   -1.629   -1.740   -1.878   -2.029   -2.186   -2.338   -2.506   -2.737   -3.066   -3.508   -4.033   -4.598   -5.147   -5.607   -5.925   -6.078   -6.106   -6.100   -6.118   -6.163   -6.183   -6.126   -5.988   -5.768   -5.460   -5.066   -4.581   -4.031   -3.470   -2.982   -2.643   -2.493   -2.508   -2.631   -2.816   -3.019   -3.224   -3.426   -3.617   -3.813   -4.029   -4.292   -4.590   -4.895   -5.154   -5.328   -5.406   -5.418   -5.399   -5.364   -5.340   -5.333   -5.365   -5.422   -5.481   -5.535   -5.573   -5.585   -5.567   -5.531   -5.483   -5.400   -5.243   -4.966   -4.575   -4.110   -3.634   -3.206   -2.867   -2.628   -2.487   -2.436   -2.452   -2.501   -2.570   -2.654   -2.769   -2.928   -3.133   -3.355   -3.549   -3.739
  -3.313   -3.268   -3.384   -3.547   -3.669   -3.630   -3.393   -3.027   -2.653   -2.345   -2.124   -1.958   -1.825   -1.719   -1.643   -1.605   -1.612   -1.663   -1.761   -1.895   -2.063   -2.246   -2.433   -2.612   -2.811   -3.060   -3.399   -3.822   -4.287   -4.747   -5.156   -5.479   -5.695   -5.799   -5.836   -5.874   -5.941   -5.999   -5.995   -5.907   -5.760   -5.576   -5.352   -5.073   -4.738   -4.371   -4.013   -3.713   -3.514   -3.423   -3.428   -3.506   -3.636   -3.805   -3.978   -4.114   -4.184   -4.179   -4.138   -4.109   -4.114   -4.162   -4.220   -4.260   -4.265   -4.237   -4.193   -4.149   -4.123   -4.118   -4.148   -4.202   -4.256   -4.305   -4.327   -4.315   -4.278   -4.236   -4.203   -4.155   -4.059   -3.879   -3.617   -3.301   -2.991   -2.729   -2.542   -2.444   -2.428   -2.469   -2.553   -2.644   -2.734   -2.816   -2.906   -3.031   -3.204   -3.399   -3.578   -3.766
  -3.851   -3.759   -3.781   -3.824   -3.827   -3.713   -3.466   -3.152   -2.853   -2.608   -2.414   -2.244   -2.090   -1.967   -1.884   -1.848   -1.863   -1.928   -2.036   -2.183   -2.355   -2.539   -2.723   -2.903   -3.119   -3.414   -3.825   -4.321   -4.841   -5.312   -5.688   -5.953   -6.117   -6.214   -6.288   -6.380   -6.473   -6.516   -6.464   -6.328   -6.171   -6.034   -5.910   -5.764   -5.589   -5.401   -5.233   -5.105   -5.024   -4.972   -4.947   -4.956   -5.018   -5.128   -5.243   -5.302   -5.243   -5.039   -4.728   -4.371   -4.040   -3.777   -3.592   -3.471   -3.382   -3.311   -3.251   -3.200   -3.175   -3.174   -3.206   -3.261   -3.315   -3.362   -3.377   -3.357   -3.318   -3.285   -3.269   -3.259   -3.221   -3.129   -2.983   -2.805   -2.640   -2.518   -2.461   -2.472   -2.545   -2.660   -2.792   -2.917   -3.019   -3.092   -3.156   -3.235   -3.365   -3.524   -3.679   -3.873
  -4.971   -4.849   -4.796   -4.716   -4.558   -4.276   -3.902   -3.517   -3.184   -2.920   -2.706   -2.523   -2.369   -2.255   -2.183   -2.162   -2.189   -2.255   -2.355   -2.487   -2.632   -2.784   -2.931   -3.096   -3.324   -3.682   -4.205   -4.853   -5.530   -6.130   -6.586   -6.885   -7.072   -7.210   -7.347   -7.491   -7.599   -7.618   -7.523   -7.356   -7.202   -7.105   -7.055   -7.014   -6.966   -6.925   -6.911   -6.921   -6.930   -6.918   -6.874   -6.838   -6.849   -6.904   -6.963   -6.945   -6.771   -6.400   -5.849   -5.185   -4.508   -3.914   -3.467   -3.168   -2.981   -2.861   -2.785   -2.728   -2.695   -2.691   -2.717   -2.769   -2.825   -2.872   -2.902   -2.900   -2.880   -2.863   -2.868   -2.883   -2.887   -2.864   -2.801   -2.720   -2.655   -2.627   -2.651   -2.727   -2.851   -3.005   -3.179   -3.338   -3.470   -3.556   -3.615   -3.674   -3.772   -3.913   -4.054   -4.258
  -6.488   -6.366   -6.274   -6.088   -5.755   -5.256   -4.663   -4.088   -3.616   -3.262   -2.999   -2.806   -2.671   -2.590   -2.543   -2.531   -2.557   -2.599   -2.664   -2.742   -2.830   -2.918   -3.014   -3.145   -3.380   -3.801   -4.449   -5.275   -6.155   -6.950   -7.568   -7.981   -8.248   -8.453   -8.649   -8.826   -8.936   -8.935   -8.828   -8.667   -8.527   -8.455   -8.437   -8.451   -8.481   -8.536   -8.618   -8.713   -8.789   -8.810   -8.777   -8.735   -8.728   -8.755   -8.771   -8.699   -8.455   -7.980   -7.267   -6.371   -5.410   -4.537   -3.865   -3.423   -3.162   -3.010   -2.917   -2.849   -2.809   -2.796   -2.813   -2.848   -2.904   -2.963   -3.013   -3.046   -3.064   -3.077   -3.105   -3.142   -3.178   -3.197   -3.184   -3.155   -3.130   -3.127   -3.167   -3.253   -3.389   -3.571   -3.784   -4.007   -4.202   -4.344   -4.426   -4.483   -4.565   -4.694   -4.829   -5.045
  -8.207   -8.094   -7.982   -7.725   -7.235   -6.514   -5.664   -4.844   -4.172   -3.681   -3.348   -3.143   -3.029   -2.974   -2.943   -2.927   -2.926   -2.925   -2.928   -2.936   -2.939   -2.951   -2.982   -3.068   -3.291   -3.750   -4.488   -5.460   -6.534   -7.542   -8.352   -8.914   -9.288   -9.560   -9.791   -9.974  -10.074  -10.066   -9.975   -9.846   -9.736   -9.673   -9.667   -9.697   -9.759   -9.849   -9.965  -10.093  -10.195  -10.239  -10.234  -10.215  -10.222  -10.253  -10.255  -10.162   -9.897   -9.393   -8.616   -7.605   -6.495   -5.475   -4.696   -4.202   -3.930   -3.784   -3.696   -3.634   -3.591   -3.574   -3.586   -3.623   -3.676   -3.750   -3.829   -3.910   -3.985   -4.050   -4.109   -4.169   -4.227   -4.271   -4.275   -4.247   -4.199   -4.153   -4.134   -4.175   -4.294   -4.503   -4.785   -5.112   -5.415   -5.645   -5.767   -5.816   -5.860   -5.945   -6.052   -6.265
  -9.959   -9.847   -9.712   -9.391   -8.779   -7.874   -6.796   -5.736   -4.843   -4.190   -3.765   -3.520   -3.404   -3.348   -3.311   -3.273   -3.231   -3.180   -3.119   -3.055   -2.986   -2.923   -2.886   -2.922   -3.120   -3.579   -4.357   -5.420   -6.635   -7.818   -8.807   -9.525  -10.003  -10.329  -10.568  -10.736  -10.814  -10.812  -10.756  -10.681  -10.612  -10.573  -10.572  -10.607  -10.670  -10.753  -10.852  -10.955  -11.046  -11.097  -11.118  -11.134  -11.173  -11.225  -11.235  -11.147  -10.898  -10.418   -9.669   -8.684   -7.596   -6.614   -5.897   -5.477   -5.277   -5.194   -5.155   -5.120   -5.096   -5.092   -5.124   -5.179   -5.250   -5.344   -5.456   -5.594   -5.747   -5.896   -6.021   -6.119   -6.203   -6.259   -6.265   -6.201   -6.070   -5.898   -5.746   -5.681   -5.760   -6.006   -6.398   -6.874   -7.330   -7.667   -7.830   -7.851   -7.824   -7.829   -7.874   -8.088
 -11.811  -11.673  -11.481  -11.072  -10.340   -9.286   -8.019   -6.736   -5.618   -4.778   -4.225   -3.910   -3.753   -3.674   -3.618   -3.555   -3.479   -3.389   -3.286   -3.174   -3.056   -2.950   -2.872   -2.873   -3.041   -3.479   -4.250   -5.341   -6.633   -7.934   -9.054   -9.898  -10.469  -10.836  -11.070  -11.206  -11.267  -11.280  -11.274  -11.265  -11.263  -11.272  -11.302  -11.352  -11.408  -11.467  -11.520  -11.571  -11.615  -11.649  -11.678  -11.721  -11.790  -11.862  -11.893  -11.830  -11.624  -11.220  -10.584   -9.756   -8.865   -8.099   -7.597   -7.368   -7.322   -7.351   -7.382   -7.394   -7.402   -7.430   -7.491   -7.577   -7.673   -7.785   -7.931   -8.135   -8.393   -8.662   -8.893   -9.071   -9.207   -9.298   -9.315   -9.209   -8.964   -8.613   -8.259   -8.039   -8.059   -8.362   -8.904   -9.583  -10.248  -10.746  -10.995  -11.030  -10.986  -10.985  -11.039  -11.314
 -14.243  -14.039  -13.727  -13.160  -12.261  -11.031   -9.560   -8.032   -6.651   -5.573   -4.839   -4.405   -4.177   -4.066   -3.993   -3.918   -3.826   -3.719   -3.603   -3.480   -3.357   -3.241   -3.163   -3.162   -3.320   -3.733   -4.475   -5.546   -6.851   -8.194   -9.391  -10.321  -10.959  -11.354  -11.576  -11.687  -11.738  -11.777  -11.833  -11.915  -12.015  -12.122  -12.231  -12.329  -12.406  -12.448  -12.459  -12.449  -12.434  -12.427  -12.438  -12.479  -12.553  -12.639  -12.702  -12.697  -12.583  -12.319  -11.893  -11.344  -10.783  -10.358  -10.169  -10.199  -10.350  -10.505  -10.608  -10.660  -10.691  -10.740  -10.810  -10.896  -10.985  -11.090  -11.254  -11.530  -11.921  -12.354  -12.747  -13.064  -13.313  -13.510  -13.602  -13.518  -13.198  -12.695  -12.154  -11.795  -11.789  -12.205  -12.975  -13.963  -14.959  -15.776  -16.308  -16.618  -16.870  -17.181  -17.502  -17.989
 -17.984  -17.711  -17.205  -16.382  -15.218  -13.724  -11.966  -10.103   -8.359   -6.942   -5.942   -5.327   -4.992   -4.826   -4.735   -4.657   -4.566   -4.463   -4.356   -4.251   -4.156   -4.082   -4.044   -4.073   -4.241   -4.631   -5.330   -6.354   -7.608   -8.937  -10.147  -11.116  -11.791  -12.199  -12.411  -12.501  -12.554  -12.624  -12.758  -12.965  -13.228  -13.513  -13.781  -13.999  -14.141  -14.204  -14.192  -14.129  -14.047  -13.977  -13.937  -13.938  -13.987  -14.081  -14.203  -14.313  -14.372  -14.348  -14.236  -14.067  -13.922  -13.902  -14.063  -14.371  -14.718  -14.995  -15.158  -15.231  -15.266  -15.296  -15.326  -15.351  -15.374  -15.436  -15.611  -15.971  -16.518  -17.158  -17.775  -18.319  -18.801  -19.230  -19.536  -19.610  -19.384  -18.913  -18.396  -18.111  -18.288  -19.006  -20.193  -21.675  -23.225  -24.640  -25.827  -26.865  -27.902  -28.957  -29.818  -30.525
 -23.451  -23.158  -22.432  -21.294  -19.786  -17.933  -15.783  -13.467  -11.232   -9.348   -7.977   -7.095   -6.593   -6.333   -6.199   -6.109   -6.015   -5.915   -5.820   -5.748   -5.701   -5.692   -5.728   -5.826   -6.025   -6.395   -7.033   -7.961   -9.125  -10.383  -11.558  -12.520  -13.202  -13.610  -13.805  -13.878  -13.930  -14.042  -14.274  -14.647  -15.142  -15.701  -16.230  -16.654  -16.929  -17.046  -17.031  -16.923  -16.770  -16.622  -16.500  -16.429  -16.429  -16.536  -16.756  -17.057  -17.388  -17.707  -17.995  -18.267  -18.565  -18.951  -19.454  -20.028  -20.563  -20.961  -21.196  -21.312  -21.365  -21.380  -21.360  -21.311  -21.271  -21.318  -21.550  -22.044  -22.791  -23.678  -24.582  -25.448  -26.284  -27.084  -27.763  -28.209  -28.366  -28.314  -28.277  -28.545  -29.328  -30.686  -32.520  -34.650  -36.869  -39.009  -41.012  -42.931  -44.812  -46.507  -47.669  -48.143
 -30.146  -29.945  -29.050  -27.632  -25.794  -23.576  -21.010  -18.205  -15.428  -13.014  -11.192   -9.974   -9.240   -8.832   -8.616   -8.483   -8.361   -8.242   -8.143   -8.088   -8.097   -8.170   -8.307   -8.494   -8.737   -9.091   -9.642  -10.443  -11.470  -12.611  -13.714  -14.646  -15.318  -15.715  -15.885  -15.932  -15.975  -16.126  -16.466  -17.037  -17.818  -18.714  -19.576  -20.272  -20.722  -20.919  -20.907  -20.757  -20.542  -20.316  -20.113  -19.965  -19.923  -20.062  -20.418  -20.966  -21.631  -22.339  -23.046  -23.745  -24.453  -25.202  -26.006  -26.817  -27.540  -28.094  -28.470  -28.715  -28.881  -28.989  -29.043  -29.066  -29.124  -29.313  -29.742  -30.470  -31.470  -32.630  -33.839  -35.053  -36.272  -37.485  -38.620  -39.598  -40.405  -41.145  -42.017  -43.236  -44.921  -47.051  -49.504  -52.121  -54.761  -57.322  -59.772  -62.115  -64.281  -66.022  -66.925  -66.628
 -36.839  -36.826  -35.869  -34.285  -32.229  -29.752  -26.872  -23.689  -20.476  -17.615  -15.389  -13.848  -12.870  -12.291  -11.956  -11.743  -11.557  -11.381  -11.235  -11.169  -11.213  -11.373  -11.627  -11.924  -12.227  -12.570  -13.035  -13.698  -14.568  -15.578  -16.601  -17.500  -18.166  -18.549  -18.687  -18.694  -18.717  -18.894  -19.331  -20.087  -21.137  -22.353  -23.533  -24.484  -25.102  -25.378  -25.379  -25.207  -24.957  -24.694  -24.452  -24.273  -24.233  -24.442  -24.961  -25.765  -26.750  -27.811  -28.875  -29.915  -30.938  -31.966  -33.006  -34.018  -34.934  -35.698  -36.311  -36.817  -37.261  -37.662  -38.030  -38.395  -38.818  -39.387  -40.183  -41.238  -42.508  -43.905  -45.352  -46.818  -48.309  -49.824  -51.333  -52.807  -54.272  -55.820  -57.581  -59.657  -62.060  -64.715  -67.502  -70.305  -73.038  -75.648  -78.106  -80.353  -82.230  -83.427  -83.509  -82.222
 -42.311  -42.510  -41.585  -39.959  -37.823  -35.242  -32.228  -28.883  -25.474  -22.396  -19.951  -18.208  -17.053  -16.322  -15.867  -15.557  -15.281  -15.009  -14.776  -14.649  -14.692  -14.922  -15.295  -15.718  -16.112  -16.476  -16.884  -17.437  -18.183  -19.096  -20.074  -20.976  -21.661  -22.049  -22.164  -22.134  -22.128  -22.310  -22.800  -23.669  -24.886  -26.299  -27.672  -28.784  -29.509  -29.845  -29.874  -29.720  -29.494  -29.265  -29.067  -28.943  -28.986  -29.319  -30.015  -31.039  -32.271  -33.583  -34.884  -36.139  -37.356  -38.556  -39.752  -40.924  -42.031  -43.046  -43.978  -44.866  -45.745  -46.630  -47.525  -48.444  -49.421  -50.506  -51.738  -53.118  -54.610  -56.157  -57.714  -59.276  -60.863  -62.499  -64.195  -65.966  -67.853  -69.916  -72.212  -74.745  -77.456  -80.238  -82.980  -85.600  -88.046  -90.284  -92.267  -93.887  -94.977  -95.281  -94.345  -93.278
 -45.785  -46.145  -45.293  -43.711  -41.611  -39.069  -36.110  -32.834  -29.505  -26.492  -24.075  -22.313  -21.098  -20.288  -19.751  -19.351  -18.978  -18.595  -18.241  -18.017  -18.020  -18.291  -18.773  -19.335  -19.852  -20.288  -20.707  -21.227  -21.936  -22.843  -23.860  -24.836  -25.594  -26.033  -26.167  -26.132  -26.113  -26.285  -26.771  -27.641  -28.863  -30.283  -31.666  -32.793  -33.542  -33.911  -33.991  -33.906  -33.771  -33.653  -33.586  -33.614  -33.826  -34.335  -35.207  -36.396  -37.777  -39.216  -40.622  -41.963  -43.253  -44.521  -45.794  -47.078  -48.361  -49.639  -50.930  -52.261  -53.653  -55.101  -56.589  -58.100  -59.630  -61.189  -62.781  -64.398  -66.016  -67.604  -69.152  -70.675  -72.211  -73.803  -75.492  -77.321  -79.324  -81.528  -83.926  -86.464  -89.054  -91.606  -94.055  -96.364  -98.516 -100.483 -102.224 -103.670 -104.711 -105.088 -103.971 -105.935
 -46.929  -47.354  -46.572  -45.075  -43.086  -40.693  -37.937  -34.927  -31.907  -29.200  -27.027  -25.418  -24.271  -23.471  -22.907  -22.454  -22.010  -21.530  -21.063  -20.734  -20.678  -20.965  -21.539  -22.244  -22.916  -23.488  -24.016  -24.625  -25.431  -26.463  -27.637  -28.782  -29.699  -30.268  -30.501  -30.531  -30.546  -30.714  -31.152  -31.922  -32.998  -34.246  -35.467  -36.474  -37.165  -37.540  -37.680  -37.696  -37.690  -37.727  -37.839  -38.071  -38.496  -39.201  -40.225  -41.513  -42.947  -44.402  -45.800  -47.119  -48.383  -49.636  -50.923  -52.272  -53.699  -55.221  -56.854  -58.612  -60.485  -62.441  -64.430  -66.407  -68.338  -70.207  -72.004  -73.721  -75.348  -76.881  -78.331  -79.728  -81.122  -82.572  -84.136  -85.865  -87.795  -89.943  -92.291  -94.800  -97.412 -100.065 -102.692 -105.219 -107.584 -109.719 -111.595 -113.141 -114.217 -114.453 -112.771 -117.702
 -45.764  -46.144  -45.399  -43.994  -42.151  -39.973  -37.521  -34.908  -32.349  -30.094  -28.296  -26.951  -25.967  -25.258  -24.730  -24.281  -23.814  -23.291  -22.765  -22.373  -22.281  -22.588  -23.252  -24.109  -24.976  -25.766  -26.525  -27.379  -28.447  -29.762  -31.230  -32.658  -33.837  -34.641  -35.077  -35.268  -35.384  -35.577  -35.955  -36.574  -37.420  -38.393  -39.348  -40.148  -40.721  -41.066  -41.243  -41.341  -41.441  -41.600  -41.859  -42.261  -42.860  -43.711  -44.823  -46.132  -47.530  -48.913  -50.220  -51.444  -52.621  -53.811  -55.072  -56.453  -57.988  -59.702  -61.607  -63.693  -65.918  -68.217  -70.516  -72.749  -74.873  -76.866  -78.716  -80.421  -81.984  -83.416  -84.736  -85.986  -87.218  -88.502  -89.902  -91.479  -93.276  -95.311  -97.577 -100.033 -102.613 -105.237 -107.803 -110.234 -112.454 -114.414 -116.051 -117.258 -117.858 -117.464 -115.005 -119.866
 -42.600  -42.839  -42.088  -40.758  -39.066  -37.129  -35.028  -32.871  -30.826  -29.072  -27.689  -26.654  -25.887  -25.321  -24.889  -24.505  -24.087  -23.608  -23.121  -22.767  -22.724  -23.110  -23.907  -24.965  -26.103  -27.230  -28.379  -29.660  -31.174  -32.933  -34.821  -36.632  -38.162  -39.289  -40.017  -40.446  -40.721  -40.975  -41.308  -41.778  -42.386  -43.070  -43.738  -44.303  -44.718  -44.981  -45.130  -45.225  -45.331  -45.504  -45.790  -46.236  -46.883  -47.760  -48.848  -50.079  -51.358  -52.602  -53.767  -54.861  -55.933  -57.048  -58.275  -59.666  -61.263  -63.090  -65.148  -67.400  -69.780  -72.202  -74.584  -76.858  -78.984  -80.943  -82.726  -84.335  -85.777  -87.065  -88.226  -89.299  -90.341  -91.419  -92.603  -93.949  -95.501  -97.267  -99.232 -101.340 -103.526 -105.716 -107.850 -109.895 -111.804 -113.555 -115.050 -116.175 -116.717 -116.299 -113.973 -116.700
 -38.019  -38.054  -37.264  -35.983  -34.423  -32.720  -30.963  -29.248  -27.691  -26.398  -25.402  -24.668  -24.133  -23.746  -23.456  -23.200  -22.924  -22.605  -22.303  -22.149  -22.316  -22.927  -23.985  -25.369  -26.922  -28.551  -30.266  -32.139  -34.234  -36.525  -38.878  -41.093  -42.985  -44.449  -45.484  -46.166  -46.612  -46.938  -47.243  -47.589  -47.995  -48.431  -48.844  -49.183  -49.414  -49.536  -49.566  -49.544  -49.526  -49.569  -49.726  -50.049  -50.578  -51.323  -52.254  -53.303  -54.388  -55.445  -56.446  -57.408  -58.383  -59.436  -60.627  -62.005  -63.602  -65.434  -67.486  -69.707  -72.022  -74.341  -76.585  -78.698  -80.648  -82.419  -84.009  -85.421  -86.665  -87.759  -88.730  -89.616  -90.471  -91.354  -92.329  -93.450  -94.756  -96.258  -97.944  -99.778 -101.705 -103.674 -105.643 -107.572 -109.429 -111.152 -112.670 -113.850 -114.515 -114.310 -112.453 -112.966
 -32.834  -32.657  -31.816  -30.571  -29.124  -27.624  -26.166  -24.823  -23.666  -22.748  -22.069  -21.598  -21.288  -21.101  -21.000  -20.952  -20.925  -20.919  -20.987  -21.249  -21.854  -22.916  -24.443  -26.344  -28.481  -30.749  -33.122  -35.621  -38.263  -40.998  -43.698  -46.193  -48.332  -50.033  -51.291  -52.161  -52.734  -53.111  -53.385  -53.626  -53.869  -54.105  -54.307  -54.439  -54.478  -54.414  -54.258  -54.040  -53.809  -53.623  -53.541  -53.621  -53.901  -54.390  -55.056  -55.842  -56.682  -57.527  -58.360  -59.200  -60.092  -61.087  -62.228  -63.546  -65.059  -66.767  -68.647  -70.647  -72.694  -74.712  -76.639  -78.432  -80.071  -81.549  -82.870  -84.040  -85.069  -85.975  -86.782  -87.522  -88.237  -88.982  -89.810  -90.770  -91.900  -93.217  -94.720  -96.387  -98.182 -100.064 -101.992 -103.921 -105.802 -107.568 -109.136 -110.370 -111.108 -111.042 -109.579 -108.588
 -27.990  -27.651  -26.792  -25.598  -24.266  -22.949  -21.735  -20.678  -19.818  -19.175  -18.744  -18.499  -18.405  -18.441  -18.589  -18.839  -19.188  -19.648  -20.270  -21.144  -22.389  -24.089  -26.249  -28.778  -31.539  -34.403  -37.305  -40.229  -43.170  -46.084  -48.876  -51.422  -53.613  -55.386  -56.731  -57.685  -58.313  -58.699  -58.929  -59.075  -59.180  -59.252  -59.276  -59.225  -59.079  -58.825  -58.472  -58.046  -57.594  -57.172  -56.839  -56.651  -56.648  -56.841  -57.209  -57.708  -58.290  -58.922  -59.592  -60.314  -61.117  -62.033  -63.081  -64.272  -65.606  -67.073  -68.647  -70.283  -71.925  -73.517  -75.019  -76.409  -77.677  -78.827  -79.864  -80.792  -81.621  -82.363  -83.036  -83.665  -84.284  -84.935  -85.663  -86.511  -87.510  -88.679  -90.022  -91.527  -93.171  -94.929  -96.765  -98.644 -100.517 -102.315 -103.942 -105.260 -106.091 -106.172 -105.050 -103.293
 -24.391  -23.987  -23.181  -22.103  -20.933  -19.810  -18.815  -17.986  -17.348  -16.914  -16.683  -16.638  -16.764  -17.045  -17.486  -18.100  -18.898  -19.892  -21.112  -22.617  -24.489  -26.781  -29.486  -32.503  -35.680  -38.873  -41.994  -45.017  -47.940  -50.746  -53.382  -55.772  -57.840  -59.537  -60.851  -61.796  -62.418  -62.780  -62.959  -63.022  -63.014  -62.952  -62.831  -62.629  -62.327  -61.914  -61.402  -60.817  -60.202  -59.609  -59.092  -58.700  -58.472  -58.418  -58.529  -58.778  -59.133  -59.572  -60.086  -60.683  -61.373  -62.168  -63.068  -64.065  -65.149  -66.304  -67.504  -68.716  -69.903  -71.034  -72.091  -73.067  -73.968  -74.797  -75.561  -76.263  -76.910  -77.511  -78.079  -78.630  -79.191  -79.791  -80.465  -81.247  -82.162  -83.225  -84.440  -85.800  -87.294  -88.903  -90.606  -92.374  -94.168  -95.927  -97.558  -98.930  -99.861 -100.107  -99.302  -97.374
 -22.690  -22.336  -21.684  -20.823  -19.903  -19.034  -18.274  -17.656  -17.197  -16.919  -16.833  -16.947  -17.249  -17.742  -18.437  -19.356  -20.512  -21.901  -23.519  -25.399  -27.596  -30.157  -33.069  -36.232  -39.486  -42.681  -45.722  -48.579  -51.264  -53.784  -56.121  -58.238  -60.085  -61.625  -62.838  -63.724  -64.309  -64.640  -64.777  -64.780  -64.694  -64.540  -64.317  -64.010  -63.604  -63.093  -62.490  -61.825  -61.137  -60.471  -59.873  -59.381  -59.027  -58.823  -58.763  -58.833  -59.015  -59.296  -59.668  -60.131  -60.685  -61.324  -62.037  -62.807  -63.617  -64.448  -65.281  -66.093  -66.863  -67.581  -68.247  -68.867  -69.453  -70.011  -70.546  -71.060  -71.557  -72.045  -72.533  -73.033  -73.562  -74.140  -74.792  -75.543  -76.410  -77.405  -78.530  -79.778  -81.142  -82.609  -84.165  -85.789  -87.450  -89.096  -90.650  -91.993  -92.962  -93.331  -92.784  -91.016
 -23.089  -22.894  -22.484  -21.935  -21.351  -20.797  -20.304  -19.877  -19.540  -19.321  -19.262  -19.394  -19.723  -20.260  -21.019  -22.019  -23.263  -24.724  -26.377  -28.235  -30.352  -32.782  -35.526  -38.496  -41.536  -44.493  -47.265  -49.819  -52.168  -54.338  -56.335  -58.147  -59.746  -61.103  -62.195  -63.013  -63.566  -63.885  -64.015  -64.006  -63.900  -63.714  -63.455  -63.112  -62.676  -62.147  -61.541  -60.887  -60.222  -59.582  -59.002  -58.510  -58.128  -57.867  -57.724  -57.691  -57.760  -57.923  -58.175  -58.511  -58.924  -59.401  -59.923  -60.474  -61.034  -61.588  -62.119  -62.614  -63.063  -63.470  -63.845  -64.205  -64.561  -64.922  -65.289  -65.663  -66.046  -66.446  -66.870  -67.328  -67.832  -68.394  -69.031  -69.761  -70.597  -71.544  -72.604  -73.768  -75.027  -76.370  -77.787  -79.260  -80.768  -82.269  -83.700  -84.960  -85.906  -86.337  -85.976  -84.472
 -25.172  -25.208  -25.060  -24.833  -24.588  -24.342  -24.083  -23.787  -23.459  -23.146  -22.922  -22.854  -22.975  -23.307  -23.865  -24.663  -25.686  -26.900  -28.262  -29.777  -31.505  -33.512  -35.824  -38.370  -41.009  -43.586  -45.995  -48.194  -50.194  -52.022  -53.700  -55.231  -56.603  -57.798  -58.792  -59.572  -60.133  -60.492  -60.680  -60.735  -60.688  -60.560  -60.352  -60.064  -59.690  -59.233  -58.714  -58.158  -57.598  -57.061  -56.571  -56.148  -55.806  -55.554  -55.392  -55.316  -55.323  -55.411  -55.575  -55.811  -56.106  -56.445  -56.810  -57.185  -57.556  -57.908  -58.231  -58.513  -58.755  -58.965  -59.158  -59.353  -59.563  -59.795  -60.048  -60.322  -60.620  -60.948  -61.315  -61.730  -62.200  -62.737  -63.351  -64.058  -64.866  -65.780  -66.794  -67.897  -69.076  -70.320  -71.618  -72.959  -74.327  -75.694  -77.006  -78.181  -79.094  -79.567  -79.353  -78.110
 -27.951  -28.212  -28.251  -28.235  -28.208  -28.153  -28.015  -27.735  -27.297  -26.753  -26.204  -25.755  -25.479  -25.410  -25.565  -25.952  -26.553  -27.323  -28.213  -29.224  -30.411  -31.855  -33.598  -35.597  -37.732  -39.860  -41.869  -43.712  -45.390  -46.924  -48.340  -49.649  -50.852  -51.939  -52.895  -53.700  -54.342  -54.824  -55.162  -55.379  -55.497  -55.527  -55.474  -55.335  -55.111  -54.809  -54.448  -54.052  -53.644  -53.245  -52.873  -52.543  -52.268  -52.056  -51.910  -51.830  -51.816  -51.871  -51.991  -52.169  -52.393  -52.644  -52.909  -53.173  -53.427  -53.661  -53.864  -54.030  -54.159  -54.263  -54.357  -54.460  -54.583  -54.732  -54.908  -55.109  -55.340  -55.606  -55.916  -56.281  -56.710  -57.211  -57.798  -58.483  -59.274  -60.172  -61.165  -62.235  -63.360  -64.530  -65.736  -66.971  -68.231  -69.496  -70.724  -71.846  -72.751  -73.275  -73.196  -72.190
 -30.242  -30.633  -30.703  -30.706  -30.695  -30.648  -30.484  -30.107  -29.478  -28.643  -27.717  -26.839  -26.111  -25.581  -25.271  -25.182  -25.296  -25.567  -25.950  -26.440  -27.079  -27.951  -29.106  -30.529  -32.132  -33.791  -35.407  -36.927  -38.340  -39.659  -40.900  -42.074  -43.192  -44.255  -45.254  -46.169  -46.982  -47.681  -48.267  -48.744  -49.119  -49.395  -49.571  -49.646  -49.624  -49.514  -49.334  -49.104  -48.843  -48.566  -48.293  -48.040  -47.822  -47.651  -47.534  -47.474  -47.472  -47.535  -47.659  -47.833  -48.044  -48.269  -48.496  -48.713  -48.915  -49.095  -49.245  -49.359  -49.440  -49.495  -49.542  -49.595  -49.664  -49.757  -49.875  -50.019  -50.192  -50.399  -50.652  -50.962  -51.343  -51.809  -52.376  -53.057  -53.858  -54.772  -55.779  -56.848  -57.950  -59.070  -60.204  -61.358  -62.537  -63.732  -64.914  -66.020  -66.945  -67.538  -67.589  -66.795
 -31.098  -31.465  -31.388  -31.194  -30.988  -30.764  -30.435  -29.884  -29.044  -27.945  -26.707  -25.484  -24.393  -23.492  -22.797  -22.306  -22.002  -21.852  -21.815  -21.879  -22.078  -22.484  -23.144  -24.058  -25.175  -26.411  -27.688  -28.960  -30.206  -31.418  -32.596  -33.749  -34.887  -36.018  -37.139  -38.235  -39.280  -40.250  -41.129  -41.903  -42.560  -43.095  -43.502  -43.781  -43.940  -43.991  -43.951  -43.837  -43.666  -43.458  -43.233  -43.015  -42.829  -42.688  -42.603  -42.580  -42.621  -42.730  -42.903  -43.125  -43.372  -43.621  -43.857  -44.071  -44.261  -44.423  -44.553  -44.649  -44.711  -44.747  -44.771  -44.796  -44.831  -44.884  -44.956  -45.051  -45.170  -45.320  -45.511  -45.763  -46.094  -46.530  -47.094  -47.801  -48.652  -49.630  -50.696  -51.802  -52.909  -53.999  -55.078  -56.165  -57.278  -58.426  -59.585  -60.697  -61.661  -62.328  -62.501  -61.896
 -30.033  -30.209  -29.829  -29.263  -28.682  -28.132  -27.540  -26.780  -25.765  -24.503  -23.110  -21.732  -20.488  -19.425  -18.548  -17.845  -17.306  -16.907  -16.625  -16.445  -16.392  -16.512  -16.845  -17.402  -18.165  -19.095  -20.149  -21.294  -22.499  -23.732  -24.976  -26.221  -27.473  -28.736  -30.011  -31.286  -32.538  -33.733  -34.843  -35.839  -36.697  -37.402  -37.952  -38.349  -38.605  -38.735  -38.756  -38.683  -38.533  -38.331  -38.107  -37.894  -37.721  -37.607  -37.564  -37.594  -37.700  -37.881  -38.129  -38.419  -38.723  -39.014  -39.272  -39.492  -39.673  -39.818  -39.930  -40.011  -40.060  -40.086  -40.098  -40.106  -40.120  -40.145  -40.186  -40.241  -40.312  -40.404  -40.531  -40.718  -40.999  -41.412  -41.992  -42.756  -43.700  -44.787  -45.955  -47.135  -48.274  -49.356  -50.393  -51.421  -52.477  -53.582  -54.725  -55.850  -56.855  -57.592  -57.872  -57.432
 -27.051  -26.926  -26.165  -25.140  -24.093  -23.140  -22.246  -21.297  -20.195  -18.930  -17.600  -16.321  -15.188  -14.219  -13.406  -12.730  -12.179  -11.747  -11.416  -11.187  -11.068  -11.088  -11.278  -11.648  -12.218  -12.989  -13.958  -15.103  -16.387  -17.753  -19.153  -20.561  -21.966  -23.366  -24.757  -26.135  -27.481  -28.767  -29.958  -31.021  -31.929  -32.668  -33.238  -33.648  -33.914  -34.049  -34.068  -33.986  -33.821  -33.602  -33.371  -33.166  -33.019  -32.948  -32.961  -33.058  -33.235  -33.484  -33.789  -34.122  -34.454  -34.753  -35.003  -35.199  -35.342  -35.441  -35.510  -35.555  -35.579  -35.589  -35.592  -35.594  -35.601  -35.618  -35.642  -35.672  -35.705  -35.743  -35.804  -35.923  -36.152  -36.546  -37.152  -37.995  -39.059  -40.286  -41.586  -42.868  -44.064  -45.155  -46.162  -47.137  -48.135  -49.195  -50.316  -51.448  -52.486  -53.282  -53.652  -53.354
 -22.653  -22.223  -21.140  -19.732  -18.294  -17.001  -15.872  -14.818  -13.753  -12.654  -11.585  -10.611   -9.784   -9.088   -8.510   -8.023   -7.619   -7.300   -7.062   -6.903   -6.832   -6.865   -7.022   -7.327   -7.814   -8.528   -9.493  -10.703  -12.114  -13.648  -15.226  -16.800  -18.338  -19.825  -21.258  -22.635  -23.951  -25.187  -26.317  -27.310  -28.145  -28.818  -29.334  -29.706  -29.947  -30.071  -30.087  -30.006  -29.850  -29.652  -29.457  -29.303  -29.222  -29.224  -29.308  -29.466  -29.687  -29.959  -30.258  -30.562  -30.842  -31.078  -31.255  -31.369  -31.426  -31.441  -31.431  -31.411  -31.392  -31.376  -31.368  -31.369  -31.384  -31.409  -31.437  -31.460  -31.469  -31.463  -31.464  -31.519  -31.697  -32.075  -32.715  -33.643  -34.837  -36.216  -37.661  -39.055  -40.318  -41.425  -42.404  -43.323  -44.253  -45.254  -46.338  -47.462  -48.521  -49.364  -49.810  -49.631
 -17.786  -17.170  -15.970  -14.436  -12.867  -11.458  -10.254   -9.219   -8.286   -7.437   -6.688   -6.055   -5.541   -5.127   -4.787   -4.502   -4.272   -4.099   -3.979   -3.916   -3.914   -3.982   -4.139   -4.410   -4.851   -5.521   -6.476   -7.725   -9.222  -10.874  -12.580  -14.264  -15.873  -17.381  -18.784  -20.086  -21.294  -22.400  -23.393  -24.255  -24.979  -25.565  -26.029  -26.383  -26.637  -26.798  -26.869  -26.859  -26.786  -26.685  -26.597  -26.558  -26.583  -26.676  -26.827  -27.014  -27.225  -27.443  -27.650  -27.830  -27.971  -28.062  -28.098  -28.079  -28.014  -27.917  -27.808  -27.707  -27.629  -27.578  -27.555  -27.559  -27.590  -27.635  -27.682  -27.713  -27.715  -27.682  -27.640  -27.648  -27.794  -28.172  -28.858  -29.886  -31.213  -32.741  -34.321  -35.814  -37.126  -38.229  -39.159  -39.997  -40.834  -41.749  -42.770  -43.864  -44.927  -45.804  -46.312  -46.233
 -13.591  -12.959  -11.868  -10.477   -9.037   -7.718   -6.580   -5.632   -4.846   -4.211   -3.707   -3.316   -3.002   -2.750   -2.539   -2.378   -2.255   -2.171   -2.129   -2.123   -2.159   -2.240   -2.376   -2.607   -2.978   -3.571   -4.450   -5.645   -7.121   -8.783  -10.516  -12.219  -13.821  -15.286  -16.609  -17.799  -18.874  -19.839  -20.693  -21.434  -22.073  -22.617  -23.083  -23.480  -23.815  -24.089  -24.298  -24.443  -24.537  -24.610  -24.694  -24.808  -24.958  -25.136  -25.320  -25.488  -25.625  -25.719  -25.760  -25.746  -25.682  -25.577  -25.436  -25.264  -25.071  -24.866  -24.669  -24.497  -24.365  -24.280  -24.246  -24.255  -24.297  -24.363  -24.429  -24.477  -24.484  -24.449  -24.399  -24.403  -24.563  -24.988  -25.764  -26.917  -28.389  -30.048  -31.725  -33.263  -34.565  -35.609  -36.439  -37.153  -37.860  -38.655  -39.586  -40.625  -41.670  -42.563  -43.116  -43.120
 -10.874  -10.321   -9.407   -8.225   -6.952   -5.735   -4.666   -3.792   -3.124   -2.647   -2.314   -2.067   -1.856   -1.657   -1.482   -1.347   -1.257   -1.204   -1.186   -1.197   -1.235   -1.302   -1.404   -1.573   -1.858   -2.324   -3.057   -4.089   -5.413   -6.948   -8.582  -10.197  -11.714  -13.085  -14.303  -15.378  -16.333  -17.183  -17.936  -18.606  -19.209  -19.764  -20.285  -20.781  -21.254  -21.697  -22.101  -22.457  -22.773  -23.060  -23.336  -23.610  -23.871  -24.103  -24.282  -24.389  -24.410  -24.339  -24.179  -23.947  -23.668  -23.367  -23.061  -22.759  -22.469  -22.194  -21.946  -21.738  -21.579  -21.479  -21.439  -21.452  -21.503  -21.581  -21.665  -21.734  -21.766  -21.760  -21.751  -21.814  -22.063  -22.614  -23.546  -24.862  -26.473  -28.220  -29.916  -31.407  -32.608  -33.510  -34.176  -34.721  -35.266  -35.920  -36.739  -37.702  -38.709  -39.597  -40.178  -40.246
  -9.606   -9.131   -8.319   -7.221   -5.991   -4.778   -3.710   -2.870   -2.294   -1.948   -1.751   -1.609   -1.455   -1.273   -1.097   -0.953   -0.854   -0.794   -0.773   -0.778   -0.807   -0.849   -0.917   -1.029   -1.215   -1.542   -2.076   -2.870   -3.932   -5.222   -6.636   -8.062   -9.418  -10.656  -11.756  -12.724  -13.588  -14.363  -15.060  -15.701  -16.309  -16.901  -17.499  -18.106  -18.723  -19.340  -19.942  -20.511  -21.042  -21.531  -21.980  -22.384  -22.725  -22.985  -23.139  -23.171  -23.070  -22.841  -22.502  -22.088  -21.639  -21.194  -20.780  -20.407  -20.078  -19.791  -19.545  -19.346  -19.198  -19.110  -19.082  -19.107  -19.171  -19.264  -19.370  -19.469  -19.546  -19.607  -19.692  -19.884  -20.300  -21.051  -22.194  -23.686  -25.397  -27.147  -28.752  -30.085  -31.083  -31.769  -32.227  -32.580  -32.960  -33.475  -34.183  -35.063  -36.016  -36.880  -37.468  -37.583
  -9.019   -8.596   -7.811   -6.720   -5.463   -4.206   -3.115   -2.306   -1.804   -1.560   -1.468   -1.405   -1.298   -1.140   -0.969   -0.819   -0.704   -0.634   -0.606   -0.602   -0.618   -0.640   -0.686   -0.748   -0.863   -1.063   -1.405   -1.942   -2.704   -3.668   -4.774   -5.933   -7.073   -8.133   -9.098   -9.972  -10.765  -11.487  -12.156  -12.790  -13.409  -14.035  -14.688  -15.373  -16.087  -16.823  -17.563  -18.285  -18.969  -19.600  -20.168  -20.659  -21.053  -21.328  -21.461  -21.440  -21.259  -20.930  -20.487  -19.975  -19.449  -18.956  -18.520  -18.155  -17.856  -17.616  -17.424  -17.279  -17.182  -17.138  -17.149  -17.207  -17.301  -17.425  -17.565  -17.708  -17.851  -18.005  -18.221  -18.589  -19.223  -20.208  -21.562  -23.188  -24.920  -26.564  -27.972  -29.049  -29.780  -30.214  -30.455  -30.630  -30.870  -31.275  -31.894  -32.699  -33.591  -34.414  -34.989  -35.134
  -8.241   -7.863   -7.132   -6.098   -4.893   -3.684   -2.637   -1.886   -1.443   -1.266   -1.227   -1.208   -1.140   -1.021   -0.877   -0.744   -0.637   -0.564   -0.527   -0.520   -0.527   -0.544   -0.573   -0.610   -0.669   -0.778   -0.976   -1.294   -1.779   -2.422   -3.204   -4.060   -4.934   -5.790   -6.601   -7.364   -8.081   -8.755   -9.398  -10.025  -10.647  -11.281  -11.944  -12.639  -13.370  -14.130  -14.907  -15.675  -16.413  -17.096  -17.713  -18.240  -18.660  -18.951  -19.093  -19.072  -18.885  -18.552  -18.115  -17.627  -17.143  -16.709  -16.347  -16.064  -15.856  -15.709  -15.610  -15.554  -15.540  -15.573  -15.651  -15.768  -15.918  -16.090  -16.280  -16.480  -16.693  -16.948  -17.304  -17.855  -18.700  -19.891  -21.393  -23.065  -24.715  -26.166  -27.304  -28.087  -28.535  -28.733  -28.791  -28.834  -28.981  -29.315  -29.870  -30.612  -31.441  -32.211  -32.755  -32.910
  -6.840   -6.520   -5.928   -5.079   -4.081   -3.067   -2.185   -1.537   -1.157   -1.003   -0.974   -0.969   -0.931   -0.851   -0.750   -0.653   -0.571   -0.514   -0.483   -0.480   -0.487   -0.500   -0.519   -0.535   -0.562   -0.618   -0.718   -0.895   -1.168   -1.558   -2.051   -2.624   -3.238   -3.869   -4.505   -5.133   -5.755   -6.364   -6.967   -7.571   -8.185   -8.806   -9.441  -10.086  -10.750  -11.434  -12.133  -12.831  -13.510  -14.152  -14.738  -15.256  -15.681  -15.997  -16.183  -16.222  -16.118  -15.890  -15.575  -15.226  -14.892  -14.606  -14.390  -14.241  -14.158  -14.124  -14.134  -14.185  -14.275  -14.408  -14.577  -14.775  -14.993  -15.226  -15.468  -15.716  -15.991  -16.329  -16.803  -17.498  -18.496  -19.811  -21.362  -22.979  -24.469  -25.680  -26.539  -27.046  -27.260  -27.277  -27.214  -27.185  -27.289  -27.587  -28.097  -28.780  -29.544  -30.252  -30.756  -30.910
  -4.976   -4.730   -4.333   -3.762   -3.074   -2.358   -1.712   -1.221   -0.915   -0.776   -0.741   -0.730   -0.711   -0.666   -0.614   -0.555   -0.502   -0.468   -0.456   -0.465   -0.475   -0.486   -0.498   -0.501   -0.514   -0.536   -0.579   -0.667   -0.812   -1.023   -1.311   -1.661   -2.050   -2.478   -2.932   -3.411   -3.907   -4.428   -4.976   -5.550   -6.145   -6.743   -7.325   -7.883   -8.424   -8.958   -9.496  -10.033  -10.568  -11.087  -11.587  -12.052  -12.466  -12.813  -13.073  -13.228  -13.277  -13.234  -13.131  -13.002  -12.880  -12.793  -12.751  -12.752  -12.794  -12.873  -12.990  -13.144  -13.340  -13.571  -13.831  -14.107  -14.391  -14.674  -14.951  -15.231  -15.538  -15.927  -16.469  -17.243  -18.308  -19.645  -21.150  -22.639  -23.936  -24.915  -25.537  -25.833  -25.884  -25.796  -25.679  -25.634  -25.734  -26.021  -26.500  -27.132  -27.833  -28.481  -28.948  -29.097
  -3.148   -2.985   -2.774   -2.463   -2.075   -1.653   -1.249   -0.923   -0.709   -0.596   -0.560   -0.547   -0.543   -0.525   -0.499   -0.472   -0.451   -0.440   -0.449   -0.468   -0.488   -0.499   -0.504   -0.496   -0.487   -0.491   -0.506   -0.545   -0.613   -0.724   -0.881   -1.072   -1.301   -1.563   -1.858   -2.183   -2.553   -2.968   -3.447   -3.977   -4.543   -5.101   -5.616   -6.074   -6.471   -6.833   -7.177   -7.519   -7.872   -8.236   -8.616   -9.006   -9.401   -9.781  -10.127  -10.424  -10.665  -10.847  -10.985  -11.099  -11.205  -11.321  -11.449  -11.590  -11.748  -11.925  -12.129  -12.366  -12.642  -12.946  -13.266  -13.590  -13.905  -14.205  -14.485  -14.763  -15.069  -15.464  -16.019  -16.804  -17.855  -19.134  -20.531  -21.867  -22.984  -23.781  -24.238  -24.403  -24.370  -24.242  -24.125  -24.100  -24.221  -24.518  -24.982  -25.579  -26.233  -26.840  -27.279  -27.431
  -1.797   -1.697   -1.605   -1.469   -1.286   -1.072   -0.857   -0.670   -0.538   -0.467   -0.446   -0.441   -0.449   -0.447   -0.438   -0.431   -0.424   -0.438   -0.468   -0.505   -0.532   -0.538   -0.526   -0.505   -0.479   -0.463   -0.461   -0.475   -0.506   -0.564   -0.639   -0.740   -0.862   -1.007   -1.178   -1.384   -1.628   -1.941   -2.330   -2.790   -3.297   -3.786   -4.220   -4.569   -4.835   -5.045   -5.221   -5.389   -5.573   -5.789   -6.054   -6.368   -6.738   -7.144   -7.574   -8.009   -8.432   -8.827   -9.189   -9.524   -9.841  -10.145  -10.431  -10.704  -10.966  -11.226  -11.495  -11.785  -12.097  -12.424  -12.752  -13.069  -13.362  -13.631  -13.877  -14.116  -14.390  -14.758  -15.282  -16.023  -17.003  -18.185  -19.454  -20.656  -21.640  -22.324  -22.693  -22.804  -22.748  -22.628  -22.540  -22.550  -22.708  -23.027  -23.496  -24.084  -24.721  -25.313  -25.748  -25.911
  -1.016   -0.948   -0.919   -0.862   -0.782   -0.686   -0.586   -0.493   -0.424   -0.393   -0.385   -0.391   -0.405   -0.414   -0.415   -0.415   -0.428   -0.467   -0.516   -0.560   -0.585   -0.579   -0.549   -0.507   -0.468   -0.445   -0.431   -0.433   -0.446   -0.469   -0.506   -0.556   -0.620   -0.691   -0.782   -0.897   -1.052   -1.264   -1.552   -1.911   -2.313   -2.703   -3.029   -3.277   -3.439   -3.538   -3.598   -3.653   -3.720   -3.830   -4.000   -4.251   -4.587   -5.002   -5.488   -6.023   -6.579   -7.131   -7.664   -8.181   -8.681   -9.157   -9.598   -9.999  -10.361  -10.695  -11.010  -11.321  -11.628  -11.928  -12.205  -12.454  -12.675  -12.872  -13.051  -13.232  -13.458  -13.781  -14.259  -14.937  -15.833  -16.912  -18.070  -19.168  -20.078  -20.714  -21.066  -21.185  -21.155  -21.075  -21.031  -21.085  -21.282  -21.630  -22.120  -22.721  -23.368  -23.969  -24.413  -24.592
  -0.647   -0.592   -0.575   -0.555   -0.517   -0.472   -0.429   -0.386   -0.362   -0.347   -0.347   -0.366   -0.388   -0.400   -0.409   -0.418   -0.446   -0.503   -0.575   -0.632   -0.645   -0.612   -0.558   -0.498   -0.447   -0.419   -0.404   -0.399   -0.402   -0.414   -0.432   -0.458   -0.486   -0.522   -0.568   -0.628   -0.715   -0.847   -1.032   -1.277   -1.554   -1.821   -2.041   -2.197   -2.286   -2.322   -2.329   -2.326   -2.333   -2.384   -2.491   -2.682   -2.972   -3.362   -3.849   -4.412   -5.017   -5.650   -6.288   -6.933   -7.580   -8.212   -8.806   -9.339   -9.807  -10.215  -10.571  -10.884  -11.161  -11.395  -11.587  -11.739  -11.863  -11.972  -12.075  -12.203  -12.388  -12.679  -13.121  -13.751  -14.579  -15.573  -16.645  -17.675  -18.547  -19.181  -19.563  -19.736  -19.772  -19.758  -19.772  -19.876  -20.109  -20.487  -21.002  -21.625  -22.290  -22.904  -23.357  -23.543
  -0.496   -0.444   -0.429   -0.415   -0.394   -0.374   -0.352   -0.333   -0.326   -0.320   -0.329   -0.343   -0.364   -0.381   -0.393   -0.409   -0.453   -0.533   -0.621   -0.680   -0.678   -0.621   -0.540   -0.466   -0.416   -0.389   -0.374   -0.368   -0.374   -0.376   -0.387   -0.403   -0.417   -0.437   -0.457   -0.492   -0.536   -0.607   -0.713   -0.854   -1.011   -1.170   -1.293   -1.379   -1.425   -1.439   -1.429   -1.412   -1.406   -1.431   -1.499   -1.634   -1.860   -2.183   -2.608   -3.117   -3.688   -4.304   -4.967   -5.675   -6.423   -7.184   -7.918   -8.584   -9.167   -9.655  -10.052  -10.372  -10.618  -10.790  -10.900  -10.963  -11.004  -11.042  -11.100  -11.199  -11.372  -11.661  -12.095  -12.701  -13.485  -14.407  -15.403  -16.374  -17.213  -17.859  -18.289  -18.538  -18.663  -18.738  -18.825  -18.986  -19.258  -19.667  -20.205  -20.838  -21.511  -22.126  -22.575  -22.750
  -0.425   -0.377   -0.370   -0.352   -0.339   -0.327   -0.316   -0.305   -0.301   -0.303   -0.307   -0.318   -0.336   -0.348   -0.363   -0.388   -0.441   -0.527   -0.623   -0.682   -0.674   -0.602   -0.506   -0.429   -0.381   -0.355   -0.346   -0.345   -0.343   -0.348   -0.356   -0.364   -0.376   -0.385   -0.401   -0.417   -0.440   -0.477   -0.531   -0.597   -0.676   -0.750   -0.813   -0.856   -0.877   -0.885   -0.879   -0.872   -0.866   -0.881   -0.924   -1.012   -1.163   -1.395   -1.707   -2.098   -2.561   -3.092   -3.700   -4.398   -5.179   -6.017   -6.855   -7.641   -8.331   -8.908   -9.366   -9.709   -9.947  -10.090  -10.156  -10.173  -10.175  -10.191  -10.243  -10.353  -10.546  -10.856  -11.302  -11.894  -12.628  -13.470  -14.374  -15.256  -16.038  -16.669  -17.133  -17.450  -17.668  -17.837  -18.010  -18.237  -18.562  -19.003  -19.559  -20.198  -20.862  -21.462  -21.896  -22.047
  -0.392   -0.346   -0.333   -0.322   -0.313   -0.302   -0.296   -0.290   -0.286   -0.283   -0.289   -0.294   -0.306   -0.313   -0.326   -0.351   -0.403   -0.484   -0.578   -0.632   -0.617   -0.545   -0.460   -0.387   -0.345   -0.324   -0.320   -0.318   -0.320   -0.327   -0.334   -0.341   -0.348   -0.356   -0.363   -0.374   -0.389   -0.407   -0.430   -0.462   -0.497   -0.528   -0.556   -0.575   -0.591   -0.593   -0.596   -0.595   -0.600   -0.609   -0.635   -0.682   -0.770   -0.908   -1.106   -1.362   -1.680   -2.074   -2.564   -3.176   -3.913   -4.743   -5.617   -6.471   -7.248   -7.910   -8.436   -8.825   -9.093   -9.251   -9.326   -9.357   -9.373   -9.414   -9.502   -9.660   -9.897  -10.236  -10.684  -11.240  -11.890  -12.620  -13.388  -14.135  -14.815  -15.389  -15.846  -16.200  -16.483  -16.732  -16.984  -17.283  -17.661  -18.142  -18.718  -19.362  -20.014  -20.593  -21.009  -21.140
  -0.374   -0.330   -0.318   -0.306   -0.298   -0.290   -0.285   -0.280   -0.276   -0.272   -0.270   -0.277   -0.281   -0.282   -0.293   -0.316   -0.354   -0.420   -0.489   -0.531   -0.525   -0.469   -0.404   -0.348   -0.317   -0.302   -0.296   -0.298   -0.304   -0.309   -0.315   -0.321   -0.327   -0.334   -0.340   -0.347   -0.354   -0.363   -0.378   -0.391   -0.408   -0.419   -0.434   -0.445   -0.454   -0.460   -0.463   -0.470   -0.470   -0.481   -0.495   -0.523   -0.566   -0.636   -0.739   -0.881   -1.070   -1.322   -1.668   -2.132   -2.740   -3.475   -4.294   -5.138   -5.940   -6.647   -7.223   -7.667   -7.985   -8.196   -8.326   -8.413   -8.492   -8.601   -8.763   -8.984   -9.277   -9.638  -10.061  -10.542  -11.076  -11.647  -12.237  -12.814  -13.348  -13.816  -14.218  -14.563  -14.868  -15.160  -15.465  -15.812  -16.234  -16.742  -17.333  -17.975  -18.613  -19.178  -19.586  -19.722
  -0.361   -0.318   -0.306   -0.296   -0.288   -0.281   -0.275   -0.271   -0.267   -0.263   -0.261   -0.260   -0.260   -0.266   -0.268   -0.283   -0.309   -0.349   -0.393   -0.423   -0.421   -0.385   -0.345   -0.305   -0.288   -0.284   -0.280   -0.285   -0.289   -0.294   -0.299   -0.304   -0.310   -0.315   -0.320   -0.326   -0.332   -0.338   -0.344   -0.353   -0.359   -0.372   -0.378   -0.386   -0.394   -0.399   -0.404   -0.410   -0.416   -0.423   -0.430   -0.442   -0.465   -0.498   -0.542   -0.610   -0.704   -0.845   -1.055   -1.362   -1.799   -2.364   -3.036   -3.768   -4.502   -5.178   -5.756   -6.226   -6.589   -6.863   -7.068   -7.234   -7.403   -7.605   -7.869   -8.180   -8.533   -8.909   -9.289   -9.669  -10.059  -10.446  -10.834  -11.216  -11.577  -11.906  -12.210  -12.497  -12.777  -13.063  -13.371  -13.729  -14.154  -14.657  -15.231  -15.848  -16.460  -17.006  -17.409  -17.569
  -0.349   -0.307   -0.297   -0.287   -0.279   -0.273   -0.267   -0.263   -0.259   -0.256   -0.253   -0.251   -0.250   -0.249   -0.253   -0.260   -0.274   -0.292   -0.317   -0.332   -0.332   -0.316   -0.296   -0.280   -0.271   -0.266   -0.269   -0.273   -0.276   -0.280   -0.285   -0.289   -0.294   -0.298   -0.303   -0.309   -0.314   -0.319   -0.324   -0.329   -0.334   -0.340   -0.345   -0.351   -0.356   -0.362   -0.367   -0.373   -0.378   -0.384   -0.390   -0.399   -0.411   -0.424   -0.447   -0.472   -0.515   -0.582   -0.690   -0.868   -1.137   -1.509   -1.982   -2.530   -3.110   -3.670   -4.182   -4.618   -4.989   -5.295   -5.559   -5.806   -6.070   -6.388   -6.764   -7.185   -7.608   -8.001   -8.337   -8.616   -8.852   -9.055   -9.245   -9.421   -9.594   -9.768   -9.946  -10.137  -10.352  -10.586  -10.854  -11.171  -11.551  -11.996  -12.503  -13.046  -13.597  -14.097  -14.478  -14.671
  -0.339   -0.299   -0.289   -0.279   -0.271   -0.265   -0.260   -0.256   -0.252   -0.249   -0.247   -0.245   -0.243   -0.242   -0.241   -0.242   -0.252   -0.259   -0.269   -0.279   -0.279   -0.271   -0.265   -0.259   -0.254   -0.256   -0.259   -0.262   -0.266   -0.269   -0.273   -0.276   -0.280   -0.285   -0.289   -0.293   -0.298   -0.302   -0.307   -0.312   -0.317   -0.321   -0.326   -0.331   -0.335   -0.340   -0.345   -0.350   -0.355   -0.360   -0.365   -0.370   -0.375   -0.383   -0.393   -0.407   -0.425   -0.453   -0.506   -0.593   -0.734   -0.945   -1.224   -1.568   -1.955   -2.351   -2.729   -3.080   -3.397   -3.689   -3.972   -4.270   -4.615   -5.034   -5.520   -6.039   -6.534   -6.944   -7.241   -7.432   -7.531   -7.575   -7.578   -7.569   -7.561   -7.577   -7.629   -7.718   -7.846   -8.007   -8.205   -8.445   -8.736   -9.080   -9.474   -9.896  -10.332  -10.743  -11.066  -11.276
  -0.330   -0.291   -0.282   -0.272   -0.265   -0.259   -0.254   -0.250   -0.247   -0.244   -0.241   -0.239   -0.238   -0.237   -0.236   -0.236   -0.237   -0.241   -0.247   -0.249   -0.251   -0.250   -0.245   -0.244   -0.246   -0.248   -0.251   -0.253   -0.256   -0.259   -0.262   -0.266   -0.269   -0.273   -0.276   -0.280   -0.284   -0.288   -0.292   -0.296   -0.300   -0.304   -0.309   -0.314   -0.318   -0.322   -0.326   -0.331   -0.335   -0.339   -0.344   -0.348   -0.353   -0.358   -0.363   -0.370   -0.380   -0.393   -0.418   -0.454   -0.518   -0.619   -0.760   -0.943   -1.155   -1.389   -1.624   -1.852   -2.085   -2.319   -2.573   -2.875   -3.249   -3.716   -4.261   -4.830   -5.351   -5.762   -6.025   -6.146   -6.148   -6.070   -5.935   -5.778   -5.625   -5.517   -5.460   -5.465   -5.520   -5.612   -5.738   -5.900   -6.095   -6.328   -6.594   -6.878   -7.179   -7.466   -7.702   -7.906
  -0.323   -0.285   -0.276   -0.267   -0.259   -0.254   -0.249   -0.245   -0.242   -0.239   -0.236   -0.235   -0.233   -0.232   -0.231   -0.231   -0.231   -0.231   -0.231   -0.232   -0.233   -0.234   -0.235   -0.237   -0.238   -0.241   -0.243   -0.246   -0.248   -0.251   -0.254   -0.257   -0.260   -0.263   -0.266   -0.269   -0.273   -0.276   -0.280   -0.283   -0.287   -0.291   -0.294   -0.298   -0.302   -0.306   -0.310   -0.314   -0.318   -0.322   -0.326   -0.330   -0.335   -0.339   -0.343   -0.348   -0.352   -0.359   -0.370   -0.389   -0.411   -0.455   -0.516   -0.599   -0.695   -0.808   -0.929   -1.059   -1.197   -1.354   -1.551   -1.808   -2.151   -2.586   -3.103   -3.631   -4.112   -4.479   -4.691   -4.764   -4.713   -4.569   -4.365   -4.128   -3.906   -3.730   -3.620   -3.574   -3.583   -3.630   -3.706   -3.809   -3.942   -4.094   -4.270   -4.461   -4.654   -4.838   -4.996   -5.169
  -0.317   -0.280   -0.271   -0.262   -0.255   -0.249   -0.245   -0.241   -0.238   -0.235   -0.233   -0.231   -0.229   -0.228   -0.227   -0.227   -0.226   -0.227   -0.227   -0.227   -0.228   -0.229   -0.230   -0.231   -0.233   -0.235   -0.236   -0.239   -0.241   -0.243   -0.246   -0.249   -0.252   -0.254   -0.257   -0.260   -0.263   -0.266   -0.269   -0.273   -0.276   -0.279   -0.282   -0.286   -0.289   -0.293   -0.296   -0.300   -0.303   -0.307   -0.310   -0.314   -0.318   -0.323   -0.327   -0.331   -0.335   -0.339   -0.344   -0.351   -0.365   -0.383   -0.405   -0.434   -0.476   -0.522   -0.574   -0.636   -0.706   -0.799   -0.926   -1.111   -1.375   -1.714   -2.115   -2.529   -2.900   -3.177   -3.333   -3.365   -3.301   -3.158   -2.950   -2.720   -2.507   -2.334   -2.224   -2.168   -2.156   -2.182   -2.231   -2.311   -2.411   -2.543   -2.695   -2.856   -3.017   -3.167   -3.285   -3.434
  -0.312   -0.276   -0.267   -0.258   -0.251   -0.246   -0.241   -0.238   -0.234   -0.232   -0.230   -0.228   -0.226   -0.225   -0.224   -0.224   -0.223   -0.223   -0.223   -0.224   -0.224   -0.225   -0.226   -0.227   -0.228   -0.230   -0.232   -0.233   -0.235   -0.237   -0.240   -0.242   -0.244   -0.247   -0.250   -0.253   -0.255   -0.258   -0.261   -0.264   -0.267   -0.270   -0.273   -0.276   -0.279   -0.282   -0.285   -0.288   -0.291   -0.295   -0.298   -0.301   -0.305   -0.308   -0.312   -0.316   -0.319   -0.324   -0.328   -0.333   -0.337   -0.344   -0.358   -0.368   -0.384   -0.401   -0.420   -0.448   -0.481   -0.530   -0.600   -0.711   -0.877   -1.099   -1.351   -1.617   -1.854   -2.028   -2.119   -2.135   -2.084   -1.976   -1.827   -1.660   -1.504   -1.381   -1.300   -1.256   -1.248   -1.264   -1.306   -1.376   -1.481   -1.627   -1.801   -1.994   -2.185   -2.353   -2.479   -2.615
  -0.309   -0.273   -0.264   -0.256   -0.249   -0.244   -0.239   -0.236   -0.232   -0.230   -0.228   -0.226   -0.224   -0.223   -0.222   -0.222   -0.221   -0.221   -0.221   -0.221   -0.222   -0.222   -0.223   -0.224   -0.225   -0.227   -0.228   -0.229   -0.231   -0.233   -0.235   -0.237   -0.239   -0.241   -0.244   -0.246   -0.248   -0.251   -0.254   -0.257   -0.259   -0.262   -0.265   -0.267   -0.270   -0.273   -0.276   -0.279   -0.282   -0.285   -0.288   -0.291   -0.294   -0.297   -0.300   -0.304   -0.307   -0.311   -0.314   -0.318   -0.322   -0.327   -0.331   -0.338   -0.343   -0.356   -0.362   -0.375   -0.388   -0.412   -0.450   -0.505   -0.594   -0.704   -0.839   -0.976   -1.099   -1.191   -1.236   -1.246   -1.216   -1.153   -1.071   -0.977   -0.892   -0.823   -0.784   -0.762   -0.759   -0.774   -0.811   -0.878   -0.983   -1.143   -1.345   -1.577   -1.812   -2.021   -2.180   -2.323
  -0.308   -0.272   -0.263   -0.255   -0.248   -0.243   -0.238   -0.235   -0.232   -0.229   -0.227   -0.225   -0.224   -0.223   -0.222   -0.221   -0.220   -0.220   -0.220   -0.220   -0.221   -0.221   -0.222   -0.223   -0.223   -0.225   -0.226   -0.227   -0.229   -0.230   -0.232   -0.234   -0.235   -0.237   -0.239   -0.242   -0.244   -0.246   -0.248   -0.251   -0.253   -0.256   -0.258   -0.261   -0.264   -0.266   -0.269   -0.271   -0.274   -0.277   -0.280   -0.282   -0.285   -0.288   -0.291   -0.294   -0.297   -0.301   -0.304   -0.307   -0.311   -0.315   -0.318   -0.322   -0.326   -0.331   -0.335   -0.341   -0.351   -0.363   -0.379   -0.404   -0.443   -0.489   -0.551   -0.612   -0.660   -0.703   -0.723   -0.726   -0.712   -0.689   -0.656   -0.616   -0.581   -0.556   -0.538   -0.529   -0.532   -0.548   -0.574   -0.629   -0.729   -0.884   -1.087   -1.325   -1.584   -1.832   -2.020   -2.172
  -0.309   -0.273   -0.264   -0.255   -0.249   -0.244   -0.239   -0.236   -0.233   -0.230   -0.228   -0.226   -0.225   -0.223   -0.223   -0.222   -0.221   -0.221   -0.221   -0.221   -0.221   -0.221   -0.222   -0.223   -0.223   -0.224   -0.225   -0.227   -0.228   -0.229   -0.231   -0.232   -0.234   -0.236   -0.237   -0.239   -0.241   -0.243   -0.245   -0.247   -0.250   -0.252   -0.254   -0.256   -0.259   -0.261   -0.264   -0.267   -0.269   -0.272   -0.274   -0.277   -0.279   -0.282   -0.285   -0.288   -0.290   -0.293   -0.296   -0.300   -0.303   -0.306   -0.309   -0.313   -0.316   -0.320   -0.324   -0.328   -0.332   -0.337   -0.347   -0.359   -0.375   -0.392   -0.415   -0.435   -0.456   -0.472   -0.476   -0.482   -0.483   -0.477   -0.467   -0.458   -0.449   -0.439   -0.434   -0.437   -0.441   -0.452   -0.471   -0.512   -0.589   -0.712   -0.887   -1.108   -1.362   -1.614   -1.821   -1.983
  -0.313   -0.273   -0.265   -0.257   -0.250   -0.245   -0.240   -0.237   -0.234   -0.231   -0.229   -0.227   -0.226   -0.225   -0.224   -0.223   -0.222   -0.222   -0.222   -0.222   -0.222   -0.222   -0.222   -0.223   -0.224   -0.224   -0.225   -0.226   -0.227   -0.229   -0.230   -0.231   -0.233   -0.234   -0.236   -0.238   -0.239   -0.241   -0.243   -0.245   -0.247   -0.249   -0.251   -0.253   -0.255   -0.257   -0.259   -0.262   -0.265   -0.267   -0.269   -0.272   -0.274   -0.277   -0.279   -0.282   -0.285   -0.287   -0.290   -0.293   -0.296   -0.299   -0.302   -0.305   -0.308   -0.311   -0.315   -0.318   -0.322   -0.325   -0.329   -0.334   -0.343   -0.351   -0.358   -0.369   -0.378   -0.381   -0.385   -0.389   -0.393   -0.397   -0.393   -0.392   -0.394   -0.396   -0.393   -0.394   -0.398   -0.409   -0.425   -0.452   -0.503   -0.593   -0.725   -0.919   -1.151   -1.401   -1.608   -1.780
  -0.400   -0.305   -0.293   -0.284   -0.277   -0.271   -0.267   -0.263   -0.260   -0.257   -0.255   -0.253   -0.252   -0.250   -0.249   -0.248   -0.248   -0.247   -0.247   -0.246   -0.246   -0.247   -0.247   -0.247   -0.248   -0.248   -0.249   -0.250   -0.251   -0.252   -0.253   -0.254   -0.256   -0.257   -0.258   -0.260   -0.261   -0.263   -0.265   -0.266   -0.268   -0.270   -0.272   -0.274   -0.276   -0.278   -0.280   -0.282   -0.284   -0.287   -0.290   -0.292   -0.294   -0.297   -0.299   -0.302   -0.304   -0.307   -0.310   -0.312   -0.315   -0.318   -0.321   -0.324   -0.327   -0.330   -0.334   -0.337   -0.340   -0.344   -0.347   -0.351   -0.354   -0.357   -0.363   -0.368   -0.381   -0.386   -0.389   -0.393   -0.397   -0.393   -0.393   -0.397   -0.399   -0.403   -0.406   -0.410   -0.413   -0.419   -0.434   -0.453   -0.492   -0.567   -0.681   -0.848   -1.072   -1.312   -1.524   -1.766
