DSAA
 100 100
 0.0 400.0
 0.0 400.0
 -107.2551 -0.1925095
 -11.619  -11.740  -11.916  -12.183  -12.540  -12.967  -13.421  -13.849  -14.174  -14.327  -14.230  -13.789  -12.925  -11.636  -10.049   -8.414   -7.047   -6.168   -5.829   -5.924   -6.314   -6.886   -7.590   -8.395   -9.234   -9.981  -10.475  -10.599  -10.324   -9.689   -8.754   -7.620   -6.431   -5.391   -4.688   -4.378   -4.381   -4.541   -4.714   -4.807   -4.795   -4.699   -4.560   -4.437   -4.362   -4.360   -4.428   -4.542   -4.673   -4.817   -4.973   -5.150   -5.330   -5.443   -5.384   -5.051   -4.391   -3.484   -2.497   -1.632   -1.009   -0.629   -0.424   -0.330   -0.296   -0.275   -0.268   -0.262   -0.258   -0.251   -0.248   -0.248   -0.249   -0.250   -0.252   -0.254   -0.249   -0.248   -0.251   -0.261   -0.269   -0.273   -0.280   -0.294   -0.315   -0.348   -0.401   -0.489   -0.625   -0.828   -1.125   -1.509   -1.977   -2.517   -3.144   -3.889   -4.746   -5.622   -6.350   -6.822
 -11.503  -11.605  -11.759  -11.989  -12.297  -12.669  -13.075  -13.455  -13.747  -13.883  -13.787  -13.376  -12.562  -11.339   -9.816   -8.241   -6.901   -6.020   -5.651   -5.705   -6.042   -6.566   -7.225   -7.990   -8.799   -9.531  -10.052  -10.250  -10.094   -9.598   -8.808   -7.784   -6.671   -5.659   -4.920   -4.515   -4.394   -4.441   -4.543   -4.606   -4.595   -4.518   -4.405   -4.305   -4.255   -4.268   -4.345   -4.460   -4.586   -4.720   -4.869   -5.041   -5.221   -5.354   -5.333   -5.058   -4.476   -3.642   -2.705   -1.851   -1.200   -0.775   -0.534   -0.412   -0.352   -0.326   -0.309   -0.296   -0.282   -0.270   -0.260   -0.251   -0.250   -0.250   -0.245   -0.246   -0.247   -0.250   -0.253   -0.258   -0.264   -0.276   -0.288   -0.315   -0.357   -0.427   -0.539   -0.709   -0.953   -1.296   -1.756   -2.328   -2.977   -3.679   -4.444   -5.284   -6.204   -7.114   -7.841   -8.272
 -11.177  -11.255  -11.361  -11.519  -11.729  -11.993  -12.290  -12.573  -12.784  -12.873  -12.775  -12.419  -11.725  -10.672   -9.342   -7.932   -6.694   -5.836   -5.422   -5.392   -5.626   -6.042   -6.593   -7.249   -7.955   -8.623   -9.153   -9.463   -9.512   -9.281   -8.766   -8.003   -7.091   -6.181   -5.415   -4.858   -4.504   -4.320   -4.255   -4.249   -4.248   -4.228   -4.196   -4.177   -4.202   -4.268   -4.360   -4.455   -4.537   -4.627   -4.734   -4.878   -5.043   -5.190   -5.228   -5.066   -4.646   -3.982   -3.179   -2.382   -1.710   -1.215   -0.898   -0.712   -0.615   -0.564   -0.527   -0.495   -0.454   -0.412   -0.383   -0.361   -0.349   -0.343   -0.341   -0.336   -0.333   -0.334   -0.338   -0.348   -0.363   -0.383   -0.413   -0.475   -0.579   -0.760   -1.025   -1.395   -1.885   -2.517   -3.295   -4.192   -5.143   -6.084   -7.005   -7.931   -8.867   -9.738  -10.410  -10.749
 -10.570  -10.615  -10.659  -10.721  -10.808  -10.936  -11.102  -11.269  -11.385  -11.410  -11.304  -11.013  -10.474   -9.658   -8.604   -7.447   -6.388   -5.602   -5.166   -5.051   -5.164   -5.438   -5.835   -6.331   -6.877   -7.422   -7.914   -8.305   -8.553   -8.611   -8.437   -8.024   -7.423   -6.718   -5.986   -5.283   -4.664   -4.196   -3.912   -3.806   -3.814   -3.895   -4.027   -4.202   -4.406   -4.595   -4.726   -4.773   -4.746   -4.701   -4.688   -4.738   -4.849   -4.982   -5.078   -5.049   -4.821   -4.388   -3.791   -3.126   -2.495   -1.972   -1.588   -1.342   -1.197   -1.118   -1.054   -0.985   -0.895   -0.800   -0.720   -0.672   -0.646   -0.635   -0.623   -0.608   -0.594   -0.588   -0.595   -0.619   -0.650   -0.696   -0.772   -0.905   -1.141   -1.522   -2.059   -2.757   -3.599   -4.588   -5.709   -6.903   -8.077   -9.151  -10.107  -10.988  -11.812  -12.548  -13.090  -13.296
  -9.637   -9.630   -9.606   -9.564   -9.524   -9.521   -9.559   -9.612   -9.639   -9.608   -9.496   -9.279   -8.914   -8.367   -7.639   -6.803   -5.994   -5.353   -4.951   -4.788   -4.800   -4.936   -5.159   -5.457   -5.797   -6.157   -6.536   -6.919   -7.284   -7.583   -7.759   -7.769   -7.583   -7.179   -6.546   -5.743   -4.889   -4.142   -3.632   -3.406   -3.424   -3.648   -4.031   -4.525   -5.042   -5.469   -5.697   -5.688   -5.485   -5.202   -4.961   -4.825   -4.802   -4.860   -4.960   -5.026   -4.986   -4.793   -4.448   -3.992   -3.491   -3.025   -2.642   -2.372   -2.212   -2.119   -2.043   -1.934   -1.781   -1.610   -1.470   -1.383   -1.344   -1.326   -1.302   -1.268   -1.236   -1.224   -1.240   -1.290   -1.361   -1.454   -1.597   -1.852   -2.284   -2.949   -3.836   -4.898   -6.090   -7.372   -8.706  -10.026  -11.220  -12.221  -13.032  -13.716  -14.322  -14.845  -15.215  -15.287
  -8.420   -8.361   -8.260   -8.116   -7.957   -7.833   -7.764   -7.730   -7.690   -7.618   -7.515   -7.375   -7.189   -6.920   -6.541   -6.066   -5.563   -5.134   -4.840   -4.689   -4.647   -4.672   -4.741   -4.840   -4.949   -5.083   -5.267   -5.537   -5.908   -6.371   -6.887   -7.374   -7.683   -7.648   -7.175   -6.319   -5.280   -4.302   -3.579   -3.207   -3.201   -3.555   -4.224   -5.109   -6.046   -6.814   -7.231   -7.225   -6.864   -6.326   -5.796   -5.382   -5.117   -5.000   -5.011   -5.098   -5.188   -5.204   -5.104   -4.885   -4.588   -4.265   -3.967   -3.743   -3.615   -3.546   -3.485   -3.367   -3.177   -2.956   -2.771   -2.661   -2.619   -2.604   -2.579   -2.534   -2.490   -2.474   -2.506   -2.590   -2.712   -2.879   -3.120   -3.521   -4.171   -5.111   -6.298   -7.633   -9.034  -10.445  -11.822  -13.078  -14.110  -14.861  -15.378  -15.761  -16.096  -16.395  -16.603  -16.570
  -7.111   -6.991   -6.812   -6.570   -6.308   -6.088   -5.942   -5.849   -5.775   -5.689   -5.600   -5.534   -5.513   -5.513   -5.483   -5.380   -5.215   -5.041   -4.909   -4.833   -4.788   -4.756   -4.714   -4.648   -4.551   -4.448   -4.395   -4.465   -4.732   -5.265   -6.072   -7.024   -7.838   -8.192   -7.920   -7.089   -5.958   -4.831   -3.929   -3.371   -3.241   -3.610   -4.480   -5.723   -7.078   -8.228   -8.918   -9.037   -8.659   -7.987   -7.232   -6.526   -5.942   -5.542   -5.366   -5.395   -5.540   -5.688   -5.765   -5.750   -5.654   -5.504   -5.341   -5.215   -5.163   -5.162   -5.159   -5.086   -4.922   -4.718   -4.545   -4.456   -4.440   -4.447   -4.438   -4.402   -4.363   -4.359   -4.413   -4.536   -4.719   -4.963   -5.306   -5.840   -6.644   -7.749   -9.074  -10.497  -11.929  -13.325  -14.628  -15.731  -16.509  -16.922  -17.063  -17.102  -17.161  -17.265  -17.344  -17.236
  -5.973   -5.794   -5.533   -5.196   -4.851   -4.569   -4.384   -4.273   -4.195   -4.113   -4.042   -4.039   -4.159   -4.397   -4.686   -4.938   -5.103   -5.194   -5.245   -5.272   -5.273   -5.231   -5.134   -4.965   -4.722   -4.426   -4.141   -3.967   -4.048   -4.531   -5.488   -6.760   -7.958   -8.658   -8.630   -7.959   -6.922   -5.812   -4.809   -4.028   -3.627   -3.810   -4.678   -6.102   -7.759   -9.245  -10.243  -10.605  -10.391   -9.786   -8.977   -8.084   -7.210   -6.498   -6.087   -6.003   -6.137   -6.333   -6.493   -6.582   -6.611   -6.593   -6.554   -6.529   -6.562   -6.649   -6.735   -6.759   -6.691   -6.568   -6.473   -6.450   -6.487   -6.536   -6.555   -6.546   -6.532   -6.551   -6.634   -6.794   -7.031   -7.341   -7.764   -8.371   -9.233  -10.353  -11.642  -12.985  -14.320  -15.619  -16.822  -17.767  -18.293  -18.358  -18.113  -17.806  -17.612  -17.553  -17.535  -17.376
  -5.245   -5.012   -4.661   -4.226   -3.814   -3.497   -3.312   -3.222   -3.169   -3.112   -3.067   -3.119   -3.359   -3.795   -4.349   -4.897   -5.348   -5.672   -5.891   -6.020   -6.070   -6.046   -5.935   -5.725   -5.404   -4.987   -4.522   -4.112   -3.943   -4.234   -5.113   -6.439   -7.796   -8.723   -8.983   -8.650   -7.959   -7.111   -6.166   -5.188   -4.404   -4.174   -4.771   -6.139   -7.915   -9.629  -10.895  -11.540  -11.598  -11.212  -10.514   -9.591   -8.564   -7.645   -7.064   -6.888   -6.985   -7.163   -7.303   -7.382   -7.427   -7.452   -7.472   -7.519   -7.626   -7.799   -7.988   -8.128   -8.186   -8.185   -8.195   -8.250   -8.339   -8.415   -8.447   -8.451   -8.461   -8.509   -8.625   -8.820   -9.097   -9.455   -9.917  -10.535  -11.361  -12.389  -13.531  -14.702  -15.873  -17.051  -18.152  -18.962  -19.271  -19.036  -18.457  -17.850  -17.437  -17.237  -17.138  -16.941
  -5.026   -4.733   -4.286   -3.751   -3.271   -2.942   -2.778   -2.733   -2.730   -2.719   -2.725   -2.855   -3.201   -3.794   -4.545   -5.308   -5.960   -6.450   -6.780   -6.976   -7.058   -7.045   -6.933   -6.716   -6.369   -5.887   -5.298   -4.689   -4.250   -4.223   -4.796   -5.884   -7.141   -8.159   -8.722   -8.874   -8.750   -8.388   -7.689   -6.624   -5.459   -4.709   -4.836   -5.925   -7.632   -9.427  -10.862  -11.726  -12.027  -11.882  -11.377  -10.564   -9.572   -8.648   -8.057   -7.871   -7.945   -8.064   -8.117   -8.105   -8.074   -8.056   -8.076   -8.156   -8.323   -8.574   -8.864   -9.122   -9.298   -9.404   -9.492   -9.597   -9.698   -9.748   -9.742   -9.711   -9.715   -9.789   -9.943  -10.181  -10.491  -10.865  -11.311  -11.869  -12.589  -13.464  -14.418  -15.382  -16.366  -17.401  -18.388  -19.076  -19.214  -18.757  -17.936  -17.113  -16.528  -16.198  -16.009  -15.782
  -5.260   -4.921   -4.377   -3.744   -3.201   -2.860   -2.722   -2.721   -2.768   -2.813   -2.903   -3.135   -3.604   -4.315   -5.180   -6.053   -6.809   -7.376   -7.749   -7.951   -8.027   -8.000   -7.879   -7.655   -7.300   -6.785   -6.109   -5.340   -4.646   -4.267   -4.404   -5.067   -6.036   -7.019   -7.846   -8.515   -9.030   -9.245   -8.909   -7.914   -6.512   -5.308   -4.936   -5.633   -7.125   -8.854  -10.311  -11.252  -11.676  -11.692  -11.380  -10.783  -10.011   -9.293   -8.856   -8.747   -8.812   -8.861   -8.809   -8.689   -8.557   -8.464   -8.448   -8.533   -8.741   -9.060   -9.438   -9.794  -10.061  -10.228  -10.334  -10.419  -10.462  -10.419  -10.300  -10.173  -10.130  -10.214  -10.419  -10.701  -11.025  -11.367  -11.727  -12.157  -12.709  -13.392  -14.142  -14.899  -15.691  -16.560  -17.412  -17.976  -17.989  -17.408  -16.470  -15.535  -14.834  -14.380  -14.086  -13.847
  -5.816   -5.447   -4.837   -4.134   -3.542   -3.177   -3.044   -3.056   -3.119   -3.221   -3.411   -3.778   -4.373   -5.168   -6.069   -6.951   -7.702   -8.252   -8.590   -8.740   -8.759   -8.683   -8.528   -8.285   -7.916   -7.373   -6.640   -5.757   -4.862   -4.174   -3.904   -4.125   -4.754   -5.617   -6.609   -7.678   -8.713   -9.424   -9.464   -8.659   -7.236   -5.804   -5.068   -5.385   -6.575   -8.102   -9.440  -10.320  -10.743  -10.834  -10.696  -10.380   -9.959   -9.594   -9.413   -9.417   -9.475   -9.457   -9.333   -9.142   -8.946   -8.799   -8.743   -8.819   -9.039   -9.394   -9.822  -10.229  -10.529  -10.691  -10.747  -10.734  -10.647  -10.449  -10.165   -9.900   -9.779   -9.860  -10.095  -10.399  -10.698  -10.946  -11.159  -11.393  -11.735  -12.207  -12.759  -13.328  -13.939  -14.633  -15.328  -15.770  -15.711  -15.117  -14.203  -13.277  -12.527  -11.969  -11.569  -11.325
  -6.516   -6.157   -5.536   -4.818   -4.203   -3.808   -3.633   -3.603   -3.653   -3.791   -4.088   -4.600   -5.315   -6.161   -7.030   -7.836   -8.488   -8.936   -9.164   -9.205   -9.118   -8.958   -8.742   -8.458   -8.062   -7.502   -6.739   -5.796   -4.792   -3.921   -3.381   -3.297   -3.655   -4.376   -5.385   -6.621   -7.908   -8.906   -9.232   -8.689   -7.449   -6.054   -5.175   -5.209   -6.078   -7.325   -8.459   -9.212   -9.583   -9.712   -9.732   -9.706   -9.673   -9.688   -9.768   -9.872   -9.915   -9.856   -9.715   -9.541   -9.364   -9.212   -9.135   -9.184   -9.373   -9.690  -10.075  -10.436  -10.690  -10.780  -10.723  -10.561  -10.303   -9.934   -9.487   -9.088   -8.881   -8.920   -9.134   -9.404   -9.619   -9.733   -9.761   -9.790   -9.920  -10.207  -10.598  -11.027  -11.493  -12.027  -12.554  -12.876  -12.796  -12.293  -11.526  -10.717   -9.991   -9.372   -8.894   -8.648
  -7.196   -6.871   -6.306   -5.632   -5.025   -4.592   -4.338   -4.227   -4.231   -4.397   -4.791   -5.439   -6.255   -7.123   -7.929   -8.605   -9.101   -9.386   -9.450   -9.338   -9.111   -8.835   -8.533   -8.187   -7.760   -7.194   -6.439   -5.511   -4.507   -3.610   -3.008   -2.817   -3.045   -3.628   -4.511   -5.633   -6.855   -7.882   -8.364   -8.099   -7.185   -6.037   -5.216   -5.101   -5.697   -6.667   -7.602   -8.245   -8.586   -8.752   -8.891   -9.083   -9.345   -9.646   -9.910  -10.064  -10.080  -10.010   -9.927   -9.859   -9.783   -9.687   -9.616   -9.624   -9.732   -9.921  -10.151  -10.358  -10.469  -10.425  -10.224   -9.904   -9.498   -9.010   -8.473   -8.000   -7.723   -7.687   -7.821   -7.984   -8.071   -8.034   -7.901   -7.768   -7.755   -7.923   -8.226   -8.587   -8.970   -9.370   -9.733   -9.929   -9.845   -9.466   -8.897   -8.254   -7.603   -6.987   -6.489   -6.253
  -7.675   -7.415   -6.941   -6.359   -5.786   -5.312   -4.977   -4.777   -4.741   -4.936   -5.424   -6.174   -7.057   -7.921   -8.655   -9.202   -9.541   -9.655   -9.546   -9.264   -8.883   -8.477   -8.075   -7.671   -7.218   -6.662   -5.963   -5.132   -4.247   -3.477   -2.988   -2.869   -3.090   -3.548   -4.180   -4.966   -5.856   -6.678   -7.173   -7.141   -6.597   -5.796   -5.155   -5.014   -5.445   -6.232   -7.045   -7.650   -8.002   -8.186   -8.356   -8.619   -8.995   -9.409   -9.734   -9.874   -9.851   -9.785   -9.797   -9.881   -9.949   -9.945   -9.893   -9.859   -9.865   -9.887   -9.902   -9.888   -9.805   -9.603   -9.262   -8.826   -8.349   -7.850   -7.352   -6.916   -6.634   -6.538   -6.561   -6.594   -6.540   -6.377   -6.141   -5.932   -5.857   -5.972   -6.244   -6.585   -6.917   -7.201   -7.401   -7.454   -7.321   -7.020   -6.597   -6.096   -5.547   -4.994   -4.537   -4.340
  -7.816   -7.621   -7.254   -6.773   -6.258   -5.778   -5.387   -5.143   -5.107   -5.350   -5.907   -6.710   -7.612   -8.450   -9.121   -9.580   -9.811   -9.803   -9.568   -9.157   -8.655   -8.141   -7.656   -7.198   -6.740   -6.231   -5.640   -4.972   -4.295   -3.748   -3.476   -3.530   -3.805   -4.142   -4.458   -4.783   -5.183   -5.635   -5.996   -6.088   -5.833   -5.354   -4.933   -4.864   -5.260   -5.990   -6.786   -7.416   -7.787   -7.954   -8.058   -8.242   -8.555   -8.919   -9.185   -9.252   -9.164   -9.086   -9.158   -9.355   -9.537   -9.600   -9.564   -9.500   -9.431   -9.327   -9.174   -8.981   -8.742   -8.418   -7.990   -7.518   -7.071   -6.691   -6.370   -6.115   -5.950   -5.874   -5.830   -5.745   -5.570   -5.310   -5.022   -4.785   -4.681   -4.750   -4.966   -5.247   -5.494   -5.650   -5.678   -5.569   -5.337   -5.028   -4.667   -4.268   -3.833   -3.392   -3.038   -2.902
  -7.537   -7.384   -7.108   -6.726   -6.286   -5.846   -5.477   -5.256   -5.272   -5.582   -6.182   -6.989   -7.853   -8.646   -9.279   -9.707   -9.908   -9.873   -9.603   -9.155   -8.605   -8.042   -7.517   -7.048   -6.610   -6.183   -5.732   -5.258   -4.813   -4.515   -4.474   -4.691   -5.015   -5.229   -5.232   -5.094   -4.979   -4.993   -5.091   -5.138   -5.012   -4.744   -4.519   -4.578   -5.041   -5.818   -6.665   -7.341   -7.721   -7.827   -7.807   -7.831   -7.987   -8.209   -8.354   -8.316   -8.147   -8.009   -8.049   -8.239   -8.427   -8.490   -8.444   -8.372   -8.292   -8.179   -8.001   -7.769   -7.491   -7.143   -6.718   -6.294   -5.968   -5.798   -5.762   -5.799   -5.866   -5.904   -5.853   -5.667   -5.363   -5.004   -4.662   -4.397   -4.247   -4.219   -4.294   -4.418   -4.506   -4.497   -4.357   -4.101   -3.771   -3.427   -3.102   -2.785   -2.471   -2.176   -1.952   -1.887
  -6.861   -6.728   -6.504   -6.203   -5.849   -5.499   -5.221   -5.100   -5.212   -5.594   -6.207   -6.969   -7.763   -8.500   -9.116   -9.574   -9.834   -9.869   -9.676   -9.301   -8.805   -8.276   -7.773   -7.329   -6.948   -6.614   -6.299   -5.992   -5.737   -5.624   -5.737   -6.046   -6.363   -6.459   -6.218   -5.733   -5.209   -4.815   -4.592   -4.454   -4.300   -4.124   -4.054   -4.269   -4.849   -5.708   -6.608   -7.299   -7.635   -7.639   -7.466   -7.313   -7.291   -7.361   -7.387   -7.266   -7.025   -6.800   -6.722   -6.778   -6.847   -6.833   -6.754   -6.701   -6.698   -6.711   -6.682   -6.590   -6.421   -6.157   -5.820   -5.508   -5.337   -5.388   -5.634   -5.974   -6.283   -6.436   -6.353   -6.033   -5.565   -5.075   -4.671   -4.379   -4.172   -4.015   -3.900   -3.804   -3.698   -3.523   -3.256   -2.912   -2.544   -2.209   -1.937   -1.713   -1.527   -1.372   -1.263   -1.258
  -5.951   -5.806   -5.601   -5.341   -5.075   -4.846   -4.710   -4.731   -4.958   -5.395   -5.987   -6.666   -7.364   -8.035   -8.651   -9.178   -9.559   -9.751   -9.733   -9.524   -9.178   -8.764   -8.345   -7.966   -7.652   -7.395   -7.169   -6.961   -6.797   -6.758   -6.906   -7.194   -7.444   -7.437   -7.064   -6.407   -5.665   -5.015   -4.530   -4.188   -3.948   -3.820   -3.897   -4.274   -4.981   -5.898   -6.788   -7.401   -7.602   -7.424   -7.045   -6.685   -6.483   -6.412   -6.346   -6.184   -5.916   -5.629   -5.418   -5.302   -5.207   -5.091   -4.992   -5.003   -5.154   -5.403   -5.650   -5.816   -5.848   -5.737   -5.534   -5.341   -5.290   -5.473   -5.872   -6.370   -6.782   -6.941   -6.749   -6.246   -5.593   -4.986   -4.533   -4.235   -4.000   -3.757   -3.488   -3.219   -2.954   -2.672   -2.349   -2.003   -1.671   -1.406   -1.220   -1.092   -1.002   -0.951   -0.926   -0.965
  -5.095   -4.917   -4.680   -4.426   -4.221   -4.111   -4.128   -4.290   -4.611   -5.061   -5.585   -6.143   -6.715   -7.305   -7.914   -8.520   -9.052   -9.451   -9.668   -9.700   -9.572   -9.333   -9.045   -8.758   -8.507   -8.287   -8.080   -7.870   -7.690   -7.608   -7.670   -7.837   -7.965   -7.871   -7.472   -6.823   -6.079   -5.386   -4.815   -4.398   -4.153   -4.133   -4.394   -4.962   -5.789   -6.715   -7.497   -7.908   -7.845   -7.372   -6.698   -6.070   -5.640   -5.401   -5.243   -5.055   -4.801   -4.503   -4.231   -4.004   -3.810   -3.650   -3.581   -3.706   -4.063   -4.586   -5.136   -5.572   -5.817   -5.867   -5.786   -5.679   -5.669   -5.841   -6.200   -6.637   -6.956   -6.972   -6.595   -5.911   -5.126   -4.461   -4.019   -3.749   -3.524   -3.256   -2.928   -2.583   -2.258   -1.953   -1.662   -1.388   -1.158   -0.995   -0.899   -0.849   -0.832   -0.839   -0.860   -0.920
  -4.624   -4.396   -4.094   -3.796   -3.609   -3.584   -3.715   -3.976   -4.328   -4.726   -5.125   -5.511   -5.916   -6.384   -6.950   -7.604   -8.279   -8.891   -9.371   -9.683   -9.819   -9.805   -9.683   -9.505   -9.303   -9.079   -8.821   -8.532   -8.245   -8.021   -7.908   -7.884   -7.854   -7.690   -7.331   -6.811   -6.235   -5.695   -5.245   -4.945   -4.858   -5.054   -5.559   -6.341   -7.282   -8.177   -8.784   -8.908   -8.497   -7.651   -6.617   -5.655   -4.939   -4.482   -4.187   -3.951   -3.707   -3.438   -3.172   -2.931   -2.738   -2.618   -2.650   -2.926   -3.483   -4.238   -5.024   -5.665   -6.073   -6.247   -6.263   -6.214   -6.186   -6.248   -6.412   -6.611   -6.681   -6.459   -5.890   -5.087   -4.264   -3.625   -3.229   -3.003   -2.807   -2.561   -2.250   -1.930   -1.639   -1.393   -1.186   -1.022   -0.916   -0.866   -0.850   -0.855   -0.878   -0.913   -0.954   -1.021
  -4.755   -4.477   -4.087   -3.714   -3.504   -3.504   -3.683   -3.959   -4.263   -4.533   -4.741   -4.901   -5.083   -5.378   -5.844   -6.485   -7.244   -8.036   -8.775   -9.378   -9.804  -10.048  -10.126  -10.073   -9.917   -9.664   -9.320   -8.903   -8.458   -8.044   -7.716   -7.471   -7.271   -7.039   -6.740   -6.397   -6.062   -5.786   -5.605   -5.568   -5.749   -6.215   -6.968   -7.937   -8.956   -9.802  -10.234  -10.096   -9.370   -8.203   -6.854   -5.591   -4.588   -3.889   -3.425   -3.096   -2.825   -2.573   -2.336   -2.136   -1.999   -1.975   -2.130   -2.555   -3.259   -4.149   -5.050   -5.784   -6.270   -6.527   -6.628   -6.639   -6.598   -6.540   -6.478   -6.379   -6.149   -5.684   -4.975   -4.137   -3.359   -2.786   -2.437   -2.228   -2.046   -1.835   -1.587   -1.347   -1.148   -0.996   -0.894   -0.847   -0.850   -0.887   -0.931   -0.967   -1.003   -1.051   -1.100   -1.164
  -5.435   -5.128   -4.671   -4.227   -3.970   -3.955   -4.116   -4.336   -4.517   -4.591   -4.556   -4.445   -4.373   -4.445   -4.750   -5.307   -6.074   -6.974   -7.909   -8.779   -9.494  -10.004  -10.301  -10.391  -10.292  -10.017   -9.587   -9.039   -8.431   -7.827   -7.289   -6.846   -6.488   -6.191   -5.941   -5.753   -5.658   -5.669   -5.789   -6.047   -6.487   -7.157   -8.052   -9.090  -10.104  -10.874  -11.174  -10.872   -9.990   -8.691   -7.224   -5.829   -4.668   -3.789   -3.162   -2.719   -2.380   -2.106   -1.882   -1.722   -1.654   -1.724   -1.994   -2.510   -3.266   -4.163   -5.038   -5.741   -6.219   -6.505   -6.678   -6.767   -6.762   -6.641   -6.410   -6.064   -5.586   -4.947   -4.173   -3.369   -2.665   -2.147   -1.813   -1.598   -1.427   -1.256   -1.089   -0.944   -0.842   -0.788   -0.776   -0.813   -0.886   -0.965   -1.031   -1.067   -1.099   -1.142   -1.183   -1.246
  -6.362   -6.066   -5.597   -5.131   -4.854   -4.820   -4.939   -5.066   -5.088   -4.941   -4.641   -4.266   -3.936   -3.787   -3.903   -4.318   -5.005   -5.913   -6.953   -8.006   -8.949   -9.689  -10.180  -10.410  -10.386  -10.121   -9.643   -9.002   -8.266   -7.514   -6.819   -6.227   -5.760   -5.411   -5.190   -5.113   -5.206   -5.457   -5.830   -6.308   -6.890   -7.610   -8.464   -9.401  -10.282  -10.910  -11.100  -10.752   -9.908   -8.726   -7.414   -6.148   -5.031   -4.116   -3.402   -2.856   -2.441   -2.129   -1.900   -1.769   -1.756   -1.897   -2.222   -2.751   -3.448   -4.222   -4.939   -5.494   -5.866   -6.122   -6.332   -6.504   -6.561   -6.434   -6.114   -5.624   -5.003   -4.284   -3.523   -2.799   -2.178   -1.708   -1.388   -1.173   -1.021   -0.906   -0.817   -0.758   -0.740   -0.757   -0.813   -0.893   -0.988   -1.068   -1.109   -1.118   -1.118   -1.138   -1.167   -1.222
  -7.220   -6.970   -6.565   -6.157   -5.918   -5.886   -5.969   -6.009   -5.882   -5.541   -5.030   -4.442   -3.916   -3.585   -3.535   -3.789   -4.345   -5.164   -6.181   -7.278   -8.315   -9.175   -9.783  -10.120  -10.169   -9.944   -9.467   -8.792   -7.995   -7.158   -6.373   -5.703   -5.180   -4.813   -4.614   -4.613   -4.830   -5.237   -5.769   -6.352   -6.947   -7.566   -8.223   -8.901   -9.514   -9.923  -10.003   -9.689   -9.037   -8.174   -7.236   -6.313   -5.440   -4.639   -3.934   -3.345   -2.881   -2.539   -2.313   -2.206   -2.228   -2.387   -2.698   -3.144   -3.685   -4.230   -4.694   -5.014   -5.215   -5.380   -5.582   -5.793   -5.897   -5.789   -5.442   -4.908   -4.259   -3.572   -2.907   -2.308   -1.803   -1.405   -1.119   -0.931   -0.822   -0.766   -0.743   -0.753   -0.792   -0.861   -0.951   -1.049   -1.133   -1.177   -1.167   -1.121   -1.074   -1.057   -1.067   -1.120
  -7.834   -7.660   -7.379   -7.105   -6.952   -6.953   -7.019   -7.003   -6.785   -6.328   -5.693   -4.993   -4.366   -3.936   -3.778   -3.905   -4.312   -4.974   -5.844   -6.817   -7.771   -8.585   -9.185   -9.542   -9.638   -9.463   -9.030   -8.381   -7.583   -6.730   -5.918   -5.227   -4.698   -4.343   -4.180   -4.232   -4.518   -5.000   -5.587   -6.177   -6.705   -7.157   -7.558   -7.924   -8.220   -8.384   -8.355   -8.123   -7.736   -7.276   -6.793   -6.290   -5.740   -5.142   -4.526   -3.951   -3.473   -3.124   -2.904   -2.809   -2.822   -2.941   -3.157   -3.439   -3.744   -4.014   -4.194   -4.269   -4.284   -4.339   -4.488   -4.687   -4.797   -4.704   -4.385   -3.898   -3.338   -2.784   -2.287   -1.860   -1.500   -1.213   -0.999   -0.864   -0.803   -0.792   -0.814   -0.863   -0.937   -1.031   -1.135   -1.229   -1.287   -1.284   -1.219   -1.111   -1.013   -0.960   -0.952   -0.998
  -8.207   -8.121   -8.000   -7.890   -7.859   -7.915   -7.985   -7.948   -7.699   -7.221   -6.565   -5.855   -5.219   -4.772   -4.570   -4.619   -4.895   -5.375   -6.008   -6.720   -7.423   -8.030   -8.489   -8.774   -8.862   -8.727   -8.359   -7.772   -7.026   -6.211   -5.426   -4.753   -4.245   -3.919   -3.786   -3.870   -4.172   -4.654   -5.217   -5.758   -6.196   -6.515   -6.723   -6.850   -6.906   -6.894   -6.820   -6.709   -6.589   -6.484   -6.375   -6.218   -5.948   -5.543   -5.035   -4.500   -4.020   -3.653   -3.411   -3.272   -3.220   -3.238   -3.304   -3.381   -3.445   -3.463   -3.412   -3.308   -3.200   -3.168   -3.260   -3.410   -3.503   -3.430   -3.185   -2.826   -2.441   -2.092   -1.803   -1.565   -1.356   -1.179   -1.043   -0.968   -0.945   -0.963   -1.006   -1.065   -1.141   -1.233   -1.321   -1.382   -1.400   -1.354   -1.247   -1.106   -0.980   -0.909   -0.884   -0.928
  -8.409   -8.416   -8.453   -8.517   -8.610   -8.725   -8.812   -8.780   -8.556   -8.120   -7.521   -6.866   -6.276   -5.852   -5.643   -5.641   -5.818   -6.119   -6.486   -6.876   -7.240   -7.546   -7.783   -7.936   -7.972   -7.854   -7.548   -7.047   -6.391   -5.661   -4.941   -4.312   -3.830   -3.512   -3.379   -3.446   -3.709   -4.127   -4.612   -5.078   -5.451   -5.704   -5.834   -5.870   -5.845   -5.808   -5.802   -5.854   -5.962   -6.102   -6.219   -6.251   -6.141   -5.852   -5.408   -4.888   -4.384   -3.961   -3.642   -3.407   -3.236   -3.115   -3.018   -2.923   -2.810   -2.672   -2.510   -2.345   -2.216   -2.170   -2.229   -2.338   -2.412   -2.384   -2.248   -2.058   -1.870   -1.725   -1.622   -1.532   -1.443   -1.355   -1.292   -1.269   -1.282   -1.319   -1.365   -1.414   -1.458   -1.490   -1.507   -1.502   -1.463   -1.383   -1.265   -1.131   -1.015   -0.951   -0.928   -0.966
  -8.507   -8.589   -8.760   -8.972   -9.175   -9.342   -9.440   -9.418   -9.233   -8.868   -8.360   -7.793   -7.269   -6.871   -6.648   -6.597   -6.674   -6.812   -6.942   -7.027   -7.066   -7.083   -7.096   -7.113   -7.098   -6.997   -6.757   -6.358   -5.829   -5.223   -4.610   -4.039   -3.563   -3.215   -3.023   -3.005   -3.160   -3.457   -3.825   -4.193   -4.513   -4.745   -4.885   -4.951   -4.990   -5.067   -5.229   -5.478   -5.777   -6.063   -6.281   -6.378   -6.311   -6.048   -5.609   -5.064   -4.508   -4.007   -3.578   -3.219   -2.919   -2.675   -2.461   -2.268   -2.085   -1.920   -1.773   -1.655   -1.586   -1.593   -1.665   -1.773   -1.857   -1.888   -1.866   -1.816   -1.776   -1.769   -1.777   -1.776   -1.757   -1.743   -1.758   -1.799   -1.862   -1.926   -1.975   -1.993   -1.964   -1.887   -1.782   -1.656   -1.532   -1.417   -1.310   -1.214   -1.141   -1.108   -1.102   -1.148
  -8.524   -8.654   -8.917   -9.228   -9.499   -9.686   -9.770   -9.736   -9.571   -9.270   -8.853   -8.380   -7.921   -7.547   -7.297   -7.179   -7.150   -7.139   -7.074   -6.932   -6.740   -6.551   -6.416   -6.348   -6.317   -6.258   -6.112   -5.853   -5.493   -5.064   -4.593   -4.107   -3.636   -3.217   -2.898   -2.720   -2.700   -2.818   -3.021   -3.263   -3.506   -3.716   -3.885   -4.028   -4.193   -4.441   -4.801   -5.237   -5.683   -6.060   -6.316   -6.417   -6.335   -6.052   -5.585   -5.005   -4.402   -3.839   -3.334   -2.889   -2.508   -2.192   -1.937   -1.737   -1.584   -1.482   -1.426   -1.409   -1.438   -1.512   -1.630   -1.761   -1.882   -1.980   -2.044   -2.078   -2.105   -2.144   -2.183   -2.208   -2.236   -2.294   -2.404   -2.547   -2.694   -2.807   -2.866   -2.845   -2.719   -2.501   -2.224   -1.948   -1.713   -1.541   -1.435   -1.372   -1.348   -1.356   -1.380   -1.439
  -8.460   -8.616   -8.925   -9.276   -9.557   -9.713   -9.733   -9.636   -9.447   -9.170   -8.825   -8.439   -8.055   -7.713   -7.445   -7.257   -7.117   -6.974   -6.772   -6.496   -6.189   -5.911   -5.719   -5.638   -5.638   -5.667   -5.663   -5.596   -5.463   -5.268   -4.993   -4.633   -4.181   -3.677   -3.190   -2.795   -2.543   -2.430   -2.428   -2.500   -2.626   -2.782   -2.953   -3.153   -3.423   -3.807   -4.304   -4.861   -5.391   -5.813   -6.086   -6.182   -6.078   -5.773   -5.289   -4.701   -4.096   -3.539   -3.044   -2.605   -2.228   -1.925   -1.700   -1.559   -1.494   -1.497   -1.546   -1.623   -1.725   -1.856   -2.006   -2.165   -2.325   -2.474   -2.578   -2.632   -2.650   -2.664   -2.681   -2.707   -2.772   -2.921   -3.157   -3.440   -3.700   -3.886   -3.965   -3.904   -3.687   -3.332   -2.890   -2.451   -2.077   -1.807   -1.655   -1.589   -1.584   -1.613   -1.660   -1.732
  -8.344   -8.506   -8.820   -9.160   -9.395   -9.458   -9.351   -9.129   -8.852   -8.550   -8.242   -7.932   -7.633   -7.347   -7.086   -6.849   -6.623   -6.382   -6.104   -5.783   -5.456   -5.179   -5.007   -4.961   -5.031   -5.177   -5.357   -5.532   -5.680   -5.767   -5.742   -5.548   -5.155   -4.593   -3.954   -3.344   -2.850   -2.490   -2.258   -2.133   -2.109   -2.176   -2.315   -2.526   -2.834   -3.254   -3.770   -4.325   -4.841   -5.252   -5.513   -5.604   -5.500   -5.199   -4.737   -4.190   -3.651   -3.180   -2.790   -2.458   -2.177   -1.966   -1.838   -1.799   -1.849   -1.951   -2.083   -2.215   -2.354   -2.497   -2.648   -2.809   -2.983   -3.139   -3.234   -3.254   -3.211   -3.164   -3.142   -3.169   -3.287   -3.545   -3.928   -4.367   -4.752   -5.018   -5.120   -5.037   -4.758   -4.299   -3.728   -3.136   -2.611   -2.212   -1.956   -1.819   -1.784   -1.806   -1.857   -1.934
  -8.238   -8.391   -8.689   -8.983   -9.133   -9.055   -8.769   -8.362   -7.935   -7.557   -7.243   -6.990   -6.774   -6.563   -6.340   -6.095   -5.827   -5.544   -5.246   -4.943   -4.655   -4.428   -4.301   -4.303   -4.443   -4.709   -5.079   -5.514   -5.963   -6.358   -6.601   -6.607   -6.322   -5.772   -5.053   -4.296   -3.613   -3.049   -2.609   -2.300   -2.132   -2.103   -2.190   -2.371   -2.638   -2.986   -3.388   -3.800   -4.176   -4.484   -4.686   -4.758   -4.664   -4.404   -4.010   -3.560   -3.146   -2.824   -2.603   -2.451   -2.350   -2.292   -2.307   -2.404   -2.563   -2.750   -2.929   -3.079   -3.204   -3.318   -3.437   -3.571   -3.708   -3.826   -3.864   -3.806   -3.689   -3.581   -3.534   -3.583   -3.771   -4.139   -4.659   -5.231   -5.723   -6.052   -6.176   -6.080   -5.765   -5.245   -4.585   -3.868   -3.200   -2.659   -2.279   -2.048   -1.940   -1.929   -1.968   -2.047
  -8.194   -8.338   -8.612   -8.853   -8.901   -8.668   -8.183   -7.558   -6.941   -6.435   -6.077   -5.851   -5.703   -5.569   -5.405   -5.193   -4.937   -4.664   -4.397   -4.144   -3.917   -3.746   -3.654   -3.690   -3.876   -4.230   -4.754   -5.417   -6.142   -6.813   -7.307   -7.517   -7.385   -6.925   -6.232   -5.441   -4.672   -3.988   -3.417   -2.984   -2.717   -2.616   -2.650   -2.770   -2.941   -3.127   -3.303   -3.459   -3.583   -3.689   -3.765   -3.780   -3.696   -3.502   -3.220   -2.917   -2.671   -2.540   -2.528   -2.595   -2.700   -2.833   -3.014   -3.248   -3.506   -3.747   -3.931   -4.058   -4.149   -4.220   -4.287   -4.365   -4.445   -4.496   -4.459   -4.326   -4.147   -4.002   -3.957   -4.046   -4.303   -4.749   -5.343   -5.972   -6.507   -6.846   -6.957   -6.841   -6.502   -5.948   -5.232   -4.433   -3.669   -3.030   -2.554   -2.242   -2.075   -2.024   -2.056   -2.136
  -8.212   -8.355   -8.612   -8.810   -8.772   -8.406   -7.739   -6.902   -6.082   -5.428   -4.997   -4.768   -4.663   -4.592   -4.490   -4.333   -4.131   -3.913   -3.705   -3.513   -3.344   -3.211   -3.147   -3.192   -3.388   -3.783   -4.400   -5.213   -6.136   -7.019   -7.719   -8.115   -8.149   -7.838   -7.264   -6.542   -5.793   -5.097   -4.492   -4.020   -3.714   -3.573   -3.557   -3.599   -3.633   -3.609   -3.510   -3.346   -3.163   -3.009   -2.911   -2.837   -2.755   -2.631   -2.480   -2.351   -2.302   -2.378   -2.583   -2.871   -3.189   -3.513   -3.848   -4.193   -4.513   -4.765   -4.930   -5.023   -5.069   -5.098   -5.127   -5.161   -5.193   -5.183   -5.097   -4.925   -4.728   -4.590   -4.569   -4.691   -4.970   -5.411   -5.964   -6.535   -6.995   -7.257   -7.298   -7.130   -6.759   -6.189   -5.455   -4.637   -3.858   -3.206   -2.715   -2.382   -2.193   -2.139   -2.170   -2.259
  -8.199   -8.342   -8.598   -8.781   -8.695   -8.241   -7.440   -6.438   -5.443   -4.643   -4.128   -3.881   -3.799   -3.779   -3.734   -3.644   -3.517   -3.374   -3.233   -3.102   -2.977   -2.871   -2.822   -2.864   -3.046   -3.426   -4.057   -4.938   -5.969   -6.989   -7.830   -8.376   -8.571   -8.429   -8.013   -7.424   -6.772   -6.143   -5.593   -5.157   -4.864   -4.701   -4.627   -4.571   -4.449   -4.208   -3.837   -3.373   -2.903   -2.509   -2.241   -2.085   -1.997   -1.936   -1.907   -1.941   -2.085   -2.365   -2.768   -3.250   -3.754   -4.240   -4.695   -5.104   -5.441   -5.676   -5.807   -5.864   -5.881   -5.894   -5.910   -5.928   -5.940   -5.916   -5.830   -5.682   -5.523   -5.421   -5.423   -5.540   -5.765   -6.085   -6.466   -6.832   -7.098   -7.194   -7.106   -6.851   -6.438   -5.870   -5.173   -4.423   -3.723   -3.154   -2.733   -2.450   -2.297   -2.263   -2.309   -2.412
  -7.966   -8.118   -8.386   -8.575   -8.486   -8.006   -7.141   -6.043   -4.937   -4.033   -3.455   -3.188   -3.121   -3.133   -3.140   -3.112   -3.064   -3.008   -2.936   -2.854   -2.762   -2.681   -2.645   -2.678   -2.826   -3.156   -3.748   -4.616   -5.678   -6.756   -7.683   -8.336   -8.660   -8.667   -8.404   -7.962   -7.442   -6.931   -6.485   -6.131   -5.874   -5.698   -5.559   -5.393   -5.119   -4.678   -4.079   -3.389   -2.721   -2.184   -1.832   -1.639   -1.556   -1.544   -1.601   -1.757   -2.051   -2.487   -3.047   -3.677   -4.317   -4.917   -5.444   -5.875   -6.191   -6.392   -6.492   -6.530   -6.541   -6.554   -6.581   -6.612   -6.635   -6.629   -6.585   -6.500   -6.408   -6.354   -6.364   -6.433   -6.536   -6.655   -6.761   -6.831   -6.818   -6.690   -6.437   -6.083   -5.632   -5.095   -4.496   -3.891   -3.357   -2.944   -2.653   -2.465   -2.370   -2.376   -2.444   -2.557
  -7.349   -7.498   -7.780   -8.001   -7.948   -7.498   -6.647   -5.543   -4.415   -3.486   -2.888   -2.616   -2.556   -2.584   -2.621   -2.645   -2.665   -2.674   -2.665   -2.626   -2.571   -2.520   -2.493   -2.517   -2.628   -2.903   -3.428   -4.235   -5.257   -6.327   -7.280   -7.990   -8.400   -8.516   -8.380   -8.070   -7.689   -7.314   -6.995   -6.735   -6.520   -6.330   -6.128   -5.859   -5.451   -4.858   -4.107   -3.293   -2.549   -1.993   -1.658   -1.503   -1.461   -1.488   -1.598   -1.824   -2.198   -2.722   -3.362   -4.068   -4.777   -5.434   -5.987   -6.405   -6.681   -6.844   -6.923   -6.953   -6.966   -6.991   -7.034   -7.085   -7.127   -7.155   -7.161   -7.143   -7.116   -7.094   -7.094   -7.094   -7.061   -6.964   -6.791   -6.555   -6.258   -5.902   -5.498   -5.061   -4.602   -4.135   -3.675   -3.254   -2.916   -2.679   -2.531   -2.455   -2.436   -2.482   -2.574   -2.695
  -6.320   -6.450   -6.736   -6.990   -7.002   -6.637   -5.880   -4.862   -3.810   -2.943   -2.384   -2.126   -2.064   -2.086   -2.131   -2.177   -2.227   -2.277   -2.308   -2.314   -2.295   -2.282   -2.276   -2.301   -2.392   -2.622   -3.075   -3.792   -4.711   -5.706   -6.623   -7.336   -7.785   -7.964   -7.914   -7.719   -7.469   -7.234   -7.038   -6.869   -6.698   -6.493   -6.233   -5.877   -5.377   -4.700   -3.887   -3.057   -2.355   -1.879   -1.640   -1.576   -1.606   -1.686   -1.826   -2.075   -2.464   -2.989   -3.626   -4.322   -5.026   -5.677   -6.208   -6.587   -6.817   -6.943   -7.001   -7.022   -7.034   -7.064   -7.116   -7.178   -7.236   -7.289   -7.330   -7.356   -7.365   -7.358   -7.337   -7.277   -7.140   -6.884   -6.508   -6.047   -5.544   -5.032   -4.534   -4.067   -3.640   -3.269   -2.957   -2.713   -2.552   -2.462   -2.439   -2.459   -2.515   -2.609   -2.721   -2.859
  -5.047   -5.144   -5.419   -5.691   -5.777   -5.530   -4.924   -4.072   -3.180   -2.450   -1.978   -1.748   -1.676   -1.676   -1.696   -1.731   -1.782   -1.838   -1.890   -1.931   -1.961   -1.994   -2.028   -2.079   -2.178   -2.384   -2.770   -3.366   -4.138   -4.992   -5.805   -6.465   -6.901   -7.100   -7.102   -6.994   -6.858   -6.750   -6.663   -6.570   -6.429   -6.213   -5.914   -5.509   -4.966   -4.281   -3.502   -2.751   -2.160   -1.814   -1.699   -1.741   -1.850   -1.983   -2.151   -2.391   -2.736   -3.191   -3.740   -4.350   -4.973   -5.551   -6.021   -6.341   -6.522   -6.607   -6.641   -6.647   -6.650   -6.671   -6.718   -6.782   -6.844   -6.905   -6.958   -7.000   -7.017   -7.008   -6.968   -6.875   -6.688   -6.364   -5.902   -5.348   -4.766   -4.202   -3.697   -3.266   -2.919   -2.654   -2.477   -2.370   -2.330   -2.342   -2.400   -2.493   -2.620   -2.765   -2.907   -3.059
  -3.859   -3.914   -4.153   -4.426   -4.566   -4.439   -4.001   -3.349   -2.664   -2.105   -1.741   -1.548   -1.463   -1.430   -1.416   -1.423   -1.453   -1.499   -1.561   -1.632   -1.713   -1.799   -1.888   -1.983   -2.103   -2.302   -2.628   -3.107   -3.712   -4.385   -5.041   -5.593   -5.968   -6.148   -6.173   -6.125   -6.077   -6.064   -6.054   -6.004   -5.878   -5.663   -5.356   -4.950   -4.429   -3.810   -3.146   -2.539   -2.094   -1.873   -1.851   -1.956   -2.119   -2.292   -2.477   -2.696   -2.963   -3.291   -3.687   -4.138   -4.611   -5.062   -5.432   -5.679   -5.807   -5.853   -5.861   -5.846   -5.834   -5.840   -5.875   -5.933   -5.993   -6.048   -6.097   -6.131   -6.135   -6.114   -6.067   -5.973   -5.787   -5.480   -5.038   -4.518   -3.971   -3.465   -3.035   -2.698   -2.459   -2.309   -2.237   -2.224   -2.249   -2.311   -2.411   -2.546   -2.720   -2.907   -3.074   -3.233
  -3.098   -3.102   -3.282   -3.516   -3.668   -3.619   -3.328   -2.868   -2.382   -1.985   -1.722   -1.563   -1.463   -1.393   -1.349   -1.327   -1.339   -1.381   -1.451   -1.550   -1.673   -1.807   -1.948   -2.083   -2.232   -2.439   -2.731   -3.125   -3.593   -4.097   -4.586   -4.995   -5.279   -5.415   -5.440   -5.434   -5.450   -5.490   -5.508   -5.458   -5.335   -5.138   -4.864   -4.513   -4.081   -3.591   -3.091   -2.657   -2.355   -2.221   -2.234   -2.344   -2.509   -2.689   -2.873   -3.052   -3.222   -3.397   -3.590   -3.824   -4.089   -4.361   -4.592   -4.747   -4.817   -4.827   -4.810   -4.779   -4.757   -4.751   -4.780   -4.830   -4.883   -4.931   -4.965   -4.975   -4.959   -4.927   -4.885   -4.811   -4.671   -4.424   -4.075   -3.662   -3.237   -2.857   -2.554   -2.341   -2.216   -2.170   -2.184   -2.227   -2.289   -2.364   -2.466   -2.609   -2.791   -2.989   -3.162   -3.331
  -2.951   -2.912   -3.015   -3.160   -3.269   -3.235   -3.023   -2.697   -2.364   -2.090   -1.892   -1.745   -1.626   -1.532   -1.464   -1.430   -1.436   -1.482   -1.569   -1.689   -1.837   -2.001   -2.168   -2.327   -2.504   -2.727   -3.028   -3.405   -3.819   -4.229   -4.593   -4.881   -5.074   -5.167   -5.199   -5.233   -5.293   -5.345   -5.341   -5.262   -5.131   -4.968   -4.768   -4.520   -4.221   -3.894   -3.576   -3.308   -3.130   -3.050   -3.054   -3.123   -3.240   -3.391   -3.544   -3.665   -3.727   -3.723   -3.686   -3.660   -3.665   -3.708   -3.760   -3.796   -3.799   -3.774   -3.735   -3.696   -3.674   -3.668   -3.696   -3.744   -3.792   -3.835   -3.855   -3.845   -3.811   -3.773   -3.745   -3.702   -3.616   -3.456   -3.222   -2.941   -2.665   -2.430   -2.264   -2.178   -2.163   -2.199   -2.274   -2.355   -2.436   -2.509   -2.589   -2.700   -2.855   -3.028   -3.187   -3.355
  -3.431   -3.349   -3.369   -3.407   -3.410   -3.308   -3.088   -2.808   -2.541   -2.323   -2.150   -1.999   -1.862   -1.753   -1.679   -1.646   -1.660   -1.717   -1.814   -1.945   -2.098   -2.262   -2.426   -2.587   -2.779   -3.041   -3.408   -3.850   -4.312   -4.732   -5.067   -5.304   -5.450   -5.536   -5.602   -5.684   -5.767   -5.805   -5.759   -5.637   -5.498   -5.376   -5.266   -5.135   -4.979   -4.812   -4.662   -4.548   -4.476   -4.430   -4.407   -4.415   -4.470   -4.569   -4.671   -4.724   -4.671   -4.489   -4.212   -3.894   -3.599   -3.365   -3.200   -3.092   -3.014   -2.950   -2.896   -2.851   -2.829   -2.828   -2.857   -2.906   -2.953   -2.995   -3.008   -2.991   -2.956   -2.926   -2.912   -2.904   -2.870   -2.788   -2.657   -2.499   -2.352   -2.243   -2.192   -2.203   -2.267   -2.369   -2.488   -2.599   -2.690   -2.755   -2.812   -2.882   -2.998   -3.140   -3.277   -3.450
  -4.429   -4.319   -4.273   -4.201   -4.061   -3.810   -3.477   -3.133   -2.837   -2.601   -2.411   -2.248   -2.110   -2.009   -1.944   -1.926   -1.950   -2.009   -2.098   -2.215   -2.345   -2.480   -2.611   -2.758   -2.960   -3.280   -3.747   -4.323   -4.927   -5.461   -5.868   -6.133   -6.301   -6.424   -6.545   -6.674   -6.770   -6.787   -6.702   -6.554   -6.417   -6.330   -6.285   -6.249   -6.206   -6.170   -6.157   -6.166   -6.174   -6.163   -6.124   -6.092   -6.102   -6.151   -6.203   -6.187   -6.032   -5.701   -5.211   -4.619   -4.016   -3.487   -3.089   -2.822   -2.656   -2.549   -2.481   -2.430   -2.401   -2.397   -2.421   -2.466   -2.516   -2.559   -2.585   -2.584   -2.566   -2.551   -2.555   -2.568   -2.573   -2.552   -2.495   -2.423   -2.366   -2.341   -2.362   -2.429   -2.541   -2.678   -2.832   -2.974   -3.092   -3.168   -3.221   -3.272   -3.360   -3.486   -3.612   -3.794
  -5.780   -5.672   -5.589   -5.424   -5.127   -4.683   -4.154   -3.642   -3.222   -2.906   -2.672   -2.500   -2.379   -2.307   -2.266   -2.255   -2.278   -2.316   -2.374   -2.443   -2.522   -2.599   -2.684   -2.801   -3.012   -3.386   -3.963   -4.700   -5.484   -6.192   -6.742   -7.111   -7.348   -7.531   -7.706   -7.863   -7.962   -7.961   -7.865   -7.721   -7.597   -7.533   -7.517   -7.529   -7.556   -7.604   -7.678   -7.762   -7.830   -7.849   -7.819   -7.782   -7.775   -7.800   -7.814   -7.750   -7.533   -7.109   -6.475   -5.676   -4.820   -4.042   -3.443   -3.049   -2.817   -2.682   -2.599   -2.539   -2.503   -2.491   -2.506   -2.538   -2.587   -2.640   -2.684   -2.714   -2.730   -2.741   -2.766   -2.799   -2.831   -2.848   -2.836   -2.812   -2.789   -2.786   -2.821   -2.898   -3.019   -3.181   -3.371   -3.570   -3.743   -3.870   -3.944   -3.994   -4.067   -4.182   -4.302   -4.495
  -7.311   -7.211   -7.112   -6.883   -6.446   -5.804   -5.046   -4.316   -3.718   -3.280   -2.982   -2.800   -2.698   -2.649   -2.622   -2.607   -2.606   -2.606   -2.609   -2.616   -2.619   -2.629   -2.657   -2.733   -2.933   -3.342   -3.998   -4.864   -5.821   -6.719   -7.441   -7.942   -8.275   -8.517   -8.723   -8.886   -8.975   -8.968   -8.887   -8.772   -8.674   -8.618   -8.613   -8.639   -8.694   -8.775   -8.878   -8.992   -9.083   -9.123   -9.118   -9.101   -9.107   -9.135   -9.136   -9.053   -8.817   -8.368   -7.676   -6.775   -5.786   -4.878   -4.183   -3.744   -3.501   -3.371   -3.293   -3.238   -3.199   -3.184   -3.195   -3.228   -3.275   -3.341   -3.411   -3.483   -3.550   -3.609   -3.661   -3.715   -3.766   -3.805   -3.808   -3.784   -3.742   -3.700   -3.683   -3.720   -3.826   -4.011   -4.264   -4.554   -4.824   -5.029   -5.138   -5.181   -5.221   -5.297   -5.391   -5.581
  -8.872   -8.772   -8.654   -8.366   -7.821   -7.016   -6.056   -5.110   -4.315   -3.733   -3.354   -3.136   -3.033   -2.982   -2.950   -2.916   -2.879   -2.833   -2.778   -2.721   -2.660   -2.604   -2.571   -2.604   -2.779   -3.189   -3.881   -4.829   -5.911   -6.965   -7.846   -8.485   -8.911   -9.203   -9.415   -9.564   -9.635   -9.633   -9.583   -9.516   -9.454   -9.420   -9.419   -9.449   -9.506   -9.580   -9.668   -9.760   -9.841   -9.887   -9.904   -9.919   -9.954  -10.000  -10.010   -9.931   -9.709   -9.282   -8.614   -7.736   -6.768   -5.893   -5.254   -4.879   -4.701   -4.627   -4.592   -4.562   -4.540   -4.537   -4.565   -4.614   -4.677   -4.761   -4.861   -4.984   -5.121   -5.253   -5.364   -5.451   -5.526   -5.576   -5.581   -5.525   -5.407   -5.255   -5.119   -5.061   -5.132   -5.350   -5.700   -6.124   -6.530   -6.830   -6.976   -6.994   -6.970   -6.975   -7.015   -7.206
 -10.523  -10.400  -10.229   -9.864   -9.212   -8.273   -7.144   -6.001   -5.006   -4.257   -3.764   -3.483   -3.343   -3.272   -3.223   -3.167   -3.099   -3.019   -2.927   -2.828   -2.723   -2.628   -2.559   -2.560   -2.710   -3.099   -3.786   -4.758   -5.910   -7.068   -8.066   -8.818   -9.327   -9.654   -9.862   -9.984  -10.038  -10.049  -10.044  -10.036  -10.035  -10.043  -10.070  -10.113  -10.163  -10.216  -10.263  -10.308  -10.348  -10.378  -10.404  -10.442  -10.503  -10.568  -10.595  -10.540  -10.356   -9.996   -9.429   -8.691   -7.898   -7.215   -6.768   -6.564   -6.523   -6.549   -6.576   -6.587   -6.595   -6.620   -6.674   -6.751   -6.836   -6.936   -7.066   -7.247   -7.477   -7.717   -7.923   -8.082   -8.202   -8.283   -8.299   -8.204   -7.987   -7.673   -7.359   -7.161   -7.180   -7.450   -7.933   -8.537   -9.130   -9.574   -9.795   -9.826   -9.788   -9.787   -9.835  -10.080
 -12.688  -12.507  -12.230  -11.724  -10.923   -9.828   -8.517   -7.155   -5.926   -4.966   -4.311   -3.924   -3.721   -3.622   -3.558   -3.490   -3.409   -3.313   -3.210   -3.100   -2.991   -2.888   -2.818   -2.817   -2.958   -3.325   -3.987   -4.941   -6.103   -7.300   -8.367   -9.195   -9.764  -10.115  -10.313  -10.412  -10.458  -10.492  -10.542  -10.615  -10.704  -10.799  -10.897  -10.984  -11.052  -11.090  -11.100  -11.091  -11.078  -11.072  -11.081  -11.118  -11.183  -11.261  -11.316  -11.312  -11.210  -10.975  -10.595  -10.107   -9.607   -9.228   -9.060   -9.087   -9.221   -9.359   -9.451   -9.497   -9.525   -9.568   -9.631   -9.707   -9.786   -9.880  -10.027  -10.272  -10.621  -11.006  -11.357  -11.638  -11.861  -12.036  -12.118  -12.043  -11.759  -11.310  -10.828  -10.508  -10.503  -10.873  -11.560  -12.439  -13.327  -14.054  -14.528  -14.805  -15.030  -15.307  -15.592  -16.026
 -16.022  -15.779  -15.328  -14.595  -13.558  -12.227  -10.661   -9.001   -7.447   -6.184   -5.294   -4.746   -4.447   -4.299   -4.219   -4.149   -4.068   -3.977   -3.881   -3.787   -3.702   -3.637   -3.603   -3.628   -3.778   -4.126   -4.749   -5.660   -6.778   -7.963   -9.040   -9.903  -10.505  -10.868  -11.057  -11.137  -11.184  -11.247  -11.367  -11.550  -11.784  -12.039  -12.278  -12.471  -12.599  -12.654  -12.644  -12.588  -12.515  -12.453  -12.417  -12.418  -12.461  -12.545  -12.653  -12.752  -12.804  -12.783  -12.683  -12.532  -12.404  -12.385  -12.528  -12.803  -13.113  -13.360  -13.504  -13.569  -13.601  -13.628  -13.654  -13.676  -13.696  -13.752  -13.909  -14.229  -14.716  -15.286  -15.836  -16.320  -16.750  -17.132  -17.405  -17.471  -17.269  -16.850  -16.389  -16.135  -16.293  -16.933  -17.991  -19.311  -20.691  -21.951  -23.009  -23.934  -24.859  -25.798  -26.565  -27.195
 -20.892  -20.632  -19.985  -18.971  -17.628  -15.976  -14.062  -11.998  -10.007   -8.328   -7.106   -6.322   -5.873   -5.642   -5.522   -5.443   -5.358   -5.270   -5.185   -5.121   -5.080   -5.072   -5.103   -5.190   -5.367   -5.698   -6.266   -7.092   -8.130   -9.251  -10.297  -11.154  -11.761  -12.125  -12.299  -12.364  -12.411  -12.510  -12.717  -13.049  -13.491  -13.988  -14.459  -14.837  -15.082  -15.187  -15.173  -15.077  -14.941  -14.808  -14.700  -14.636  -14.636  -14.732  -14.928  -15.197  -15.491  -15.775  -16.032  -16.274  -16.540  -16.883  -17.331  -17.843  -18.320  -18.674  -18.884  -18.987  -19.034  -19.048  -19.030  -18.986  -18.951  -18.992  -19.199  -19.639  -20.304  -21.095  -21.900  -22.672  -23.416  -24.129  -24.734  -25.132  -25.271  -25.224  -25.192  -25.430  -26.129  -27.338  -28.972  -30.870  -32.847  -34.753  -36.537  -38.248  -39.923  -41.433  -42.468  -42.891
 -26.857  -26.678  -25.881  -24.617  -22.980  -21.005  -18.718  -16.219  -13.745  -11.595   -9.971   -8.886   -8.231   -7.868   -7.676   -7.558   -7.449   -7.342   -7.254   -7.206   -7.214   -7.279   -7.401   -7.567   -7.784   -8.099   -8.590   -9.304  -10.219  -11.235  -12.218  -13.048  -13.647  -14.000  -14.152  -14.194  -14.232  -14.367  -14.670  -15.179  -15.874  -16.672  -17.441  -18.060  -18.461  -18.636  -18.626  -18.493  -18.301  -18.099  -17.919  -17.787  -17.749  -17.873  -18.190  -18.679  -19.271  -19.902  -20.533  -21.155  -21.786  -22.453  -23.169  -23.892  -24.535  -25.029  -25.364  -25.583  -25.731  -25.826  -25.874  -25.895  -25.947  -26.115  -26.498  -27.146  -28.037  -29.070  -30.148  -31.229  -32.315  -33.396  -34.407  -35.278  -35.997  -36.657  -37.434  -38.520  -40.020  -41.918  -44.103  -46.436  -48.786  -51.069  -53.252  -55.339  -57.269  -58.819  -59.624  -59.359
 -32.820  -32.809  -31.956  -30.545  -28.713  -26.506  -23.940  -21.104  -18.242  -15.694  -13.711  -12.337  -11.467  -10.950  -10.651  -10.462  -10.297  -10.140  -10.010   -9.950   -9.990  -10.132  -10.359  -10.623  -10.893  -11.199  -11.613  -12.204  -12.979  -13.878  -14.790  -15.591  -16.184  -16.526  -16.649  -16.655  -16.675  -16.833  -17.222  -17.896  -18.831  -19.914  -20.965  -21.813  -22.364  -22.610  -22.610  -22.457  -22.234  -22.000  -21.785  -21.625  -21.590  -21.776  -22.238  -22.954  -23.832  -24.777  -25.725  -26.652  -27.563  -28.479  -29.405  -30.307  -31.123  -31.803  -32.350  -32.801  -33.196  -33.553  -33.881  -34.206  -34.583  -35.090  -35.800  -36.739  -37.871  -39.116  -40.404  -41.710  -43.039  -44.389  -45.733  -47.046  -48.352  -49.731  -51.300  -53.149  -55.290  -57.655  -60.138  -62.635  -65.070  -67.396  -69.585  -71.587  -73.259  -74.326  -74.399  -73.252
 -37.696  -37.872  -37.048  -35.599  -33.697  -31.397  -28.713  -25.732  -22.696  -19.953  -17.774  -16.222  -15.192  -14.541  -14.136  -13.860  -13.614  -13.371  -13.164  -13.051  -13.089  -13.294  -13.627  -14.004  -14.354  -14.679  -15.043  -15.534  -16.199  -17.012  -17.884  -18.687  -19.298  -19.644  -19.746  -19.719  -19.714  -19.876  -20.313  -21.087  -22.171  -23.430  -24.654  -25.644  -26.290  -26.589  -26.615  -26.478  -26.277  -26.072  -25.896  -25.786  -25.824  -26.121  -26.740  -27.653  -28.751  -29.919  -31.078  -32.197  -33.281  -34.350  -35.415  -36.459  -37.446  -38.350  -39.181  -39.972  -40.755  -41.543  -42.340  -43.159  -44.030  -44.997  -46.093  -47.324  -48.653  -50.030  -51.418  -52.809  -54.224  -55.681  -57.192  -58.770  -60.450  -62.289  -64.334  -66.591  -69.006  -71.485  -73.928  -76.262  -78.441  -80.435  -82.201  -83.645  -84.616  -84.886  -84.053  -83.103
 -40.791  -41.111  -40.352  -38.942  -37.071  -34.807  -32.170  -29.252  -26.286  -23.602  -21.448  -19.879  -18.797  -18.075  -17.596  -17.240  -16.908  -16.566  -16.251  -16.051  -16.054  -16.295  -16.725  -17.226  -17.687  -18.075  -18.448  -18.911  -19.542  -20.351  -21.258  -22.126  -22.802  -23.193  -23.313  -23.281  -23.265  -23.417  -23.851  -24.626  -25.715  -26.979  -28.212  -29.216  -29.883  -30.212  -30.282  -30.207  -30.087  -29.982  -29.922  -29.947  -30.136  -30.590  -31.366  -32.426  -33.656  -34.938  -36.191  -37.386  -38.534  -39.664  -40.799  -41.942  -43.085  -44.224  -45.374  -46.560  -47.800  -49.090  -50.416  -51.762  -53.125  -54.514  -55.933  -57.373  -58.813  -60.229  -61.608  -62.965  -64.333  -65.752  -67.257  -68.886  -70.670  -72.634  -74.770  -77.032  -79.339  -81.613  -83.794  -85.852  -87.769  -89.521  -91.072  -92.360  -93.288  -93.624  -92.629  -94.378
 -41.809  -42.188  -41.492  -40.158  -38.386  -36.253  -33.798  -31.116  -28.427  -26.015  -24.079  -22.645  -21.623  -20.911  -20.408  -20.005  -19.609  -19.180  -18.765  -18.473  -18.422  -18.678  -19.190  -19.818  -20.416  -20.926  -21.396  -21.939  -22.657  -23.576  -24.622  -25.642  -26.459  -26.965  -27.173  -27.201  -27.214  -27.363  -27.753  -28.440  -29.398  -30.511  -31.598  -32.495  -33.111  -33.445  -33.569  -33.583  -33.579  -33.611  -33.712  -33.918  -34.296  -34.924  -35.837  -36.985  -38.262  -39.559  -40.804  -41.979  -43.104  -44.221  -45.367  -46.569  -47.842  -49.196  -50.652  -52.217  -53.887  -55.629  -57.402  -59.163  -60.883  -62.548  -64.149  -65.679  -67.129  -68.494  -69.785  -71.030  -72.272  -73.565  -74.957  -76.498  -78.217  -80.131  -82.223  -84.459  -86.785  -89.149  -91.489  -93.741  -95.847  -97.749  -99.421 -100.799 -101.757 -101.967 -100.469 -104.861
 -40.771  -41.111  -40.447  -39.194  -37.552  -35.612  -33.428  -31.100  -28.820  -26.811  -25.209  -24.011  -23.134  -22.502  -22.032  -21.632  -21.217  -20.751  -20.282  -19.933  -19.851  -20.123  -20.715  -21.478  -22.251  -22.955  -23.631  -24.392  -25.344  -26.516  -27.824  -29.096  -30.146  -30.861  -31.250  -31.421  -31.524  -31.696  -32.033  -32.584  -33.337  -34.205  -35.056  -35.769  -36.278  -36.586  -36.744  -36.831  -36.920  -37.062  -37.293  -37.650  -38.184  -38.943  -39.934  -41.100  -42.345  -43.577  -44.741  -45.831  -46.880  -47.940  -49.065  -50.295  -51.662  -53.189  -54.886  -56.745  -58.727  -60.775  -62.823  -64.813  -66.705  -68.480  -70.128  -71.648  -73.041  -74.315  -75.492  -76.605  -77.704  -78.847  -80.095  -81.499  -83.100  -84.914  -86.933  -89.120  -91.419  -93.757  -96.043  -98.208 -100.186 -101.932 -103.391 -104.466 -105.001 -104.650 -102.459 -106.790
 -37.953  -38.166  -37.497  -36.312  -34.804  -33.079  -31.207  -29.285  -27.464  -25.901  -24.669  -23.746  -23.063  -22.559  -22.174  -21.832  -21.459  -21.032  -20.599  -20.284  -20.245  -20.589  -21.299  -22.241  -23.256  -24.259  -25.283  -26.424  -27.773  -29.340  -31.022  -32.636  -33.999  -35.003  -35.652  -36.034  -36.279  -36.505  -36.802  -37.221  -37.762  -38.372  -38.967  -39.470  -39.839  -40.074  -40.207  -40.292  -40.386  -40.540  -40.795  -41.191  -41.769  -42.550  -43.519  -44.616  -45.756  -46.863  -47.902  -48.876  -49.831  -50.825  -51.917  -53.157  -54.579  -56.208  -58.040  -60.047  -62.167  -64.326  -66.447  -68.474  -70.368  -72.113  -73.702  -75.135  -76.420  -77.567  -78.601  -79.558  -80.486  -81.446  -82.500  -83.700  -85.082  -86.656  -88.406  -90.285  -92.232  -94.183  -96.084  -97.906  -99.607 -101.167 -102.499 -103.501 -103.984 -103.612 -101.539 -103.970
 -33.871  -33.903  -33.198  -32.058  -30.668  -29.150  -27.585  -26.057  -24.670  -23.518  -22.631  -21.977  -21.501  -21.155  -20.897  -20.670  -20.423  -20.139  -19.870  -19.733  -19.882  -20.426  -21.369  -22.602  -23.985  -25.436  -26.964  -28.634  -30.500  -32.540  -34.637  -36.611  -38.296  -39.600  -40.522  -41.130  -41.527  -41.817  -42.089  -42.397  -42.759  -43.148  -43.516  -43.817  -44.024  -44.132  -44.159  -44.140  -44.124  -44.161  -44.301  -44.590  -45.061  -45.724  -46.553  -47.488  -48.455  -49.396  -50.288  -51.145  -52.014  -52.952  -54.013  -55.241  -56.664  -58.296  -60.124  -62.103  -64.165  -66.230  -68.230  -70.114  -71.850  -73.427  -74.844  -76.102  -77.211  -78.186  -79.050  -79.840  -80.602  -81.388  -82.257  -83.256  -84.418  -85.757  -87.259  -88.893  -90.610  -92.365  -94.118  -95.837  -97.491  -99.027 -100.378 -101.429 -102.022 -101.839 -100.186 -100.642
 -29.252  -29.095  -28.346  -27.236  -25.947  -24.611  -23.312  -22.115  -21.084  -20.266  -19.661  -19.242  -18.965  -18.799  -18.709  -18.667  -18.642  -18.637  -18.698  -18.931  -19.470  -20.416  -21.777  -23.470  -25.374  -27.395  -29.509  -31.735  -34.089  -36.525  -38.931  -41.153  -43.059  -44.575  -45.696  -46.471  -46.982  -47.317  -47.561  -47.776  -47.992  -48.203  -48.382  -48.500  -48.534  -48.478  -48.339  -48.144  -47.939  -47.773  -47.700  -47.772  -48.022  -48.456  -49.050  -49.750  -50.499  -51.251  -51.994  -52.742  -53.537  -54.423  -55.439  -56.614  -57.962  -59.483  -61.158  -62.940  -64.764  -66.562  -68.279  -69.876  -71.336  -72.653  -73.830  -74.872  -75.789  -76.596  -77.314  -77.973  -78.612  -79.275  -80.013  -80.867  -81.875  -83.048  -84.387  -85.872  -87.471  -89.148  -90.866  -92.585  -94.260  -95.833  -97.230  -98.329  -98.987  -98.929  -97.625  -96.742
 -24.937  -24.635  -23.869  -22.805  -21.619  -20.445  -19.364  -18.422  -17.656  -17.083  -16.700  -16.481  -16.398  -16.429  -16.561  -16.784  -17.095  -17.504  -18.059  -18.838  -19.946  -21.461  -23.385  -25.638  -28.098  -30.650  -33.235  -35.841  -38.461  -41.057  -43.544  -45.812  -47.764  -49.344  -50.542  -51.392  -51.952  -52.295  -52.500  -52.630  -52.724  -52.789  -52.809  -52.764  -52.634  -52.408  -52.092  -51.713  -51.311  -50.935  -50.638  -50.471  -50.469  -50.640  -50.967  -51.412  -51.931  -52.494  -53.091  -53.734  -54.450  -55.266  -56.199  -57.260  -58.448  -59.756  -61.159  -62.616  -64.078  -65.497  -66.836  -68.073  -69.204  -70.228  -71.151  -71.978  -72.717  -73.377  -73.977  -74.538  -75.090  -75.670  -76.318  -77.073  -77.963  -79.005  -80.201  -81.542  -83.007  -84.573  -86.209  -87.883  -89.552  -91.154  -92.603  -93.777  -94.517  -94.590  -93.590  -92.025
 -21.730  -21.370  -20.652  -19.691  -18.650  -17.649  -16.762  -16.023  -15.455  -15.069  -14.863  -14.823  -14.935  -15.185  -15.579  -16.125  -16.836  -17.722  -18.809  -20.150  -21.818  -23.860  -26.269  -28.958  -31.788  -34.632  -37.413  -40.106  -42.710  -45.210  -47.558  -49.688  -51.530  -53.043  -54.212  -55.054  -55.608  -55.932  -56.091  -56.146  -56.140  -56.085  -55.977  -55.797  -55.527  -55.160  -54.703  -54.182  -53.635  -53.106  -52.645  -52.297  -52.093  -52.045  -52.144  -52.366  -52.682  -53.073  -53.531  -54.063  -54.678  -55.386  -56.187  -57.077  -58.042  -59.071  -60.140  -61.220  -62.277  -63.284  -64.226  -65.097  -65.899  -66.637  -67.318  -67.944  -68.520  -69.055  -69.561  -70.052  -70.552  -71.087  -71.687  -72.384  -73.199  -74.145  -75.228  -76.440  -77.770  -79.204  -80.721  -82.297  -83.896  -85.462  -86.915  -88.137  -88.967  -89.186  -88.469  -86.752
 -20.215  -19.899  -19.319  -18.552  -17.732  -16.957  -16.280  -15.730  -15.321  -15.073  -14.996  -15.099  -15.368  -15.807  -16.426  -17.245  -18.274  -19.512  -20.953  -22.629  -24.585  -26.867  -29.461  -32.279  -35.179  -38.025  -40.734  -43.280  -45.672  -47.916  -49.999  -51.885  -53.531  -54.903  -55.982  -56.772  -57.293  -57.588  -57.710  -57.713  -57.637  -57.499  -57.301  -57.027  -56.665  -56.210  -55.673  -55.080  -54.467  -53.875  -53.341  -52.903  -52.588  -52.405  -52.353  -52.415  -52.577  -52.827  -53.159  -53.571  -54.065  -54.634  -55.269  -55.955  -56.677  -57.417  -58.159  -58.883  -59.569  -60.209  -60.802  -61.354  -61.876  -62.373  -62.850  -63.308  -63.751  -64.186  -64.620  -65.066  -65.537  -66.052  -66.634  -67.302  -68.075  -68.961  -69.963  -71.075  -72.290  -73.597  -74.984  -76.431  -77.910  -79.376  -80.760  -81.957  -82.820  -83.149  -82.662  -81.087
 -20.570  -20.396  -20.032  -19.542  -19.022  -18.528  -18.089  -17.709  -17.408  -17.213  -17.160  -17.278  -17.572  -18.050  -18.726  -19.617  -20.725  -22.027  -23.499  -25.155  -27.040  -29.206  -31.651  -34.296  -37.005  -39.639  -42.109  -44.384  -46.477  -48.410  -50.190  -51.804  -53.229  -54.438  -55.410  -56.138  -56.631  -56.915  -57.032  -57.024  -56.929  -56.763  -56.532  -56.227  -55.839  -55.367  -54.827  -54.245  -53.652  -53.082  -52.565  -52.127  -51.787  -51.554  -51.426  -51.397  -51.459  -51.604  -51.829  -52.128  -52.496  -52.920  -53.386  -53.877  -54.376  -54.869  -55.342  -55.782  -56.183  -56.546  -56.880  -57.200  -57.518  -57.839  -58.166  -58.499  -58.841  -59.197  -59.575  -59.983  -60.432  -60.932  -61.500  -62.151  -62.895  -63.739  -64.683  -65.720  -66.842  -68.039  -69.301  -70.614  -71.957  -73.294  -74.568  -75.692  -76.534  -76.919  -76.597  -75.256
 -22.426  -22.458  -22.327  -22.124  -21.906  -21.687  -21.455  -21.192  -20.900  -20.621  -20.421  -20.361  -20.469  -20.764  -21.261  -21.972  -22.884  -23.965  -25.179  -26.529  -28.068  -29.856  -31.916  -34.184  -36.535  -38.831  -40.977  -42.937  -44.718  -46.347  -47.842  -49.206  -50.428  -51.492  -52.379  -53.073  -53.573  -53.893  -54.060  -54.109  -54.068  -53.953  -53.769  -53.512  -53.178  -52.772  -52.308  -51.814  -51.315  -50.836  -50.399  -50.022  -49.718  -49.494  -49.349  -49.281  -49.288  -49.366  -49.513  -49.723  -49.985  -50.287  -50.612  -50.947  -51.277  -51.591  -51.878  -52.130  -52.346  -52.532  -52.705  -52.878  -53.065  -53.272  -53.497  -53.741  -54.007  -54.299  -54.626  -54.995  -55.415  -55.893  -56.440  -57.070  -57.789  -58.603  -59.507  -60.490  -61.540  -62.648  -63.804  -65.000  -66.219  -67.436  -68.606  -69.652  -70.466  -70.887  -70.696  -69.588
 -24.902  -25.134  -25.169  -25.155  -25.131  -25.081  -24.959  -24.709  -24.319  -23.834  -23.345  -22.946  -22.700  -22.637  -22.776  -23.121  -23.656  -24.342  -25.135  -26.036  -27.094  -28.380  -29.933  -31.714  -33.616  -35.511  -37.302  -38.944  -40.438  -41.805  -43.067  -44.233  -45.304  -46.273  -47.124  -47.842  -48.414  -48.843  -49.145  -49.338  -49.443  -49.470  -49.422  -49.299  -49.099  -48.830  -48.508  -48.155  -47.792  -47.437  -47.105  -46.811  -46.566  -46.378  -46.247  -46.176  -46.164  -46.212  -46.319  -46.478  -46.677  -46.901  -47.137  -47.372  -47.598  -47.807  -47.988  -48.135  -48.251  -48.343  -48.427  -48.519  -48.628  -48.761  -48.918  -49.098  -49.303  -49.540  -49.816  -50.142  -50.523  -50.970  -51.494  -52.103  -52.808  -53.608  -54.492  -55.445  -56.449  -57.490  -58.564  -59.666  -60.788  -61.914  -63.009  -64.009  -64.814  -65.282  -65.211  -64.314
 -26.943  -27.292  -27.354  -27.356  -27.347  -27.305  -27.158  -26.822  -26.262  -25.518  -24.693  -23.911  -23.263  -22.791  -22.514  -22.435  -22.536  -22.778  -23.120  -23.555  -24.125  -24.902  -25.931  -27.198  -28.627  -30.105  -31.544  -32.899  -34.158  -35.333  -36.438  -37.484  -38.480  -39.427  -40.317  -41.133  -41.857  -42.480  -43.002  -43.426  -43.760  -44.006  -44.163  -44.230  -44.210  -44.112  -43.952  -43.747  -43.514  -43.268  -43.025  -42.799  -42.605  -42.453  -42.349  -42.294  -42.294  -42.349  -42.460  -42.616  -42.803  -43.003  -43.205  -43.399  -43.579  -43.739  -43.873  -43.975  -44.046  -44.096  -44.137  -44.184  -44.246  -44.329  -44.434  -44.563  -44.716  -44.902  -45.126  -45.403  -45.742  -46.157  -46.662  -47.268  -47.982  -48.797  -49.694  -50.646  -51.628  -52.626  -53.636  -54.664  -55.714  -56.779  -57.833  -58.817  -59.642  -60.170  -60.215  -59.508
 -27.706  -28.033  -27.964  -27.791  -27.607  -27.408  -27.114  -26.623  -25.875  -24.896  -23.793  -22.703  -21.732  -20.930  -20.311  -19.873  -19.602  -19.468  -19.435  -19.492  -19.670  -20.031  -20.618  -21.433  -22.429  -23.530  -24.668  -25.801  -26.911  -27.990  -29.040  -30.068  -31.081  -32.089  -33.088  -34.064  -34.995  -35.859  -36.642  -37.331  -37.918  -38.394  -38.756  -39.005  -39.146  -39.192  -39.156  -39.055  -38.903  -38.717  -38.516  -38.323  -38.156  -38.031  -37.956  -37.935  -37.971  -38.069  -38.223  -38.420  -38.640  -38.863  -39.073  -39.264  -39.432  -39.576  -39.692  -39.778  -39.834  -39.866  -39.887  -39.909  -39.940  -39.987  -40.052  -40.136  -40.242  -40.376  -40.547  -40.771  -41.066  -41.454  -41.957  -42.587  -43.345  -44.216  -45.166  -46.151  -47.137  -48.109  -49.070  -50.038  -51.030  -52.052  -53.085  -54.075  -54.934  -55.529  -55.683  -55.144
 -26.756  -26.913  -26.575  -26.071  -25.553  -25.063  -24.535  -23.858  -22.954  -21.831  -20.588  -19.361  -18.253  -17.306  -16.524  -15.898  -15.418  -15.063  -14.811  -14.651  -14.603  -14.710  -15.007  -15.504  -16.183  -17.011  -17.951  -18.970  -20.045  -21.144  -22.252  -23.361  -24.476  -25.601  -26.737  -27.873  -28.988  -30.053  -31.042  -31.929  -32.694  -33.322  -33.812  -34.165  -34.393  -34.509  -34.528  -34.463  -34.329  -34.149  -33.950  -33.760  -33.606  -33.504  -33.465  -33.493  -33.588  -33.749  -33.969  -34.228  -34.499  -34.758  -34.988  -35.183  -35.345  -35.474  -35.574  -35.646  -35.690  -35.712  -35.724  -35.730  -35.743  -35.766  -35.802  -35.851  -35.914  -35.997  -36.110  -36.276  -36.526  -36.894  -37.411  -38.092  -38.933  -39.901  -40.942  -41.993  -43.008  -43.972  -44.896  -45.811  -46.752  -47.737  -48.755  -49.757  -50.652  -51.309  -51.558  -51.167
 -24.100  -23.989  -23.311  -22.398  -21.465  -20.616  -19.820  -18.974  -17.992  -16.865  -15.680  -14.541  -13.531  -12.668  -11.944  -11.342  -10.851  -10.465  -10.171   -9.967   -9.861   -9.879  -10.047  -10.377  -10.885  -11.572  -12.435  -13.456  -14.600  -15.816  -17.064  -18.318  -19.570  -20.817  -22.056  -23.284  -24.482  -25.629  -26.690  -27.637  -28.445  -29.104  -29.613  -29.978  -30.214  -30.334  -30.352  -30.278  -30.131  -29.937  -29.731  -29.548  -29.417  -29.354  -29.366  -29.451  -29.609  -29.831  -30.103  -30.400  -30.695  -30.962  -31.185  -31.358  -31.486  -31.575  -31.636  -31.676  -31.698  -31.707  -31.709  -31.711  -31.717  -31.732  -31.753  -31.780  -31.809  -31.843  -31.898  -32.004  -32.208  -32.559  -33.100  -33.850  -34.798  -35.891  -37.049  -38.191  -39.257  -40.229  -41.126  -41.994  -42.883  -43.828  -44.827  -45.835  -46.760  -47.469  -47.800  -47.534
 -20.182  -19.799  -18.834  -17.579  -16.298  -15.146  -14.141  -13.201  -12.253  -11.273  -10.321   -9.454   -8.716   -8.097   -7.581   -7.148   -6.788   -6.503   -6.291   -6.150   -6.087   -6.116   -6.256   -6.528   -6.962   -7.598   -8.457   -9.535  -10.792  -12.159  -13.565  -14.967  -16.337  -17.662  -18.939  -20.166  -21.338  -22.439  -23.446  -24.330  -25.075  -25.674  -26.134  -26.465  -26.680  -26.790  -26.804  -26.733  -26.595  -26.418  -26.243  -26.107  -26.034  -26.035  -26.111  -26.252  -26.449  -26.690  -26.958  -27.227  -27.478  -27.687  -27.845  -27.947  -27.998  -28.011  -28.002  -27.985  -27.967  -27.954  -27.946  -27.947  -27.960  -27.983  -28.008  -28.028  -28.036  -28.031  -28.032  -28.081  -28.239  -28.576  -29.145  -29.973  -31.037  -32.265  -33.553  -34.794  -35.919  -36.905  -37.779  -38.596  -39.426  -40.317  -41.283  -42.284  -43.228  -43.979  -44.376  -44.217
 -15.846  -15.297  -14.229  -12.860  -11.463  -10.207   -9.136   -8.213   -7.381   -6.625   -5.958   -5.395   -4.936   -4.568   -4.265   -4.011   -3.805   -3.652   -3.545   -3.488   -3.486   -3.548   -3.687   -3.929   -4.322   -4.919   -5.769   -6.882   -8.216   -9.687  -11.208  -12.708  -14.141  -15.486  -16.735  -17.895  -18.971  -19.956  -20.841  -21.609  -22.254  -22.776  -23.190  -23.505  -23.731  -23.874  -23.938  -23.929  -23.864  -23.774  -23.695  -23.660  -23.683  -23.766  -23.900  -24.067  -24.255  -24.449  -24.634  -24.795  -24.920  -25.001  -25.033  -25.016  -24.957  -24.871  -24.774  -24.685  -24.615  -24.569  -24.549  -24.553  -24.580  -24.620  -24.662  -24.690  -24.691  -24.662  -24.624  -24.632  -24.762  -25.098  -25.710  -26.625  -27.809  -29.170  -30.577  -31.907  -33.076  -34.058  -34.887  -35.633  -36.380  -37.195  -38.104  -39.080  -40.026  -40.807  -41.260  -41.190
 -12.109  -11.545  -10.573   -9.334   -8.051   -6.876   -5.862   -5.017   -4.317   -3.751   -3.303   -2.954   -2.675   -2.450   -2.262   -2.118   -2.010   -1.935   -1.897   -1.891   -1.924   -1.995   -2.117   -2.323   -2.653   -3.182   -3.965   -5.030   -6.344   -7.825   -9.369  -10.886  -12.314  -13.618  -14.797  -15.857  -16.815  -17.674  -18.435  -19.096  -19.665  -20.150  -20.565  -20.919  -21.217  -21.461  -21.647  -21.776  -21.860  -21.925  -22.000  -22.102  -22.236  -22.394  -22.557  -22.707  -22.830  -22.913  -22.949  -22.937  -22.881  -22.786  -22.661  -22.508  -22.336  -22.153  -21.978  -21.825  -21.707  -21.632  -21.600  -21.609  -21.647  -21.705  -21.764  -21.806  -21.813  -21.782  -21.737  -21.741  -21.884  -22.262  -22.953  -23.981  -25.292  -26.770  -28.264  -29.634  -30.795  -31.724  -32.464  -33.099  -33.729  -34.439  -35.267  -36.192  -37.124  -37.920  -38.414  -38.416
  -9.688   -9.195   -8.381   -7.327   -6.194   -5.109   -4.157   -3.378   -2.783   -2.358   -2.061   -1.842   -1.654   -1.476   -1.321   -1.200   -1.120   -1.072   -1.056   -1.066   -1.100   -1.160   -1.251   -1.401   -1.655   -2.070   -2.723   -3.643   -4.823   -6.190   -7.645   -9.084  -10.437  -11.658  -12.743  -13.700  -14.551  -15.308  -15.979  -16.576  -17.113  -17.608  -18.072  -18.514  -18.935  -19.330  -19.690  -20.007  -20.288  -20.545  -20.791  -21.034  -21.267  -21.474  -21.633  -21.728  -21.747  -21.684  -21.541  -21.335  -21.086  -20.818  -20.545  -20.276  -20.018  -19.773  -19.552  -19.366  -19.225  -19.135  -19.100  -19.112  -19.158  -19.227  -19.301  -19.363  -19.391  -19.386  -19.378  -19.434  -19.656  -20.147  -20.977  -22.149  -23.586  -25.142  -26.652  -27.981  -29.050  -29.854  -30.448  -30.933  -31.419  -32.002  -32.731  -33.589  -34.486  -35.278  -35.796  -35.855
  -8.558   -8.135   -7.411   -6.433   -5.337   -4.256   -3.305   -2.557   -2.044   -1.736   -1.560   -1.433   -1.296   -1.135   -0.978   -0.849   -0.761   -0.707   -0.688   -0.693   -0.719   -0.757   -0.817   -0.917   -1.083   -1.373   -1.849   -2.557   -3.503   -4.652   -5.912   -7.183   -8.391   -9.494  -10.473  -11.336  -12.106  -12.796  -13.417  -13.989  -14.529  -15.058  -15.590  -16.131  -16.680  -17.231  -17.766  -18.274  -18.747  -19.182  -19.582  -19.942  -20.247  -20.478  -20.615  -20.643  -20.553  -20.349  -20.048  -19.679  -19.279  -18.882  -18.512  -18.181  -17.888  -17.632  -17.413  -17.236  -17.104  -17.025  -17.000  -17.023  -17.080  -17.163  -17.257  -17.344  -17.414  -17.468  -17.543  -17.715  -18.086  -18.755  -19.772  -21.102  -22.627  -24.185  -25.615  -26.802  -27.693  -28.303  -28.712  -29.026  -29.364  -29.824  -30.454  -31.238  -32.087  -32.857  -33.380  -33.483
  -8.035   -7.659   -6.959   -5.987   -4.866   -3.747   -2.775   -2.055   -1.607   -1.390   -1.308   -1.251   -1.156   -1.016   -0.863   -0.730   -0.627   -0.565   -0.540   -0.536   -0.550   -0.571   -0.611   -0.667   -0.768   -0.947   -1.252   -1.730   -2.409   -3.268   -4.253   -5.286   -6.301   -7.246   -8.106   -8.884   -9.590  -10.234  -10.830  -11.396  -11.946  -12.504  -13.086  -13.696  -14.332  -14.988  -15.647  -16.290  -16.900  -17.462  -17.968  -18.405  -18.756  -19.001  -19.120  -19.101  -18.939  -18.647  -18.252  -17.796  -17.328  -16.888  -16.500  -16.174  -15.908  -15.695  -15.523  -15.394  -15.307  -15.268  -15.278  -15.330  -15.413  -15.524  -15.649  -15.776  -15.904  -16.041  -16.233  -16.561  -17.126  -18.004  -19.210  -20.659  -22.201  -23.666  -24.920  -25.880  -26.530  -26.917  -27.132  -27.288  -27.502  -27.863  -28.414  -29.132  -29.926  -30.660  -31.172  -31.301
  -7.341   -7.005   -6.354   -5.433   -4.359   -3.282   -2.350   -1.680   -1.286   -1.128   -1.093   -1.077   -1.015   -0.909   -0.782   -0.663   -0.567   -0.503   -0.469   -0.464   -0.470   -0.484   -0.510   -0.543   -0.596   -0.694   -0.869   -1.153   -1.585   -2.158   -2.855   -3.617   -4.396   -5.158   -5.880   -6.561   -7.199   -7.800   -8.373   -8.931   -9.485  -10.050  -10.641  -11.260  -11.911  -12.589  -13.281  -13.965  -14.622  -15.231  -15.781  -16.250  -16.625  -16.884  -17.010  -16.991  -16.824  -16.529  -16.139  -15.704  -15.273  -14.886  -14.564  -14.312  -14.126  -13.996  -13.907  -13.857  -13.844  -13.874  -13.944  -14.048  -14.181  -14.335  -14.504  -14.682  -14.872  -15.099  -15.416  -15.907  -16.660  -17.721  -19.059  -20.548  -22.019  -23.312  -24.325  -25.022  -25.423  -25.599  -25.650  -25.689  -25.819  -26.117  -26.612  -27.273  -28.011  -28.697  -29.181  -29.321
  -6.093   -5.809   -5.281   -4.526   -3.636   -2.732   -1.947   -1.370   -1.031   -0.895   -0.868   -0.864   -0.829   -0.758   -0.669   -0.582   -0.509   -0.458   -0.431   -0.427   -0.434   -0.446   -0.462   -0.476   -0.501   -0.550   -0.640   -0.798   -1.041   -1.388   -1.828   -2.338   -2.885   -3.447   -4.014   -4.573   -5.127   -5.670   -6.207   -6.746   -7.292   -7.846   -8.411   -8.986   -9.578  -10.187  -10.809  -11.431  -12.035  -12.608  -13.131  -13.592  -13.970  -14.252  -14.418  -14.452  -14.359  -14.157  -13.876  -13.565  -13.267  -13.012  -12.820  -12.687  -12.613  -12.583  -12.592  -12.638  -12.718  -12.836  -12.986  -13.163  -13.357  -13.565  -13.781  -14.002  -14.246  -14.548  -14.970  -15.589  -16.478  -17.650  -19.031  -20.472  -21.799  -22.879  -23.644  -24.096  -24.286  -24.302  -24.245  -24.220  -24.312  -24.577  -25.032  -25.641  -26.321  -26.952  -27.402  -27.538
  -4.433   -4.214   -3.860   -3.351   -2.739   -2.101   -1.525   -1.087   -0.815   -0.692   -0.660   -0.650   -0.633   -0.593   -0.546   -0.495   -0.448   -0.417   -0.406   -0.414   -0.423   -0.433   -0.444   -0.446   -0.458   -0.477   -0.516   -0.594   -0.723   -0.911   -1.168   -1.480   -1.827   -2.208   -2.612   -3.039   -3.481   -3.945   -4.434   -4.945   -5.475   -6.007   -6.526   -7.023   -7.505   -7.981   -8.460   -8.939   -9.415   -9.877  -10.324  -10.737  -11.106  -11.415  -11.647  -11.785  -11.829  -11.791  -11.698  -11.584  -11.475  -11.398  -11.360  -11.361  -11.399  -11.469  -11.573  -11.710  -11.884  -12.091  -12.323  -12.569  -12.820  -13.074  -13.320  -13.569  -13.843  -14.189  -14.672  -15.362  -16.312  -17.503  -18.843  -20.170  -21.324  -22.197  -22.751  -23.015  -23.060  -22.982  -22.878  -22.838  -22.927  -23.183  -23.609  -24.173  -24.797  -25.374  -25.790  -25.923
  -2.804   -2.659   -2.471   -2.195   -1.849   -1.472   -1.113   -0.822   -0.632   -0.532   -0.499   -0.488   -0.483   -0.468   -0.444   -0.421   -0.401   -0.392   -0.400   -0.417   -0.435   -0.445   -0.450   -0.442   -0.434   -0.438   -0.451   -0.486   -0.546   -0.645   -0.785   -0.956   -1.160   -1.393   -1.655   -1.945   -2.274   -2.644   -3.070   -3.543   -4.047   -4.545   -5.003   -5.412   -5.765   -6.088   -6.394   -6.699   -7.014   -7.338   -7.676   -8.024   -8.375   -8.714   -9.023   -9.287   -9.502   -9.663   -9.787   -9.888   -9.983  -10.086  -10.200  -10.325  -10.466  -10.624  -10.806  -11.017  -11.262  -11.533  -11.819  -12.107  -12.388  -12.655  -12.905  -13.153  -13.426  -13.777  -14.272  -14.971  -15.907  -17.047  -18.291  -19.482  -20.476  -21.187  -21.593  -21.741  -21.711  -21.598  -21.493  -21.471  -21.579  -21.843  -22.257  -22.788  -23.371  -23.912  -24.303  -24.438
  -1.602   -1.511   -1.431   -1.308   -1.146   -0.954   -0.763   -0.597   -0.479   -0.416   -0.397   -0.393   -0.400   -0.398   -0.389   -0.384   -0.378   -0.391   -0.417   -0.450   -0.474   -0.480   -0.469   -0.451   -0.427   -0.412   -0.411   -0.423   -0.451   -0.502   -0.570   -0.660   -0.768   -0.897   -1.050   -1.234   -1.450   -1.730   -2.076   -2.486   -2.938   -3.374   -3.760   -4.070   -4.307   -4.494   -4.652   -4.801   -4.965   -5.157   -5.393   -5.673   -6.003   -6.364   -6.748   -7.135   -7.512   -7.864   -8.187   -8.485   -8.767   -9.038   -9.293   -9.537   -9.770  -10.002  -10.241  -10.499  -10.777  -11.069  -11.361  -11.644  -11.904  -12.144  -12.363  -12.576  -12.820  -13.148  -13.615  -14.276  -15.148  -16.201  -17.332  -18.403  -19.280  -19.889  -20.217  -20.316  -20.266  -20.159  -20.081  -20.090  -20.231  -20.515  -20.933  -21.456  -22.024  -22.551  -22.938  -23.085
  -0.906   -0.844   -0.819   -0.768   -0.697   -0.611   -0.522   -0.439   -0.378   -0.350   -0.343   -0.348   -0.361   -0.369   -0.370   -0.370   -0.382   -0.416   -0.460   -0.499   -0.522   -0.516   -0.489   -0.452   -0.417   -0.396   -0.384   -0.386   -0.397   -0.418   -0.451   -0.495   -0.552   -0.616   -0.696   -0.799   -0.937   -1.126   -1.383   -1.702   -2.061   -2.407   -2.699   -2.920   -3.064   -3.152   -3.206   -3.254   -3.314   -3.412   -3.564   -3.787   -4.086   -4.457   -4.889   -5.366   -5.861   -6.353   -6.828   -7.288   -7.734   -8.158   -8.551   -8.908   -9.230   -9.528   -9.809  -10.086  -10.360  -10.627  -10.874  -11.095  -11.292  -11.468  -11.627  -11.789  -11.990  -12.278  -12.703  -13.307  -14.105  -15.067  -16.098  -17.077  -17.888  -18.454  -18.767  -18.874  -18.847  -18.776  -18.737  -18.786  -18.960  -19.271  -19.707  -20.242  -20.819  -21.354  -21.750  -21.909
  -0.577   -0.528   -0.511   -0.494   -0.461   -0.420   -0.383   -0.344   -0.323   -0.310   -0.310   -0.325   -0.346   -0.357   -0.365   -0.373   -0.398   -0.448   -0.512   -0.562   -0.574   -0.545   -0.497   -0.444   -0.399   -0.374   -0.360   -0.355   -0.358   -0.369   -0.385   -0.408   -0.433   -0.465   -0.506   -0.560   -0.637   -0.754   -0.920   -1.138   -1.384   -1.622   -1.819   -1.958   -2.036   -2.069   -2.075   -2.072   -2.078   -2.123   -2.219   -2.390   -2.648   -2.996   -3.429   -3.931   -4.469   -5.033   -5.602   -6.177   -6.754   -7.316   -7.845   -8.320   -8.737   -9.101   -9.418   -9.697   -9.943  -10.152  -10.323  -10.458  -10.569  -10.666  -10.758  -10.872  -11.036  -11.296  -11.689  -12.251  -12.989  -13.874  -14.830  -15.747  -16.523  -17.089  -17.429  -17.583  -17.615  -17.603  -17.615  -17.708  -17.916  -18.252  -18.711  -19.265  -19.858  -20.406  -20.809  -20.974
  -0.442   -0.396   -0.383   -0.369   -0.350   -0.333   -0.314   -0.296   -0.290   -0.284   -0.293   -0.306   -0.325   -0.340   -0.350   -0.365   -0.403   -0.474   -0.553   -0.606   -0.604   -0.553   -0.481   -0.415   -0.371   -0.346   -0.333   -0.328   -0.334   -0.335   -0.345   -0.359   -0.372   -0.389   -0.407   -0.438   -0.478   -0.541   -0.636   -0.761   -0.900   -1.042   -1.152   -1.228   -1.269   -1.282   -1.273   -1.258   -1.253   -1.276   -1.335   -1.456   -1.657   -1.945   -2.323   -2.777   -3.285   -3.834   -4.425   -5.056   -5.722   -6.400   -7.054   -7.648   -8.167   -8.601   -8.956   -9.240   -9.460   -9.613   -9.711   -9.767   -9.804   -9.838   -9.889   -9.977  -10.131  -10.388  -10.775  -11.316  -12.014  -12.835  -13.722  -14.588  -15.336  -15.910  -16.293  -16.516  -16.626  -16.694  -16.771  -16.915  -17.158  -17.522  -18.001  -18.565  -19.165  -19.712  -20.112  -20.268
  -0.379   -0.335   -0.330   -0.314   -0.301   -0.292   -0.282   -0.272   -0.268   -0.270   -0.274   -0.284   -0.299   -0.311   -0.323   -0.347   -0.393   -0.469   -0.555   -0.608   -0.601   -0.536   -0.450   -0.382   -0.339   -0.317   -0.308   -0.307   -0.306   -0.310   -0.317   -0.324   -0.335   -0.343   -0.357   -0.371   -0.392   -0.425   -0.473   -0.531   -0.602   -0.668   -0.724   -0.763   -0.782   -0.789   -0.783   -0.777   -0.772   -0.785   -0.823   -0.902   -1.037   -1.243   -1.520   -1.869   -2.281   -2.755   -3.296   -3.918   -4.614   -5.361   -6.108   -6.807   -7.422   -7.936   -8.344   -8.650   -8.862   -8.990   -9.048   -9.064   -9.065   -9.079   -9.125   -9.223   -9.396   -9.671  -10.069  -10.597  -11.251  -12.001  -12.806  -13.592  -14.288  -14.851  -15.264  -15.546  -15.740  -15.891  -16.045  -16.248  -16.537  -16.930  -17.425  -17.995  -18.586  -19.121  -19.508  -19.642
  -0.349   -0.308   -0.297   -0.287   -0.278   -0.269   -0.264   -0.259   -0.254   -0.252   -0.257   -0.262   -0.272   -0.278   -0.290   -0.313   -0.359   -0.431   -0.515   -0.564   -0.551   -0.486   -0.410   -0.345   -0.308   -0.289   -0.285   -0.283   -0.286   -0.291   -0.297   -0.304   -0.310   -0.317   -0.324   -0.333   -0.347   -0.362   -0.383   -0.412   -0.443   -0.470   -0.495   -0.512   -0.527   -0.529   -0.531   -0.530   -0.535   -0.542   -0.566   -0.608   -0.686   -0.809   -0.985   -1.213   -1.497   -1.848   -2.284   -2.829   -3.485   -4.225   -5.005   -5.765   -6.458   -7.047   -7.515   -7.863   -8.101   -8.242   -8.308   -8.336   -8.350   -8.387   -8.466   -8.606   -8.817   -9.119   -9.519  -10.013  -10.593  -11.243  -11.928  -12.594  -13.199  -13.709  -14.117  -14.433  -14.685  -14.907  -15.131  -15.397  -15.734  -16.163  -16.677  -17.249  -17.831  -18.347  -18.717  -18.834
  -0.333   -0.294   -0.283   -0.273   -0.265   -0.259   -0.253   -0.249   -0.246   -0.242   -0.241   -0.247   -0.250   -0.251   -0.261   -0.282   -0.316   -0.374   -0.436   -0.473   -0.468   -0.417   -0.360   -0.310   -0.282   -0.268   -0.264   -0.266   -0.270   -0.275   -0.281   -0.286   -0.292   -0.297   -0.303   -0.309   -0.315   -0.324   -0.337   -0.348   -0.363   -0.373   -0.386   -0.397   -0.404   -0.409   -0.413   -0.418   -0.419   -0.428   -0.441   -0.465   -0.504   -0.567   -0.658   -0.785   -0.953   -1.178   -1.486   -1.900   -2.442   -3.096   -3.825   -4.578   -5.292   -5.922   -6.435   -6.831   -7.114   -7.302   -7.418   -7.496   -7.566   -7.662   -7.806   -8.004   -8.265   -8.586   -8.963   -9.392   -9.868  -10.376  -10.902  -11.416  -11.892  -12.310  -12.667  -12.975  -13.246  -13.506  -13.779  -14.087  -14.463  -14.915  -15.442  -16.013  -16.583  -17.086  -17.449  -17.570
  -0.322   -0.283   -0.273   -0.264   -0.256   -0.250   -0.245   -0.241   -0.238   -0.235   -0.232   -0.232   -0.232   -0.237   -0.239   -0.252   -0.275   -0.311   -0.350   -0.377   -0.375   -0.343   -0.307   -0.272   -0.257   -0.253   -0.249   -0.253   -0.257   -0.262   -0.266   -0.271   -0.275   -0.281   -0.286   -0.291   -0.296   -0.301   -0.306   -0.314   -0.320   -0.331   -0.337   -0.344   -0.351   -0.355   -0.359   -0.365   -0.370   -0.377   -0.384   -0.394   -0.414   -0.443   -0.483   -0.543   -0.627   -0.752   -0.940   -1.213   -1.603   -2.106   -2.705   -3.357   -4.011   -4.614   -5.129   -5.546   -5.870   -6.115   -6.297   -6.445   -6.595   -6.776   -7.010   -7.287   -7.602   -7.937   -8.276   -8.614   -8.961   -9.307   -9.652   -9.993  -10.313  -10.607  -10.878  -11.134  -11.383  -11.638  -11.912  -12.231  -12.610  -13.058  -13.569  -14.119  -14.665  -15.151  -15.511  -15.653
  -0.311   -0.274   -0.265   -0.256   -0.249   -0.243   -0.238   -0.234   -0.231   -0.228   -0.226   -0.224   -0.223   -0.222   -0.225   -0.231   -0.244   -0.259   -0.283   -0.296   -0.296   -0.282   -0.263   -0.250   -0.241   -0.237   -0.240   -0.243   -0.246   -0.250   -0.254   -0.257   -0.262   -0.266   -0.270   -0.275   -0.280   -0.284   -0.289   -0.294   -0.298   -0.303   -0.307   -0.312   -0.317   -0.322   -0.327   -0.332   -0.337   -0.342   -0.347   -0.355   -0.366   -0.378   -0.398   -0.420   -0.459   -0.519   -0.615   -0.773   -1.012   -1.344   -1.766   -2.253   -2.770   -3.270   -3.725   -4.115   -4.445   -4.718   -4.953   -5.172   -5.407   -5.691   -6.026   -6.401   -6.778   -7.129   -7.427   -7.675   -7.887   -8.068   -8.236   -8.393   -8.547   -8.702   -8.860   -9.031   -9.223   -9.432   -9.670   -9.953  -10.291  -10.687  -11.138  -11.623  -12.113  -12.560  -12.899  -13.070
  -0.302   -0.266   -0.257   -0.249   -0.242   -0.236   -0.232   -0.228   -0.225   -0.222   -0.220   -0.218   -0.217   -0.216   -0.215   -0.216   -0.224   -0.231   -0.239   -0.249   -0.249   -0.242   -0.236   -0.231   -0.226   -0.228   -0.231   -0.234   -0.237   -0.240   -0.243   -0.246   -0.250   -0.254   -0.257   -0.261   -0.265   -0.269   -0.273   -0.277   -0.282   -0.286   -0.291   -0.295   -0.299   -0.303   -0.307   -0.312   -0.316   -0.320   -0.325   -0.329   -0.334   -0.341   -0.350   -0.362   -0.378   -0.404   -0.450   -0.529   -0.654   -0.842   -1.091   -1.397   -1.742   -2.095   -2.431   -2.743   -3.026   -3.286   -3.539   -3.805   -4.111   -4.485   -4.918   -5.380   -5.822   -6.187   -6.452   -6.622   -6.710   -6.748   -6.751   -6.743   -6.736   -6.750   -6.797   -6.876   -6.990   -7.134   -7.310   -7.524   -7.783   -8.089   -8.441   -8.816   -9.205   -9.571   -9.858  -10.046
  -0.294   -0.260   -0.251   -0.243   -0.236   -0.231   -0.226   -0.223   -0.220   -0.217   -0.215   -0.213   -0.212   -0.211   -0.210   -0.210   -0.211   -0.215   -0.220   -0.222   -0.223   -0.222   -0.219   -0.217   -0.219   -0.221   -0.223   -0.226   -0.228   -0.231   -0.234   -0.237   -0.240   -0.243   -0.246   -0.250   -0.253   -0.257   -0.260   -0.264   -0.267   -0.271   -0.275   -0.279   -0.283   -0.287   -0.291   -0.295   -0.299   -0.303   -0.307   -0.311   -0.315   -0.319   -0.323   -0.329   -0.339   -0.351   -0.372   -0.405   -0.462   -0.551   -0.678   -0.840   -1.029   -1.237   -1.447   -1.650   -1.858   -2.067   -2.293   -2.561   -2.894   -3.310   -3.796   -4.303   -4.768   -5.134   -5.367   -5.476   -5.478   -5.408   -5.287   -5.148   -5.012   -4.915   -4.865   -4.869   -4.918   -4.999   -5.113   -5.256   -5.431   -5.638   -5.874   -6.128   -6.396   -6.652   -6.862   -7.043
  -0.288   -0.254   -0.246   -0.238   -0.231   -0.226   -0.222   -0.218   -0.215   -0.213   -0.211   -0.209   -0.208   -0.207   -0.206   -0.206   -0.205   -0.205   -0.206   -0.206   -0.207   -0.208   -0.209   -0.211   -0.212   -0.214   -0.216   -0.218   -0.221   -0.224   -0.226   -0.229   -0.231   -0.234   -0.237   -0.240   -0.243   -0.246   -0.249   -0.253   -0.256   -0.259   -0.262   -0.266   -0.269   -0.272   -0.276   -0.279   -0.283   -0.287   -0.291   -0.294   -0.298   -0.302   -0.306   -0.310   -0.314   -0.320   -0.329   -0.346   -0.367   -0.406   -0.460   -0.533   -0.620   -0.720   -0.827   -0.944   -1.066   -1.206   -1.381   -1.611   -1.917   -2.304   -2.764   -3.235   -3.663   -3.991   -4.179   -4.244   -4.199   -4.071   -3.889   -3.678   -3.480   -3.324   -3.224   -3.184   -3.192   -3.233   -3.302   -3.393   -3.512   -3.647   -3.804   -3.974   -4.146   -4.310   -4.451   -4.606
  -0.282   -0.249   -0.241   -0.233   -0.227   -0.222   -0.218   -0.215   -0.212   -0.209   -0.207   -0.206   -0.204   -0.203   -0.202   -0.202   -0.202   -0.202   -0.202   -0.202   -0.203   -0.204   -0.205   -0.206   -0.207   -0.209   -0.211   -0.212   -0.214   -0.217   -0.219   -0.221   -0.224   -0.227   -0.229   -0.232   -0.235   -0.237   -0.240   -0.243   -0.246   -0.249   -0.252   -0.255   -0.258   -0.261   -0.264   -0.267   -0.270   -0.273   -0.277   -0.280   -0.283   -0.287   -0.291   -0.295   -0.299   -0.303   -0.307   -0.313   -0.325   -0.341   -0.360   -0.387   -0.424   -0.466   -0.512   -0.567   -0.629   -0.712   -0.825   -0.990   -1.225   -1.527   -1.884   -2.253   -2.584   -2.831   -2.969   -2.998   -2.941   -2.813   -2.628   -2.424   -2.234   -2.080   -1.981   -1.932   -1.920   -1.944   -1.988   -2.059   -2.148   -2.266   -2.401   -2.544   -2.688   -2.821   -2.927   -3.060
  -0.278   -0.246   -0.238   -0.230   -0.224   -0.219   -0.215   -0.212   -0.209   -0.207   -0.205   -0.203   -0.202   -0.201   -0.200   -0.199   -0.199   -0.199   -0.199   -0.199   -0.200   -0.201   -0.201   -0.202   -0.204   -0.205   -0.206   -0.208   -0.210   -0.211   -0.213   -0.215   -0.217   -0.220   -0.222   -0.225   -0.228   -0.230   -0.233   -0.235   -0.238   -0.240   -0.243   -0.246   -0.248   -0.251   -0.254   -0.257   -0.260   -0.263   -0.266   -0.269   -0.272   -0.275   -0.278   -0.281   -0.285   -0.289   -0.292   -0.296   -0.300   -0.307   -0.318   -0.328   -0.342   -0.358   -0.375   -0.399   -0.428   -0.472   -0.534   -0.634   -0.781   -0.979   -1.204   -1.441   -1.652   -1.806   -1.888   -1.903   -1.857   -1.760   -1.627   -1.479   -1.340   -1.230   -1.159   -1.118   -1.112   -1.126   -1.164   -1.226   -1.319   -1.450   -1.604   -1.776   -1.946   -2.095   -2.209   -2.331
  -0.275   -0.243   -0.235   -0.228   -0.222   -0.217   -0.213   -0.210   -0.207   -0.205   -0.203   -0.201   -0.200   -0.199   -0.198   -0.197   -0.197   -0.197   -0.197   -0.197   -0.198   -0.198   -0.199   -0.200   -0.201   -0.202   -0.203   -0.204   -0.206   -0.208   -0.209   -0.211   -0.213   -0.215   -0.217   -0.219   -0.221   -0.223   -0.226   -0.229   -0.231   -0.233   -0.236   -0.238   -0.241   -0.243   -0.246   -0.248   -0.251   -0.254   -0.256   -0.259   -0.262   -0.265   -0.268   -0.271   -0.274   -0.277   -0.280   -0.284   -0.287   -0.291   -0.295   -0.301   -0.306   -0.317   -0.322   -0.334   -0.346   -0.367   -0.401   -0.450   -0.529   -0.628   -0.747   -0.870   -0.979   -1.060   -1.102   -1.111   -1.083   -1.027   -0.955   -0.870   -0.794   -0.733   -0.699   -0.679   -0.676   -0.689   -0.722   -0.781   -0.876   -1.017   -1.198   -1.405   -1.615   -1.801   -1.941   -2.070
  -0.274   -0.242   -0.234   -0.227   -0.221   -0.216   -0.212   -0.209   -0.206   -0.204   -0.202   -0.201   -0.199   -0.198   -0.197   -0.197   -0.196   -0.196   -0.196   -0.196   -0.197   -0.197   -0.198   -0.198   -0.199   -0.200   -0.201   -0.202   -0.204   -0.205   -0.207   -0.208   -0.210   -0.211   -0.213   -0.215   -0.217   -0.219   -0.221   -0.223   -0.225   -0.228   -0.230   -0.232   -0.235   -0.237   -0.240   -0.242   -0.244   -0.247   -0.249   -0.252   -0.254   -0.257   -0.260   -0.262   -0.265   -0.268   -0.271   -0.274   -0.277   -0.280   -0.284   -0.287   -0.291   -0.295   -0.299   -0.304   -0.312   -0.323   -0.338   -0.360   -0.394   -0.436   -0.491   -0.545   -0.588   -0.627   -0.643   -0.647   -0.634   -0.614   -0.584   -0.549   -0.518   -0.494   -0.479   -0.472   -0.474   -0.488   -0.511   -0.561   -0.649   -0.787   -0.968   -1.180   -1.411   -1.632   -1.799   -1.935
  -0.275   -0.243   -0.235   -0.228   -0.222   -0.217   -0.213   -0.210   -0.207   -0.205   -0.203   -0.202   -0.200   -0.199   -0.198   -0.198   -0.197   -0.197   -0.197   -0.197   -0.197   -0.197   -0.198   -0.198   -0.199   -0.200   -0.201   -0.202   -0.203   -0.204   -0.205   -0.207   -0.208   -0.210   -0.211   -0.213   -0.215   -0.217   -0.218   -0.220   -0.222   -0.224   -0.226   -0.228   -0.230   -0.232   -0.235   -0.238   -0.240   -0.242   -0.244   -0.247   -0.249   -0.251   -0.254   -0.256   -0.259   -0.262   -0.264   -0.267   -0.270   -0.273   -0.276   -0.279   -0.282   -0.285   -0.288   -0.292   -0.295   -0.300   -0.309   -0.319   -0.334   -0.349   -0.369   -0.388   -0.407   -0.421   -0.425   -0.429   -0.430   -0.425   -0.417   -0.408   -0.400   -0.391   -0.387   -0.389   -0.393   -0.403   -0.420   -0.456   -0.525   -0.634   -0.790   -0.988   -1.214   -1.438   -1.622   -1.767
  -0.279   -0.244   -0.236   -0.229   -0.223   -0.218   -0.214   -0.211   -0.208   -0.206   -0.204   -0.203   -0.201   -0.200   -0.199   -0.199   -0.198   -0.198   -0.197   -0.197   -0.198   -0.198   -0.198   -0.199   -0.199   -0.200   -0.201   -0.202   -0.203   -0.204   -0.205   -0.206   -0.207   -0.209   -0.210   -0.212   -0.213   -0.215   -0.216   -0.218   -0.220   -0.222   -0.223   -0.225   -0.227   -0.229   -0.231   -0.233   -0.236   -0.238   -0.240   -0.242   -0.244   -0.247   -0.249   -0.251   -0.254   -0.256   -0.258   -0.261   -0.264   -0.266   -0.269   -0.272   -0.275   -0.278   -0.280   -0.284   -0.287   -0.290   -0.293   -0.297   -0.306   -0.313   -0.319   -0.329   -0.336   -0.340   -0.343   -0.346   -0.350   -0.354   -0.350   -0.349   -0.351   -0.352   -0.350   -0.351   -0.355   -0.364   -0.378   -0.402   -0.448   -0.528   -0.645   -0.818   -1.026   -1.248   -1.433   -1.586
  -0.356   -0.271   -0.261   -0.253   -0.247   -0.242   -0.238   -0.235   -0.232   -0.229   -0.227   -0.226   -0.224   -0.223   -0.222   -0.221   -0.221   -0.220   -0.220   -0.220   -0.220   -0.220   -0.220   -0.220   -0.221   -0.221   -0.222   -0.223   -0.223   -0.224   -0.225   -0.226   -0.228   -0.229   -0.230   -0.231   -0.233   -0.234   -0.236   -0.237   -0.239   -0.241   -0.242   -0.244   -0.246   -0.248   -0.250   -0.251   -0.253   -0.255   -0.258   -0.260   -0.262   -0.265   -0.267   -0.269   -0.271   -0.274   -0.276   -0.278   -0.281   -0.284   -0.286   -0.289   -0.292   -0.294   -0.297   -0.300   -0.303   -0.306   -0.309   -0.312   -0.316   -0.318   -0.323   -0.328   -0.339   -0.344   -0.347   -0.350   -0.353   -0.350   -0.350   -0.354   -0.355   -0.359   -0.362   -0.365   -0.368   -0.373   -0.387   -0.403   -0.439   -0.505   -0.607   -0.756   -0.955   -1.169   -1.358   -1.574
