DSAA
 100 100
 0.0 400.0
 0.0 400.0
 -156.6745 -2.022091
  -3.014   -2.679   -2.845   -3.162   -3.617   -4.141   -4.684   -5.145   -5.437   -5.500   -5.270   -4.769   -4.104   -3.411   -2.827   -2.444   -2.337   -2.525   -3.062   -3.910   -4.897   -5.701   -6.022   -5.793   -5.255   -4.772   -4.599   -4.690   -4.828   -4.836   -4.669   -4.396   -4.138   -3.911   -3.733   -3.575   -3.471   -3.489   -3.717   -4.192   -4.871   -5.616   -6.319   -6.919   -7.337   -7.485   -7.325   -6.994   -6.725   -6.641   -6.701   -6.793   -6.831   -6.804   -6.709   -6.525   -6.203   -5.772   -5.344   -5.062   -5.050   -5.210   -5.305   -5.105   -4.563   -3.859   -3.268   -2.995   -3.040   -3.283   -3.546   -3.768   -3.995   -4.245   -4.436   -4.415   -4.144   -3.761   -3.430   -3.253   -3.248   -3.364   -3.562   -3.744   -3.875   -3.990   -4.194   -4.579   -5.179   -5.943   -6.748   -7.428   -7.794   -7.686   -7.056   -6.056   -4.926   -3.918   -3.239   -3.321
  -3.206   -3.076   -3.301   -3.664   -4.135   -4.678   -5.209   -5.644   -5.903   -5.905   -5.614   -5.053   -4.320   -3.558   -2.913   -2.471   -2.313   -2.459   -2.940   -3.719   -4.629   -5.371   -5.660   -5.447   -4.942   -4.488   -4.306   -4.381   -4.530   -4.595   -4.521   -4.346   -4.131   -3.909   -3.709   -3.533   -3.429   -3.442   -3.649   -4.068   -4.652   -5.283   -5.872   -6.366   -6.730   -6.903   -6.860   -6.719   -6.664   -6.786   -6.990   -7.156   -7.210   -7.151   -6.998   -6.729   -6.300   -5.748   -5.177   -4.780   -4.654   -4.731   -4.783   -4.606   -4.131   -3.523   -3.032   -2.827   -2.905   -3.162   -3.421   -3.616   -3.808   -4.045   -4.231   -4.232   -3.993   -3.654   -3.379   -3.250   -3.279   -3.434   -3.630   -3.822   -3.977   -4.152   -4.429   -4.897   -5.592   -6.455   -7.379   -8.191   -8.646   -8.556   -7.848   -6.685   -5.362   -4.185   -3.374   -3.232
  -4.402   -4.322   -4.586   -4.995   -5.498   -6.030   -6.524   -6.888   -7.049   -6.941   -6.546   -5.892   -5.067   -4.196   -3.432   -2.871   -2.590   -2.621   -2.975   -3.588   -4.321   -4.911   -5.143   -4.979   -4.571   -4.196   -4.022   -4.060   -4.211   -4.367   -4.454   -4.437   -4.306   -4.110   -3.896   -3.728   -3.641   -3.668   -3.846   -4.172   -4.594   -5.034   -5.433   -5.768   -6.037   -6.207   -6.311   -6.433   -6.688   -7.074   -7.462   -7.716   -7.778   -7.676   -7.432   -7.039   -6.475   -5.783   -5.082   -4.552   -4.286   -4.235   -4.214   -4.060   -3.712   -3.292   -2.969   -2.859   -2.976   -3.203   -3.424   -3.591   -3.743   -3.943   -4.131   -4.182   -4.031   -3.803   -3.646   -3.620   -3.721   -3.886   -4.067   -4.231   -4.401   -4.656   -5.051   -5.645   -6.446   -7.445   -8.548   -9.570  -10.211  -10.192   -9.434   -8.107   -6.566   -5.191   -4.244   -4.010
  -6.046   -6.005   -6.293   -6.718   -7.208   -7.702   -8.108   -8.378   -8.429   -8.212   -7.723   -6.976   -6.052   -5.062   -4.146   -3.417   -2.958   -2.803   -2.943   -3.325   -3.811   -4.215   -4.390   -4.285   -4.018   -3.748   -3.600   -3.604   -3.740   -3.969   -4.187   -4.306   -4.275   -4.127   -3.956   -3.849   -3.834   -3.912   -4.077   -4.317   -4.612   -4.914   -5.179   -5.403   -5.579   -5.729   -5.879   -6.112   -6.491   -6.979   -7.424   -7.690   -7.736   -7.579   -7.279   -6.829   -6.251   -5.576   -4.922   -4.399   -4.093   -3.955   -3.848   -3.685   -3.438   -3.180   -2.998   -2.959   -3.059   -3.237   -3.422   -3.559   -3.698   -3.889   -4.093   -4.207   -4.187   -4.117   -4.116   -4.212   -4.366   -4.509   -4.621   -4.707   -4.846   -5.121   -5.587   -6.252   -7.127   -8.227   -9.491  -10.731  -11.595  -11.747  -11.067   -9.735   -8.146   -6.705   -5.704   -5.429
  -7.819   -7.795   -8.069   -8.457   -8.877   -9.280   -9.599   -9.761   -9.720   -9.431   -8.885   -8.099   -7.118   -6.050   -5.013   -4.116   -3.441   -3.045   -2.929   -3.029   -3.253   -3.464   -3.575   -3.535   -3.394   -3.230   -3.110   -3.077   -3.180   -3.404   -3.661   -3.840   -3.882   -3.813   -3.748   -3.748   -3.833   -3.979   -4.155   -4.371   -4.615   -4.887   -5.143   -5.350   -5.502   -5.609   -5.712   -5.873   -6.137   -6.478   -6.786   -6.962   -6.955   -6.783   -6.503   -6.129   -5.693   -5.240   -4.815   -4.463   -4.210   -4.010   -3.803   -3.569   -3.339   -3.159   -3.067   -3.058   -3.135   -3.269   -3.421   -3.567   -3.730   -3.924   -4.131   -4.303   -4.416   -4.526   -4.694   -4.903   -5.070   -5.150   -5.146   -5.122   -5.192   -5.444   -5.903   -6.569   -7.451   -8.598   -9.990  -11.411  -12.492  -12.861  -12.401  -11.279   -9.871   -8.562   -7.643   -7.386
  -9.451   -9.421   -9.631   -9.928  -10.249  -10.541  -10.742  -10.818  -10.729  -10.427   -9.887   -9.125   -8.166   -7.095   -6.008   -5.001   -4.159   -3.544   -3.164   -2.986   -2.948   -2.975   -3.010   -2.997   -2.941   -2.847   -2.749   -2.680   -2.719   -2.874   -3.094   -3.267   -3.338   -3.355   -3.388   -3.477   -3.617   -3.788   -3.976   -4.194   -4.444   -4.737   -5.046   -5.312   -5.514   -5.636   -5.702   -5.739   -5.780   -5.854   -5.925   -5.960   -5.899   -5.770   -5.584   -5.372   -5.166   -4.988   -4.818   -4.655   -4.450   -4.176   -3.841   -3.505   -3.237   -3.078   -3.032   -3.057   -3.145   -3.286   -3.471   -3.668   -3.864   -4.053   -4.235   -4.415   -4.626   -4.886   -5.193   -5.459   -5.607   -5.617   -5.540   -5.467   -5.496   -5.729   -6.170   -6.820   -7.705   -8.898  -10.392  -11.964  -13.233  -13.834  -13.639  -12.824  -11.703  -10.605   -9.817   -9.576
 -10.750  -10.696  -10.823  -11.017  -11.220  -11.388  -11.492  -11.503  -11.396  -11.118  -10.641   -9.961   -9.093   -8.106   -7.055   -6.046   -5.129   -4.370   -3.786   -3.382   -3.127   -2.997   -2.938   -2.921   -2.897   -2.840   -2.747   -2.665   -2.642   -2.728   -2.880   -3.026   -3.117   -3.178   -3.221   -3.272   -3.359   -3.469   -3.611   -3.807   -4.043   -4.328   -4.646   -4.955   -5.226   -5.426   -5.527   -5.519   -5.432   -5.313   -5.214   -5.129   -5.066   -5.001   -4.946   -4.890   -4.849   -4.830   -4.789   -4.680   -4.446   -4.092   -3.668   -3.263   -2.977   -2.851   -2.857   -2.947   -3.091   -3.299   -3.556   -3.832   -4.064   -4.229   -4.369   -4.544   -4.811   -5.152   -5.495   -5.736   -5.834   -5.814   -5.749   -5.745   -5.875   -6.171   -6.648   -7.326   -8.250   -9.516  -11.125  -12.844  -14.307  -15.133  -15.210  -14.666  -13.758  -12.781  -12.013  -11.755
 -11.664  -11.574  -11.626  -11.723  -11.809  -11.878  -11.908  -11.878  -11.766  -11.532  -11.130  -10.553   -9.808   -8.958   -8.037   -7.104   -6.204   -5.386   -4.691   -4.132   -3.727   -3.470   -3.347   -3.318   -3.309   -3.269   -3.199   -3.143   -3.137   -3.213   -3.347   -3.489   -3.586   -3.611   -3.565   -3.463   -3.367   -3.308   -3.332   -3.427   -3.573   -3.764   -4.004   -4.283   -4.579   -4.841   -5.020   -5.072   -4.994   -4.828   -4.659   -4.551   -4.522   -4.554   -4.601   -4.631   -4.638   -4.603   -4.527   -4.360   -4.076   -3.686   -3.255   -2.900   -2.688   -2.640   -2.699   -2.846   -3.055   -3.329   -3.659   -4.003   -4.266   -4.440   -4.576   -4.765   -5.054   -5.386   -5.669   -5.819   -5.844   -5.826   -5.881   -6.067   -6.401   -6.866   -7.454   -8.191   -9.177  -10.515  -12.227  -14.100  -15.756  -16.847  -17.197  -16.878  -16.092  -15.115  -14.268  -13.940
 -12.232  -12.114  -12.106  -12.123  -12.138  -12.139  -12.114  -12.056  -11.947  -11.753  -11.414  -10.925  -10.294   -9.576   -8.795   -7.969   -7.133   -6.312   -5.566   -4.920   -4.430   -4.111   -3.971   -3.941   -3.961   -3.972   -3.983   -4.036   -4.157   -4.332   -4.534   -4.701   -4.773   -4.710   -4.491   -4.169   -3.821   -3.547   -3.385   -3.323   -3.330   -3.370   -3.470   -3.636   -3.864   -4.121   -4.340   -4.461   -4.436   -4.307   -4.136   -4.036   -4.044   -4.145   -4.276   -4.348   -4.330   -4.234   -4.077   -3.858   -3.566   -3.232   -2.935   -2.737   -2.675   -2.717   -2.811   -2.943   -3.137   -3.412   -3.757   -4.123   -4.428   -4.661   -4.869   -5.125   -5.427   -5.714   -5.894   -5.944   -5.926   -5.971   -6.192   -6.608   -7.167   -7.794   -8.476   -9.266  -10.279  -11.665  -13.431  -15.422  -17.265  -18.606  -19.245  -19.171  -18.535  -17.591  -16.705  -16.314
 -12.538  -12.397  -12.359  -12.332  -12.312  -12.279  -12.232  -12.173  -12.070  -11.899  -11.600  -11.167  -10.609   -9.974   -9.276   -8.525   -7.718   -6.903   -6.127   -5.440   -4.908   -4.577   -4.453   -4.476   -4.563   -4.687   -4.863   -5.127   -5.472   -5.861   -6.196   -6.387   -6.395   -6.188   -5.773   -5.224   -4.664   -4.204   -3.882   -3.674   -3.523   -3.418   -3.366   -3.380   -3.484   -3.650   -3.827   -3.945   -3.933   -3.796   -3.612   -3.486   -3.484   -3.610   -3.774   -3.882   -3.883   -3.797   -3.655   -3.476   -3.275   -3.098   -3.010   -3.033   -3.139   -3.236   -3.291   -3.327   -3.404   -3.595   -3.888   -4.222   -4.544   -4.850   -5.163   -5.511   -5.865   -6.146   -6.291   -6.330   -6.374   -6.540   -6.934   -7.507   -8.178   -8.862   -9.549  -10.320  -11.313  -12.690  -14.471  -16.514  -18.469  -20.002  -20.897  -21.108  -20.735  -19.999  -19.244  -18.875
 -12.669  -12.519  -12.463  -12.429  -12.396  -12.364  -12.335  -12.289  -12.206  -12.053  -11.782  -11.378  -10.855  -10.235   -9.539   -8.780   -7.947   -7.095   -6.270   -5.546   -5.004   -4.697   -4.621   -4.723   -4.952   -5.267   -5.687   -6.230   -6.860   -7.476   -7.930   -8.125   -8.025   -7.647   -7.050   -6.340   -5.659   -5.098   -4.681   -4.365   -4.111   -3.897   -3.722   -3.615   -3.580   -3.623   -3.697   -3.735   -3.665   -3.463   -3.188   -2.973   -2.900   -2.986   -3.159   -3.320   -3.419   -3.452   -3.441   -3.408   -3.376   -3.402   -3.535   -3.758   -3.981   -4.096   -4.053   -3.936   -3.868   -3.940   -4.143   -4.422   -4.722   -5.049   -5.431   -5.866   -6.293   -6.650   -6.895   -7.076   -7.288   -7.622   -8.127   -8.739   -9.370   -9.963  -10.538  -11.212  -12.147  -13.483  -15.241  -17.261  -19.252  -20.877  -21.941  -22.401  -22.349  -21.965  -21.503  -21.252
 -12.718  -12.553  -12.503  -12.461  -12.435  -12.423  -12.409  -12.394  -12.337  -12.219  -11.980  -11.606  -11.089  -10.461   -9.716   -8.873   -7.948   -7.004   -6.104   -5.335   -4.780   -4.498   -4.494   -4.728   -5.140   -5.700   -6.402   -7.230   -8.107   -8.880   -9.385   -9.534   -9.303   -8.769   -8.043   -7.265   -6.570   -6.007   -5.544   -5.156   -4.812   -4.526   -4.300   -4.126   -4.014   -3.966   -3.946   -3.891   -3.715   -3.399   -3.004   -2.661   -2.484   -2.503   -2.660   -2.883   -3.105   -3.303   -3.473   -3.618   -3.778   -4.002   -4.305   -4.650   -4.927   -5.008   -4.873   -4.659   -4.524   -4.566   -4.753   -4.994   -5.251   -5.535   -5.910   -6.378   -6.880   -7.363   -7.795   -8.191   -8.603   -9.073   -9.605  -10.144  -10.625  -11.026  -11.437  -11.981  -12.834  -14.095  -15.775  -17.729  -19.670  -21.301  -22.438  -23.068  -23.282  -23.232  -23.082  -22.975
 -12.712  -12.551  -12.498  -12.458  -12.438  -12.437  -12.446  -12.453  -12.425  -12.337  -12.149  -11.821  -11.336  -10.696   -9.901   -8.956   -7.916   -6.851   -5.855   -5.030   -4.458   -4.197   -4.257   -4.616   -5.214   -6.009   -6.957   -7.992   -9.004   -9.825  -10.313  -10.382  -10.049   -9.421   -8.660   -7.922   -7.296   -6.760   -6.261   -5.779   -5.341   -5.000   -4.776   -4.625   -4.519   -4.457   -4.389   -4.262   -4.001   -3.586   -3.095   -2.653   -2.388   -2.345   -2.482   -2.744   -3.053   -3.381   -3.695   -3.994   -4.313   -4.673   -5.079   -5.477   -5.756   -5.814   -5.683   -5.531   -5.528   -5.714   -6.005   -6.274   -6.500   -6.712   -7.025   -7.461   -7.996   -8.578   -9.151   -9.702  -10.225  -10.735  -11.218  -11.632  -11.931  -12.150  -12.391  -12.811  -13.559  -14.698  -16.240  -18.052  -19.886  -21.470  -22.621  -23.336  -23.708  -23.861  -23.904  -23.907
 -12.694  -12.528  -12.468  -12.433  -12.413  -12.414  -12.429  -12.442  -12.439  -12.382  -12.246  -11.990  -11.562  -10.948  -10.137   -9.133   -7.992   -6.826   -5.744   -4.853   -4.247   -3.980   -4.064   -4.490   -5.200   -6.138   -7.225   -8.352   -9.390  -10.190  -10.628  -10.634  -10.251   -9.616   -8.916   -8.291   -7.763   -7.270   -6.715   -6.133   -5.613   -5.251   -5.065   -4.991   -4.973   -4.956   -4.905   -4.752   -4.439   -3.962   -3.405   -2.907   -2.589   -2.491   -2.608   -2.880   -3.239   -3.645   -4.042   -4.448   -4.889   -5.361   -5.855   -6.301   -6.611   -6.729   -6.747   -6.829   -7.133   -7.605   -8.085   -8.436   -8.649   -8.813   -9.062   -9.444   -9.943  -10.515  -11.101  -11.650  -12.149  -12.584  -12.958  -13.232  -13.392  -13.476  -13.604  -13.922  -14.542  -15.510  -16.839  -18.439  -20.104  -21.596  -22.735  -23.480  -23.912  -24.132  -24.235  -24.291
 -12.669  -12.498  -12.437  -12.396  -12.374  -12.371  -12.380  -12.391  -12.393  -12.362  -12.272  -12.089  -11.746  -11.200  -10.431   -9.432   -8.277   -7.067   -5.942   -5.004   -4.348   -4.017   -4.043   -4.403   -5.073   -5.992   -7.067   -8.185   -9.210   -9.997  -10.414  -10.407  -10.036   -9.458   -8.866   -8.380   -7.961   -7.505   -6.930   -6.307   -5.773   -5.459   -5.366   -5.413   -5.501   -5.551   -5.518   -5.338   -4.971   -4.430   -3.819   -3.276   -2.913   -2.776   -2.860   -3.136   -3.521   -3.972   -4.457   -4.992   -5.585   -6.224   -6.876   -7.463   -7.907   -8.202   -8.480   -8.892   -9.522  -10.251  -10.892  -11.311  -11.524  -11.680  -11.892  -12.216  -12.628  -13.089  -13.547  -13.971  -14.337  -14.634  -14.877  -15.037  -15.107  -15.123  -15.191  -15.424  -15.908  -16.677  -17.755  -19.078  -20.511  -21.845  -22.918  -23.666  -24.110  -24.332  -24.428  -24.491
 -12.636  -12.461  -12.410  -12.372  -12.351  -12.339  -12.338  -12.335  -12.335  -12.309  -12.257  -12.128  -11.876  -11.442  -10.779   -9.883   -8.796   -7.639   -6.523   -5.565   -4.847   -4.399   -4.249   -4.413   -4.871   -5.604   -6.554   -7.610   -8.637   -9.462   -9.929   -9.957   -9.620   -9.092   -8.589   -8.204   -7.883   -7.504   -7.004   -6.475   -6.070   -5.897   -5.959   -6.140   -6.312   -6.398   -6.335   -6.074   -5.601   -4.950   -4.245   -3.615   -3.176   -2.984   -3.050   -3.344   -3.799   -4.365   -5.017   -5.772   -6.634   -7.568   -8.495   -9.341  -10.026  -10.569  -11.101  -11.749  -12.551  -13.377  -14.039  -14.457  -14.677  -14.834  -15.034  -15.308  -15.613  -15.922  -16.216  -16.470  -16.667  -16.821  -16.941  -17.025  -17.048  -17.048  -17.083  -17.252  -17.611  -18.193  -19.022  -20.051  -21.192  -22.297  -23.234  -23.936  -24.382  -24.615  -24.715  -24.781
 -12.619  -12.444  -12.395  -12.359  -12.340  -12.331  -12.317  -12.302  -12.290  -12.266  -12.231  -12.154  -11.985  -11.676  -11.163  -10.436   -9.514   -8.492   -7.452   -6.512   -5.717   -5.124   -4.751   -4.624   -4.763   -5.203   -5.952   -6.926   -7.974   -8.884   -9.442   -9.535   -9.223   -8.706   -8.218   -7.873   -7.638   -7.386   -7.082   -6.786   -6.631   -6.700   -6.944   -7.245   -7.474   -7.533   -7.387   -6.996   -6.359   -5.541   -4.667   -3.892   -3.338   -3.077   -3.149   -3.519   -4.137   -4.941   -5.909   -7.037   -8.292   -9.602  -10.884  -12.023  -12.947  -13.684  -14.342  -15.031  -15.782  -16.503  -17.061  -17.406  -17.606  -17.762  -17.955  -18.185  -18.413  -18.604  -18.759  -18.858  -18.914  -18.949  -18.985  -19.025  -19.044  -19.042  -19.067  -19.178  -19.436  -19.868  -20.481  -21.242  -22.075  -22.903  -23.645  -24.258  -24.705  -24.979  -25.122  -25.206
 -12.621  -12.443  -12.386  -12.363  -12.345  -12.332  -12.313  -12.287  -12.272  -12.248  -12.227  -12.179  -12.086  -11.886  -11.542  -11.018  -10.313   -9.475   -8.571   -7.681   -6.865   -6.167   -5.591   -5.177   -4.986   -5.107   -5.615   -6.474   -7.533   -8.528   -9.171   -9.318   -9.020   -8.481   -7.968   -7.628   -7.459   -7.372   -7.307   -7.307   -7.446   -7.750   -8.157   -8.551   -8.796   -8.822   -8.577   -8.054   -7.261   -6.258   -5.175   -4.208   -3.506   -3.179   -3.293   -3.838   -4.736   -5.927   -7.335   -8.908  -10.581  -12.253  -13.811  -15.137  -16.178  -16.965  -17.582  -18.147  -18.701  -19.207  -19.596  -19.837  -19.995  -20.138  -20.312  -20.506  -20.689  -20.816  -20.875  -20.875  -20.837  -20.795  -20.786  -20.804  -20.830  -20.843  -20.859  -20.928  -21.097  -21.412  -21.863  -22.405  -22.973  -23.524  -24.051  -24.549  -24.986  -25.323  -25.542  -25.661
 -12.627  -12.449  -12.401  -12.371  -12.351  -12.334  -12.317  -12.291  -12.275  -12.250  -12.238  -12.220  -12.174  -12.074  -11.869  -11.532  -11.046  -10.411   -9.684   -8.910   -8.144   -7.405   -6.723   -6.115   -5.664   -5.508   -5.770   -6.480   -7.480   -8.484   -9.184   -9.386   -9.118   -8.584   -8.068   -7.741   -7.630   -7.683   -7.823   -8.059   -8.412   -8.867   -9.353   -9.767  -10.013  -10.016   -9.735   -9.154   -8.262   -7.121   -5.858   -4.685   -3.817   -3.440   -3.655   -4.446   -5.727   -7.364   -9.237  -11.233  -13.230  -15.117  -16.769  -18.108  -19.098  -19.787  -20.260  -20.631  -20.958  -21.255  -21.489  -21.647  -21.758  -21.871  -22.013  -22.176  -22.323  -22.422  -22.441  -22.385  -22.292  -22.211  -22.177  -22.195  -22.232  -22.249  -22.255  -22.284  -22.386  -22.605  -22.938  -23.322  -23.682  -24.005  -24.332  -24.706  -25.124  -25.512  -25.808  -25.968
 -12.637  -12.456  -12.408  -12.382  -12.369  -12.347  -12.330  -12.308  -12.289  -12.273  -12.267  -12.260  -12.248  -12.210  -12.105  -11.913  -11.604  -11.171  -10.637  -10.026   -9.385   -8.718   -8.031   -7.344   -6.746   -6.390   -6.433   -6.955   -7.820   -8.762   -9.454   -9.707   -9.516   -9.073   -8.624   -8.351   -8.293   -8.415   -8.660   -9.000   -9.418   -9.889  -10.352  -10.725  -10.941  -10.940  -10.673  -10.120   -9.239   -8.051   -6.678   -5.339   -4.329   -3.923   -4.267   -5.334   -6.995   -9.049  -11.305  -13.603  -15.777  -17.700  -19.277  -20.474  -21.295  -21.809  -22.112  -22.311  -22.468  -22.623  -22.760  -22.864  -22.941  -23.027  -23.132  -23.269  -23.394  -23.469  -23.459  -23.375  -23.252  -23.161  -23.127  -23.151  -23.184  -23.194  -23.173  -23.164  -23.215  -23.361  -23.607  -23.884  -24.100  -24.259  -24.430  -24.693  -25.070  -25.480  -25.820  -26.021
 -12.662  -12.479  -12.430  -12.403  -12.383  -12.371  -12.352  -12.335  -12.316  -12.304  -12.299  -12.296  -12.297  -12.289  -12.243  -12.143  -11.968  -11.707  -11.358  -10.941  -10.464   -9.926   -9.324   -8.671   -8.038   -7.574   -7.461   -7.783   -8.456   -9.264   -9.912  -10.213  -10.144   -9.846   -9.523   -9.333   -9.318   -9.455   -9.694  -10.007  -10.369  -10.748  -11.102  -11.387  -11.549  -11.555  -11.339  -10.857  -10.050   -8.898   -7.497   -6.067   -4.965   -4.532   -4.982   -6.290   -8.254  -10.619  -13.145  -15.614  -17.841  -19.691  -21.102  -22.075  -22.686  -23.024  -23.193  -23.283  -23.352  -23.432  -23.527  -23.604  -23.672  -23.741  -23.823  -23.927  -24.019  -24.059  -24.030  -23.932  -23.810  -23.727  -23.703  -23.729  -23.748  -23.727  -23.671  -23.620  -23.626  -23.731  -23.918  -24.109  -24.239  -24.301  -24.368  -24.544  -24.856  -25.247  -25.594  -25.810
 -12.685  -12.498  -12.450  -12.426  -12.405  -12.392  -12.377  -12.365  -12.352  -12.336  -12.328  -12.325  -12.326  -12.320  -12.303  -12.254  -12.172  -12.041  -11.849  -11.597  -11.286  -10.892  -10.423   -9.877   -9.306   -8.842   -8.640   -8.794   -9.264   -9.896  -10.458  -10.779  -10.827  -10.692  -10.517  -10.411  -10.418  -10.519  -10.688  -10.902  -11.150  -11.400  -11.626  -11.806  -11.912  -11.900  -11.724  -11.315  -10.598   -9.529   -8.150   -6.687   -5.521   -5.067   -5.569   -7.023   -9.186  -11.755  -14.448  -17.021  -19.260  -21.014  -22.250  -23.027  -23.457  -23.657  -23.741  -23.781  -23.814  -23.871  -23.943  -24.010  -24.074  -24.134  -24.199  -24.270  -24.319  -24.331  -24.286  -24.193  -24.094  -24.031  -24.019  -24.037  -24.026  -23.969  -23.874  -23.787  -23.770  -23.843  -23.986  -24.121  -24.199  -24.217  -24.235  -24.353  -24.597  -24.927  -25.238  -25.448
 -12.713  -12.522  -12.470  -12.438  -12.417  -12.415  -12.404  -12.393  -12.374  -12.358  -12.350  -12.344  -12.337  -12.331  -12.322  -12.305  -12.271  -12.220  -12.136  -12.007  -11.821  -11.566  -11.230  -10.823  -10.382   -9.997   -9.777   -9.814  -10.108  -10.558  -11.007  -11.318  -11.440  -11.423  -11.352  -11.308  -11.313  -11.364  -11.451  -11.564  -11.696  -11.835  -11.950  -12.039  -12.083  -12.041  -11.863  -11.485  -10.818   -9.804   -8.466   -6.997   -5.795   -5.301   -5.806   -7.307   -9.575  -12.279  -15.113  -17.786  -20.064  -21.785  -22.913  -23.552  -23.852  -23.970  -24.008  -24.031  -24.054  -24.099  -24.152  -24.206  -24.253  -24.296  -24.335  -24.368  -24.392  -24.383  -24.340  -24.276  -24.206  -24.166  -24.162  -24.172  -24.141  -24.063  -23.946  -23.851  -23.820  -23.870  -23.962  -24.051  -24.098  -24.108  -24.122  -24.209  -24.385  -24.642  -24.887  -25.068
 -12.742  -12.543  -12.481  -12.447  -12.426  -12.419  -12.410  -12.402  -12.385  -12.366  -12.353  -12.347  -12.345  -12.340  -12.330  -12.318  -12.307  -12.292  -12.268  -12.207  -12.108  -11.956  -11.741  -11.480  -11.187  -10.913  -10.734  -10.715  -10.872  -11.176  -11.504  -11.762  -11.902  -11.936  -11.922  -11.900  -11.889  -11.900  -11.930  -11.968  -12.022  -12.073  -12.119  -12.138  -12.113  -12.008  -11.771  -11.341  -10.649   -9.628   -8.302   -6.843   -5.626   -5.102   -5.570   -7.059   -9.367  -12.183  -15.178  -18.018  -20.410  -22.168  -23.265  -23.837  -24.070  -24.139  -24.156  -24.171  -24.197  -24.229  -24.259  -24.277  -24.285  -24.294  -24.303  -24.311  -24.312  -24.304  -24.283  -24.253  -24.221  -24.200  -24.203  -24.206  -24.178  -24.110  -24.018  -23.942  -23.911  -23.929  -23.972  -24.013  -24.040  -24.048  -24.078  -24.148  -24.277  -24.458  -24.633  -24.786
 -12.737  -12.536  -12.481  -12.449  -12.426  -12.410  -12.399  -12.389  -12.377  -12.359  -12.343  -12.340  -12.340  -12.341  -12.323  -12.307  -12.299  -12.294  -12.286  -12.264  -12.213  -12.123  -12.013  -11.873  -11.715  -11.552  -11.433  -11.404  -11.486  -11.669  -11.893  -12.082  -12.196  -12.236  -12.235  -12.213  -12.193  -12.174  -12.168  -12.164  -12.176  -12.176  -12.165  -12.126  -12.015  -11.797  -11.431  -10.863  -10.048   -8.951   -7.603   -6.181   -5.010   -4.486   -4.902   -6.346   -8.669  -11.592  -14.785  -17.846  -20.429  -22.300  -23.434  -23.988  -24.189  -24.227  -24.236  -24.253  -24.278  -24.298  -24.300  -24.280  -24.251  -24.221  -24.200  -24.193  -24.187  -24.191  -24.194  -24.197  -24.194  -24.181  -24.177  -24.178  -24.176  -24.156  -24.130  -24.102  -24.084  -24.082  -24.075  -24.070  -24.062  -24.070  -24.104  -24.165  -24.261  -24.383  -24.510  -24.632
 -12.715  -12.511  -12.456  -12.423  -12.401  -12.392  -12.388  -12.378  -12.365  -12.343  -12.331  -12.326  -12.323  -12.316  -12.301  -12.277  -12.257  -12.249  -12.251  -12.241  -12.216  -12.177  -12.132  -12.070  -12.006  -11.932  -11.870  -11.850  -11.895  -12.002  -12.137  -12.259  -12.342  -12.364  -12.355  -12.329  -12.301  -12.276  -12.253  -12.236  -12.220  -12.191  -12.127  -11.999  -11.775  -11.394  -10.827  -10.037   -9.030   -7.824   -6.479   -5.141   -4.086   -3.627   -4.030   -5.410   -7.709  -10.723  -14.111  -17.418  -20.222  -22.245  -23.462  -24.029  -24.207  -24.225  -24.223  -24.245  -24.276  -24.295  -24.278  -24.239  -24.186  -24.142  -24.119  -24.108  -24.106  -24.115  -24.129  -24.144  -24.146  -24.135  -24.123  -24.118  -24.137  -24.177  -24.223  -24.260  -24.283  -24.278  -24.248  -24.206  -24.172  -24.161  -24.181  -24.227  -24.288  -24.373  -24.467  -24.569
 -12.699  -12.490  -12.437  -12.410  -12.396  -12.386  -12.378  -12.374  -12.359  -12.338  -12.318  -12.305  -12.298  -12.288  -12.264  -12.236  -12.212  -12.205  -12.203  -12.211  -12.207  -12.201  -12.186  -12.164  -12.142  -12.109  -12.078  -12.071  -12.106  -12.165  -12.239  -12.317  -12.365  -12.369  -12.357  -12.331  -12.306  -12.282  -12.266  -12.245  -12.208  -12.136  -12.001  -11.754  -11.359  -10.762   -9.941   -8.908   -7.706   -6.417   -5.140   -3.974   -3.126   -2.807   -3.225   -4.541   -6.783   -9.841  -13.368  -16.876  -19.874  -22.049  -23.348  -23.944  -24.112  -24.114  -24.105  -24.133  -24.177  -24.194  -24.179  -24.134  -24.095  -24.074  -24.075  -24.080  -24.082  -24.083  -24.081  -24.088  -24.088  -24.070  -24.047  -24.034  -24.064  -24.129  -24.225  -24.322  -24.394  -24.417  -24.400  -24.360  -24.314  -24.285  -24.278  -24.290  -24.320  -24.369  -24.439  -24.523
 -12.732  -12.521  -12.474  -12.455  -12.440  -12.434  -12.431  -12.428  -12.416  -12.388  -12.359  -12.333  -12.319  -12.296  -12.269  -12.245  -12.227  -12.231  -12.242  -12.260  -12.270  -12.273  -12.265  -12.249  -12.218  -12.188  -12.158  -12.145  -12.162  -12.196  -12.240  -12.288  -12.311  -12.312  -12.302  -12.286  -12.271  -12.258  -12.248  -12.219  -12.147  -12.009  -11.759  -11.346  -10.722   -9.873   -8.796   -7.556   -6.245   -4.984   -3.869   -2.971   -2.391   -2.256   -2.723   -3.986   -6.155   -9.178  -12.756  -16.372  -19.485  -21.761  -23.127  -23.753  -23.923  -23.912  -23.896  -23.924  -23.968  -23.988  -23.972  -23.948  -23.940  -23.963  -24.005  -24.036  -24.039  -24.019  -23.995  -23.986  -23.982  -23.961  -23.934  -23.906  -23.918  -23.981  -24.090  -24.207  -24.313  -24.385  -24.414  -24.411  -24.390  -24.363  -24.335  -24.312  -24.299  -24.310  -24.345  -24.411
 -12.951  -12.732  -12.691  -12.665  -12.657  -12.644  -12.641  -12.637  -12.625  -12.595  -12.559  -12.522  -12.499  -12.473  -12.450  -12.434  -12.441  -12.453  -12.485  -12.511  -12.530  -12.527  -12.505  -12.457  -12.383  -12.311  -12.239  -12.187  -12.166  -12.177  -12.206  -12.235  -12.252  -12.255  -12.249  -12.244  -12.241  -12.238  -12.221  -12.164  -12.030  -11.776  -11.354  -10.724   -9.849   -8.740   -7.466   -6.131   -4.856   -3.766   -2.921   -2.347   -2.058   -2.109   -2.644   -3.857   -5.936   -8.878  -12.398  -15.996  -19.123  -21.423  -22.820  -23.466  -23.638  -23.615  -23.583  -23.594  -23.623  -23.634  -23.619  -23.615  -23.636  -23.696  -23.772  -23.824  -23.828  -23.797  -23.755  -23.731  -23.727  -23.719  -23.698  -23.665  -23.652  -23.683  -23.758  -23.859  -23.971  -24.076  -24.159  -24.212  -24.242  -24.243  -24.218  -24.174  -24.129  -24.093  -24.095  -24.150
 -13.519  -13.298  -13.245  -13.214  -13.199  -13.181  -13.169  -13.160  -13.147  -13.118  -13.085  -13.052  -13.018  -13.002  -12.993  -12.994  -13.011  -13.040  -13.077  -13.112  -13.129  -13.113  -13.057  -12.941  -12.781  -12.603  -12.431  -12.298  -12.216  -12.191  -12.191  -12.211  -12.226  -12.235  -12.237  -12.235  -12.237  -12.232  -12.185  -12.059  -11.805  -11.383  -10.748   -9.867   -8.741   -7.448   -6.087   -4.793   -3.707   -2.912   -2.429   -2.211   -2.209   -2.441   -3.034   -4.206   -6.162   -8.948  -12.305  -15.746  -18.758  -20.989  -22.357  -22.999  -23.171  -23.138  -23.083  -23.059  -23.056  -23.046  -23.029  -23.030  -23.065  -23.135  -23.211  -23.262  -23.268  -23.235  -23.199  -23.182  -23.189  -23.203  -23.197  -23.166  -23.134  -23.123  -23.144  -23.202  -23.288  -23.393  -23.507  -23.604  -23.681  -23.726  -23.728  -23.691  -23.631  -23.578  -23.560  -23.602
 -14.589  -14.357  -14.292  -14.250  -14.218  -14.187  -14.171  -14.160  -14.149  -14.124  -14.105  -14.079  -14.061  -14.052  -14.047  -14.061  -14.082  -14.118  -14.155  -14.187  -14.192  -14.154  -14.038  -13.817  -13.515  -13.162  -12.816  -12.539  -12.352  -12.261  -12.236  -12.241  -12.253  -12.263  -12.268  -12.264  -12.262  -12.224  -12.122  -11.886  -11.470  -10.830   -9.946   -8.827   -7.531   -6.159   -4.842   -3.722   -2.921   -2.482   -2.383   -2.531   -2.827   -3.252   -3.913   -5.027   -6.813   -9.335  -12.382  -15.511  -18.260  -20.307  -21.570  -22.161  -22.319  -22.286  -22.219  -22.164  -22.125  -22.095  -22.070  -22.065  -22.094  -22.138  -22.187  -22.221  -22.227  -22.206  -22.181  -22.183  -22.214  -22.241  -22.251  -22.226  -22.181  -22.136  -22.115  -22.123  -22.170  -22.256  -22.361  -22.472  -22.576  -22.653  -22.692  -22.683  -22.639  -22.599  -22.585  -22.638
 -16.177  -15.946  -15.870  -15.813  -15.759  -15.726  -15.702  -15.692  -15.689  -15.680  -15.671  -15.660  -15.653  -15.646  -15.645  -15.660  -15.677  -15.708  -15.740  -15.762  -15.754  -15.673  -15.472  -15.110  -14.598  -13.994  -13.391  -12.898  -12.557  -12.375  -12.300  -12.286  -12.294  -12.303  -12.306  -12.299  -12.281  -12.212  -12.033  -11.671  -11.057  -10.178   -9.065   -7.776   -6.414   -5.100   -3.948   -3.074   -2.565   -2.447   -2.692   -3.182   -3.782   -4.425   -5.184   -6.229   -7.777   -9.913  -12.487  -15.145  -17.482  -19.224  -20.300  -20.802  -20.933  -20.901  -20.841  -20.786  -20.734  -20.689  -20.656  -20.642  -20.647  -20.662  -20.675  -20.689  -20.689  -20.676  -20.673  -20.686  -20.718  -20.752  -20.762  -20.744  -20.698  -20.642  -20.600  -20.584  -20.599  -20.655  -20.731  -20.823  -20.924  -21.010  -21.071  -21.092  -21.087  -21.078  -21.089  -21.181
 -18.102  -17.894  -17.812  -17.748  -17.696  -17.658  -17.641  -17.637  -17.646  -17.654  -17.650  -17.642  -17.633  -17.624  -17.621  -17.628  -17.644  -17.665  -17.689  -17.695  -17.661  -17.531  -17.225  -16.685  -15.914  -14.993  -14.076  -13.313  -12.781  -12.480  -12.352  -12.316  -12.311  -12.314  -12.314  -12.306  -12.283  -12.188  -11.938  -11.451  -10.670   -9.596   -8.313   -6.955   -5.653   -4.498   -3.579   -2.947   -2.652   -2.754   -3.237   -3.993   -4.875   -5.749   -6.604   -7.564   -8.824  -10.497  -12.493  -14.565  -16.390  -17.750  -18.577  -18.950  -19.044  -19.024  -18.989  -18.958  -18.924  -18.881  -18.847  -18.826  -18.814  -18.810  -18.801  -18.802  -18.793  -18.786  -18.787  -18.800  -18.822  -18.840  -18.842  -18.825  -18.786  -18.740  -18.706  -18.692  -18.699  -18.731  -18.779  -18.841  -18.908  -18.975  -19.032  -19.068  -19.089  -19.120  -19.168  -19.305
 -20.084  -19.908  -19.832  -19.770  -19.727  -19.703  -19.691  -19.693  -19.708  -19.720  -19.719  -19.707  -19.690  -19.669  -19.660  -19.668  -19.681  -19.700  -19.713  -19.708  -19.649  -19.458  -19.037  -18.308  -17.267  -16.023  -14.773  -13.717  -12.977  -12.552  -12.363  -12.305  -12.292  -12.290  -12.294  -12.291  -12.260  -12.148  -11.860  -11.306  -10.425   -9.251   -7.927   -6.612   -5.463   -4.524   -3.823   -3.366   -3.193   -3.387   -3.976   -4.879   -5.949   -6.986   -7.909   -8.769   -9.737  -10.936  -12.353  -13.827  -15.124  -16.078  -16.640  -16.869  -16.921  -16.914  -16.914  -16.929  -16.934  -16.919  -16.898  -16.877  -16.862  -16.855  -16.846  -16.845  -16.833  -16.822  -16.815  -16.816  -16.815  -16.811  -16.795  -16.772  -16.745  -16.721  -16.710  -16.712  -16.728  -16.756  -16.784  -16.815  -16.843  -16.871  -16.900  -16.930  -16.966  -17.017  -17.088  -17.276
 -21.830  -21.679  -21.610  -21.564  -21.532  -21.519  -21.511  -21.519  -21.530  -21.537  -21.534  -21.510  -21.481  -21.453  -21.442  -21.446  -21.460  -21.481  -21.499  -21.481  -21.398  -21.151  -20.625  -19.732  -18.456  -16.924  -15.375  -14.061  -13.130  -12.594  -12.352  -12.277  -12.262  -12.263  -12.273  -12.277  -12.250  -12.136  -11.842  -11.274  -10.401   -9.275   -8.046   -6.888   -5.929   -5.194   -4.659   -4.315   -4.199   -4.394   -4.957   -5.862   -6.964   -8.046   -8.962   -9.707  -10.415  -11.213  -12.137  -13.097  -13.931  -14.523  -14.846  -14.956  -14.964  -14.957  -14.997  -15.056  -15.110  -15.139  -15.140  -15.128  -15.123  -15.126  -15.126  -15.126  -15.116  -15.100  -15.086  -15.077  -15.058  -15.027  -14.996  -14.964  -14.946  -14.944  -14.950  -14.972  -15.003  -15.029  -15.046  -15.048  -15.038  -15.030  -15.034  -15.052  -15.085  -15.137  -15.212  -15.434
 -23.150  -23.010  -22.945  -22.910  -22.889  -22.878  -22.877  -22.880  -22.886  -22.880  -22.866  -22.832  -22.796  -22.760  -22.744  -22.749  -22.765  -22.795  -22.814  -22.795  -22.694  -22.407  -21.805  -20.784  -19.337  -17.591  -15.818  -14.312  -13.241  -12.623  -12.344  -12.262  -12.260  -12.276  -12.292  -12.296  -12.270  -12.164  -11.900  -11.391  -10.627   -9.664   -8.641   -7.700   -6.937   -6.364   -5.951   -5.688   -5.597   -5.754   -6.227   -7.015   -8.000   -8.991   -9.816  -10.427  -10.926  -11.435  -11.992  -12.566  -13.048  -13.366  -13.502  -13.518  -13.492  -13.491  -13.545  -13.633  -13.721  -13.782  -13.811  -13.811  -13.811  -13.825  -13.836  -13.843  -13.837  -13.821  -13.810  -13.798  -13.776  -13.737  -13.696  -13.660  -13.647  -13.649  -13.666  -13.703  -13.735  -13.761  -13.764  -13.738  -13.705  -13.678  -13.669  -13.679  -13.704  -13.748  -13.820  -14.056
 -23.999  -23.856  -23.801  -23.766  -23.744  -23.735  -23.727  -23.727  -23.720  -23.708  -23.681  -23.642  -23.597  -23.558  -23.533  -23.537  -23.552  -23.590  -23.613  -23.599  -23.489  -23.180  -22.536  -21.434  -19.878  -18.004  -16.097  -14.462  -13.306  -12.639  -12.359  -12.298  -12.313  -12.344  -12.367  -12.374  -12.349  -12.247  -12.023  -11.616  -11.025  -10.299   -9.533   -8.821   -8.229   -7.773   -7.450   -7.256   -7.207   -7.343   -7.710   -8.320   -9.095   -9.891  -10.552  -11.023  -11.365  -11.673  -12.002  -12.322  -12.570  -12.715  -12.739  -12.704  -12.657  -12.643  -12.673  -12.748  -12.833  -12.909  -12.953  -12.969  -12.976  -12.993  -13.009  -13.020  -13.008  -13.006  -13.003  -13.010  -13.003  -12.973  -12.931  -12.890  -12.868  -12.867  -12.891  -12.931  -12.970  -12.987  -12.968  -12.932  -12.884  -12.861  -12.856  -12.871  -12.898  -12.937  -13.003  -13.233
 -24.470  -24.323  -24.264  -24.222  -24.196  -24.184  -24.172  -24.161  -24.149  -24.133  -24.100  -24.054  -24.002  -23.960  -23.932  -23.927  -23.942  -23.975  -24.001  -23.996  -23.887  -23.570  -22.904  -21.767  -20.157  -18.214  -16.238  -14.541  -13.338  -12.652  -12.383  -12.357  -12.408  -12.457  -12.485  -12.479  -12.443  -12.346  -12.162  -11.869  -11.472  -10.997  -10.483   -9.979   -9.523   -9.153   -8.892   -8.768   -8.772   -8.919   -9.207   -9.637  -10.170  -10.724  -11.188  -11.512  -11.741  -11.935  -12.129  -12.313  -12.443  -12.505  -12.491  -12.432  -12.367  -12.318  -12.296  -12.314  -12.361  -12.425  -12.471  -12.492  -12.514  -12.534  -12.549  -12.549  -12.546  -12.550  -12.573  -12.599  -12.605  -12.588  -12.544  -12.499  -12.469  -12.471  -12.508  -12.561  -12.604  -12.616  -12.583  -12.534  -12.484  -12.473  -12.491  -12.522  -12.562  -12.608  -12.666  -12.882
 -24.695  -24.535  -24.474  -24.427  -24.400  -24.381  -24.365  -24.354  -24.341  -24.322  -24.290  -24.243  -24.195  -24.147  -24.110  -24.096  -24.106  -24.133  -24.163  -24.158  -24.052  -23.737  -23.061  -21.912  -20.275  -18.306  -16.299  -14.567  -13.340  -12.652  -12.399  -12.401  -12.484  -12.557  -12.587  -12.567  -12.503  -12.400  -12.251  -12.062  -11.839  -11.585  -11.287  -10.954  -10.604  -10.302  -10.092  -10.014  -10.075  -10.239  -10.476  -10.771  -11.094  -11.411  -11.671  -11.865  -12.005  -12.140  -12.285  -12.420  -12.520  -12.563  -12.555  -12.507  -12.424  -12.330  -12.243  -12.186  -12.176  -12.202  -12.230  -12.255  -12.287  -12.314  -12.329  -12.324  -12.309  -12.316  -12.351  -12.394  -12.413  -12.411  -12.374  -12.319  -12.284  -12.289  -12.344  -12.423  -12.481  -12.500  -12.461  -12.402  -12.351  -12.346  -12.375  -12.436  -12.496  -12.554  -12.611  -12.814
 -24.800  -24.624  -24.556  -24.512  -24.485  -24.466  -24.453  -24.451  -24.441  -24.422  -24.399  -24.360  -24.317  -24.270  -24.229  -24.201  -24.202  -24.220  -24.245  -24.240  -24.137  -23.818  -23.138  -21.981  -20.334  -18.354  -16.330  -14.586  -13.341  -12.646  -12.393  -12.402  -12.501  -12.581  -12.599  -12.556  -12.466  -12.351  -12.230  -12.128  -12.054  -11.973  -11.842  -11.645  -11.393  -11.156  -10.991  -10.947  -11.032  -11.209  -11.426  -11.637  -11.806  -11.934  -12.021  -12.095  -12.170  -12.273  -12.393  -12.518  -12.618  -12.676  -12.694  -12.668  -12.587  -12.467  -12.335  -12.223  -12.157  -12.129  -12.125  -12.141  -12.175  -12.208  -12.221  -12.208  -12.187  -12.184  -12.221  -12.271  -12.307  -12.312  -12.280  -12.231  -12.201  -12.217  -12.286  -12.392  -12.470  -12.493  -12.454  -12.382  -12.326  -12.316  -12.355  -12.429  -12.507  -12.570  -12.632  -12.835
 -24.855  -24.662  -24.586  -24.552  -24.529  -24.518  -24.513  -24.515  -24.516  -24.512  -24.499  -24.477  -24.442  -24.402  -24.358  -24.318  -24.303  -24.309  -24.322  -24.306  -24.198  -23.877  -23.195  -22.033  -20.381  -18.398  -16.369  -14.616  -13.358  -12.644  -12.368  -12.353  -12.430  -12.492  -12.489  -12.425  -12.324  -12.209  -12.119  -12.086  -12.115  -12.159  -12.156  -12.069  -11.916  -11.750  -11.632  -11.610  -11.701  -11.874  -12.079  -12.250  -12.326  -12.329  -12.289  -12.257  -12.265  -12.319  -12.414  -12.516  -12.612  -12.684  -12.732  -12.732  -12.682  -12.579  -12.454  -12.325  -12.215  -12.127  -12.072  -12.057  -12.084  -12.120  -12.140  -12.126  -12.100  -12.099  -12.135  -12.198  -12.250  -12.266  -12.246  -12.205  -12.178  -12.201  -12.275  -12.386  -12.466  -12.490  -12.448  -12.367  -12.296  -12.276  -12.310  -12.376  -12.452  -12.522  -12.587  -12.798
 -24.886  -24.677  -24.609  -24.578  -24.560  -24.555  -24.557  -24.567  -24.577  -24.592  -24.598  -24.596  -24.572  -24.537  -24.492  -24.440  -24.406  -24.384  -24.379  -24.355  -24.243  -23.919  -23.235  -22.066  -20.413  -18.432  -16.410  -14.656  -13.390  -12.652  -12.332  -12.262  -12.287  -12.309  -12.286  -12.221  -12.132  -12.046  -11.997  -12.015  -12.103  -12.208  -12.279  -12.279  -12.215  -12.131  -12.064  -12.063  -12.149  -12.310  -12.496  -12.632  -12.671  -12.602  -12.475  -12.360  -12.291  -12.289  -12.332  -12.391  -12.464  -12.541  -12.610  -12.651  -12.649  -12.606  -12.520  -12.403  -12.269  -12.129  -12.015  -11.954  -11.962  -11.996  -12.020  -12.029  -12.027  -12.060  -12.121  -12.201  -12.261  -12.286  -12.266  -12.231  -12.203  -12.215  -12.271  -12.355  -12.419  -12.427  -12.381  -12.298  -12.221  -12.188  -12.199  -12.249  -12.308  -12.362  -12.426  -12.648
 -24.929  -24.701  -24.633  -24.598  -24.582  -24.582  -24.583  -24.596  -24.612  -24.643  -24.668  -24.678  -24.666  -24.638  -24.581  -24.517  -24.458  -24.417  -24.394  -24.360  -24.242  -23.916  -23.231  -22.064  -20.415  -18.435  -16.421  -14.683  -13.425  -12.668  -12.301  -12.171  -12.138  -12.124  -12.088  -12.048  -12.000  -11.972  -11.961  -11.999  -12.095  -12.208  -12.302  -12.351  -12.354  -12.332  -12.308  -12.332  -12.408  -12.539  -12.697  -12.806  -12.819  -12.716  -12.543  -12.371  -12.251  -12.200  -12.188  -12.208  -12.252  -12.321  -12.402  -12.478  -12.525  -12.537  -12.498  -12.401  -12.264  -12.097  -11.943  -11.853  -11.836  -11.866  -11.908  -11.941  -11.988  -12.078  -12.185  -12.284  -12.342  -12.358  -12.321  -12.270  -12.222  -12.209  -12.235  -12.281  -12.312  -12.307  -12.263  -12.193  -12.126  -12.094  -12.090  -12.114  -12.138  -12.166  -12.209  -12.447
 -25.017  -24.766  -24.685  -24.644  -24.625  -24.616  -24.611  -24.616  -24.624  -24.655  -24.682  -24.702  -24.699  -24.663  -24.603  -24.534  -24.462  -24.415  -24.386  -24.344  -24.221  -23.894  -23.210  -22.041  -20.395  -18.420  -16.422  -14.705  -13.459  -12.694  -12.303  -12.131  -12.056  -12.015  -11.995  -11.993  -12.019  -12.044  -12.066  -12.099  -12.162  -12.243  -12.314  -12.363  -12.387  -12.395  -12.405  -12.434  -12.492  -12.593  -12.703  -12.772  -12.758  -12.643  -12.457  -12.275  -12.148  -12.075  -12.046  -12.048  -12.072  -12.140  -12.231  -12.321  -12.391  -12.426  -12.403  -12.321  -12.192  -12.038  -11.904  -11.820  -11.804  -11.829  -11.866  -11.912  -11.996  -12.123  -12.274  -12.381  -12.430  -12.417  -12.354  -12.275  -12.205  -12.158  -12.155  -12.172  -12.184  -12.183  -12.165  -12.137  -12.105  -12.105  -12.109  -12.112  -12.105  -12.097  -12.123  -12.367
 -25.215  -24.937  -24.842  -24.795  -24.761  -24.737  -24.717  -24.706  -24.697  -24.709  -24.722  -24.738  -24.736  -24.709  -24.655  -24.587  -24.524  -24.482  -24.457  -24.414  -24.289  -23.956  -23.264  -22.092  -20.441  -18.478  -16.491  -14.793  -13.555  -12.780  -12.368  -12.169  -12.077  -12.033  -12.044  -12.102  -12.197  -12.278  -12.332  -12.356  -12.373  -12.393  -12.404  -12.403  -12.401  -12.400  -12.405  -12.428  -12.470  -12.523  -12.571  -12.580  -12.524  -12.403  -12.235  -12.085  -11.993  -11.949  -11.940  -11.946  -11.975  -12.054  -12.147  -12.239  -12.305  -12.317  -12.284  -12.205  -12.112  -12.021  -11.956  -11.925  -11.922  -11.928  -11.922  -11.941  -12.016  -12.152  -12.306  -12.415  -12.449  -12.408  -12.329  -12.236  -12.139  -12.075  -12.048  -12.065  -12.103  -12.156  -12.213  -12.274  -12.334  -12.409  -12.468  -12.487  -12.464  -12.434  -12.453  -12.694
 -25.649  -25.343  -25.235  -25.175  -25.130  -25.090  -25.051  -25.018  -24.985  -24.971  -24.969  -24.969  -24.964  -24.940  -24.900  -24.853  -24.815  -24.796  -24.784  -24.750  -24.622  -24.278  -23.574  -22.391  -20.735  -18.770  -16.784  -15.081  -13.823  -13.018  -12.563  -12.328  -12.214  -12.185  -12.237  -12.364  -12.538  -12.697  -12.797  -12.830  -12.805  -12.739  -12.648  -12.551  -12.465  -12.415  -12.406  -12.425  -12.438  -12.431  -12.397  -12.328  -12.226  -12.094  -11.961  -11.866  -11.837  -11.850  -11.876  -11.905  -11.949  -12.034  -12.135  -12.222  -12.267  -12.259  -12.203  -12.132  -12.088  -12.085  -12.117  -12.154  -12.165  -12.125  -12.048  -11.998  -12.029  -12.141  -12.276  -12.365  -12.381  -12.345  -12.270  -12.178  -12.084  -12.016  -11.998  -12.044  -12.158  -12.322  -12.530  -12.766  -13.024  -13.274  -13.476  -13.582  -13.595  -13.572  -13.576  -13.823
 -26.460  -26.130  -26.015  -25.948  -25.892  -25.845  -25.794  -25.741  -25.690  -25.647  -25.627  -25.614  -25.602  -25.582  -25.550  -25.527  -25.519  -25.525  -25.535  -25.509  -25.378  -25.024  -24.308  -23.114  -21.454  -19.479  -17.465  -15.709  -14.376  -13.483  -12.940  -12.638  -12.491  -12.470  -12.581  -12.808  -13.097  -13.368  -13.554  -13.617  -13.545  -13.363  -13.116  -12.849  -12.637  -12.510  -12.469  -12.473  -12.460  -12.387  -12.264  -12.121  -11.975  -11.843  -11.744  -11.707  -11.743  -11.815  -11.880  -11.926  -11.974  -12.052  -12.149  -12.226  -12.259  -12.246  -12.193  -12.146  -12.162  -12.236  -12.344  -12.427  -12.426  -12.340  -12.192  -12.073  -12.052  -12.114  -12.213  -12.277  -12.277  -12.242  -12.187  -12.123  -12.062  -12.025  -12.052  -12.164  -12.394  -12.733  -13.204  -13.774  -14.397  -15.002  -15.495  -15.795  -15.915  -15.927  -15.931  -16.156
 -27.742  -27.400  -27.287  -27.218  -27.166  -27.115  -27.057  -26.990  -26.927  -26.870  -26.832  -26.809  -26.787  -26.762  -26.743  -26.726  -26.735  -26.762  -26.784  -26.766  -26.638  -26.283  -25.570  -24.375  -22.705  -20.706  -18.635  -16.776  -15.295  -14.236  -13.535  -13.105  -12.894  -12.888  -13.090  -13.469  -13.937  -14.382  -14.687  -14.780  -14.629  -14.274  -13.800  -13.314  -12.926  -12.689  -12.595  -12.579  -12.541  -12.420  -12.233  -12.024  -11.859  -11.735  -11.671  -11.677  -11.768  -11.884  -11.979  -12.023  -12.044  -12.085  -12.148  -12.215  -12.257  -12.261  -12.248  -12.242  -12.296  -12.419  -12.554  -12.648  -12.633  -12.509  -12.327  -12.171  -12.104  -12.120  -12.166  -12.183  -12.163  -12.126  -12.097  -12.079  -12.077  -12.096  -12.187  -12.389  -12.770  -13.373  -14.249  -15.357  -16.592  -17.779  -18.732  -19.358  -19.654  -19.737  -19.749  -19.924
 -29.504  -29.157  -29.047  -28.984  -28.936  -28.884  -28.813  -28.740  -28.665  -28.600  -28.552  -28.519  -28.487  -28.458  -28.430  -28.413  -28.421  -28.447  -28.471  -28.462  -28.342  -28.000  -27.296  -26.111  -24.433  -22.398  -20.236  -18.217  -16.528  -15.234  -14.313  -13.714  -13.418  -13.431  -13.759  -14.354  -15.067  -15.731  -16.171  -16.270  -15.988  -15.383  -14.609  -13.849  -13.254  -12.886  -12.731  -12.691  -12.644  -12.497  -12.267  -12.036  -11.866  -11.772  -11.748  -11.789  -11.904  -12.032  -12.123  -12.149  -12.123  -12.111  -12.135  -12.185  -12.252  -12.296  -12.321  -12.352  -12.417  -12.536  -12.660  -12.741  -12.715  -12.593  -12.426  -12.279  -12.190  -12.167  -12.158  -12.118  -12.066  -12.018  -12.019  -12.047  -12.102  -12.183  -12.341  -12.643  -13.203  -14.150  -15.574  -17.430  -19.499  -21.474  -23.049  -24.095  -24.635  -24.813  -24.841  -24.928
 -31.644  -31.303  -31.200  -31.144  -31.090  -31.017  -30.918  -30.810  -30.700  -30.619  -30.564  -30.523  -30.488  -30.451  -30.412  -30.382  -30.379  -30.387  -30.406  -30.396  -30.285  -29.957  -29.267  -28.091  -26.406  -24.320  -22.045  -19.843  -17.914  -16.349  -15.173  -14.384  -13.993  -14.037  -14.525  -15.377  -16.376  -17.272  -17.841  -17.914  -17.446  -16.542  -15.419  -14.347  -13.521  -13.019  -12.797  -12.732  -12.681  -12.533  -12.300  -12.072  -11.931  -11.888  -11.915  -11.983  -12.088  -12.193  -12.255  -12.243  -12.176  -12.118  -12.105  -12.155  -12.235  -12.310  -12.360  -12.397  -12.451  -12.529  -12.617  -12.669  -12.648  -12.563  -12.453  -12.353  -12.277  -12.223  -12.173  -12.098  -12.028  -11.985  -12.002  -12.069  -12.158  -12.270  -12.460  -12.837  -13.582  -14.923  -17.001  -19.730  -22.760  -25.616  -27.883  -29.389  -30.194  -30.501  -30.552  -30.538
 -34.175  -33.835  -33.744  -33.678  -33.587  -33.437  -33.223  -32.991  -32.784  -32.639  -32.553  -32.508  -32.471  -32.429  -32.381  -32.335  -32.312  -32.308  -32.311  -32.291  -32.180  -31.857  -31.175  -30.001  -28.297  -26.153  -23.765  -21.382  -19.213  -17.390  -15.978  -15.009  -14.535  -14.630  -15.293  -16.398  -17.670  -18.774  -19.436  -19.461  -18.799  -17.588  -16.119  -14.723  -13.652  -12.999  -12.704  -12.629  -12.584  -12.459  -12.258  -12.076  -11.999  -12.030  -12.111  -12.194  -12.259  -12.305  -12.317  -12.275  -12.189  -12.112  -12.085  -12.125  -12.206  -12.285  -12.332  -12.348  -12.367  -12.401  -12.445  -12.473  -12.465  -12.432  -12.393  -12.357  -12.323  -12.277  -12.217  -12.145  -12.088  -12.076  -12.124  -12.192  -12.270  -12.360  -12.524  -12.925  -13.834  -15.568  -18.307  -21.913  -25.888  -29.584  -32.496  -34.436  -35.500  -35.943  -36.036  -35.917
 -37.456  -37.131  -37.052  -36.953  -36.724  -36.329  -35.801  -35.238  -34.763  -34.439  -34.262  -34.181  -34.141  -34.100  -34.049  -33.995  -33.960  -33.941  -33.930  -33.899  -33.779  -33.449  -32.761  -31.571  -29.837  -27.632  -25.136  -22.591  -20.220  -18.186  -16.589  -15.495  -14.987  -15.154  -15.987  -17.309  -18.783  -20.034  -20.743  -20.699  -19.869  -18.402  -16.630  -14.940  -13.636  -12.832  -12.470  -12.392  -12.385  -12.308  -12.168  -12.056  -12.057  -12.160  -12.279  -12.347  -12.361  -12.346  -12.309  -12.263  -12.194  -12.123  -12.089  -12.111  -12.171  -12.229  -12.257  -12.248  -12.231  -12.229  -12.241  -12.258  -12.262  -12.271  -12.292  -12.317  -12.334  -12.319  -12.282  -12.241  -12.231  -12.269  -12.344  -12.407  -12.437  -12.448  -12.532  -12.924  -13.957  -16.026  -19.353  -23.714  -28.474  -32.864  -36.306  -38.606  -39.884  -40.442  -40.575  -40.363
 -42.388  -42.118  -42.062  -41.839  -41.263  -40.293  -39.041  -37.752  -36.676  -35.959  -35.572  -35.405  -35.338  -35.293  -35.248  -35.200  -35.164  -35.142  -35.125  -35.084  -34.946  -34.599  -33.887  -32.669  -30.890  -28.613  -26.021  -23.342  -20.827  -18.651  -16.961  -15.829  -15.365  -15.642  -16.617  -18.082  -19.664  -20.963  -21.654  -21.535  -20.573  -18.926  -16.936  -15.030  -13.538  -12.615  -12.219  -12.160  -12.213  -12.202  -12.124  -12.074  -12.123  -12.250  -12.362  -12.398  -12.364  -12.313  -12.278  -12.254  -12.212  -12.155  -12.110  -12.105  -12.145  -12.186  -12.202  -12.180  -12.144  -12.121  -12.122  -12.142  -12.165  -12.200  -12.246  -12.300  -12.330  -12.331  -12.319  -12.331  -12.394  -12.492  -12.591  -12.631  -12.590  -12.510  -12.517  -12.881  -14.002  -16.337  -20.103  -25.023  -30.351  -35.230  -39.046  -41.596  -43.021  -43.653  -43.807  -43.533
 -50.251  -50.110  -50.025  -49.472  -48.165  -46.080  -43.489  -40.877  -38.729  -37.295  -36.518  -36.188  -36.071  -36.019  -35.981  -35.948  -35.920  -35.905  -35.887  -35.841  -35.689  -35.318  -34.569  -33.306  -31.463  -29.110  -26.423  -23.642  -21.035  -18.810  -17.127  -16.084  -15.764  -16.183  -17.275  -18.792  -20.366  -21.605  -22.208  -21.990  -20.925  -19.172  -17.073  -15.040  -13.441  -12.459  -12.063  -12.054  -12.169  -12.220  -12.184  -12.148  -12.191  -12.285  -12.351  -12.346  -12.302  -12.257  -12.246  -12.244  -12.220  -12.168  -12.115  -12.101  -12.138  -12.195  -12.225  -12.203  -12.152  -12.126  -12.138  -12.180  -12.227  -12.262  -12.295  -12.311  -12.299  -12.284  -12.296  -12.375  -12.513  -12.672  -12.781  -12.792  -12.693  -12.550  -12.510  -12.861  -14.052  -16.560  -20.601  -25.854  -31.517  -36.681  -40.710  -43.393  -44.888  -45.546  -45.697  -45.388
 -61.873  -61.919  -61.613  -60.365  -57.820  -54.003  -49.404  -44.825  -41.079  -38.581  -37.234  -36.658  -36.461  -36.398  -36.370  -36.350  -36.336  -36.329  -36.316  -36.267  -36.103  -35.706  -34.914  -33.588  -31.669  -29.227  -26.446  -23.591  -20.946  -18.762  -17.213  -16.379  -16.291  -16.903  -18.077  -19.556  -21.011  -22.094  -22.544  -22.203  -21.053  -19.251  -17.113  -15.055  -13.428  -12.435  -12.059  -12.082  -12.241  -12.320  -12.290  -12.237  -12.242  -12.286  -12.303  -12.279  -12.240  -12.206  -12.202  -12.201  -12.174  -12.112  -12.058  -12.069  -12.142  -12.244  -12.302  -12.291  -12.236  -12.211  -12.244  -12.313  -12.376  -12.399  -12.382  -12.313  -12.221  -12.166  -12.199  -12.336  -12.545  -12.745  -12.860  -12.849  -12.723  -12.561  -12.520  -12.896  -14.135  -16.728  -20.889  -26.273  -32.055  -37.314  -41.409  -44.123  -45.618  -46.258  -46.389  -46.068
 -76.568  -76.759  -75.906  -73.525  -69.285  -63.311  -56.279  -49.332  -43.652  -39.868  -37.838  -36.968  -36.674  -36.593  -36.569  -36.555  -36.545  -36.536  -36.525  -36.475  -36.307  -35.890  -35.059  -33.665  -31.653  -29.108  -26.244  -23.349  -20.737  -18.683  -17.365  -16.830  -17.032  -17.835  -19.048  -20.420  -21.682  -22.553  -22.822  -22.357  -21.145  -19.331  -17.213  -15.173  -13.555  -12.556  -12.163  -12.169  -12.304  -12.377  -12.349  -12.288  -12.274  -12.298  -12.308  -12.286  -12.242  -12.196  -12.155  -12.115  -12.055  -11.978  -11.933  -11.977  -12.105  -12.259  -12.354  -12.355  -12.303  -12.276  -12.312  -12.394  -12.467  -12.481  -12.420  -12.281  -12.121  -12.027  -12.061  -12.230  -12.468  -12.673  -12.780  -12.767  -12.648  -12.520  -12.523  -12.944  -14.214  -16.820  -20.949  -26.277  -32.002  -37.198  -41.232  -43.891  -45.339  -45.941  -46.050  -45.729
 -92.070  -92.261  -90.556  -86.709  -80.534  -72.297  -62.850  -53.594  -46.042  -41.029  -38.353  -37.213  -36.828  -36.727  -36.699  -36.679  -36.654  -36.630  -36.605  -36.556  -36.399  -35.981  -35.120  -33.664  -31.561  -28.919  -25.989  -23.104  -20.600  -18.752  -17.720  -17.512  -17.986  -18.925  -20.104  -21.317  -22.351  -23.007  -23.116  -22.564  -21.337  -19.548  -17.470  -15.458  -13.837  -12.800  -12.329  -12.234  -12.290  -12.323  -12.298  -12.280  -12.309  -12.373  -12.417  -12.402  -12.318  -12.207  -12.102  -12.012  -11.922  -11.832  -11.790  -11.847  -12.006  -12.195  -12.318  -12.321  -12.262  -12.218  -12.239  -12.320  -12.410  -12.449  -12.395  -12.244  -12.060  -11.932  -11.939  -12.080  -12.285  -12.462  -12.552  -12.541  -12.469  -12.402  -12.478  -12.950  -14.223  -16.746  -20.716  -25.832  -31.323  -36.311  -40.176  -42.712  -44.078  -44.635  -44.729  -44.435
-106.092 -106.035 -103.279  -97.737  -89.511  -79.132  -67.628  -56.573  -47.666  -41.815  -38.717  -37.407  -36.969  -36.856  -36.825  -36.786  -36.736  -36.686  -36.653  -36.616  -36.490  -36.096  -35.223  -33.706  -31.514  -28.787  -25.830  -23.013  -20.682  -19.101  -18.370  -18.442  -19.097  -20.074  -21.145  -22.143  -22.931  -23.382  -23.365  -22.773  -21.575  -19.847  -17.828  -15.845  -14.217  -13.110  -12.508  -12.258  -12.182  -12.164  -12.172  -12.234  -12.362  -12.501  -12.576  -12.527  -12.380  -12.209  -12.061  -11.958  -11.867  -11.772  -11.722  -11.766  -11.908  -12.086  -12.196  -12.190  -12.110  -12.041  -12.044  -12.130  -12.260  -12.366  -12.384  -12.280  -12.104  -11.953  -11.896  -11.952  -12.067  -12.180  -12.238  -12.241  -12.217  -12.227  -12.375  -12.881  -14.098  -16.440  -20.105  -24.838  -29.930  -34.564  -38.151  -40.501  -41.761  -42.269  -42.353  -42.107
-117.500 -116.775 -112.619 -105.103  -94.789  -82.522  -69.507  -57.451  -48.034  -41.990  -38.838  -37.521  -37.093  -36.997  -36.979  -36.948  -36.895  -36.848  -36.839  -36.854  -36.795  -36.442  -35.550  -33.947  -31.634  -28.822  -25.865  -23.172  -21.072  -19.773  -19.313  -19.579  -20.305  -21.227  -22.123  -22.868  -23.392  -23.617  -23.464  -22.835  -21.677  -20.031  -18.090  -16.154  -14.522  -13.355  -12.632  -12.243  -12.057  -12.003  -12.056  -12.210  -12.429  -12.613  -12.673  -12.571  -12.374  -12.194  -12.096  -12.061  -12.014  -11.923  -11.844  -11.838  -11.919  -12.038  -12.101  -12.061  -11.953  -11.868  -11.869  -11.979  -12.173  -12.372  -12.479  -12.432  -12.266  -12.076  -11.949  -11.911  -11.932  -11.970  -11.982  -11.989  -11.996  -12.057  -12.241  -12.723  -13.809  -15.859  -19.069  -23.231  -27.744  -31.863  -35.060  -37.156  -38.273  -38.720  -38.800  -38.626
-125.322 -123.422 -117.412 -107.842  -95.690  -81.952  -68.095  -55.980  -47.012  -41.473  -38.655  -37.510  -37.187  -37.192  -37.288  -37.372  -37.427  -37.489  -37.606  -37.764  -37.815  -37.488  -36.494  -34.674  -32.116  -29.126  -26.135  -23.572  -21.725  -20.703  -20.465  -20.834  -21.551  -22.359  -23.059  -23.554  -23.797  -23.763  -23.421  -22.700  -21.547  -19.964  -18.108  -16.243  -14.636  -13.445  -12.674  -12.216  -11.986  -11.939  -12.051  -12.277  -12.527  -12.692  -12.683  -12.515  -12.322  -12.232  -12.287  -12.389  -12.427  -12.361  -12.253  -12.180  -12.178  -12.209  -12.195  -12.104  -11.977  -11.894  -11.916  -12.052  -12.278  -12.527  -12.673  -12.644  -12.473  -12.253  -12.084  -11.992  -11.956  -11.940  -11.921  -11.902  -11.902  -11.958  -12.110  -12.510  -13.388  -15.050  -17.661  -21.079  -24.808  -28.245  -30.925  -32.684  -33.615  -33.971  -34.033  -33.957
-127.723 -124.610 -116.917 -105.819  -92.357  -77.693  -63.795  -52.588  -44.895  -40.396  -38.201  -37.393  -37.331  -37.643  -38.109  -38.599  -39.062  -39.513  -39.987  -40.419  -40.596  -40.157  -38.789  -36.412  -33.265  -29.840  -26.674  -24.169  -22.526  -21.736  -21.660  -22.073  -22.732  -23.416  -23.952  -24.235  -24.230  -23.935  -23.366  -22.500  -21.299  -19.758  -17.978  -16.190  -14.631  -13.460  -12.697  -12.269  -12.087  -12.110  -12.279  -12.525  -12.737  -12.811  -12.702  -12.496  -12.363  -12.442  -12.704  -12.987  -13.130  -13.096  -12.963  -12.829  -12.744  -12.685  -12.597  -12.470  -12.348  -12.282  -12.313  -12.428  -12.605  -12.790  -12.884  -12.830  -12.654  -12.449  -12.290  -12.207  -12.165  -12.130  -12.088  -12.036  -12.007  -12.005  -12.085  -12.349  -12.964  -14.167  -16.082  -18.611  -21.392  -23.979  -26.009  -27.328  -28.003  -28.233  -28.249  -28.280
-123.547 -119.879 -111.507  -99.720  -85.538  -70.702  -57.728  -48.234  -42.269  -39.008  -37.554  -37.246  -37.722  -38.770  -40.169  -41.701  -43.192  -44.566  -45.758  -46.606  -46.774  -45.833  -43.507  -39.892  -35.521  -31.169  -27.509  -24.898  -23.356  -22.720  -22.734  -23.135  -23.713  -24.277  -24.684  -24.828  -24.659  -24.181  -23.429  -22.436  -21.186  -19.671  -17.966  -16.253  -14.747  -13.619  -12.919  -12.587  -12.523  -12.644  -12.855  -13.061  -13.174  -13.125  -12.927  -12.711  -12.679  -12.943  -13.411  -13.857  -14.095  -14.096  -13.952  -13.786  -13.640  -13.520  -13.395  -13.274  -13.171  -13.115  -13.100  -13.112  -13.145  -13.179  -13.168  -13.086  -12.940  -12.797  -12.699  -12.659  -12.639  -12.608  -12.561  -12.482  -12.409  -12.351  -12.340  -12.460  -12.819  -13.545  -14.720  -16.277  -18.007  -19.609  -20.853  -21.633  -21.982  -22.033  -21.974  -22.086
-114.230 -110.587 -102.353  -90.501  -76.404  -62.519  -51.396  -43.979  -39.691  -37.520  -36.761  -37.138  -38.619  -41.159  -44.463  -48.067  -51.520  -54.509  -56.787  -58.032  -57.811  -55.694  -51.539  -45.739  -39.251  -33.267  -28.663  -25.690  -24.119  -23.542  -23.571  -23.915  -24.373  -24.806  -25.104  -25.174  -24.953  -24.435  -23.652  -22.639  -21.395  -19.931  -18.310  -16.685  -15.258  -14.212  -13.608  -13.402  -13.468  -13.662  -13.867  -13.980  -13.963  -13.795  -13.535  -13.346  -13.416  -13.823  -14.433  -14.985  -15.296  -15.346  -15.232  -15.072  -14.922  -14.796  -14.683  -14.600  -14.526  -14.451  -14.353  -14.216  -14.075  -13.963  -13.871  -13.796  -13.721  -13.657  -13.622  -13.611  -13.611  -13.590  -13.542  -13.457  -13.347  -13.243  -13.178  -13.193  -13.325  -13.620  -14.087  -14.687  -15.329  -15.882  -16.256  -16.405  -16.345  -16.152  -15.974  -16.132
-102.377  -98.705  -90.855  -79.626  -66.817  -55.010  -46.166  -40.586  -37.474  -35.987  -35.791  -37.076  -40.216  -45.269  -51.678  -58.456  -64.659  -69.650  -73.014  -74.355  -73.240  -69.320  -62.612  -53.810  -44.367  -36.044  -30.029  -26.458  -24.737  -24.148  -24.144  -24.389  -24.702  -24.977  -25.160  -25.195  -25.027  -24.631  -23.990  -23.100  -21.965  -20.603  -19.097  -17.601  -16.311  -15.397  -14.920  -14.829  -14.979  -15.184  -15.319  -15.314  -15.167  -14.913  -14.643  -14.498  -14.645  -15.123  -15.802  -16.419  -16.804  -16.933  -16.900  -16.804  -16.710  -16.629  -16.576  -16.551  -16.518  -16.422  -16.243  -16.006  -15.774  -15.592  -15.499  -15.463  -15.452  -15.443  -15.430  -15.416  -15.413  -15.401  -15.358  -15.269  -15.140  -15.021  -14.941  -14.900  -14.871  -14.799  -14.641  -14.371  -13.989  -13.521  -13.004  -12.457  -11.904  -11.404  -11.054  -11.203
 -90.225  -86.541  -79.577  -69.988  -59.471  -50.065  -43.042  -38.469  -35.733  -34.381  -34.559  -36.993  -42.486  -51.040  -61.429  -71.819  -80.724  -87.345  -91.310  -92.341  -90.082  -84.223  -74.851  -62.832  -50.064  -39.015  -31.339  -27.058  -25.150  -24.536  -24.490  -24.636  -24.797  -24.912  -24.982  -24.999  -24.934  -24.736  -24.342  -23.680  -22.736  -21.547  -20.220  -18.920  -17.836  -17.093  -16.747  -16.738  -16.899  -17.055  -17.085  -16.966  -16.731  -16.442  -16.197  -16.111  -16.308  -16.836  -17.562  -18.255  -18.749  -19.009  -19.112  -19.133  -19.131  -19.137  -19.165  -19.202  -19.201  -19.112  -18.932  -18.695  -18.484  -18.341  -18.297  -18.315  -18.336  -18.331  -18.303  -18.271  -18.258  -18.262  -18.231  -18.137  -17.999  -17.873  -17.797  -17.727  -17.577  -17.220  -16.559  -15.571  -14.334  -12.973  -11.607  -10.347   -9.248   -8.386   -7.825   -7.921
 -81.837  -78.636  -73.164  -65.648  -57.212  -49.246  -42.726  -37.901  -34.579  -32.747  -33.050  -36.787  -45.110  -57.625  -71.984  -85.417  -96.233 -103.814 -107.993 -108.573 -105.158  -97.476  -85.757  -70.917  -55.083  -41.437  -32.210  -27.330  -25.322  -24.730  -24.678  -24.755  -24.800  -24.789  -24.761  -24.755  -24.770  -24.749  -24.584  -24.168  -23.458  -22.503  -21.419  -20.371  -19.517  -18.959  -18.716  -18.727  -18.844  -18.924  -18.869  -18.682  -18.423  -18.157  -17.974  -17.965  -18.241  -18.846  -19.671  -20.508  -21.182  -21.634  -21.906  -22.065  -22.168  -22.251  -22.334  -22.415  -22.454  -22.404  -22.282  -22.136  -22.026  -21.986  -22.006  -22.056  -22.086  -22.064  -22.011  -21.979  -21.991  -22.034  -22.021  -21.929  -21.777  -21.642  -21.554  -21.457  -21.208  -20.641  -19.625  -18.141  -16.288  -14.239  -12.186  -10.281   -8.654   -7.406   -6.625   -6.640
 -81.750  -79.401  -75.158  -68.877  -61.133  -52.939  -45.332  -38.975  -34.159  -31.282  -31.422  -36.375  -47.486  -63.598  -81.042  -96.518 -108.693 -117.188 -121.702 -121.768 -116.889 -107.199  -93.440  -76.442  -58.249  -42.633  -32.353  -27.204  -25.261  -24.778  -24.771  -24.823  -24.810  -24.729  -24.636  -24.600  -24.634  -24.688  -24.650  -24.412  -23.919  -23.215  -22.403  -21.619  -20.980  -20.568  -20.381  -20.371  -20.421  -20.432  -20.331  -20.138  -19.909  -19.719  -19.630  -19.740  -20.155  -20.919  -21.934  -23.009  -23.933  -24.606  -25.051  -25.324  -25.496  -25.620  -25.726  -25.813  -25.864  -25.864  -25.822  -25.782  -25.785  -25.841  -25.921  -25.999  -26.036  -26.019  -25.984  -25.990  -26.067  -26.164  -26.184  -26.095  -25.933  -25.782  -25.675  -25.545  -25.224  -24.528  -23.322  -21.588  -19.419  -16.985  -14.487  -12.136  -10.103   -8.556   -7.595   -7.533
 -88.882  -87.320  -83.509  -77.311  -69.018  -59.463  -49.832  -41.233  -34.431  -30.191  -29.906  -35.700  -48.880  -67.451  -86.733 -103.436 -116.828 -126.428 -131.296 -130.522 -123.811 -112.143  -96.836  -78.447  -58.854  -42.268  -31.714  -26.730  -25.055  -24.757  -24.827  -24.891  -24.859  -24.758  -24.639  -24.575  -24.576  -24.612  -24.593  -24.435  -24.100  -23.609  -23.038  -22.483  -22.022  -21.702  -21.532  -21.478  -21.462  -21.422  -21.313  -21.156  -20.995  -20.896  -20.923  -21.177  -21.782  -22.779  -24.064  -25.421  -26.615  -27.508  -28.094  -28.443  -28.642  -28.764  -28.854  -28.921  -28.965  -28.982  -28.995  -29.031  -29.104  -29.218  -29.339  -29.440  -29.502  -29.523  -29.544  -29.619  -29.766  -29.919  -29.982  -29.913  -29.758  -29.609  -29.493  -29.342  -28.987  -28.261  -27.041  -25.305  -23.121  -20.646  -18.059  -15.562  -13.363  -11.676  -10.621  -10.487
 -97.841  -96.739  -92.806  -86.076  -76.817  -65.782  -54.222  -43.567  -34.985  -29.518  -28.693  -34.676  -48.615  -68.068  -87.940 -105.037 -118.871 -128.771 -133.389 -131.733 -123.905 -111.397  -95.499  -76.557  -56.697  -40.392  -30.457  -26.074  -24.809  -24.720  -24.871  -24.959  -24.936  -24.837  -24.725  -24.647  -24.608  -24.584  -24.528  -24.386  -24.138  -23.800  -23.410  -23.026  -22.691  -22.439  -22.275  -22.180  -22.117  -22.044  -21.941  -21.827  -21.732  -21.711  -21.847  -22.249  -23.044  -24.277  -25.829  -27.459  -28.894  -29.965  -30.656  -31.041  -31.237  -31.333  -31.389  -31.423  -31.446  -31.462  -31.491  -31.546  -31.637  -31.760  -31.888  -32.004  -32.095  -32.160  -32.238  -32.369  -32.564  -32.754  -32.846  -32.808  -32.686  -32.563  -32.467  -32.322  -31.993  -31.340  -30.267  -28.752  -26.855  -24.678  -22.364  -20.068  -17.999  -16.369  -15.331  -15.143
-104.488 -103.436  -99.073  -91.613  -81.461  -69.375  -56.621  -44.784  -35.238  -29.104  -27.798  -33.231  -46.358  -64.945  -84.199 -100.718 -113.650 -122.469 -126.234 -124.300 -116.880 -105.014  -89.446  -70.845  -52.034  -37.328  -28.839  -25.379  -24.583  -24.686  -24.903  -25.004  -24.990  -24.912  -24.821  -24.740  -24.676  -24.613  -24.525  -24.386  -24.189  -23.952  -23.692  -23.430  -23.195  -22.998  -22.850  -22.740  -22.649  -22.562  -22.472  -22.384  -22.331  -22.369  -22.578  -23.093  -24.032  -25.440  -27.187  -29.006  -30.608  -31.803  -32.563  -32.967  -33.149  -33.221  -33.246  -33.254  -33.256  -33.257  -33.274  -33.310  -33.377  -33.473  -33.582  -33.690  -33.787  -33.874  -33.976  -34.121  -34.314  -34.493  -34.590  -34.579  -34.500  -34.423  -34.364  -34.263  -34.018  -33.525  -32.731  -31.637  -30.293  -28.744  -27.044  -25.268  -23.565  -22.144  -21.191  -20.952
-106.492 -105.237 -100.441  -92.449  -81.776  -69.246  -56.210  -44.289  -34.803  -28.710  -27.091  -31.363  -42.303  -58.352  -75.689  -90.877 -102.404 -109.801 -112.754 -111.013 -104.584  -93.768  -79.058  -61.890  -45.541  -33.551  -27.068  -24.697  -24.353  -24.609  -24.855  -24.959  -24.951  -24.896  -24.827  -24.759  -24.697  -24.631  -24.545  -24.427  -24.280  -24.121  -23.962  -23.801  -23.652  -23.523  -23.410  -23.309  -23.221  -23.135  -23.052  -22.984  -22.954  -23.015  -23.262  -23.830  -24.838  -26.327  -28.163  -30.076  -31.767  -33.033  -33.835  -34.259  -34.442  -34.503  -34.511  -34.504  -34.491  -34.480  -34.477  -34.483  -34.512  -34.565  -34.636  -34.719  -34.796  -34.870  -34.955  -35.062  -35.202  -35.327  -35.397  -35.390  -35.348  -35.309  -35.288  -35.252  -35.133  -34.883  -34.505  -34.041  -33.527  -32.940  -32.177  -31.174  -29.989  -28.841  -27.983  -27.691
-103.676 -102.162  -97.137  -88.979  -78.247  -65.911  -53.438  -42.349  -33.699  -28.139  -26.329  -29.139  -37.108  -49.384  -63.453  -76.467  -86.581  -93.024  -95.540  -93.977  -88.228  -78.429  -65.355  -50.968  -38.251  -29.573  -25.256  -23.941  -23.989  -24.346  -24.601  -24.702  -24.707  -24.674  -24.632  -24.593  -24.552  -24.514  -24.463  -24.392  -24.309  -24.229  -24.156  -24.090  -24.025  -23.963  -23.898  -23.840  -23.774  -23.705  -23.643  -23.586  -23.570  -23.637  -23.886  -24.448  -25.456  -26.935  -28.768  -30.693  -32.412  -33.719  -34.565  -35.025  -35.234  -35.306  -35.317  -35.307  -35.289  -35.269  -35.247  -35.232  -35.225  -35.242  -35.278  -35.328  -35.378  -35.422  -35.464  -35.514  -35.574  -35.624  -35.644  -35.623  -35.592  -35.577  -35.587  -35.621  -35.666  -35.750  -35.958  -36.393  -37.077  -37.844  -38.368  -38.367  -37.805  -36.944  -36.150  -35.753
 -97.750  -95.974  -90.898  -82.875  -72.530  -60.965  -49.626  -39.788  -32.203  -27.243  -25.225  -26.570  -31.546  -39.710  -49.629  -59.402  -67.432  -72.768  -74.910  -73.588  -68.723  -60.646  -50.403  -39.874  -31.222  -25.769  -23.381  -22.941  -23.275  -23.686  -23.944  -24.048  -24.071  -24.067  -24.065  -24.072  -24.092  -24.113  -24.124  -24.126  -24.124  -24.130  -24.142  -24.160  -24.174  -24.176  -24.175  -24.168  -24.153  -24.130  -24.102  -24.066  -24.049  -24.107  -24.327  -24.840  -25.778  -27.177  -28.946  -30.831  -32.553  -33.904  -34.815  -35.346  -35.616  -35.733  -35.765  -35.761  -35.742  -35.719  -35.690  -35.663  -35.640  -35.638  -35.649  -35.675  -35.700  -35.721  -35.730  -35.731  -35.731  -35.714  -35.688  -35.645  -35.610  -35.601  -35.642  -35.757  -36.013  -36.549  -37.571  -39.252  -41.560  -44.109  -46.263  -47.490  -47.682  -47.169  -46.447  -45.857
 -90.598  -88.648  -83.742  -76.196  -66.670  -56.237  -46.153  -37.430  -30.620  -25.974  -23.620  -23.697  -26.224  -30.877  -36.844  -42.996  -48.284  -51.944  -53.463  -52.525  -49.077  -43.501  -36.738  -30.173  -25.138  -22.277  -21.327  -21.485  -21.986  -22.418  -22.672  -22.789  -22.841  -22.878  -22.927  -23.000  -23.106  -23.227  -23.342  -23.452  -23.558  -23.670  -23.782  -23.882  -23.961  -24.029  -24.093  -24.164  -24.226  -24.276  -24.301  -24.295  -24.278  -24.304  -24.456  -24.877  -25.685  -26.954  -28.611  -30.435  -32.159  -33.572  -34.588  -35.240  -35.613  -35.805  -35.878  -35.893  -35.878  -35.854  -35.827  -35.806  -35.785  -35.780  -35.790  -35.805  -35.826  -35.844  -35.852  -35.840  -35.812  -35.769  -35.722  -35.679  -35.648  -35.649  -35.718  -35.931  -36.456  -37.559  -39.589  -42.785  -47.006  -51.567  -55.508  -58.103  -59.216  -59.238  -58.712  -57.862
 -83.736  -81.799  -77.303  -70.522  -62.051  -52.787  -43.731  -35.705  -29.214  -24.506  -21.683  -20.746  -21.562  -23.777  -26.845  -30.082  -32.885  -34.823  -35.577  -34.951  -32.911  -29.732  -26.016  -22.591  -20.172  -19.047  -18.977  -19.450  -20.013  -20.432  -20.685  -20.820  -20.903  -20.978  -21.078  -21.228  -21.443  -21.700  -21.966  -22.224  -22.478  -22.724  -22.948  -23.134  -23.287  -23.414  -23.557  -23.717  -23.884  -24.033  -24.131  -24.160  -24.137  -24.107  -24.164  -24.439  -25.082  -26.175  -27.684  -29.425  -31.152  -32.652  -33.811  -34.620  -35.138  -35.429  -35.564  -35.605  -35.603  -35.585  -35.571  -35.569  -35.575  -35.594  -35.625  -35.669  -35.724  -35.780  -35.825  -35.849  -35.847  -35.827  -35.800  -35.779  -35.772  -35.794  -35.898  -36.219  -37.017  -38.691  -41.721  -46.384  -52.387  -58.759  -64.303  -68.215  -70.368  -71.152  -71.036  -69.972
 -77.985  -76.203  -72.221  -66.275  -58.841  -50.604  -42.332  -34.713  -28.259  -23.296  -19.974  -18.267  -17.974  -18.727  -20.048  -21.459  -22.608  -23.293  -23.405  -22.893  -21.780  -20.222  -18.516  -17.069  -16.201  -16.025  -16.369  -16.934  -17.471  -17.867  -18.128  -18.291  -18.388  -18.461  -18.570  -18.777  -19.100  -19.502  -19.942  -20.380  -20.812  -21.215  -21.567  -21.847  -22.062  -22.253  -22.469  -22.726  -23.005  -23.260  -23.440  -23.512  -23.481  -23.383  -23.321  -23.430  -23.878  -24.770  -26.106  -27.740  -29.451  -31.028  -32.327  -33.302  -33.968  -34.369  -34.569  -34.643  -34.659  -34.662  -34.683  -34.725  -34.791  -34.873  -34.981  -35.111  -35.263  -35.424  -35.571  -35.692  -35.777  -35.827  -35.860  -35.884  -35.913  -35.963  -36.103  -36.503  -37.484  -39.546  -43.240  -48.875  -56.054  -63.643  -70.352  -75.376  -78.582  -80.282  -80.766  -79.668
 -73.311  -71.708  -68.202  -62.999  -56.475  -49.148  -41.600  -34.398  -28.038  -22.903  -19.203  -16.950  -15.950  -15.828  -16.153  -16.543  -16.759  -16.708  -16.385  -15.843  -15.151  -14.387  -13.691  -13.203  -13.055  -13.265  -13.709  -14.234  -14.724  -15.127  -15.427  -15.620  -15.690  -15.692  -15.734  -15.918  -16.291  -16.808  -17.401  -18.005  -18.602  -19.155  -19.622  -19.982  -20.248  -20.474  -20.739  -21.066  -21.433  -21.779  -22.042  -22.162  -22.136  -21.979  -21.804  -21.750  -22.004  -22.693  -23.842  -25.337  -26.985  -28.581  -29.962  -31.052  -31.818  -32.296  -32.548  -32.658  -32.700  -32.745  -32.828  -32.953  -33.119  -33.325  -33.584  -33.882  -34.226  -34.585  -34.937  -35.243  -35.489  -35.667  -35.794  -35.883  -35.953  -36.025  -36.177  -36.589  -37.588  -39.686  -43.463  -49.263  -56.725  -64.744  -72.055  -77.871  -82.028  -84.700  -85.930  -85.077
 -69.302  -67.829  -64.698  -60.108  -54.389  -47.948  -41.224  -34.670  -28.703  -23.692  -19.871  -17.303  -15.814  -15.094  -14.769  -14.532  -14.194  -13.703  -13.083  -12.399  -11.734  -11.168  -10.769  -10.579  -10.626  -10.882  -11.281  -11.753  -12.248  -12.726  -13.120  -13.347  -13.354  -13.201  -13.064  -13.116  -13.432  -13.970  -14.633  -15.332  -16.023  -16.656  -17.189  -17.582  -17.857  -18.083  -18.348  -18.689  -19.086  -19.483  -19.801  -19.972  -19.964  -19.779  -19.524  -19.347  -19.443  -19.952  -20.905  -22.226  -23.739  -25.251  -26.599  -27.686  -28.469  -28.960  -29.226  -29.357  -29.445  -29.556  -29.724  -29.966  -30.284  -30.683  -31.167  -31.739  -32.384  -33.063  -33.731  -34.331  -34.818  -35.188  -35.443  -35.613  -35.722  -35.811  -35.948  -36.290  -37.122  -38.901  -42.162  -47.286  -54.089  -61.681  -68.937  -75.099  -79.948  -83.492  -85.513  -85.153
 -65.694  -64.293  -61.444  -57.361  -52.367  -46.816  -41.040  -35.363  -30.104  -25.550  -21.908  -19.235  -17.419  -16.230  -15.389  -14.670  -13.929  -13.097  -12.198  -11.268  -10.395   -9.664   -9.153   -8.880   -8.849   -9.011   -9.323   -9.774  -10.347  -10.972  -11.523  -11.820  -11.752  -11.408  -11.023  -10.847  -11.005  -11.443  -12.055  -12.724  -13.388  -14.000  -14.497  -14.841  -15.065  -15.244  -15.456  -15.741  -16.100  -16.482  -16.809  -17.011  -17.017  -16.832  -16.542  -16.295  -16.277  -16.634  -17.396  -18.498  -19.790  -21.104  -22.292  -23.257  -23.945  -24.374  -24.617  -24.762  -24.895  -25.080  -25.357  -25.741  -26.240  -26.874  -27.649  -28.572  -29.605  -30.705  -31.791  -32.769  -33.569  -34.169  -34.581  -34.832  -34.983  -35.074  -35.168  -35.386  -35.948  -37.194  -39.564  -43.440  -48.828  -55.189  -61.678  -67.635  -72.780  -76.930  -79.621  -79.875
 -62.455  -61.098  -58.461  -54.789  -50.436  -45.723  -40.904  -36.195  -31.794  -27.893  -24.624  -22.028  -20.031  -18.485  -17.216  -16.079  -14.968  -13.825  -12.631  -11.409  -10.228   -9.199   -8.416   -7.916   -7.698   -7.725   -7.961   -8.418   -9.084   -9.880  -10.596  -10.988  -10.907  -10.430   -9.844   -9.449   -9.400   -9.664  -10.118  -10.640  -11.150  -11.598  -11.945  -12.162  -12.284  -12.368  -12.482  -12.664  -12.920  -13.216  -13.486  -13.662  -13.663  -13.479  -13.180  -12.903  -12.809  -13.030  -13.594  -14.441  -15.445  -16.479  -17.412  -18.159  -18.682  -18.999  -19.192  -19.335  -19.507  -19.761  -20.135  -20.647  -21.326  -22.192  -23.257  -24.529  -25.967  -27.502  -29.027  -30.405  -31.535  -32.365  -32.916  -33.241  -33.416  -33.492  -33.530  -33.615  -33.894  -34.597  -36.034  -38.517  -42.173  -46.780  -51.859  -56.979  -61.868  -66.189  -69.278  -70.141
 -59.527  -58.215  -55.742  -52.404  -48.579  -44.580  -40.605  -36.780  -33.204  -29.965  -27.129  -24.701  -22.633  -20.846  -19.234  -17.729  -16.280  -14.849  -13.403  -11.941  -10.526   -9.257   -8.247   -7.569   -7.206   -7.112   -7.273   -7.708   -8.411   -9.292  -10.116  -10.600  -10.577  -10.115   -9.488   -8.990   -8.793   -8.878   -9.131   -9.440   -9.724   -9.939  -10.062  -10.098  -10.082  -10.061  -10.061  -10.119  -10.229  -10.387  -10.542  -10.636  -10.596  -10.403  -10.103   -9.797   -9.627   -9.701  -10.049  -10.627  -11.342  -12.081  -12.738  -13.245  -13.580  -13.777  -13.898  -14.024  -14.206  -14.493  -14.916  -15.503  -16.293  -17.316  -18.579  -20.082  -21.795  -23.647  -25.499  -27.178  -28.545  -29.532  -30.169  -30.532  -30.704  -30.750  -30.720  -30.680  -30.734  -31.013  -31.718  -33.052  -35.153  -37.985  -41.378  -45.153  -49.162  -53.043  -56.060  -57.334
 -56.589  -55.329  -53.006  -49.949  -46.559  -43.138  -39.842  -36.727  -33.821  -31.143  -28.695  -26.456  -24.392  -22.447  -20.586  -18.787  -17.062  -15.411  -13.823  -12.288  -10.835   -9.558   -8.551   -7.859   -7.466   -7.332   -7.447   -7.820   -8.456   -9.273  -10.055  -10.559  -10.628  -10.288   -9.770   -9.324   -9.091   -9.071   -9.175   -9.296   -9.370   -9.365   -9.269   -9.132   -8.981   -8.864   -8.775   -8.714   -8.693   -8.699   -8.715   -8.706   -8.611   -8.398   -8.085   -7.746   -7.483   -7.392   -7.536   -7.889   -8.370   -8.889   -9.340   -9.659   -9.841   -9.925   -9.969  -10.039  -10.181  -10.427  -10.814  -11.380  -12.168  -13.193  -14.459  -15.963  -17.688  -19.569  -21.467  -23.196  -24.591  -25.577  -26.195  -26.541  -26.687  -26.688  -26.589  -26.446  -26.344  -26.366  -26.619  -27.198  -28.197  -29.654  -31.559  -33.917  -36.706  -39.647  -42.107  -43.457
 -53.108  -51.896  -49.747  -46.976  -43.984  -41.044  -38.283  -35.717  -33.323  -31.079  -28.953  -26.907  -24.906  -22.914  -20.923  -18.979  -17.124  -15.418  -13.884  -12.514  -11.313  -10.324   -9.582   -9.112   -8.888   -8.864   -9.019   -9.346   -9.843  -10.447  -11.023  -11.393  -11.444  -11.194  -10.801  -10.448  -10.236  -10.185  -10.205  -10.217  -10.156   -9.999   -9.752   -9.466   -9.213   -9.003   -8.831   -8.675   -8.536   -8.422   -8.339   -8.263   -8.141   -7.934   -7.636   -7.276   -6.930   -6.711   -6.701   -6.926   -7.311   -7.746   -8.103   -8.324   -8.411   -8.402   -8.364   -8.346   -8.378   -8.501   -8.759   -9.211   -9.874  -10.742  -11.784  -13.003  -14.397  -15.923  -17.470  -18.858  -19.953  -20.709  -21.174  -21.428  -21.517  -21.477  -21.328  -21.128  -20.950  -20.850  -20.884  -21.073  -21.448  -22.052  -22.956  -24.254  -25.977  -27.942  -29.682  -30.883
 -48.687  -47.513  -45.594  -43.174  -40.604  -38.117  -35.817  -33.699  -31.708  -29.811  -27.971  -26.151  -24.310  -22.446  -20.565  -18.738  -17.044  -15.589  -14.414  -13.520  -12.882  -12.474  -12.282  -12.296  -12.479  -12.777  -13.148  -13.551  -13.940  -14.283  -14.494  -14.511  -14.289  -13.881  -13.394  -12.967  -12.687  -12.553  -12.498  -12.433  -12.297  -12.040  -11.672  -11.247  -10.830  -10.455  -10.122   -9.815   -9.531   -9.295   -9.126   -9.026   -8.935   -8.801   -8.574   -8.253   -7.891   -7.623   -7.574   -7.793   -8.214   -8.686   -9.063   -9.266   -9.308   -9.246   -9.128   -9.002   -8.909   -8.884   -8.982   -9.272   -9.752  -10.370  -11.071  -11.824  -12.626  -13.460  -14.250  -14.899  -15.339  -15.595  -15.735  -15.809  -15.822  -15.747  -15.584  -15.382  -15.202  -15.103  -15.090  -15.147  -15.263  -15.489  -15.918  -16.683  -17.823  -19.190  -20.445  -21.477
 -43.466  -42.341  -40.740  -38.757  -36.670  -34.662  -32.807  -31.092  -29.478  -27.924  -26.416  -24.929  -23.457  -22.004  -20.602  -19.320  -18.260  -17.502  -17.106  -17.042  -17.261  -17.700  -18.312  -19.068  -19.919  -20.818  -21.665  -22.359  -22.800  -22.926  -22.694  -22.118  -21.266  -20.246  -19.227  -18.346  -17.691  -17.269  -17.008  -16.803  -16.550  -16.169  -15.613  -14.932  -14.185  -13.430  -12.696  -12.016  -11.405  -10.921  -10.585  -10.396  -10.303  -10.230  -10.091   -9.854   -9.557   -9.333   -9.336   -9.628  -10.136  -10.688  -11.106  -11.326  -11.363  -11.277  -11.118  -10.929  -10.750  -10.627  -10.635  -10.824  -11.168  -11.592  -11.991  -12.301  -12.504  -12.562  -12.441  -12.122  -11.677  -11.233  -10.904  -10.718  -10.605  -10.488  -10.341  -10.178  -10.062  -10.045  -10.112  -10.213  -10.334  -10.511  -10.869  -11.563  -12.605  -13.847  -14.958  -15.917
 -38.284  -37.256  -36.041  -34.571  -33.024  -31.542  -30.173  -28.914  -27.750  -26.659  -25.649  -24.737  -23.951  -23.325  -22.892  -22.710  -22.825  -23.276  -24.062  -25.145  -26.449  -27.916  -29.504  -31.192  -32.943  -34.682  -36.256  -37.482  -38.176  -38.217  -37.561  -36.253  -34.449  -32.377  -30.296  -28.447  -26.975  -25.916  -25.195  -24.662  -24.151  -23.498  -22.605  -21.468  -20.146  -18.713  -17.249  -15.840  -14.574  -13.531  -12.744  -12.219  -11.904  -11.705  -11.525  -11.287  -11.021  -10.826  -10.861  -11.176  -11.691  -12.236  -12.645  -12.845  -12.871  -12.774  -12.613  -12.428  -12.251  -12.140  -12.175  -12.382  -12.719  -13.080  -13.349  -13.439  -13.294  -12.840  -12.033  -10.914   -9.654   -8.522   -7.692   -7.184   -6.895   -6.703   -6.535   -6.410   -6.380   -6.477   -6.706   -6.988   -7.283   -7.611   -8.103   -8.932  -10.116  -11.468  -12.642  -13.576
 -34.261  -33.397  -32.596  -31.667  -30.705  -29.810  -29.037  -28.392  -27.872  -27.481  -27.261  -27.265  -27.569  -28.223  -29.264  -30.661  -32.372  -34.333  -36.490  -38.792  -41.192  -43.671  -46.232  -48.889  -51.610  -54.278  -56.683  -58.556  -59.647  -59.771  -58.848  -56.922  -54.170  -50.901  -47.499  -44.333  -41.678  -39.641  -38.160  -37.044  -36.051  -34.941  -33.555  -31.820  -29.766  -27.470  -25.048  -22.651  -20.402  -18.416  -16.763  -15.462  -14.472  -13.724  -13.116  -12.566  -12.058  -11.686  -11.549  -11.677  -11.997  -12.360  -12.617  -12.726  -12.700  -12.584  -12.437  -12.292  -12.177  -12.153  -12.278  -12.579  -12.995  -13.419  -13.745  -13.888  -13.766  -13.256  -12.277  -10.860   -9.221   -7.683   -6.495   -5.710   -5.213   -4.881   -4.642   -4.495   -4.513   -4.744   -5.185   -5.742   -6.298   -6.839   -7.472   -8.375   -9.607  -10.978  -12.149  -13.021
 -32.088  -31.420  -31.025  -30.644  -30.318  -30.117  -30.101  -30.276  -30.646  -31.222  -32.065  -33.267  -34.943  -37.157  -39.879  -42.989  -46.301  -49.654  -52.959  -56.195  -59.393  -62.616  -65.934  -69.388  -72.934  -76.405  -79.529  -81.988  -83.498  -83.861  -82.974  -80.850  -77.636  -73.630  -69.255  -64.979  -61.193  -58.112  -55.732  -53.860  -52.218  -50.526  -48.570  -46.242  -43.519  -40.467  -37.198  -33.847  -30.553  -27.431  -24.579  -22.053  -19.857  -17.972  -16.333  -14.882  -13.611  -12.588  -11.866  -11.448  -11.267  -11.201  -11.140  -11.039  -10.895  -10.735  -10.572  -10.438  -10.364  -10.410  -10.616  -10.988  -11.465  -11.964  -12.423  -12.781  -12.948  -12.792  -12.160  -11.032   -9.575   -8.100   -6.857   -5.942   -5.285   -4.785   -4.414   -4.197   -4.230   -4.590   -5.267   -6.122   -6.949   -7.647   -8.284   -9.046  -10.032  -11.135  -12.089  -12.802
 -31.949  -31.481  -31.474  -31.636  -31.991  -32.582  -33.440  -34.563  -35.933  -37.552  -39.498  -41.896  -44.877  -48.486  -52.629  -57.066  -61.510  -65.750  -69.702  -73.419  -77.028  -80.670  -84.469  -88.479  -92.623  -96.681 -100.336 -103.254 -105.159 -105.864 -105.276 -103.403 -100.365  -96.407  -91.893  -87.268  -82.955  -79.242  -76.191  -73.664  -71.406  -69.152  -66.691  -63.904  -60.754  -57.267  -53.511  -49.567  -45.516  -41.432  -37.388  -33.459  -29.714  -26.199  -22.935  -19.935  -17.254  -14.959  -13.097  -11.659  -10.598   -9.824   -9.248   -8.813   -8.466   -8.192   -7.963   -7.784   -7.689   -7.716   -7.891   -8.216   -8.655   -9.152   -9.689  -10.238  -10.742  -11.078  -11.058  -10.590   -9.732   -8.714   -7.741   -6.909   -6.195   -5.584   -5.100   -4.822   -4.870   -5.337   -6.195   -7.265   -8.270   -9.000   -9.477   -9.881  -10.379  -10.970  -11.506  -12.007
 -34.264  -33.982  -34.317  -34.973  -35.958  -37.287  -38.951  -40.909  -43.111  -45.552  -48.314  -51.540  -55.366  -59.813  -64.733  -69.827  -74.771  -79.354  -83.528  -87.405  -91.174  -95.038  -99.150 -103.566 -108.187 -112.761 -116.942 -120.376 -122.763 -123.906 -123.722 -122.252 -119.658 -116.186 -112.156 -107.919 -103.823 -100.120  -96.895  -94.064  -91.437  -88.808  -86.011  -82.953  -79.603  -75.969  -72.071  -67.922  -63.517  -58.853  -53.946  -48.844  -43.630  -38.413  -33.304  -28.416  -23.880  -19.816  -16.320  -13.424  -11.117   -9.344   -8.050   -7.141   -6.505   -6.063   -5.724   -5.459   -5.279   -5.201   -5.247   -5.436   -5.733   -6.126   -6.605   -7.199   -7.876   -8.559   -9.070   -9.264   -9.106   -8.702   -8.162   -7.575   -6.963   -6.367   -5.865   -5.584   -5.655   -6.161   -7.076   -8.198   -9.181   -9.794  -10.009   -9.995   -9.968  -10.013  -10.120  -10.413
 -39.931  -39.853  -40.428  -41.405  -42.793  -44.580  -46.721  -49.124  -51.733  -54.527  -57.593  -61.074  -65.098  -69.684  -74.674  -79.777  -84.686  -89.209  -93.323  -97.156 -100.927 -104.862 -109.132 -113.803 -118.784 -123.833 -128.601 -132.709 -135.794 -137.597 -138.016 -137.105 -135.072 -132.218 -128.868 -125.327 -121.845 -118.587 -115.602 -112.819 -110.108 -107.327 -104.367 -101.173  -97.735  -94.055  -90.132  -85.930  -81.386  -76.434  -71.024  -65.160  -58.900  -52.365  -45.715  -39.128  -32.809  -26.936  -21.664  -17.097  -13.301  -10.306   -8.099   -6.572   -5.559   -4.883   -4.399   -4.030   -3.752   -3.572   -3.499   -3.535   -3.681   -3.908   -4.248   -4.734   -5.374   -6.123   -6.863   -7.444   -7.787   -7.878   -7.766   -7.486   -7.071   -6.599   -6.187   -5.967   -6.057   -6.522   -7.325   -8.261   -9.035   -9.409   -9.359   -9.051   -8.692   -8.403   -8.258   -8.445
 -49.194  -49.416  -50.092  -51.142  -52.595  -54.437  -56.590  -58.964  -61.483  -64.134  -66.988  -70.176  -73.817  -77.935  -82.408  -86.996  -91.443  -95.584  -99.400 -103.005 -106.598 -110.392 -114.554 -119.148 -124.106 -129.218 -134.191 -138.680 -142.354 -144.969 -146.381 -146.586 -145.722 -144.001 -141.707 -139.121 -136.463 -133.851 -131.309 -128.770 -126.147 -123.341 -120.301 -117.008 -113.471 -109.704 -105.695 -101.392  -96.710  -91.549  -85.831  -79.521  -72.656  -65.344  -57.749  -50.069  -42.505  -35.256  -28.496  -22.389  -17.095  -12.780   -9.502   -7.192   -5.652   -4.642   -3.961   -3.478   -3.136   -2.916   -2.801   -2.772   -2.823   -2.926   -3.126   -3.447   -3.924   -4.552   -5.247   -5.900   -6.426   -6.771   -6.926   -6.888   -6.692   -6.395   -6.126   -5.981   -6.049   -6.373   -6.905   -7.490   -7.914   -8.011   -7.781   -7.388   -6.984   -6.692   -6.547   -6.752
 -60.401  -61.045  -61.763  -62.732  -64.025  -65.630  -67.484  -69.498  -71.608  -73.800  -76.131  -78.706  -81.627  -84.930  -88.540  -92.295  -96.007  -99.547 -102.890 -106.116 -109.365 -112.795 -116.534 -120.632 -125.033 -129.573 -134.030 -138.182 -141.865 -144.975 -147.441 -149.189 -150.168 -150.368 -149.857 -148.786 -147.324 -145.596 -143.656 -141.483 -139.025 -136.250 -133.141 -129.720 -126.020 -122.071 -117.870 -113.368 -108.481 -103.108  -97.166  -90.618  -83.491  -75.884  -67.951  -59.865  -51.791  -43.863  -36.209  -28.993  -22.452  -16.850  -12.392   -9.101   -6.808   -5.278   -4.288   -3.660   -3.278   -3.091   -3.020   -3.016   -3.032   -3.052   -3.114   -3.276   -3.599   -4.063   -4.639   -5.217   -5.737   -6.139   -6.384   -6.474   -6.412   -6.268   -6.106   -6.003   -6.008   -6.126   -6.314   -6.486   -6.525   -6.360   -6.052   -5.743   -5.553   -5.500   -5.554   -5.867
 -70.695  -71.809  -72.608  -73.512  -74.633  -75.973  -77.480  -79.086  -80.737  -82.423  -84.189  -86.116  -88.288  -90.744  -93.456  -96.335  -99.260 -102.145 -104.959 -107.733 -110.533 -113.437 -116.517 -119.801 -123.248 -126.761 -130.219 -133.549 -136.751 -139.876 -142.955 -145.946 -148.702 -151.022 -152.695 -153.624 -153.798 -153.284 -152.162 -150.484 -148.282 -145.575 -142.405 -138.823 -134.906 -130.704 -126.238 -121.488 -116.389 -110.861 -104.827  -98.259  -91.188  -83.710  -75.960  -68.076  -60.151  -52.232  -44.356  -36.618  -29.254  -22.601  -16.980  -12.541   -9.253   -6.961   -5.457   -4.570   -4.139   -4.008   -4.044   -4.103   -4.101   -4.003   -3.880   -3.856   -4.015   -4.376   -4.877   -5.412   -5.906   -6.298   -6.553   -6.661   -6.644   -6.565   -6.449   -6.338   -6.245   -6.147   -6.016   -5.816   -5.526   -5.175   -4.867   -4.752   -4.885   -5.193   -5.538   -5.999
 -77.805  -79.296  -80.234  -81.171  -82.238  -83.439  -84.731  -86.059  -87.385  -88.701  -90.045  -91.481  -93.081  -94.889  -96.909  -99.101 -101.400 -103.747 -106.103 -108.453 -110.800 -113.150 -115.505 -117.855 -120.181 -122.457 -124.700 -126.987 -129.471 -132.304 -135.575 -139.247 -143.164 -147.058 -150.604 -153.474 -155.429 -156.366 -156.290 -155.295 -153.474 -150.926 -147.742 -144.026 -139.887 -135.421 -130.703 -125.748 -120.526 -114.980 -109.055 -102.726  -96.024  -89.031  -81.858  -74.589  -67.256  -59.823  -52.238  -44.519  -36.843  -29.539  -22.983  -17.440  -13.045   -9.795   -7.604   -6.327   -5.755   -5.658   -5.785   -5.888   -5.799   -5.485   -5.076   -4.755   -4.708   -4.956   -5.415   -5.956   -6.475   -6.871   -7.108   -7.184   -7.148   -7.057   -6.937   -6.791   -6.601   -6.326   -5.971   -5.536   -5.061   -4.656   -4.464   -4.626   -5.135   -5.843   -6.511   -7.125
 -80.688  -82.360  -83.446  -84.504  -85.641  -86.850  -88.088  -89.314  -90.496  -91.633  -92.756  -93.923  -95.203  -96.649  -98.282 -100.091 -102.039 -104.077 -106.154 -108.223 -110.240 -112.154 -113.915 -115.468 -116.780 -117.865 -118.836 -119.923 -121.438 -123.677 -126.794 -130.736 -135.274 -140.089 -144.821 -149.085 -152.511 -154.823 -155.894 -155.741 -154.486 -152.253 -149.181 -145.418 -141.127 -136.476 -131.589 -126.541 -121.340 -115.955 -110.344 -104.481  -98.384  -92.107  -85.713  -79.241  -72.664  -65.903  -58.858  -51.501  -43.944  -36.468  -29.412  -23.097  -17.772  -13.608  -10.671   -8.884   -8.051   -7.868   -7.975   -8.032   -7.782   -7.177   -6.375   -5.671   -5.311   -5.354   -5.714   -6.234   -6.749   -7.143   -7.347   -7.370   -7.284   -7.147   -7.001   -6.822   -6.574   -6.217   -5.775   -5.288   -4.850   -4.596   -4.694   -5.243   -6.189   -7.304   -8.284   -9.024
 -79.465  -81.094  -82.290  -83.494  -84.763  -86.069  -87.368  -88.623  -89.808  -90.925  -92.003  -93.103  -94.297  -95.648  -97.190  -98.927 -100.822 -102.822 -104.859 -106.857 -108.747 -110.448 -111.871 -112.925 -113.543 -113.733 -113.640 -113.572 -113.969 -115.280 -117.802 -121.552 -126.272 -131.550 -136.937 -142.014 -146.387 -149.708 -151.747 -152.431 -151.819 -150.028 -147.205 -143.531 -139.226 -134.514 -129.590 -124.581 -119.545 -114.475 -109.330 -104.074  -98.693  -93.200  -87.608  -81.906  -76.041  -69.922  -63.450  -56.583  -49.407  -42.140  -35.065  -28.465  -22.636  -17.843  -14.273  -11.946  -10.704  -10.232  -10.146  -10.027   -9.562   -8.652   -7.483   -6.388   -5.668   -5.416   -5.557   -5.918   -6.332   -6.657   -6.805   -6.774   -6.639   -6.467   -6.296   -6.107   -5.861   -5.530   -5.163   -4.827   -4.642   -4.754   -5.301   -6.337   -7.727   -9.210  -10.443  -11.266
 -75.383  -76.804  -78.037  -79.349  -80.735  -82.146  -83.536  -84.873  -86.132  -87.316  -88.455  -89.615  -90.882  -92.331  -94.004  -95.901  -97.978 -100.163 -102.366 -104.493 -106.454 -108.157 -109.495 -110.354 -110.636 -110.328 -109.555 -108.638 -108.058 -108.350 -109.946 -113.011 -117.395 -122.698 -128.391 -133.943 -138.886 -142.838 -145.526 -146.832 -146.766 -145.405 -142.889 -139.409 -135.207 -130.561 -125.718 -120.866 -116.099 -111.433 -106.823 -102.207  -97.529  -92.753  -87.850  -82.779  -77.481  -71.881  -65.903  -59.524  -52.822  -45.976  -39.206  -32.743  -26.841  -21.775  -17.788  -14.972  -13.230  -12.315  -11.875  -11.475  -10.777   -9.636   -8.204   -6.821   -5.791   -5.221   -5.054   -5.147   -5.352   -5.532   -5.593   -5.520   -5.361   -5.181   -5.010   -4.845   -4.665   -4.464   -4.296   -4.258   -4.466   -5.049   -6.096   -7.575   -9.319  -11.041  -12.393  -13.247
 -70.486  -71.670  -72.872  -74.208  -75.633  -77.091  -78.534  -79.929  -81.255  -82.513  -83.735  -84.996  -86.392  -88.012  -89.901  -92.048  -94.392  -96.843  -99.289 -101.623 -103.743 -105.553 -106.947 -107.796 -107.990 -107.492 -106.407 -105.028 -103.818 -103.323 -104.027 -106.215 -109.896 -114.791 -120.399 -126.114 -131.361 -135.682 -138.766 -140.472 -140.778 -139.752 -137.513 -134.253 -130.231 -125.743 -121.080 -116.468 -112.033 -107.799 -103.709  -99.669  -95.585  -91.384  -87.006  -82.400  -77.517  -72.305  -66.721  -60.759  -54.501  -48.103  -41.739  -35.588  -29.853  -24.773  -20.581  -17.396  -15.190  -13.808  -12.964  -12.290  -11.403  -10.125   -8.563   -7.029   -5.796   -4.980   -4.526   -4.347   -4.316   -4.325   -4.299   -4.201   -4.048   -3.880   -3.737   -3.620   -3.542   -3.502   -3.566   -3.838   -4.430   -5.418   -6.841   -8.620  -10.557  -12.357  -13.733  -14.584
 -66.629  -67.711  -68.852  -70.133  -71.511  -72.930  -74.348  -75.732  -77.063  -78.340  -79.598  -80.913  -82.389  -84.116  -86.135  -88.429  -90.927  -93.525  -96.105  -98.553 -100.766 -102.648 -104.092 -104.972 -105.176 -104.659 -103.510 -101.993 -100.532  -99.634  -99.772 -101.276 -104.253 -108.541 -113.733 -119.257 -124.507 -128.968 -132.276 -134.229 -134.777 -133.972 -131.933 -128.860 -125.028 -120.753 -116.336 -112.018 -107.930 -104.091 -100.432  -96.841  -93.202  -89.423  -85.435  -81.182  -76.627  -71.741  -66.492  -60.891  -55.012  -48.995  -42.988  -37.135  -31.599  -26.596  -22.344  -18.969  -16.492  -14.814  -13.713  -12.844  -11.842  -10.508   -8.922   -7.344   -6.028   -5.077   -4.469   -4.114   -3.940   -3.844   -3.759   -3.647   -3.503   -3.351   -3.227   -3.151   -3.133   -3.205   -3.411   -3.869   -4.655   -5.851   -7.444   -9.342  -11.320  -13.111  -14.478  -15.414
