DSAA
 100 100
 0.0 400.0
 0.0 400.0
 -113.5531 -1.465552
  -2.184   -1.941   -2.062   -2.292   -2.623   -3.001   -3.395   -3.729   -3.941   -3.985   -3.819   -3.457   -2.975   -2.472   -2.049   -1.771   -1.694   -1.830   -2.219   -2.834   -3.549   -4.133   -4.364   -4.199   -3.809   -3.459   -3.333   -3.400   -3.499   -3.506   -3.384   -3.186   -2.999   -2.834   -2.705   -2.592   -2.515   -2.529   -2.693   -3.039   -3.531   -4.071   -4.580   -5.015   -5.317   -5.425   -5.309   -5.069   -4.874   -4.813   -4.857   -4.923   -4.951   -4.932   -4.863   -4.729   -4.496   -4.183   -3.874   -3.669   -3.660   -3.777   -3.845   -3.700   -3.307   -2.797   -2.368   -2.171   -2.203   -2.379   -2.570   -2.731   -2.895   -3.077   -3.215   -3.199   -3.003   -2.726   -2.486   -2.358   -2.354   -2.437   -2.582   -2.713   -2.809   -2.892   -3.040   -3.318   -3.753   -4.307   -4.891   -5.384   -5.648   -5.571   -5.114   -4.390   -3.570   -2.840   -2.348   -2.407
  -2.324   -2.230   -2.392   -2.655   -2.997   -3.390   -3.776   -4.090   -4.278   -4.279   -4.069   -3.663   -3.130   -2.578   -2.111   -1.791   -1.676   -1.783   -2.131   -2.696   -3.355   -3.892   -4.102   -3.948   -3.582   -3.253   -3.121   -3.175   -3.283   -3.331   -3.276   -3.149   -2.993   -2.833   -2.688   -2.561   -2.484   -2.494   -2.644   -2.949   -3.372   -3.829   -4.256   -4.614   -4.878   -5.003   -4.972   -4.870   -4.830   -4.918   -5.066   -5.186   -5.226   -5.183   -5.072   -4.877   -4.566   -4.166   -3.752   -3.464   -3.373   -3.429   -3.467   -3.338   -2.994   -2.553   -2.197   -2.049   -2.105   -2.292   -2.479   -2.621   -2.760   -2.932   -3.067   -3.067   -2.894   -2.648   -2.449   -2.356   -2.377   -2.488   -2.630   -2.770   -2.882   -3.010   -3.211   -3.549   -4.052   -4.678   -5.348   -5.936   -6.266   -6.202   -5.688   -4.845   -3.886   -3.033   -2.445   -2.342
  -3.190   -3.133   -3.325   -3.621   -3.985   -4.370   -4.728   -4.993   -5.109   -5.031   -4.745   -4.270   -3.673   -3.042   -2.487   -2.080   -1.878   -1.899   -2.157   -2.600   -3.132   -3.560   -3.728   -3.609   -3.314   -3.041   -2.915   -2.943   -3.052   -3.165   -3.228   -3.216   -3.120   -2.979   -2.824   -2.702   -2.639   -2.659   -2.787   -3.023   -3.330   -3.648   -3.937   -4.181   -4.375   -4.499   -4.575   -4.662   -4.847   -5.127   -5.408   -5.592   -5.637   -5.564   -5.387   -5.102   -4.693   -4.192   -3.683   -3.300   -3.107   -3.070   -3.054   -2.943   -2.690   -2.386   -2.152   -2.072   -2.157   -2.321   -2.482   -2.602   -2.712   -2.858   -2.994   -3.031   -2.921   -2.756   -2.642   -2.624   -2.697   -2.817   -2.948   -3.066   -3.190   -3.375   -3.661   -4.091   -4.672   -5.396   -6.196   -6.936   -7.401   -7.387   -6.838   -5.876   -4.759   -3.762   -3.076   -2.906
  -4.382   -4.353   -4.562   -4.869   -5.224   -5.582   -5.877   -6.073   -6.109   -5.952   -5.597   -5.056   -4.386   -3.669   -3.005   -2.477   -2.144   -2.031   -2.134   -2.410   -2.762   -3.055   -3.181   -3.106   -2.912   -2.717   -2.610   -2.612   -2.711   -2.877   -3.034   -3.121   -3.099   -2.991   -2.868   -2.789   -2.779   -2.835   -2.954   -3.129   -3.342   -3.561   -3.753   -3.916   -4.043   -4.152   -4.261   -4.430   -4.705   -5.058   -5.381   -5.573   -5.607   -5.493   -5.275   -4.950   -4.531   -4.041   -3.567   -3.188   -2.967   -2.866   -2.789   -2.671   -2.492   -2.305   -2.173   -2.144   -2.217   -2.346   -2.480   -2.580   -2.680   -2.818   -2.966   -3.049   -3.034   -2.984   -2.983   -3.053   -3.164   -3.268   -3.350   -3.411   -3.512   -3.711   -4.050   -4.531   -5.165   -5.963   -6.879   -7.778   -8.403   -8.514   -8.021   -7.056   -5.904   -4.859   -4.134   -3.934
  -5.667   -5.650   -5.848   -6.129   -6.434   -6.726   -6.957   -7.074   -7.045   -6.835   -6.440   -5.870   -5.160   -4.385   -3.634   -2.983   -2.493   -2.207   -2.122   -2.196   -2.358   -2.510   -2.592   -2.562   -2.460   -2.341   -2.254   -2.230   -2.305   -2.467   -2.653   -2.783   -2.814   -2.764   -2.716   -2.716   -2.778   -2.884   -3.011   -3.168   -3.345   -3.541   -3.728   -3.878   -3.987   -4.065   -4.140   -4.256   -4.448   -4.695   -4.918   -5.046   -5.041   -4.916   -4.713   -4.442   -4.127   -3.798   -3.490   -3.234   -3.052   -2.907   -2.757   -2.587   -2.420   -2.290   -2.223   -2.216   -2.273   -2.369   -2.479   -2.586   -2.703   -2.844   -2.994   -3.118   -3.200   -3.280   -3.402   -3.553   -3.674   -3.732   -3.730   -3.713   -3.763   -3.946   -4.278   -4.760   -5.401   -6.232   -7.240   -8.270   -9.054   -9.321   -8.988   -8.174   -7.154   -6.205   -5.540   -5.353
  -6.850   -6.828   -6.980   -7.195   -7.428   -7.640   -7.786   -7.840   -7.776   -7.558   -7.166   -6.614   -5.919   -5.142   -4.355   -3.625   -3.014   -2.569   -2.293   -2.164   -2.137   -2.156   -2.181   -2.172   -2.132   -2.063   -1.993   -1.942   -1.971   -2.083   -2.243   -2.367   -2.419   -2.431   -2.456   -2.520   -2.622   -2.746   -2.882   -3.039   -3.221   -3.433   -3.657   -3.850   -3.996   -4.085   -4.133   -4.159   -4.189   -4.243   -4.295   -4.320   -4.276   -4.181   -4.047   -3.893   -3.744   -3.615   -3.492   -3.374   -3.225   -3.027   -2.784   -2.540   -2.346   -2.231   -2.197   -2.216   -2.279   -2.381   -2.516   -2.659   -2.800   -2.937   -3.069   -3.200   -3.353   -3.541   -3.764   -3.957   -4.064   -4.071   -4.016   -3.963   -3.983   -4.152   -4.471   -4.944   -5.584   -6.449   -7.531   -8.672   -9.591  -10.027   -9.886   -9.295   -8.482   -7.687   -7.115   -6.940
  -7.791   -7.752   -7.844   -7.985   -8.132   -8.254   -8.330   -8.337   -8.259   -8.058   -7.713   -7.219   -6.590   -5.875   -5.113   -4.383   -3.717   -3.167   -2.743   -2.451   -2.267   -2.172   -2.129   -2.116   -2.100   -2.058   -1.991   -1.931   -1.915   -1.977   -2.087   -2.194   -2.259   -2.303   -2.334   -2.371   -2.434   -2.514   -2.618   -2.759   -2.930   -3.137   -3.367   -3.591   -3.787   -3.933   -4.005   -4.000   -3.937   -3.851   -3.779   -3.717   -3.671   -3.625   -3.584   -3.545   -3.514   -3.501   -3.471   -3.392   -3.222   -2.965   -2.659   -2.365   -2.158   -2.067   -2.070   -2.136   -2.240   -2.391   -2.577   -2.777   -2.945   -3.065   -3.167   -3.293   -3.487   -3.734   -3.982   -4.158   -4.228   -4.213   -4.167   -4.164   -4.258   -4.473   -4.817   -5.310   -5.979   -6.898   -8.063   -9.309  -10.369  -10.968  -11.023  -10.629   -9.971   -9.264   -8.707   -8.519
  -8.454   -8.389   -8.426   -8.496   -8.558   -8.609   -8.631   -8.608   -8.528   -8.358   -8.066   -7.649   -7.108   -6.492   -5.825   -5.149   -4.497   -3.904   -3.400   -2.994   -2.701   -2.516   -2.426   -2.404   -2.398   -2.369   -2.318   -2.278   -2.274   -2.328   -2.426   -2.529   -2.599   -2.617   -2.584   -2.510   -2.440   -2.398   -2.415   -2.484   -2.589   -2.728   -2.902   -3.104   -3.319   -3.509   -3.638   -3.676   -3.620   -3.499   -3.376   -3.298   -3.277   -3.301   -3.335   -3.357   -3.361   -3.336   -3.281   -3.161   -2.954   -2.671   -2.359   -2.102   -1.948   -1.913   -1.957   -2.063   -2.214   -2.412   -2.652   -2.901   -3.092   -3.218   -3.317   -3.454   -3.663   -3.903   -4.108   -4.218   -4.235   -4.222   -4.263   -4.397   -4.640   -4.977   -5.402   -5.937   -6.652   -7.621   -8.862  -10.219  -11.419  -12.210  -12.463  -12.233  -11.663  -10.955  -10.341  -10.103
  -8.866   -8.780   -8.774   -8.786   -8.798   -8.798   -8.780   -8.738   -8.659   -8.518   -8.273   -7.918   -7.461   -6.940   -6.374   -5.776   -5.170   -4.575   -4.034   -3.566   -3.210   -2.979   -2.878   -2.856   -2.871   -2.879   -2.887   -2.925   -3.013   -3.140   -3.286   -3.407   -3.459   -3.413   -3.255   -3.022   -2.769   -2.571   -2.454   -2.408   -2.413   -2.443   -2.515   -2.635   -2.800   -2.987   -3.145   -3.233   -3.215   -3.121   -2.998   -2.925   -2.931   -3.004   -3.099   -3.150   -3.138   -3.069   -2.955   -2.796   -2.585   -2.343   -2.128   -1.984   -1.938   -1.969   -2.038   -2.133   -2.274   -2.473   -2.723   -2.988   -3.209   -3.378   -3.529   -3.714   -3.933   -4.141   -4.271   -4.308   -4.295   -4.327   -4.488   -4.789   -5.194   -5.649   -6.143   -6.715   -7.450   -8.454   -9.734  -11.177  -12.513  -13.486  -13.949  -13.894  -13.433  -12.749  -12.107  -11.824
  -9.087   -8.985   -8.957   -8.938   -8.924   -8.899   -8.865   -8.823   -8.748   -8.624   -8.407   -8.093   -7.689   -7.228   -6.724   -6.178   -5.594   -5.003   -4.440   -3.943   -3.557   -3.317   -3.228   -3.244   -3.307   -3.397   -3.525   -3.716   -3.966   -4.248   -4.490   -4.629   -4.635   -4.485   -4.183   -3.786   -3.381   -3.047   -2.813   -2.663   -2.554   -2.477   -2.439   -2.450   -2.525   -2.645   -2.774   -2.859   -2.850   -2.751   -2.618   -2.527   -2.525   -2.616   -2.735   -2.813   -2.815   -2.752   -2.649   -2.519   -2.373   -2.246   -2.181   -2.199   -2.275   -2.346   -2.385   -2.412   -2.468   -2.605   -2.818   -3.060   -3.293   -3.515   -3.743   -3.994   -4.250   -4.454   -4.559   -4.587   -4.620   -4.740   -5.025   -5.441   -5.927   -6.424   -6.921   -7.479   -8.200   -9.197  -10.488  -11.968  -13.386  -14.498  -15.146  -15.299  -15.028  -14.495  -13.947  -13.680
  -9.182   -9.074   -9.033   -9.009   -8.984   -8.961   -8.940   -8.907   -8.846   -8.736   -8.539   -8.247   -7.867   -7.418   -6.913   -6.363   -5.760   -5.142   -4.545   -4.019   -3.626   -3.405   -3.350   -3.424   -3.589   -3.817   -4.122   -4.515   -4.972   -5.419   -5.748   -5.889   -5.817   -5.542   -5.110   -4.595   -4.101   -3.695   -3.393   -3.163   -2.979   -2.824   -2.697   -2.620   -2.595   -2.626   -2.679   -2.707   -2.657   -2.510   -2.311   -2.155   -2.102   -2.164   -2.289   -2.406   -2.478   -2.502   -2.494   -2.470   -2.447   -2.466   -2.563   -2.724   -2.885   -2.969   -2.937   -2.853   -2.803   -2.855   -3.003   -3.205   -3.423   -3.660   -3.937   -4.252   -4.561   -4.821   -4.997   -5.128   -5.282   -5.525   -5.890   -6.334   -6.791   -7.220   -7.638   -8.126   -8.805   -9.772  -11.047  -12.510  -13.953  -15.131  -15.902  -16.235  -16.198  -15.920  -15.585  -15.403
  -9.218   -9.098   -9.061   -9.031   -9.012   -9.004   -8.994   -8.983   -8.942   -8.856   -8.682   -8.412   -8.037   -7.582   -7.041   -6.431   -5.761   -5.077   -4.424   -3.866   -3.465   -3.260   -3.257   -3.427   -3.725   -4.132   -4.640   -5.240   -5.876   -6.436   -6.802   -6.910   -6.743   -6.356   -5.830   -5.266   -4.761   -4.354   -4.018   -3.737   -3.488   -3.280   -3.117   -2.991   -2.909   -2.874   -2.859   -2.820   -2.692   -2.463   -2.177   -1.929   -1.800   -1.814   -1.928   -2.090   -2.251   -2.394   -2.517   -2.622   -2.738   -2.900   -3.120   -3.370   -3.571   -3.630   -3.532   -3.377   -3.279   -3.309   -3.445   -3.619   -3.806   -4.012   -4.283   -4.623   -4.987   -5.336   -5.650   -5.937   -6.235   -6.576   -6.962   -7.352   -7.701   -7.991   -8.290   -8.683   -9.301  -10.215  -11.433  -12.849  -14.257  -15.438  -16.263  -16.720  -16.874  -16.839  -16.729  -16.651
  -9.213   -9.096   -9.058   -9.029   -9.014   -9.014   -9.020   -9.026   -9.005   -8.941   -8.805   -8.568   -8.216   -7.752   -7.176   -6.490   -5.738   -4.965   -4.244   -3.646   -3.231   -3.042   -3.085   -3.345   -3.779   -4.355   -5.043   -5.792   -6.526   -7.120   -7.475   -7.524   -7.284   -6.828   -6.276   -5.741   -5.288   -4.900   -4.537   -4.188   -3.871   -3.624   -3.461   -3.352   -3.275   -3.230   -3.181   -3.089   -2.900   -2.599   -2.243   -1.923   -1.731   -1.700   -1.799   -1.988   -2.212   -2.450   -2.678   -2.895   -3.126   -3.387   -3.682   -3.969   -4.172   -4.214   -4.119   -4.008   -4.007   -4.141   -4.353   -4.547   -4.711   -4.865   -5.091   -5.407   -5.795   -6.217   -6.632   -7.032   -7.411   -7.780   -8.130   -8.431   -8.648   -8.806   -8.981   -9.285   -9.826  -10.653  -11.770  -13.084  -14.413  -15.560  -16.395  -16.913  -17.182  -17.294  -17.325  -17.327
  -9.200   -9.079   -9.037   -9.011   -8.997   -8.996   -9.007   -9.017   -9.015   -8.974   -8.876   -8.690   -8.380   -7.935   -7.347   -6.619   -5.792   -4.947   -4.164   -3.517   -3.078   -2.885   -2.945   -3.255   -3.768   -4.449   -5.237   -6.053   -6.805   -7.385   -7.703   -7.707   -7.430   -6.969   -6.462   -6.010   -5.626   -5.269   -4.867   -4.445   -4.068   -3.806   -3.671   -3.618   -3.604   -3.591   -3.555   -3.444   -3.217   -2.872   -2.467   -2.107   -1.877   -1.805   -1.890   -2.087   -2.347   -2.641   -2.929   -3.224   -3.544   -3.886   -4.244   -4.567   -4.791   -4.877   -4.889   -4.950   -5.170   -5.512   -5.860   -6.114   -6.269   -6.387   -6.568   -6.844   -7.206   -7.621   -8.045   -8.443   -8.805   -9.121   -9.392   -9.591   -9.706   -9.767   -9.860  -10.090  -10.539  -11.241  -12.204  -13.364  -14.571  -15.652  -16.477  -17.017  -17.330  -17.490  -17.565  -17.606
  -9.182   -9.058   -9.014   -8.985   -8.969   -8.966   -8.973   -8.981   -8.982   -8.959   -8.895   -8.761   -8.514   -8.117   -7.560   -6.837   -5.999   -5.122   -4.307   -3.627   -3.152   -2.911   -2.930   -3.191   -3.677   -4.343   -5.122   -5.932   -6.675   -7.246   -7.548   -7.543   -7.273   -6.855   -6.426   -6.074   -5.770   -5.439   -5.022   -4.571   -4.184   -3.957   -3.889   -3.924   -3.988   -4.023   -3.999   -3.869   -3.603   -3.210   -2.768   -2.374   -2.111   -2.011   -2.073   -2.273   -2.552   -2.879   -3.230   -3.618   -4.048   -4.511   -4.983   -5.409   -5.731   -5.945   -6.146   -6.445   -6.902   -7.430   -7.894   -8.198   -8.353   -8.465   -8.619   -8.854   -9.152   -9.486   -9.818  -10.126  -10.391  -10.606  -10.783  -10.899  -10.950  -10.961  -11.010  -11.179  -11.530  -12.086  -12.869  -13.827  -14.865  -15.832  -16.611  -17.152  -17.475  -17.635  -17.705  -17.750
  -9.158   -9.032   -8.994   -8.966   -8.951   -8.943   -8.942   -8.940   -8.941   -8.921   -8.884   -8.790   -8.607   -8.293   -7.812   -7.162   -6.375   -5.536   -4.728   -4.033   -3.513   -3.188   -3.079   -3.198   -3.531   -4.061   -4.750   -5.515   -6.260   -6.858   -7.196   -7.216   -6.973   -6.590   -6.225   -5.946   -5.713   -5.439   -5.076   -4.693   -4.399   -4.274   -4.319   -4.450   -4.575   -4.637   -4.591   -4.402   -4.060   -3.588   -3.076   -2.620   -2.302   -2.163   -2.211   -2.424   -2.754   -3.164   -3.636   -4.184   -4.808   -5.485   -6.157   -6.770   -7.266   -7.660   -8.046   -8.515   -9.097   -9.695  -10.176  -10.478  -10.638  -10.752  -10.896  -11.094  -11.315  -11.540  -11.753  -11.937  -12.080  -12.191  -12.279  -12.339  -12.356  -12.356  -12.381  -12.504  -12.764  -13.186  -13.787  -14.532  -15.360  -16.160  -16.839  -17.348  -17.671  -17.840  -17.912  -17.960
  -9.146   -9.019   -8.983   -8.958   -8.944   -8.937   -8.927   -8.915   -8.907   -8.891   -8.864   -8.809   -8.686   -8.463   -8.091   -7.564   -6.896   -6.154   -5.401   -4.720   -4.143   -3.714   -3.444   -3.352   -3.452   -3.771   -4.314   -5.020   -5.779   -6.439   -6.843   -6.911   -6.684   -6.310   -5.956   -5.706   -5.535   -5.354   -5.133   -4.918   -4.806   -4.856   -5.033   -5.251   -5.417   -5.460   -5.354   -5.071   -4.609   -4.016   -3.382   -2.821   -2.419   -2.230   -2.283   -2.550   -2.998   -3.581   -4.283   -5.100   -6.009   -6.959   -7.888   -8.714   -9.384   -9.918  -10.394  -10.894  -11.438  -11.961  -12.365  -12.616  -12.761  -12.874  -13.014  -13.180  -13.345  -13.483  -13.596  -13.668  -13.708  -13.733  -13.759  -13.789  -13.802  -13.801  -13.818  -13.900  -14.087  -14.400  -14.844  -15.395  -15.999  -16.600  -17.137  -17.581  -17.906  -18.104  -18.208  -18.269
  -9.147   -9.019   -8.978   -8.960   -8.947   -8.938   -8.924   -8.905   -8.894   -8.877   -8.862   -8.827   -8.760   -8.615   -8.365   -7.985   -7.475   -6.867   -6.212   -5.567   -4.975   -4.470   -4.052   -3.752   -3.614   -3.701   -4.069   -4.692   -5.459   -6.181   -6.647   -6.753   -6.537   -6.147   -5.775   -5.529   -5.406   -5.343   -5.296   -5.296   -5.397   -5.617   -5.912   -6.197   -6.375   -6.394   -6.217   -5.837   -5.262   -4.536   -3.751   -3.050   -2.541   -2.304   -2.386   -2.782   -3.433   -4.296   -5.316   -6.457   -7.669   -8.881  -10.010  -10.971  -11.725  -12.296  -12.743  -13.153  -13.554  -13.921  -14.203  -14.377  -14.492  -14.595  -14.721  -14.863  -14.994  -15.087  -15.130  -15.130  -15.102  -15.072  -15.065  -15.078  -15.097  -15.106  -15.118  -15.168  -15.290  -15.518  -15.845  -16.239  -16.650  -17.049  -17.431  -17.793  -18.109  -18.353  -18.512  -18.598
  -9.152   -9.023   -8.988   -8.966   -8.951   -8.939   -8.927   -8.908   -8.896   -8.878   -8.870   -8.856   -8.823   -8.751   -8.603   -8.358   -8.006   -7.546   -7.019   -6.458   -5.903   -5.367   -4.873   -4.432   -4.106   -3.992   -4.182   -4.697   -5.421   -6.150   -6.656   -6.802   -6.609   -6.222   -5.847   -5.611   -5.530   -5.568   -5.669   -5.841   -6.097   -6.426   -6.778   -7.079   -7.257   -7.259   -7.056   -6.634   -5.988   -5.161   -4.246   -3.395   -2.767   -2.493   -2.649   -3.222   -4.151   -5.337   -6.695   -8.142   -9.589  -10.956  -12.154  -13.125  -13.841  -14.341  -14.684  -14.953  -15.190  -15.404  -15.575  -15.689  -15.769  -15.851  -15.954  -16.073  -16.179  -16.251  -16.265  -16.224  -16.156  -16.098  -16.073  -16.086  -16.113  -16.126  -16.130  -16.150  -16.225  -16.383  -16.625  -16.903  -17.164  -17.398  -17.635  -17.906  -18.209  -18.490  -18.705  -18.821
  -9.158   -9.028   -8.993   -8.975   -8.965   -8.949   -8.936   -8.921   -8.907   -8.895   -8.890   -8.885   -8.877   -8.849   -8.773   -8.634   -8.410   -8.097   -7.709   -7.267   -6.803   -6.319   -5.821   -5.323   -4.890   -4.631   -4.663   -5.040   -5.667   -6.350   -6.852   -7.036   -6.897   -6.576   -6.250   -6.053   -6.010   -6.099   -6.276   -6.523   -6.826   -7.167   -7.503   -7.773   -7.929   -7.928   -7.736   -7.335   -6.696   -5.835   -4.840   -3.870   -3.138   -2.844   -3.093   -3.866   -5.069   -6.558   -8.193   -9.859  -11.434  -12.829  -13.972  -14.839  -15.434  -15.806  -16.026  -16.170  -16.284  -16.396  -16.496  -16.571  -16.627  -16.689  -16.765  -16.865  -16.956  -17.009  -17.003  -16.941  -16.852  -16.786  -16.762  -16.779  -16.803  -16.810  -16.795  -16.788  -16.825  -16.931  -17.109  -17.310  -17.466  -17.582  -17.706  -17.897  -18.170  -18.468  -18.713  -18.860
  -9.177   -9.044   -9.009   -8.989   -8.975   -8.966   -8.952   -8.939   -8.926   -8.919   -8.914   -8.911   -8.912   -8.906   -8.874   -8.801   -8.674   -8.485   -8.232   -7.930   -7.584   -7.194   -6.757   -6.285   -5.826   -5.489   -5.408   -5.641   -6.128   -6.714   -7.184   -7.402   -7.352   -7.136   -6.903   -6.764   -6.753   -6.853   -7.026   -7.253   -7.515   -7.790   -8.046   -8.253   -8.370   -8.374   -8.218   -7.868   -7.284   -6.449   -5.434   -4.398   -3.598   -3.285   -3.611   -4.559   -5.982   -7.696   -9.527  -11.317  -12.930  -14.272  -15.294  -15.999  -16.442  -16.687  -16.810  -16.875  -16.925  -16.983  -17.052  -17.108  -17.157  -17.207  -17.266  -17.342  -17.409  -17.438  -17.416  -17.346  -17.257  -17.196  -17.179  -17.198  -17.212  -17.196  -17.156  -17.119  -17.123  -17.200  -17.335  -17.474  -17.567  -17.613  -17.661  -17.789  -18.015  -18.299  -18.550  -18.706
  -9.194   -9.058   -9.023   -9.006   -8.991   -8.982   -8.970   -8.962   -8.953   -8.941   -8.935   -8.932   -8.933   -8.929   -8.917   -8.882   -8.822   -8.727   -8.588   -8.405   -8.179   -7.894   -7.554   -7.158   -6.745   -6.409   -6.262   -6.374   -6.714   -7.172   -7.580   -7.812   -7.848   -7.749   -7.622   -7.546   -7.551   -7.624   -7.746   -7.901   -8.082   -8.262   -8.427   -8.557   -8.633   -8.625   -8.497   -8.201   -7.681   -6.907   -5.907   -4.847   -4.002   -3.672   -4.036   -5.090   -6.657   -8.520  -10.472  -12.336  -13.959  -15.230  -16.127  -16.690  -17.001  -17.146  -17.207  -17.235  -17.259  -17.301  -17.354  -17.402  -17.448  -17.492  -17.538  -17.590  -17.626  -17.634  -17.602  -17.534  -17.463  -17.417  -17.409  -17.422  -17.413  -17.372  -17.303  -17.240  -17.228  -17.281  -17.384  -17.483  -17.539  -17.552  -17.565  -17.650  -17.827  -18.067  -18.292  -18.444
  -9.214   -9.075   -9.038   -9.014   -9.000   -8.998   -8.990   -8.982   -8.968   -8.956   -8.951   -8.946   -8.941   -8.937   -8.931   -8.919   -8.894   -8.856   -8.795   -8.703   -8.567   -8.383   -8.139   -7.844   -7.525   -7.245   -7.087   -7.113   -7.326   -7.651   -7.978   -8.203   -8.291   -8.279   -8.227   -8.196   -8.199   -8.236   -8.299   -8.382   -8.477   -8.577   -8.661   -8.725   -8.757   -8.727   -8.598   -8.324   -7.840   -7.106   -6.136   -5.071   -4.200   -3.842   -4.208   -5.296   -6.940   -8.900  -10.954  -12.891  -14.542  -15.789  -16.606  -17.070  -17.287  -17.373  -17.400  -17.417  -17.434  -17.466  -17.505  -17.544  -17.578  -17.609  -17.637  -17.662  -17.678  -17.672  -17.641  -17.594  -17.544  -17.514  -17.512  -17.519  -17.497  -17.440  -17.355  -17.287  -17.264  -17.300  -17.367  -17.431  -17.466  -17.473  -17.483  -17.547  -17.674  -17.860  -18.037  -18.169
  -9.235   -9.091   -9.046   -9.021   -9.006   -9.002   -8.995   -8.989   -8.976   -8.962   -8.953   -8.949   -8.947   -8.943   -8.936   -8.928   -8.920   -8.909   -8.891   -8.847   -8.775   -8.665   -8.510   -8.321   -8.108   -7.910   -7.780   -7.766   -7.880   -8.100   -8.338   -8.525   -8.627   -8.651   -8.641   -8.625   -8.617   -8.625   -8.646   -8.674   -8.713   -8.751   -8.784   -8.798   -8.779   -8.703   -8.532   -8.219   -7.718   -6.977   -6.017   -4.959   -4.078   -3.698   -4.037   -5.116   -6.789   -8.830  -11.001  -13.059  -14.793  -16.067  -16.862  -17.276  -17.445  -17.495  -17.508  -17.518  -17.537  -17.560  -17.582  -17.595  -17.601  -17.608  -17.614  -17.620  -17.621  -17.615  -17.600  -17.578  -17.554  -17.540  -17.541  -17.544  -17.523  -17.474  -17.408  -17.353  -17.330  -17.343  -17.374  -17.404  -17.423  -17.429  -17.451  -17.502  -17.596  -17.726  -17.854  -17.964
  -9.232   -9.086   -9.046   -9.023   -9.006   -8.994   -8.986   -8.979   -8.970   -8.958   -8.946   -8.944   -8.944   -8.945   -8.932   -8.920   -8.914   -8.911   -8.905   -8.889   -8.851   -8.786   -8.706   -8.605   -8.491   -8.373   -8.286   -8.265   -8.325   -8.458   -8.620   -8.757   -8.840   -8.868   -8.868   -8.851   -8.837   -8.823   -8.819   -8.816   -8.825   -8.825   -8.817   -8.789   -8.708   -8.550   -8.285   -7.874   -7.282   -6.487   -5.510   -4.480   -3.631   -3.251   -3.553   -4.599   -6.283   -8.401  -10.716  -12.935  -14.806  -16.162  -16.984  -17.386  -17.531  -17.560  -17.565  -17.578  -17.596  -17.611  -17.612  -17.597  -17.576  -17.555  -17.540  -17.534  -17.530  -17.533  -17.535  -17.537  -17.535  -17.526  -17.523  -17.524  -17.521  -17.508  -17.489  -17.468  -17.456  -17.454  -17.449  -17.445  -17.440  -17.446  -17.470  -17.514  -17.584  -17.672  -17.764  -17.853
  -9.215   -9.067   -9.027   -9.004   -8.988   -8.982   -8.978   -8.971   -8.962   -8.946   -8.937   -8.934   -8.931   -8.927   -8.915   -8.898   -8.883   -8.878   -8.879   -8.872   -8.854   -8.825   -8.793   -8.748   -8.702   -8.648   -8.603   -8.588   -8.621   -8.699   -8.797   -8.885   -8.945   -8.961   -8.955   -8.936   -8.916   -8.897   -8.880   -8.868   -8.857   -8.836   -8.789   -8.697   -8.534   -8.258   -7.847   -7.274   -6.545   -5.671   -4.695   -3.726   -2.962   -2.629   -2.921   -3.921   -5.587   -7.772  -10.227  -12.624  -14.656  -16.123  -17.004  -17.416  -17.545  -17.557  -17.556  -17.572  -17.595  -17.608  -17.596  -17.567  -17.530  -17.498  -17.481  -17.473  -17.471  -17.477  -17.488  -17.499  -17.500  -17.492  -17.484  -17.480  -17.494  -17.523  -17.556  -17.583  -17.600  -17.595  -17.574  -17.544  -17.519  -17.511  -17.526  -17.559  -17.603  -17.665  -17.732  -17.807
  -9.204   -9.052   -9.014   -8.994   -8.984   -8.977   -8.972   -8.968   -8.957   -8.942   -8.927   -8.918   -8.913   -8.906   -8.889   -8.869   -8.851   -8.846   -8.844   -8.850   -8.848   -8.843   -8.832   -8.816   -8.800   -8.776   -8.754   -8.749   -8.774   -8.817   -8.871   -8.927   -8.962   -8.965   -8.956   -8.937   -8.918   -8.902   -8.890   -8.875   -8.848   -8.795   -8.699   -8.519   -8.232   -7.800   -7.205   -6.457   -5.585   -4.650   -3.725   -2.880   -2.265   -2.034   -2.337   -3.292   -4.916   -7.133   -9.689  -12.231  -14.405  -15.981  -16.922  -17.355  -17.476  -17.477  -17.470  -17.491  -17.523  -17.535  -17.524  -17.492  -17.463  -17.448  -17.449  -17.453  -17.454  -17.454  -17.453  -17.459  -17.459  -17.446  -17.429  -17.419  -17.441  -17.488  -17.558  -17.628  -17.680  -17.696  -17.684  -17.655  -17.622  -17.602  -17.596  -17.605  -17.626  -17.661  -17.712  -17.774
  -9.228   -9.075   -9.041   -9.027   -9.016   -9.011   -9.010   -9.008   -8.999   -8.978   -8.957   -8.939   -8.928   -8.912   -8.893   -8.874   -8.862   -8.865   -8.872   -8.885   -8.893   -8.895   -8.889   -8.878   -8.855   -8.834   -8.812   -8.802   -8.815   -8.839   -8.871   -8.906   -8.923   -8.924   -8.916   -8.904   -8.894   -8.884   -8.877   -8.856   -8.804   -8.704   -8.522   -8.223   -7.770   -7.155   -6.375   -5.476   -4.526   -3.612   -2.804   -2.153   -1.733   -1.635   -1.974   -2.889   -4.461   -6.652   -9.245  -11.866  -14.122  -15.772  -16.762  -17.216  -17.339  -17.331  -17.319  -17.339  -17.372  -17.386  -17.374  -17.357  -17.351  -17.367  -17.398  -17.420  -17.423  -17.408  -17.391  -17.384  -17.381  -17.366  -17.346  -17.327  -17.336  -17.381  -17.459  -17.544  -17.621  -17.673  -17.694  -17.693  -17.677  -17.658  -17.637  -17.621  -17.611  -17.619  -17.644  -17.693
  -9.387   -9.228   -9.198   -9.179   -9.174   -9.164   -9.162   -9.159   -9.150   -9.129   -9.103   -9.076   -9.059   -9.040   -9.023   -9.012   -9.017   -9.025   -9.049   -9.067   -9.082   -9.079   -9.064   -9.028   -8.975   -8.922   -8.870   -8.833   -8.818   -8.826   -8.847   -8.867   -8.880   -8.882   -8.878   -8.874   -8.872   -8.870   -8.857   -8.816   -8.719   -8.534   -8.229   -7.772   -7.138   -6.335   -5.411   -4.444   -3.519   -2.729   -2.117   -1.701   -1.491   -1.529   -1.916   -2.796   -4.303   -6.434   -8.986  -11.593  -13.860  -15.527  -16.540  -17.008  -17.132  -17.116  -17.092  -17.100  -17.121  -17.129  -17.119  -17.116  -17.130  -17.175  -17.229  -17.267  -17.270  -17.247  -17.217  -17.199  -17.196  -17.191  -17.175  -17.152  -17.143  -17.165  -17.220  -17.293  -17.373  -17.449  -17.510  -17.548  -17.570  -17.571  -17.553  -17.521  -17.488  -17.462  -17.464  -17.503
  -9.798   -9.638   -9.600   -9.577   -9.566   -9.553   -9.544   -9.537   -9.528   -9.507   -9.483   -9.460   -9.435   -9.424   -9.417   -9.418   -9.430   -9.451   -9.478   -9.503   -9.515   -9.504   -9.463   -9.379   -9.263   -9.134   -9.010   -8.913   -8.854   -8.835   -8.836   -8.850   -8.861   -8.868   -8.869   -8.867   -8.870   -8.865   -8.831   -8.740   -8.556   -8.250   -7.790   -7.151   -6.336   -5.398   -4.412   -3.474   -2.686   -2.110   -1.761   -1.602   -1.601   -1.769   -2.199   -3.048   -4.466   -6.486   -8.918  -11.412  -13.595  -15.212  -16.204  -16.670  -16.794  -16.770  -16.730  -16.712  -16.710  -16.703  -16.691  -16.691  -16.717  -16.767  -16.822  -16.859  -16.864  -16.840  -16.814  -16.802  -16.807  -16.817  -16.812  -16.790  -16.767  -16.759  -16.774  -16.816  -16.879  -16.954  -17.037  -17.107  -17.164  -17.196  -17.198  -17.170  -17.127  -17.089  -17.076  -17.106
 -10.573  -10.405  -10.359  -10.328  -10.305  -10.283  -10.271  -10.263  -10.255  -10.237  -10.223  -10.204  -10.191  -10.185  -10.181  -10.191  -10.206  -10.232  -10.259  -10.283  -10.286  -10.258  -10.175  -10.013   -9.795   -9.540   -9.289   -9.088   -8.952   -8.886   -8.868   -8.872   -8.881   -8.888   -8.891   -8.889   -8.888   -8.860   -8.785   -8.615   -8.313   -7.849   -7.209   -6.398   -5.458   -4.464   -3.509   -2.698   -2.117   -1.799   -1.727   -1.834   -2.048   -2.357   -2.836   -3.644   -4.938   -6.766   -8.974  -11.242  -13.235  -14.718  -15.634  -16.062  -16.176  -16.152  -16.103  -16.064  -16.036  -16.014  -15.996  -15.993  -16.013  -16.045  -16.080  -16.105  -16.109  -16.094  -16.076  -16.077  -16.100  -16.120  -16.126  -16.108  -16.076  -16.044  -16.028  -16.034  -16.068  -16.130  -16.207  -16.287  -16.362  -16.418  -16.446  -16.440  -16.408  -16.379  -16.369  -16.407
 -11.724  -11.557  -11.503  -11.461  -11.422  -11.398  -11.381  -11.373  -11.370  -11.365  -11.357  -11.350  -11.344  -11.339  -11.339  -11.350  -11.362  -11.385  -11.408  -11.424  -11.418  -11.359  -11.214  -10.951  -10.580  -10.143   -9.705   -9.348   -9.101   -8.969   -8.915   -8.904   -8.910   -8.916   -8.919   -8.914   -8.901   -8.851   -8.721   -8.459   -8.014   -7.377   -6.570   -5.636   -4.649   -3.696   -2.861   -2.228   -1.859   -1.774   -1.951   -2.306   -2.741   -3.207   -3.757   -4.515   -5.636   -7.185   -9.050  -10.976  -12.670  -13.934  -14.713  -15.077  -15.172  -15.148  -15.105  -15.065  -15.028  -14.996  -14.971  -14.961  -14.964  -14.975  -14.985  -14.995  -14.994  -14.985  -14.983  -14.992  -15.016  -15.040  -15.048  -15.034  -15.001  -14.961  -14.930  -14.919  -14.930  -14.970  -15.025  -15.092  -15.165  -15.228  -15.272  -15.287  -15.284  -15.277  -15.285  -15.351
 -13.120  -12.969  -12.910  -12.863  -12.825  -12.798  -12.785  -12.783  -12.789  -12.795  -12.792  -12.786  -12.780  -12.774  -12.771  -12.776  -12.788  -12.803  -12.820  -12.825  -12.801  -12.706  -12.484  -12.093  -11.534  -10.867  -10.202   -9.649   -9.263   -9.046   -8.953   -8.926   -8.923   -8.925   -8.925   -8.919   -8.902   -8.833   -8.652   -8.299   -7.733   -6.954   -6.025   -5.041   -4.097   -3.260   -2.594   -2.135   -1.922   -1.996   -2.346   -2.894   -3.533   -4.166   -4.786   -5.482   -6.396   -7.608   -9.055  -10.557  -11.879  -12.865  -13.464  -13.735  -13.803  -13.788  -13.763  -13.740  -13.715  -13.684  -13.660  -13.645  -13.635  -13.633  -13.626  -13.627  -13.620  -13.615  -13.616  -13.625  -13.641  -13.654  -13.656  -13.644  -13.616  -13.582  -13.558  -13.547  -13.552  -13.576  -13.611  -13.656  -13.704  -13.753  -13.794  -13.820  -13.835  -13.857  -13.892  -13.991
 -14.557  -14.428  -14.373  -14.329  -14.298  -14.280  -14.271  -14.272  -14.284  -14.292  -14.292  -14.283  -14.271  -14.255  -14.249  -14.255  -14.264  -14.278  -14.288  -14.284  -14.241  -14.103  -13.798  -13.269  -12.515  -11.613  -10.707   -9.942   -9.405   -9.097   -8.960   -8.918   -8.909   -8.907   -8.911   -8.908   -8.886   -8.804   -8.596   -8.194   -7.555   -6.705   -5.745   -4.792   -3.959   -3.279   -2.771   -2.440   -2.314   -2.454   -2.881   -3.536   -4.312   -5.063   -5.733   -6.356   -7.057   -7.926   -8.954  -10.021  -10.962  -11.653  -12.060  -12.226  -12.264  -12.259  -12.259  -12.270  -12.273  -12.263  -12.247  -12.232  -12.221  -12.216  -12.210  -12.209  -12.200  -12.192  -12.187  -12.188  -12.187  -12.185  -12.172  -12.156  -12.136  -12.119  -12.111  -12.112  -12.124  -12.145  -12.165  -12.187  -12.207  -12.227  -12.249  -12.270  -12.297  -12.333  -12.385  -12.521
 -15.822  -15.712  -15.663  -15.629  -15.606  -15.597  -15.591  -15.596  -15.604  -15.610  -15.607  -15.590  -15.568  -15.548  -15.540  -15.543  -15.553  -15.569  -15.581  -15.569  -15.509  -15.330  -14.949  -14.301  -13.376  -12.266  -11.144  -10.191   -9.516   -9.128   -8.952   -8.898   -8.887   -8.888   -8.895   -8.898   -8.878   -8.796   -8.582   -8.171   -7.538   -6.722   -5.831   -4.993   -4.297   -3.765   -3.377   -3.127   -3.043   -3.185   -3.593   -4.249   -5.047   -5.831   -6.495   -7.035   -7.549   -8.127   -8.796   -9.492  -10.096  -10.526  -10.760  -10.839  -10.845  -10.841  -10.870  -10.912  -10.952  -10.972  -10.973  -10.964  -10.961  -10.963  -10.963  -10.963  -10.956  -10.944  -10.934  -10.927  -10.913  -10.891  -10.868  -10.846  -10.833  -10.831  -10.835  -10.851  -10.874  -10.893  -10.905  -10.907  -10.899  -10.893  -10.896  -10.909  -10.933  -10.971  -11.025  -11.186
 -16.778  -16.677  -16.630  -16.604  -16.590  -16.582  -16.581  -16.583  -16.587  -16.583  -16.573  -16.548  -16.522  -16.496  -16.483  -16.487  -16.500  -16.521  -16.535  -16.521  -16.448  -16.240  -15.804  -15.064  -14.015  -12.749  -11.465  -10.373   -9.597   -9.149   -8.947   -8.887   -8.886   -8.898   -8.909   -8.912   -8.893   -8.817   -8.625   -8.256   -7.702   -7.004   -6.263   -5.581   -5.028   -4.613   -4.313   -4.123   -4.057   -4.171   -4.513   -5.084   -5.798   -6.516   -7.114   -7.557   -7.919   -8.288   -8.692   -9.108   -9.457   -9.687   -9.786   -9.798   -9.779   -9.778   -9.817   -9.881   -9.945   -9.989  -10.010  -10.010  -10.010  -10.020  -10.028  -10.033  -10.029  -10.017  -10.009  -10.000   -9.985   -9.956   -9.926   -9.900   -9.891   -9.893   -9.905   -9.931   -9.954   -9.973   -9.976   -9.957   -9.933   -9.913   -9.907   -9.914   -9.932   -9.964  -10.017  -10.187
 -17.394  -17.290  -17.250  -17.225  -17.209  -17.203  -17.197  -17.197  -17.192  -17.183  -17.163  -17.135  -17.102  -17.074  -17.056  -17.059  -17.070  -17.097  -17.114  -17.103  -17.024  -16.800  -16.334  -15.535  -14.407  -13.049  -11.667  -10.482   -9.644   -9.161   -8.958   -8.913   -8.924   -8.946   -8.963   -8.968   -8.950   -8.877   -8.713   -8.419   -7.990   -7.464   -6.909   -6.394   -5.964   -5.633   -5.399   -5.259   -5.223   -5.322   -5.588   -6.030   -6.592   -7.169   -7.648   -7.989   -8.237   -8.461   -8.699   -8.931   -9.110   -9.215   -9.233   -9.207   -9.173   -9.163   -9.185   -9.239   -9.301   -9.356   -9.388   -9.400   -9.405   -9.418   -9.428   -9.437   -9.428   -9.426   -9.424   -9.429   -9.424   -9.402   -9.372   -9.342   -9.326   -9.325   -9.344   -9.372   -9.400   -9.413   -9.399   -9.373   -9.338   -9.321   -9.318   -9.328   -9.348   -9.376   -9.424   -9.591
 -17.735  -17.629  -17.586  -17.556  -17.537  -17.528  -17.519  -17.512  -17.503  -17.490  -17.467  -17.433  -17.396  -17.366  -17.345  -17.341  -17.352  -17.376  -17.395  -17.391  -17.313  -17.083  -16.600  -15.776  -14.609  -13.201  -11.769  -10.539   -9.667   -9.170   -8.974   -8.956   -8.993   -9.029   -9.049   -9.044   -9.018   -8.948   -8.815   -8.602   -8.314   -7.970   -7.598   -7.233   -6.902   -6.634   -6.445   -6.355   -6.357   -6.464   -6.673   -6.985   -7.371   -7.773   -8.109   -8.344   -8.510   -8.650   -8.791   -8.924   -9.018   -9.063   -9.053   -9.011   -8.963   -8.928   -8.912   -8.925   -8.959   -9.005   -9.039   -9.054   -9.070   -9.084   -9.095   -9.095   -9.093   -9.096   -9.113   -9.132   -9.136   -9.124   -9.092   -9.059   -9.038   -9.039   -9.065   -9.104   -9.135   -9.144   -9.120   -9.084   -9.048   -9.040   -9.053   -9.076   -9.104   -9.138   -9.179   -9.337
 -17.898  -17.782  -17.739  -17.704  -17.684  -17.670  -17.659  -17.651  -17.641  -17.628  -17.604  -17.570  -17.536  -17.501  -17.474  -17.464  -17.472  -17.491  -17.513  -17.509  -17.433  -17.204  -16.714  -15.881  -14.695  -13.268  -11.813  -10.558   -9.668   -9.170   -8.987   -8.988   -9.048   -9.101   -9.123   -9.108   -9.062   -8.987   -8.879   -8.742   -8.580   -8.397   -8.180   -7.939   -7.686   -7.466   -7.314   -7.258   -7.302   -7.421   -7.593   -7.807   -8.041   -8.271   -8.459   -8.599   -8.701   -8.799   -8.904   -9.001   -9.074   -9.106   -9.100   -9.065   -9.004   -8.936   -8.874   -8.832   -8.824   -8.844   -8.864   -8.882   -8.905   -8.925   -8.936   -8.932   -8.921   -8.926   -8.951   -8.983   -8.997   -8.995   -8.968   -8.929   -8.903   -8.906   -8.946   -9.004   -9.046   -9.060   -9.031   -8.989   -8.952   -8.948   -8.969   -9.014   -9.057   -9.099   -9.140   -9.287
 -17.974  -17.847  -17.798  -17.765  -17.746  -17.732  -17.722  -17.721  -17.714  -17.700  -17.684  -17.656  -17.625  -17.590  -17.560  -17.540  -17.541  -17.555  -17.572  -17.568  -17.493  -17.262  -16.770  -15.931  -14.738  -13.303  -11.836  -10.571   -9.669   -9.166   -8.982   -8.988   -9.060   -9.118   -9.132   -9.100   -9.035   -8.952   -8.863   -8.790   -8.737   -8.678   -8.583   -8.440   -8.257   -8.086   -7.966   -7.934   -7.995   -8.124   -8.282   -8.434   -8.557   -8.649   -8.713   -8.766   -8.821   -8.895   -8.983   -9.073   -9.145   -9.188   -9.200   -9.182   -9.123   -9.036   -8.940   -8.859   -8.811   -8.790   -8.788   -8.799   -8.824   -8.848   -8.858   -8.848   -8.833   -8.831   -8.857   -8.893   -8.920   -8.924   -8.900   -8.865   -8.843   -8.854   -8.905   -8.981   -9.038   -9.055   -9.026   -8.974   -8.933   -8.926   -8.954   -9.009   -9.065   -9.110   -9.156   -9.302
 -18.014  -17.875  -17.820  -17.794  -17.778  -17.770  -17.766  -17.768  -17.768  -17.765  -17.756  -17.740  -17.714  -17.686  -17.654  -17.625  -17.614  -17.619  -17.628  -17.616  -17.538  -17.305  -16.811  -15.969  -14.772  -13.334  -11.864  -10.593   -9.681   -9.164   -8.964   -8.953   -9.009   -9.054   -9.051   -9.006   -8.932   -8.849   -8.784   -8.760   -8.781   -8.812   -8.810   -8.747   -8.636   -8.516   -8.431   -8.415   -8.480   -8.606   -8.754   -8.878   -8.934   -8.936   -8.906   -8.884   -8.889   -8.928   -8.998   -9.071   -9.141   -9.193   -9.228   -9.228   -9.192   -9.116   -9.026   -8.933   -8.854   -8.789   -8.749   -8.738   -8.758   -8.784   -8.799   -8.789   -8.769   -8.769   -8.795   -8.841   -8.879   -8.890   -8.875   -8.846   -8.827   -8.843   -8.896   -8.977   -9.035   -9.052   -9.022   -8.964   -8.912   -8.898   -8.922   -8.970   -9.025   -9.076   -9.123   -9.276
 -18.036  -17.886  -17.835  -17.813  -17.801  -17.796  -17.798  -17.806  -17.813  -17.824  -17.828  -17.826  -17.809  -17.784  -17.751  -17.713  -17.689  -17.673  -17.669  -17.651  -17.571  -17.335  -16.840  -15.993  -14.795  -13.359  -11.894  -10.622   -9.705   -9.170   -8.938   -8.887   -8.905   -8.921   -8.904   -8.858   -8.793   -8.731   -8.695   -8.708   -8.772   -8.848   -8.900   -8.900   -8.853   -8.792   -8.744   -8.743   -8.805   -8.922   -9.057   -9.155   -9.183   -9.133   -9.041   -8.958   -8.908   -8.907   -8.938   -8.981   -9.033   -9.090   -9.139   -9.169   -9.168   -9.136   -9.075   -8.990   -8.892   -8.791   -8.709   -8.664   -8.670   -8.695   -8.712   -8.718   -8.717   -8.740   -8.785   -8.843   -8.886   -8.905   -8.890   -8.865   -8.844   -8.854   -8.893   -8.954   -9.001   -9.007   -8.973   -8.913   -8.857   -8.833   -8.842   -8.878   -8.921   -8.960   -9.005   -9.167
 -18.068  -17.903  -17.854  -17.828  -17.816  -17.816  -17.817  -17.826  -17.838  -17.860  -17.879  -17.886  -17.877  -17.857  -17.816  -17.769  -17.727  -17.697  -17.680  -17.656  -17.570  -17.334  -16.838  -15.991  -14.796  -13.361  -11.901  -10.642   -9.730   -9.181   -8.916   -8.821   -8.797   -8.787   -8.760   -8.732   -8.697   -8.677   -8.669   -8.697   -8.766   -8.848   -8.916   -8.952   -8.954   -8.938   -8.921   -8.938   -8.993   -9.088   -9.202   -9.281   -9.291   -9.216   -9.091   -8.967   -8.879   -8.842   -8.833   -8.848   -8.879   -8.930   -8.988   -9.043   -9.077   -9.086   -9.058   -8.988   -8.888   -8.768   -8.656   -8.590   -8.578   -8.600   -8.631   -8.655   -8.688   -8.753   -8.831   -8.903   -8.945   -8.957   -8.930   -8.893   -8.859   -8.849   -8.867   -8.901   -8.924   -8.920   -8.888   -8.837   -8.788   -8.766   -8.762   -8.780   -8.797   -8.818   -8.849   -9.022
 -18.132  -17.950  -17.891  -17.861  -17.847  -17.841  -17.838  -17.841  -17.847  -17.869  -17.889  -17.903  -17.901  -17.875  -17.831  -17.782  -17.729  -17.695  -17.674  -17.644  -17.555  -17.317  -16.822  -15.974  -14.781  -13.351  -11.902  -10.658   -9.755   -9.201   -8.917   -8.792   -8.738   -8.708   -8.693   -8.692   -8.711   -8.729   -8.745   -8.769   -8.815   -8.873   -8.925   -8.960   -8.978   -8.984   -8.991   -9.012   -9.054   -9.127   -9.207   -9.257   -9.247   -9.164   -9.029   -8.897   -8.805   -8.752   -8.731   -8.732   -8.749   -8.799   -8.864   -8.930   -8.981   -9.006   -8.990   -8.930   -8.837   -8.725   -8.628   -8.567   -8.556   -8.573   -8.600   -8.633   -8.694   -8.787   -8.895   -8.974   -9.009   -9.000   -8.954   -8.896   -8.846   -8.812   -8.810   -8.822   -8.831   -8.830   -8.817   -8.796   -8.773   -8.774   -8.776   -8.779   -8.773   -8.767   -8.786   -8.963
 -18.276  -18.074  -18.004  -17.970  -17.946  -17.929  -17.914  -17.906  -17.899  -17.908  -17.918  -17.929  -17.928  -17.908  -17.869  -17.820  -17.774  -17.744  -17.726  -17.695  -17.604  -17.362  -16.861  -16.012  -14.815  -13.392  -11.953  -10.721   -9.825   -9.263   -8.964   -8.820   -8.753   -8.721   -8.729   -8.771   -8.839   -8.899   -8.938   -8.955   -8.968   -8.982   -8.990   -8.989   -8.987   -8.987   -8.991   -9.007   -9.038   -9.076   -9.111   -9.118   -9.077   -8.989   -8.868   -8.759   -8.692   -8.660   -8.654   -8.658   -8.679   -8.736   -8.804   -8.870   -8.918   -8.927   -8.903   -8.846   -8.779   -8.713   -8.665   -8.643   -8.641   -8.645   -8.640   -8.654   -8.709   -8.807   -8.919   -8.998   -9.023   -8.994   -8.936   -8.868   -8.798   -8.751   -8.732   -8.744   -8.772   -8.810   -8.852   -8.896   -8.939   -8.994   -9.036   -9.051   -9.034   -9.012   -9.026   -9.200
 -18.589  -18.368  -18.290  -18.246  -18.213  -18.185  -18.156  -18.132  -18.108  -18.099  -18.097  -18.097  -18.093  -18.076  -18.047  -18.013  -17.985  -17.972  -17.963  -17.938  -17.845  -17.596  -17.086  -16.228  -15.028  -13.604  -12.165  -10.930  -10.019   -9.435   -9.105   -8.935   -8.852   -8.831   -8.869   -8.961   -9.087   -9.202   -9.275   -9.299   -9.280   -9.233   -9.167   -9.096   -9.034   -8.998   -8.992   -9.005   -9.015   -9.010   -8.985   -8.935   -8.860   -8.765   -8.669   -8.600   -8.580   -8.588   -8.608   -8.628   -8.661   -8.722   -8.795   -8.858   -8.891   -8.885   -8.845   -8.793   -8.761   -8.759   -8.782   -8.809   -8.817   -8.787   -8.732   -8.696   -8.718   -8.800   -8.897   -8.962   -8.973   -8.948   -8.893   -8.826   -8.758   -8.709   -8.696   -8.729   -8.812   -8.930   -9.082   -9.253   -9.440   -9.621   -9.767   -9.844   -9.853   -9.837   -9.839  -10.018
 -19.177  -18.938  -18.855  -18.806  -18.765  -18.732  -18.694  -18.656  -18.619  -18.588  -18.574  -18.564  -18.556  -18.541  -18.518  -18.501  -18.495  -18.499  -18.507  -18.488  -18.393  -18.137  -17.617  -16.753  -15.549  -14.118  -12.658  -11.385  -10.420   -9.772   -9.378   -9.160   -9.053   -9.038   -9.118   -9.283   -9.492   -9.689   -9.824   -9.869   -9.817   -9.685   -9.506   -9.313   -9.160   -9.067   -9.037   -9.040   -9.030   -8.978   -8.888   -8.785   -8.679   -8.584   -8.512   -8.485   -8.511   -8.563   -8.610   -8.644   -8.678   -8.735   -8.806   -8.861   -8.885   -8.876   -8.837   -8.803   -8.815   -8.868   -8.946   -9.007   -9.006   -8.944   -8.836   -8.750   -8.735   -8.780   -8.851   -8.898   -8.898   -8.873   -8.833   -8.786   -8.742   -8.716   -8.735   -8.816   -8.983   -9.229   -9.570   -9.982  -10.435  -10.873  -11.231  -11.448  -11.534  -11.544  -11.546  -11.709
 -20.106  -19.859  -19.777  -19.727  -19.689  -19.652  -19.610  -19.562  -19.515  -19.475  -19.447  -19.430  -19.415  -19.396  -19.382  -19.370  -19.377  -19.396  -19.412  -19.399  -19.306  -19.049  -18.532  -17.666  -16.456  -15.007  -13.506  -12.158  -11.085  -10.318   -9.810   -9.498   -9.345   -9.341   -9.487   -9.762  -10.101  -10.424  -10.645  -10.712  -10.603  -10.345  -10.002   -9.649   -9.368   -9.197   -9.129   -9.117   -9.090   -9.002   -8.866   -8.714   -8.595   -8.505   -8.458   -8.463   -8.529   -8.613   -8.682   -8.714   -8.729   -8.759   -8.805   -8.853   -8.884   -8.887   -8.877   -8.872   -8.911   -9.001   -9.099   -9.167   -9.156   -9.066   -8.934   -8.821   -8.772   -8.784   -8.817   -8.830   -8.816   -8.789   -8.768   -8.754   -8.753   -8.767   -8.833   -8.979   -9.255   -9.692  -10.327  -11.130  -12.025  -12.885  -13.576  -14.030  -14.244  -14.305  -14.314  -14.440
 -21.383  -21.132  -21.052  -21.007  -20.972  -20.934  -20.883  -20.830  -20.775  -20.729  -20.694  -20.669  -20.647  -20.625  -20.605  -20.593  -20.599  -20.617  -20.635  -20.629  -20.541  -20.294  -19.784  -18.924  -17.709  -16.233  -14.666  -13.203  -11.979  -11.041  -10.374   -9.940   -9.725   -9.735   -9.973  -10.403  -10.920  -11.401  -11.720  -11.792  -11.587  -11.149  -10.588  -10.037   -9.606   -9.339   -9.227   -9.198   -9.164   -9.057   -8.891   -8.724   -8.600   -8.532   -8.515   -8.545   -8.628   -8.720   -8.786   -8.805   -8.786   -8.778   -8.795   -8.832   -8.880   -8.912   -8.930   -8.952   -8.999   -9.086   -9.176   -9.235   -9.215   -9.127   -9.006   -8.900   -8.834   -8.818   -8.811   -8.783   -8.745   -8.711   -8.711   -8.731   -8.771   -8.830   -8.944   -9.163   -9.569  -10.256  -11.288  -12.633  -14.132  -15.564  -16.705  -17.464  -17.855  -17.984  -18.004  -18.068
 -22.934  -22.687  -22.612  -22.573  -22.533  -22.481  -22.409  -22.330  -22.251  -22.192  -22.152  -22.122  -22.097  -22.070  -22.041  -22.020  -22.018  -22.024  -22.037  -22.030  -21.950  -21.712  -21.212  -20.360  -19.138  -17.626  -15.978  -14.382  -12.984  -11.849  -10.997  -10.425  -10.141  -10.173  -10.528  -11.145  -11.869  -12.518  -12.931  -12.983  -12.645  -11.989  -11.175  -10.398   -9.800   -9.436   -9.275   -9.228   -9.191   -9.083   -8.915   -8.749   -8.647   -8.616   -8.636   -8.685   -8.761   -8.837   -8.882   -8.873   -8.825   -8.783   -8.773   -8.810   -8.868   -8.922   -8.958   -8.985   -9.024   -9.081   -9.144   -9.182   -9.167   -9.105   -9.026   -8.953   -8.898   -8.859   -8.822   -8.768   -8.717   -8.687   -8.699   -8.747   -8.812   -8.893   -9.031   -9.304   -9.844  -10.816  -12.322  -14.300  -16.496  -18.566  -20.209  -21.300  -21.883  -22.106  -22.143  -22.133
 -24.769  -24.523  -24.457  -24.409  -24.343  -24.235  -24.079  -23.911  -23.761  -23.656  -23.593  -23.561  -23.535  -23.504  -23.469  -23.436  -23.419  -23.415  -23.418  -23.404  -23.323  -23.089  -22.595  -21.744  -20.509  -18.955  -17.224  -15.497  -13.925  -12.603  -11.580  -10.878  -10.534  -10.604  -11.084  -11.885  -12.807  -13.607  -14.087  -14.105  -13.625  -12.747  -11.683  -10.671   -9.895   -9.421   -9.207   -9.153   -9.120   -9.030   -8.884   -8.753   -8.696   -8.719   -8.777   -8.837   -8.885   -8.918   -8.926   -8.897   -8.834   -8.778   -8.759   -8.788   -8.847   -8.904   -8.938   -8.949   -8.963   -8.987   -9.020   -9.040   -9.034   -9.010   -8.982   -8.956   -8.932   -8.898   -8.855   -8.802   -8.761   -8.752   -8.787   -8.837   -8.893   -8.958   -9.077   -9.368  -10.026  -11.283  -13.268  -15.882  -18.762  -21.442  -23.552  -24.958  -25.730  -26.050  -26.118  -26.031
 -27.147  -26.911  -26.854  -26.783  -26.616  -26.330  -25.947  -25.540  -25.195  -24.961  -24.832  -24.774  -24.745  -24.715  -24.677  -24.639  -24.613  -24.599  -24.591  -24.569  -24.482  -24.243  -23.744  -22.882  -21.625  -20.026  -18.218  -16.373  -14.655  -13.180  -12.023  -11.230  -10.862  -10.983  -11.587  -12.546  -13.614  -14.520  -15.034  -15.002  -14.401  -13.337  -12.053  -10.828   -9.883   -9.300   -9.038   -8.981   -8.976   -8.921   -8.819   -8.738   -8.739   -8.813   -8.900   -8.949   -8.959   -8.948   -8.922   -8.888   -8.838   -8.786   -8.762   -8.778   -8.822   -8.864   -8.883   -8.877   -8.865   -8.863   -8.872   -8.884   -8.887   -8.894   -8.909   -8.927   -8.939   -8.928   -8.902   -8.872   -8.864   -8.892   -8.946   -8.992   -9.014   -9.022   -9.083   -9.367  -10.116  -11.615  -14.026  -17.187  -20.637  -23.819  -26.314  -27.980  -28.906  -29.311  -29.407  -29.254
 -30.722  -30.526  -30.486  -30.324  -29.906  -29.203  -28.295  -27.361  -26.581  -26.062  -25.782  -25.660  -25.612  -25.580  -25.547  -25.512  -25.486  -25.469  -25.458  -25.428  -25.328  -25.076  -24.561  -23.677  -22.388  -20.738  -18.859  -16.917  -15.095  -13.518  -12.292  -11.473  -11.137  -11.337  -12.043  -13.105  -14.252  -15.194  -15.694  -15.608  -14.911  -13.717  -12.275  -10.893   -9.812   -9.143   -8.856   -8.813   -8.852   -8.843   -8.787   -8.751   -8.787   -8.878   -8.959   -8.985   -8.961   -8.924   -8.899   -8.882   -8.851   -8.810   -8.777   -8.774   -8.802   -8.832   -8.843   -8.828   -8.802   -8.785   -8.786   -8.800   -8.817   -8.843   -8.875   -8.915   -8.936   -8.937   -8.928   -8.938   -8.983   -9.054   -9.126   -9.155   -9.125   -9.067   -9.072   -9.336  -10.148  -11.840  -14.570  -18.136  -21.997  -25.533  -28.299  -30.147  -31.181  -31.639  -31.750  -31.551
 -36.420  -36.318  -36.256  -35.855  -34.909  -33.398  -31.519  -29.626  -28.069  -27.031  -26.467  -26.228  -26.143  -26.105  -26.078  -26.054  -26.034  -26.023  -26.010  -25.976  -25.866  -25.597  -25.055  -24.139  -22.803  -21.098  -19.151  -17.135  -15.245  -13.633  -12.413  -11.658  -11.425  -11.729  -12.520  -13.620  -14.761  -15.659  -16.095  -15.938  -15.166  -13.895  -12.374  -10.901   -9.742   -9.030   -8.743   -8.736   -8.820   -8.857   -8.831   -8.805   -8.836   -8.904   -8.952   -8.948   -8.916   -8.883   -8.876   -8.874   -8.857   -8.819   -8.781   -8.770   -8.798   -8.839   -8.860   -8.844   -8.808   -8.788   -8.797   -8.828   -8.862   -8.887   -8.911   -8.922   -8.914   -8.903   -8.912   -8.969   -9.069   -9.184   -9.264   -9.271   -9.199   -9.096   -9.067   -9.321  -10.184  -12.002  -14.932  -18.739  -22.842  -26.585  -29.505  -31.450  -32.534  -33.010  -33.120  -32.896
 -44.844  -44.876  -44.656  -43.751  -41.906  -39.141  -35.806  -32.488  -29.773  -27.962  -26.986  -26.569  -26.426  -26.380  -26.360  -26.345  -26.335  -26.330  -26.321  -26.286  -26.166  -25.879  -25.304  -24.343  -22.953  -21.183  -19.167  -17.098  -15.181  -13.598  -12.475  -11.871  -11.807  -12.251  -13.102  -14.174  -15.228  -16.013  -16.339  -16.092  -15.259  -13.953  -12.403  -10.912   -9.733   -9.012   -8.740   -8.757   -8.872   -8.929   -8.907   -8.869   -8.873   -8.905   -8.917   -8.900   -8.871   -8.847   -8.844   -8.843   -8.823   -8.779   -8.739   -8.747   -8.800   -8.874   -8.916   -8.909   -8.868   -8.850   -8.874   -8.924   -8.969   -8.987   -8.974   -8.923   -8.857   -8.818   -8.841   -8.941   -9.092   -9.238   -9.321   -9.312   -9.221   -9.104   -9.074   -9.347  -10.244  -12.124  -15.140  -19.042  -23.233  -27.045  -30.012  -31.979  -33.063  -33.526  -33.622  -33.388
 -55.494  -55.633  -55.014  -53.289  -50.216  -45.886  -40.789  -35.755  -31.637  -28.895  -27.423  -26.793  -26.580  -26.522  -26.504  -26.494  -26.487  -26.480  -26.473  -26.436  -26.315  -26.012  -25.409  -24.400  -22.941  -21.096  -19.021  -16.922  -15.030  -13.541  -12.586  -12.198  -12.344  -12.927  -13.805  -14.800  -15.715  -16.345  -16.541  -16.204  -15.325  -14.011  -12.475  -10.997   -9.824   -9.101   -8.815   -8.820   -8.918   -8.971   -8.950   -8.906   -8.896   -8.913   -8.921   -8.905   -8.872   -8.839   -8.809   -8.781   -8.737   -8.681   -8.649   -8.680   -8.773   -8.885   -8.954   -8.954   -8.917   -8.898   -8.923   -8.983   -9.036   -9.046   -9.001   -8.901   -8.785   -8.717   -8.742   -8.864   -9.036   -9.185   -9.262   -9.253   -9.167   -9.074   -9.076   -9.382  -10.302  -12.191  -15.184  -19.045  -23.194  -26.960  -29.884  -31.811  -32.860  -33.296  -33.375  -33.143
 -66.729  -66.868  -65.632  -62.844  -58.369  -52.399  -45.552  -38.843  -33.371  -29.736  -27.797  -26.971  -26.692  -26.618  -26.599  -26.584  -26.566  -26.549  -26.531  -26.494  -26.381  -26.078  -25.454  -24.399  -22.875  -20.959  -18.836  -16.745  -14.930  -13.591  -12.843  -12.692  -13.036  -13.716  -14.571  -15.450  -16.199  -16.675  -16.754  -16.354  -15.464  -14.168  -12.662  -11.204  -10.029   -9.277   -8.936   -8.867   -8.907   -8.932   -8.913   -8.900   -8.921   -8.968   -8.999   -8.988   -8.927   -8.847   -8.771   -8.706   -8.640   -8.576   -8.545   -8.586   -8.702   -8.839   -8.928   -8.930   -8.887   -8.855   -8.870   -8.929   -8.994   -9.023   -8.983   -8.875   -8.741   -8.648   -8.653   -8.756   -8.904   -9.033   -9.097   -9.089   -9.037   -8.989   -9.044   -9.386  -10.309  -12.138  -15.015  -18.722  -22.702  -26.317  -29.118  -30.956  -31.947  -32.350  -32.419  -32.205
 -76.893  -76.851  -74.854  -70.837  -64.874  -57.352  -49.015  -41.002  -34.547  -30.306  -28.061  -27.111  -26.794  -26.712  -26.690  -26.661  -26.625  -26.589  -26.565  -26.539  -26.447  -26.161  -25.529  -24.429  -22.840  -20.864  -18.721  -16.679  -14.990  -13.844  -13.314  -13.367  -13.841  -14.549  -15.325  -16.048  -16.620  -16.947  -16.935  -16.505  -15.637  -14.384  -12.921  -11.484  -10.304   -9.502   -9.066   -8.884   -8.830   -8.816   -8.822   -8.867   -8.960   -9.061   -9.114   -9.080   -8.973   -8.849   -8.742   -8.667   -8.601   -8.532   -8.496   -8.528   -8.631   -8.760   -8.839   -8.835   -8.777   -8.727   -8.729   -8.791   -8.886   -8.962   -8.976   -8.901   -8.773   -8.663   -8.622   -8.662   -8.746   -8.828   -8.870   -8.872   -8.855   -8.862   -8.969   -9.335  -10.218  -11.915  -14.572  -18.002  -21.693  -25.051  -27.650  -29.354  -30.267  -30.635  -30.696  -30.518
 -85.160  -84.635  -81.623  -76.176  -68.700  -59.810  -50.377  -41.638  -34.814  -30.433  -28.148  -27.194  -26.884  -26.814  -26.802  -26.779  -26.741  -26.707  -26.699  -26.711  -26.668  -26.412  -25.766  -24.604  -22.927  -20.890  -18.746  -16.795  -15.273  -14.331  -13.998  -14.190  -14.717  -15.385  -16.034  -16.574  -16.953  -17.117  -17.006  -16.550  -15.711  -14.517  -13.111  -11.708  -10.525   -9.679   -9.156   -8.873   -8.739   -8.699   -8.738   -8.849   -9.008   -9.141   -9.185   -9.111   -8.968   -8.838   -8.767   -8.742   -8.707   -8.642   -8.585   -8.580   -8.639   -8.725   -8.770   -8.742   -8.663   -8.602   -8.602   -8.682   -8.823   -8.967   -9.044   -9.010   -8.890   -8.752   -8.660   -8.632   -8.648   -8.676   -8.684   -8.689   -8.694   -8.739   -8.872   -9.221  -10.008  -11.494  -13.821  -16.837  -20.107  -23.093  -25.411  -26.929  -27.739  -28.063  -28.121  -27.994
 -90.830  -89.453  -85.097  -78.161  -69.353  -59.396  -49.353  -40.573  -34.072  -30.058  -28.016  -27.186  -26.952  -26.956  -27.025  -27.086  -27.126  -27.171  -27.256  -27.370  -27.407  -27.170  -26.450  -25.131  -23.277  -21.110  -18.942  -17.084  -15.746  -15.005  -14.833  -15.100  -15.620  -16.205  -16.713  -17.071  -17.247  -17.223  -16.975  -16.453  -15.617  -14.469  -13.124  -11.772  -10.608   -9.745   -9.186   -8.854   -8.687   -8.653   -8.734   -8.898   -9.080   -9.199   -9.192   -9.070   -8.930   -8.865   -8.905   -8.979   -9.006   -8.959   -8.880   -8.828   -8.826   -8.849   -8.839   -8.773   -8.680   -8.620   -8.636   -8.734   -8.899   -9.079   -9.185   -9.164   -9.041   -8.880   -8.758   -8.691   -8.665   -8.654   -8.640   -8.626   -8.626   -8.667   -8.777   -9.067   -9.703  -10.908  -12.800  -15.278  -17.980  -20.471  -22.414  -23.689  -24.362  -24.622  -24.666  -24.611
 -92.570  -90.314  -84.738  -76.695  -66.938  -56.309  -46.237  -38.114  -32.539  -29.278  -27.687  -27.101  -27.056  -27.282  -27.620  -27.975  -28.311  -28.638  -28.981  -29.295  -29.422  -29.104  -28.113  -26.390  -24.109  -21.627  -19.332  -17.517  -16.326  -15.754  -15.699  -15.998  -16.475  -16.971  -17.360  -17.565  -17.561  -17.348  -16.935  -16.308  -15.437  -14.320  -13.030  -11.734  -10.604   -9.755   -9.202   -8.892   -8.761   -8.777   -8.900   -9.078   -9.231   -9.285   -9.206   -9.057   -8.961   -9.017   -9.207   -9.413   -9.517   -9.491   -9.395   -9.298   -9.236   -9.193   -9.130   -9.038   -8.949   -8.902   -8.924   -9.007   -9.136   -9.270   -9.338   -9.298   -9.171   -9.023   -8.907   -8.847   -8.817   -8.792   -8.760   -8.723   -8.702   -8.701   -8.759   -8.950   -9.396  -10.268  -11.656  -13.489  -15.504  -17.379  -18.851  -19.806  -20.296  -20.462  -20.474  -20.496
 -89.543  -86.885  -80.817  -72.274  -61.995  -51.243  -41.840  -34.959  -30.635  -28.272  -27.218  -26.994  -27.340  -28.099  -29.113  -30.223  -31.305  -32.300  -33.164  -33.779  -33.901  -33.218  -31.532  -28.912  -25.744  -22.591  -19.938  -18.045  -16.928  -16.467  -16.477  -16.768  -17.187  -17.595  -17.891  -17.995  -17.872  -17.525  -16.981  -16.261  -15.355  -14.257  -13.021  -11.780  -10.688   -9.871   -9.364   -9.122   -9.077   -9.164   -9.317   -9.467   -9.548   -9.513   -9.369   -9.212   -9.189   -9.381   -9.719  -10.044  -10.215  -10.216  -10.112   -9.992   -9.886   -9.799   -9.708   -9.621   -9.546   -9.505   -9.495   -9.503   -9.527   -9.552   -9.544   -9.485   -9.379   -9.275   -9.204   -9.175   -9.160   -9.138   -9.104   -9.046   -8.994   -8.952   -8.944   -9.030   -9.291   -9.818  -10.668  -11.797  -13.051  -14.212  -15.114  -15.679  -15.932  -15.969  -15.927  -16.007
 -82.791  -80.150  -74.182  -65.593  -55.375  -45.312  -37.250  -31.875  -28.767  -27.193  -26.643  -26.917  -27.990  -29.831  -32.226  -34.837  -37.340  -39.506  -41.157  -42.060  -41.900  -40.365  -37.354  -33.151  -28.448  -24.111  -20.774  -18.620  -17.481  -17.062  -17.084  -17.333  -17.665  -17.978  -18.194  -18.245  -18.085  -17.709  -17.142  -16.408  -15.507  -14.445  -13.271  -12.093  -11.058  -10.300   -9.863   -9.714   -9.761   -9.902  -10.050  -10.132  -10.120   -9.998   -9.810   -9.673   -9.724  -10.018  -10.461  -10.860  -11.086  -11.122  -11.040  -10.923  -10.815  -10.723  -10.642  -10.582  -10.528  -10.474  -10.402  -10.303  -10.202  -10.120  -10.053   -9.999   -9.945   -9.898   -9.873   -9.865   -9.865   -9.850   -9.815   -9.753   -9.674   -9.598   -9.551   -9.562   -9.658   -9.871  -10.209  -10.645  -11.110  -11.511  -11.782  -11.890  -11.846  -11.707  -11.578  -11.692
 -74.199  -71.539  -65.849  -57.711  -48.427  -39.870  -33.460  -29.416  -27.161  -26.082  -25.940  -26.872  -29.147  -32.810  -37.455  -42.367  -46.863  -50.481  -52.919  -53.890  -53.083  -50.242  -45.380  -39.000  -32.155  -26.123  -21.764  -19.176  -17.928  -17.502  -17.499  -17.676  -17.903  -18.103  -18.235  -18.261  -18.139  -17.852  -17.388  -16.742  -15.920  -14.932  -13.841  -12.756  -11.822  -11.159  -10.814  -10.747  -10.856  -11.005  -11.103  -11.099  -10.993  -10.808  -10.613  -10.508  -10.614  -10.960  -11.452  -11.900  -12.179  -12.272  -12.249  -12.179  -12.111  -12.052  -12.014  -11.995  -11.971  -11.902  -11.772  -11.601  -11.432  -11.301  -11.233  -11.207  -11.199  -11.193  -11.183  -11.173  -11.172  -11.162  -11.131  -11.066  -10.973  -10.887  -10.828  -10.799  -10.779  -10.726  -10.612  -10.416  -10.139   -9.800   -9.425   -9.028   -8.628   -8.265   -8.012   -8.120
 -65.392  -62.723  -57.675  -50.725  -43.103  -36.285  -31.196  -27.881  -25.898  -24.919  -25.047  -26.812  -30.793  -36.992  -44.522  -52.052  -58.507  -63.305  -66.179  -66.926  -65.289  -61.043  -54.250  -45.539  -36.285  -28.277  -22.714  -19.610  -18.228  -17.783  -17.750  -17.855  -17.972  -18.056  -18.106  -18.119  -18.071  -17.928  -17.642  -17.163  -16.478  -15.617  -14.655  -13.713  -12.927  -12.389  -12.138  -12.131  -12.248  -12.361  -12.382  -12.296  -12.126  -11.917  -11.739  -11.677  -11.820  -12.202  -12.729  -13.230  -13.589  -13.777  -13.851  -13.867  -13.865  -13.870  -13.890  -13.917  -13.916  -13.852  -13.721  -13.550  -13.396  -13.293  -13.261  -13.274  -13.289  -13.286  -13.266  -13.242  -13.233  -13.236  -13.213  -13.145  -13.045  -12.954  -12.899  -12.848  -12.739  -12.481  -12.001  -11.286  -10.389   -9.403   -8.413   -7.500   -6.703   -6.078   -5.672   -5.741
 -59.312  -56.994  -53.028  -47.580  -41.466  -35.692  -30.966  -27.470  -25.062  -23.734  -23.954  -26.662  -32.694  -41.765  -52.172  -61.908  -69.748  -75.241  -78.270  -78.690  -76.215  -70.648  -62.154  -51.399  -39.922  -30.032  -23.345  -19.808  -18.352  -17.924  -17.886  -17.942  -17.974  -17.967  -17.946  -17.942  -17.952  -17.937  -17.818  -17.516  -17.002  -16.310  -15.524  -14.764  -14.145  -13.741  -13.565  -13.573  -13.658  -13.715  -13.676  -13.540  -13.352  -13.160  -13.027  -13.020  -13.221  -13.659  -14.257  -14.864  -15.352  -15.680  -15.877  -15.992  -16.067  -16.127  -16.187  -16.245  -16.274  -16.238  -16.149  -16.043  -15.964  -15.935  -15.950  -15.986  -16.007  -15.991  -15.953  -15.930  -15.939  -15.969  -15.960  -15.893  -15.784  -15.685  -15.622  -15.552  -15.371  -14.960  -14.224  -13.148  -11.805  -10.320   -8.831   -7.451   -6.273   -5.368   -4.802   -4.812
 -59.250  -57.548  -54.472  -49.920  -44.307  -38.369  -32.856  -28.248  -24.758  -22.672  -22.774  -26.363  -34.417  -46.093  -58.737  -69.953  -78.777  -84.935  -88.206  -88.254  -84.717  -77.695  -67.722  -55.403  -42.217  -30.899  -23.448  -19.717  -18.308  -17.958  -17.953  -17.991  -17.981  -17.923  -17.856  -17.830  -17.854  -17.893  -17.866  -17.693  -17.336  -16.826  -16.237  -15.668  -15.206  -14.907  -14.772  -14.764  -14.801  -14.808  -14.735  -14.596  -14.429  -14.291  -14.228  -14.307  -14.607  -15.161  -15.897  -16.677  -17.346  -17.833  -18.156  -18.354  -18.478  -18.569  -18.645  -18.709  -18.745  -18.745  -18.715  -18.686  -18.688  -18.729  -18.787  -18.843  -18.870  -18.858  -18.833  -18.837  -18.893  -18.963  -18.977  -18.912  -18.795  -18.686  -18.609  -18.514  -18.282  -17.777  -16.903  -15.647  -14.074  -12.310  -10.500   -8.795   -7.323   -6.201   -5.505   -5.460
 -64.419  -63.287  -60.526  -56.033  -50.022  -43.097  -36.117  -29.885  -24.955  -21.881  -21.676  -25.874  -35.427  -48.887  -62.862  -74.968  -84.673  -91.631  -95.159  -94.598  -89.734  -81.278  -70.183  -56.856  -42.655  -30.635  -22.985  -19.373  -18.159  -17.943  -17.994  -18.040  -18.016  -17.944  -17.858  -17.811  -17.812  -17.838  -17.824  -17.709  -17.467  -17.111  -16.697  -16.295  -15.961  -15.729  -15.605  -15.567  -15.555  -15.526  -15.447  -15.333  -15.217  -15.145  -15.164  -15.349  -15.787  -16.510  -17.441  -18.424  -19.290  -19.937  -20.362  -20.615  -20.759  -20.847  -20.913  -20.962  -20.993  -21.005  -21.015  -21.040  -21.094  -21.176  -21.264  -21.337  -21.382  -21.397  -21.413  -21.467  -21.573  -21.685  -21.730  -21.680  -21.568  -21.460  -21.376  -21.266  -21.008  -20.483  -19.598  -18.341  -16.757  -14.964  -13.089  -11.279   -9.685   -8.463   -7.698   -7.601
 -70.913  -70.113  -67.263  -62.385  -55.675  -47.677  -39.298  -31.576  -25.356  -21.394  -20.796  -25.131  -35.234  -49.333  -63.737  -76.128  -86.154  -93.329  -96.676  -95.476  -89.803  -80.738  -69.214  -55.486  -41.092  -29.275  -22.075  -18.898  -17.980  -17.916  -18.025  -18.089  -18.073  -18.001  -17.920  -17.864  -17.835  -17.817  -17.777  -17.674  -17.495  -17.250  -16.967  -16.689  -16.446  -16.263  -16.144  -16.075  -16.030  -15.977  -15.902  -15.820  -15.751  -15.735  -15.834  -16.126  -16.702  -17.595  -18.720  -19.901  -20.941  -21.718  -22.219  -22.498  -22.640  -22.709  -22.750  -22.774  -22.791  -22.803  -22.823  -22.863  -22.930  -23.019  -23.111  -23.196  -23.262  -23.309  -23.365  -23.461  -23.602  -23.739  -23.806  -23.778  -23.689  -23.601  -23.531  -23.426  -23.188  -22.714  -21.936  -20.838  -19.463  -17.886  -16.208  -14.545  -13.045  -11.863  -11.111  -10.974
 -75.730  -74.967  -71.806  -66.398  -59.040  -50.281  -41.037  -32.457  -25.539  -21.093  -20.147  -24.085  -33.598  -47.070  -61.024  -72.997  -82.371  -88.762  -91.490  -90.089  -84.711  -76.111  -64.828  -51.346  -37.713  -27.054  -20.902  -18.394  -17.817  -17.892  -18.049  -18.122  -18.112  -18.056  -17.989  -17.931  -17.885  -17.839  -17.775  -17.674  -17.532  -17.360  -17.171  -16.982  -16.811  -16.669  -16.561  -16.481  -16.416  -16.352  -16.287  -16.223  -16.185  -16.213  -16.364  -16.737  -17.418  -18.439  -19.704  -21.022  -22.184  -23.050  -23.601  -23.893  -24.025  -24.078  -24.095  -24.102  -24.103  -24.104  -24.116  -24.142  -24.191  -24.260  -24.339  -24.417  -24.487  -24.550  -24.625  -24.730  -24.870  -24.999  -25.070  -25.061  -25.005  -24.949  -24.905  -24.833  -24.655  -24.297  -23.723  -22.930  -21.955  -20.833  -19.601  -18.314  -17.080  -16.049  -15.358  -15.185
 -77.183  -76.273  -72.797  -67.005  -59.269  -50.188  -40.739  -32.099  -25.224  -20.808  -19.635  -22.731  -30.660  -42.292  -54.857  -65.864  -74.219  -79.581  -81.721  -80.459  -75.799  -67.961  -57.299  -44.856  -33.007  -24.316  -19.618  -17.900  -17.650  -17.836  -18.015  -18.090  -18.084  -18.044  -17.994  -17.944  -17.899  -17.852  -17.789  -17.703  -17.597  -17.482  -17.367  -17.250  -17.143  -17.048  -16.966  -16.893  -16.830  -16.768  -16.708  -16.658  -16.636  -16.681  -16.860  -17.271  -18.002  -19.081  -20.411  -21.798  -23.024  -23.941  -24.523  -24.830  -24.962  -25.006  -25.013  -25.008  -24.998  -24.990  -24.987  -24.993  -25.013  -25.052  -25.104  -25.163  -25.219  -25.272  -25.334  -25.411  -25.513  -25.604  -25.655  -25.650  -25.619  -25.591  -25.576  -25.549  -25.463  -25.282  -25.008  -24.672  -24.300  -23.874  -23.321  -22.594  -21.735  -20.903  -20.281  -20.069
 -75.141  -74.044  -70.402  -64.489  -56.711  -47.770  -38.730  -30.693  -24.424  -20.395  -19.082  -21.119  -26.895  -35.792  -45.989  -55.421  -62.751  -67.421  -69.245  -68.112  -63.945  -56.843  -47.367  -36.940  -27.723  -21.434  -18.305  -17.351  -17.386  -17.646  -17.830  -17.903  -17.907  -17.883  -17.853  -17.824  -17.795  -17.767  -17.730  -17.679  -17.618  -17.560  -17.507  -17.460  -17.413  -17.367  -17.320  -17.279  -17.231  -17.181  -17.136  -17.094  -17.083  -17.132  -17.312  -17.719  -18.450  -19.522  -20.850  -22.245  -23.491  -24.438  -25.052  -25.385  -25.537  -25.589  -25.597  -25.590  -25.576  -25.562  -25.547  -25.536  -25.531  -25.543  -25.568  -25.604  -25.641  -25.673  -25.703  -25.739  -25.783  -25.819  -25.834  -25.819  -25.796  -25.785  -25.793  -25.817  -25.850  -25.911  -26.062  -26.377  -26.873  -27.428  -27.808  -27.807  -27.400  -26.775  -26.200  -25.912
 -70.846  -69.559  -65.880  -60.066  -52.568  -44.186  -35.967  -28.837  -23.339  -19.745  -18.282  -19.257  -22.864  -28.781  -35.970  -43.053  -48.873  -52.740  -54.293  -53.334  -49.808  -43.955  -36.531  -28.900  -22.629  -18.677  -16.946  -16.627  -16.870  -17.167  -17.354  -17.429  -17.446  -17.443  -17.442  -17.446  -17.461  -17.477  -17.485  -17.486  -17.484  -17.488  -17.497  -17.510  -17.521  -17.522  -17.521  -17.517  -17.506  -17.488  -17.468  -17.442  -17.430  -17.472  -17.632  -18.003  -18.683  -19.697  -20.980  -22.346  -23.594  -24.573  -25.233  -25.618  -25.813  -25.898  -25.922  -25.919  -25.905  -25.888  -25.867  -25.847  -25.831  -25.829  -25.837  -25.856  -25.874  -25.890  -25.896  -25.897  -25.897  -25.885  -25.866  -25.835  -25.809  -25.803  -25.832  -25.916  -26.101  -26.490  -27.230  -28.449  -30.121  -31.969  -33.529  -34.420  -34.558  -34.187  -33.664  -33.236
 -65.662  -64.250  -60.694  -55.225  -48.321  -40.759  -33.450  -27.128  -22.192  -18.825  -17.119  -17.175  -19.006  -22.379  -26.703  -31.163  -34.995  -37.647  -38.749  -38.069  -35.569  -31.528  -26.627  -21.868  -18.220  -16.146  -15.457  -15.572  -15.935  -16.248  -16.432  -16.516  -16.554  -16.581  -16.617  -16.669  -16.747  -16.834  -16.918  -16.998  -17.074  -17.155  -17.236  -17.309  -17.366  -17.416  -17.462  -17.513  -17.558  -17.595  -17.613  -17.608  -17.596  -17.615  -17.725  -18.030  -18.616  -19.535  -20.736  -22.058  -23.308  -24.332  -25.068  -25.541  -25.812  -25.950  -26.003  -26.014  -26.004  -25.986  -25.967  -25.951  -25.936  -25.932  -25.939  -25.950  -25.966  -25.979  -25.984  -25.976  -25.955  -25.924  -25.891  -25.859  -25.837  -25.837  -25.888  -26.042  -26.422  -27.221  -28.693  -31.009  -34.068  -37.375  -40.231  -42.112  -42.918  -42.934  -42.553  -41.937
 -60.689  -59.286  -56.026  -51.112  -44.973  -38.259  -31.695  -25.878  -21.173  -17.761  -15.715  -15.036  -15.627  -17.232  -19.456  -21.803  -23.834  -25.239  -25.786  -25.331  -23.853  -21.549  -18.856  -16.373  -14.621  -13.805  -13.754  -14.097  -14.505  -14.808  -14.992  -15.090  -15.150  -15.204  -15.276  -15.386  -15.541  -15.727  -15.920  -16.107  -16.291  -16.469  -16.632  -16.767  -16.877  -16.970  -17.074  -17.189  -17.310  -17.418  -17.490  -17.510  -17.494  -17.472  -17.513  -17.713  -18.179  -18.971  -20.065  -21.326  -22.578  -23.665  -24.504  -25.091  -25.466  -25.678  -25.776  -25.805  -25.804  -25.791  -25.781  -25.779  -25.784  -25.797  -25.820  -25.852  -25.892  -25.932  -25.966  -25.982  -25.981  -25.967  -25.947  -25.932  -25.926  -25.942  -26.018  -26.251  -26.829  -28.042  -30.238  -33.617  -37.968  -42.587  -46.604  -49.440  -51.001  -51.569  -51.485  -50.714
 -56.522  -55.230  -52.344  -48.034  -42.646  -36.676  -30.681  -25.159  -20.482  -16.884  -14.476  -13.240  -13.026  -13.573  -14.530  -15.553  -16.386  -16.882  -16.964  -16.592  -15.785  -14.657  -13.420  -12.371  -11.742  -11.614  -11.864  -12.273  -12.663  -12.949  -13.139  -13.257  -13.327  -13.380  -13.459  -13.609  -13.843  -14.135  -14.454  -14.771  -15.083  -15.376  -15.632  -15.834  -15.990  -16.128  -16.285  -16.471  -16.673  -16.858  -16.988  -17.040  -17.018  -16.947  -16.902  -16.981  -17.307  -17.952  -18.921  -20.105  -21.346  -22.489  -23.430  -24.137  -24.619  -24.910  -25.055  -25.108  -25.120  -25.123  -25.137  -25.168  -25.215  -25.275  -25.353  -25.447  -25.558  -25.674  -25.781  -25.869  -25.930  -25.966  -25.991  -26.008  -26.029  -26.064  -26.166  -26.456  -27.168  -28.661  -31.340  -35.424  -40.626  -46.127  -50.989  -54.631  -56.954  -58.187  -58.537  -57.741
 -53.134  -51.972  -49.430  -45.661  -40.932  -35.621  -30.150  -24.930  -20.321  -16.599  -13.917  -12.285  -11.560  -11.471  -11.707  -11.990  -12.146  -12.109  -11.876  -11.483  -10.981  -10.428   -9.923   -9.570   -9.462   -9.614   -9.936  -10.317  -10.672  -10.964  -11.180  -11.321  -11.372  -11.373  -11.403  -11.537  -11.807  -12.182  -12.611  -13.050  -13.482  -13.883  -14.222  -14.482  -14.675  -14.839  -15.031  -15.268  -15.534  -15.785  -15.975  -16.062  -16.043  -15.930  -15.803  -15.764  -15.948  -16.447  -17.280  -18.364  -19.558  -20.715  -21.715  -22.506  -23.061  -23.407  -23.590  -23.669  -23.700  -23.733  -23.792  -23.883  -24.003  -24.153  -24.341  -24.557  -24.806  -25.066  -25.321  -25.543  -25.722  -25.850  -25.942  -26.007  -26.058  -26.110  -26.220  -26.518  -27.243  -28.764  -31.500  -35.705  -41.113  -46.925  -52.223  -56.439  -59.452  -61.388  -62.280  -61.661
 -50.229  -49.161  -46.891  -43.565  -39.420  -34.752  -29.878  -25.128  -20.803  -17.171  -14.402  -12.541  -11.462  -10.940  -10.704  -10.533  -10.288   -9.932   -9.482   -8.987   -8.504   -8.094   -7.805   -7.668   -7.702   -7.887   -8.177   -8.518   -8.877   -9.223   -9.509   -9.674   -9.679   -9.568   -9.468   -9.506   -9.735  -10.125  -10.605  -11.112  -11.613  -12.071  -12.459  -12.743  -12.942  -13.106  -13.298  -13.546  -13.832  -14.121  -14.351  -14.475  -14.469  -14.335  -14.150  -14.023  -14.092  -14.461  -15.151  -16.108  -17.205  -18.301  -19.279  -20.066  -20.633  -20.989  -21.183  -21.277  -21.341  -21.421  -21.543  -21.718  -21.949  -22.238  -22.589  -23.004  -23.472  -23.963  -24.447  -24.882  -25.235  -25.503  -25.688  -25.811  -25.890  -25.955  -26.054  -26.301  -26.905  -28.194  -30.557  -34.271  -39.202  -44.705  -49.964  -54.430  -57.944  -60.513  -61.978  -61.717
 -47.613  -46.598  -44.533  -41.574  -37.954  -33.931  -29.744  -25.630  -21.818  -18.518  -15.878  -13.941  -12.625  -11.763  -11.154  -10.632  -10.095   -9.492   -8.841   -8.167   -7.534   -7.004   -6.634   -6.437   -6.414   -6.531   -6.757   -7.084   -7.499   -7.953   -8.352   -8.567   -8.518   -8.268   -7.989   -7.861   -7.976   -8.293   -8.737   -9.221   -9.703  -10.147  -10.507  -10.756  -10.919  -11.048  -11.202  -11.409  -11.669  -11.946  -12.183  -12.329  -12.333  -12.199  -11.990  -11.810  -11.797  -12.055  -12.608  -13.407  -14.343  -15.296  -16.157  -16.856  -17.355  -17.666  -17.842  -17.946  -18.043  -18.177  -18.378  -18.656  -19.018  -19.477  -20.039  -20.708  -21.456  -22.254  -23.042  -23.750  -24.330  -24.765  -25.063  -25.246  -25.355  -25.420  -25.489  -25.647  -26.054  -26.957  -28.675  -31.484  -35.389  -40.000  -44.702  -49.020  -52.750  -55.757  -57.706  -57.891
 -45.266  -44.282  -42.371  -39.709  -36.554  -33.139  -29.646  -26.233  -23.043  -20.216  -17.847  -15.965  -14.518  -13.397  -12.478  -11.654  -10.848  -10.020   -9.154   -8.269   -7.413   -6.667   -6.100   -5.737   -5.579   -5.599   -5.770   -6.101   -6.584   -7.161   -7.680   -7.964   -7.905   -7.560   -7.135   -6.848   -6.813   -7.004   -7.333   -7.712   -8.081   -8.405   -8.657   -8.815   -8.903   -8.964   -9.047   -9.178   -9.364   -9.578   -9.774   -9.902   -9.903   -9.769   -9.552   -9.352   -9.284   -9.444   -9.852  -10.466  -11.194  -11.943  -12.619  -13.160  -13.540  -13.770  -13.910  -14.014  -14.137  -14.322  -14.593  -14.964  -15.457  -16.084  -16.856  -17.778  -18.820  -19.933  -21.038  -22.036  -22.856  -23.457  -23.856  -24.092  -24.218  -24.274  -24.302  -24.363  -24.565  -25.075  -26.116  -27.916  -30.566  -33.904  -37.586  -41.297  -44.841  -47.972  -50.210  -50.836
 -43.144  -42.192  -40.400  -37.981  -35.208  -32.310  -29.430  -26.657  -24.065  -21.718  -19.662  -17.902  -16.403  -15.108  -13.940  -12.849  -11.799  -10.762   -9.714   -8.655   -7.629   -6.709   -5.978   -5.486   -5.223   -5.155   -5.271   -5.586   -6.096   -6.734   -7.331   -7.683   -7.665   -7.332   -6.876   -6.516   -6.373   -6.435   -6.618   -6.841   -7.048   -7.203   -7.293   -7.318   -7.307   -7.292   -7.292   -7.334   -7.414   -7.528   -7.641   -7.709   -7.680   -7.540   -7.323   -7.101   -6.978   -7.031   -7.283   -7.702   -8.221   -8.755   -9.232   -9.599   -9.842   -9.985  -10.072  -10.164  -10.296  -10.504  -10.811  -11.236  -11.808  -12.550  -13.465  -14.555  -15.797  -17.138  -18.481  -19.698  -20.689  -21.404  -21.865  -22.129  -22.254  -22.286  -22.265  -22.236  -22.275  -22.477  -22.989  -23.955  -25.478  -27.531  -29.990  -32.725  -35.632  -38.444  -40.630  -41.554
 -41.014  -40.101  -38.416  -36.202  -33.744  -31.266  -28.876  -26.619  -24.513  -22.571  -20.797  -19.175  -17.679  -16.269  -14.920  -13.616  -12.366  -11.170  -10.019   -8.906   -7.853   -6.927   -6.198   -5.696   -5.411   -5.314   -5.397   -5.668   -6.129   -6.721   -7.287   -7.653   -7.703   -7.457   -7.081   -6.758   -6.589   -6.574   -6.650   -6.737   -6.791   -6.787   -6.718   -6.619   -6.510   -6.424   -6.360   -6.316   -6.300   -6.305   -6.316   -6.310   -6.242   -6.087   -5.859   -5.614   -5.423   -5.357   -5.462   -5.718   -6.067   -6.443   -6.769   -7.001   -7.132   -7.193   -7.226   -7.276   -7.379   -7.557   -7.838   -8.249   -8.819   -9.562  -10.479  -11.570  -12.820  -14.183  -15.558  -16.812  -17.823  -18.537  -18.985  -19.237  -19.342  -19.343  -19.270  -19.167  -19.093  -19.109  -19.292  -19.713  -20.437  -21.492  -22.872  -24.582  -26.604  -28.735  -30.518  -31.496
 -38.492  -37.613  -36.055  -34.047  -31.878  -29.747  -27.747  -25.887  -24.152  -22.524  -20.984  -19.501  -18.051  -16.608  -15.165  -13.755  -12.411  -11.174  -10.063   -9.069   -8.199   -7.482   -6.944   -6.604   -6.442   -6.424   -6.537   -6.773   -7.134   -7.572   -7.989   -8.258   -8.294   -8.113   -7.829   -7.573   -7.419   -7.381   -7.396   -7.405   -7.361   -7.247   -7.068   -6.861   -6.677   -6.525   -6.400   -6.287   -6.187   -6.104   -6.044   -5.989   -5.900   -5.750   -5.535   -5.274   -5.022   -4.864   -4.856   -5.020   -5.299   -5.615   -5.873   -6.033   -6.096   -6.090   -6.062   -6.048   -6.072   -6.161   -6.348   -6.676   -7.156   -7.785   -8.540   -9.424  -10.435  -11.541  -12.662  -13.668  -14.461  -15.009  -15.346  -15.531  -15.595  -15.566  -15.458  -15.313  -15.183  -15.112  -15.136  -15.273  -15.545  -15.983  -16.638  -17.578  -18.827  -20.252  -21.513  -22.382
 -35.287  -34.436  -33.045  -31.291  -29.428  -27.627  -25.959  -24.424  -22.981  -21.606  -20.273  -18.953  -17.619  -16.268  -14.905  -13.580  -12.353  -11.298  -10.447   -9.799   -9.337   -9.041   -8.902   -8.912   -9.044   -9.260   -9.530   -9.821  -10.104  -10.352  -10.505  -10.517  -10.356  -10.061   -9.708   -9.398   -9.196   -9.098   -9.058   -9.011   -8.913   -8.727   -8.460   -8.152   -7.849   -7.578   -7.336   -7.113   -6.908   -6.737   -6.614   -6.542   -6.476   -6.378   -6.214   -5.982   -5.720   -5.525   -5.490   -5.648   -5.954   -6.296   -6.568   -6.716   -6.746   -6.701   -6.616   -6.524   -6.457   -6.439   -6.510   -6.720   -7.068   -7.516   -8.024   -8.570   -9.151   -9.755  -10.328  -10.799  -11.117  -11.303  -11.404  -11.458  -11.468  -11.413  -11.295  -11.148  -11.018  -10.947  -10.936  -10.978  -11.062  -11.226  -11.537  -12.091  -12.918  -13.908  -14.817  -15.566
 -31.502  -30.687  -29.527  -28.090  -26.577  -25.122  -23.778  -22.534  -21.364  -20.239  -19.146  -18.067  -17.001  -15.949  -14.932  -14.003  -13.235  -12.685  -12.398  -12.351  -12.510  -12.829  -13.272  -13.820  -14.437  -15.088  -15.702  -16.206  -16.525  -16.616  -16.448  -16.030  -15.413  -14.674  -13.935  -13.296  -12.822  -12.516  -12.327  -12.178  -11.995  -11.719  -11.316  -10.822  -10.281   -9.734   -9.202   -8.709   -8.266   -7.915   -7.672   -7.534   -7.467   -7.414   -7.314   -7.142   -6.927   -6.764   -6.767   -6.978   -7.347   -7.746   -8.049   -8.209   -8.236   -8.174   -8.058   -7.921   -7.791   -7.702   -7.708   -7.845   -8.094   -8.401   -8.691   -8.916   -9.063   -9.105   -9.017   -8.786   -8.463   -8.141   -7.902   -7.768   -7.686   -7.601   -7.495   -7.377   -7.292   -7.281   -7.329   -7.402   -7.490   -7.618   -7.877   -8.380   -9.136  -10.036  -10.841  -11.536
 -27.747  -27.002  -26.122  -25.056  -23.935  -22.860  -21.869  -20.957  -20.113  -19.322  -18.590  -17.928  -17.359  -16.905  -16.592  -16.460  -16.542  -16.870  -17.439  -18.224  -19.170  -20.233  -21.384  -22.607  -23.876  -25.136  -26.277  -27.166  -27.669  -27.699  -27.223  -26.275  -24.968  -23.466  -21.958  -20.618  -19.550  -18.783  -18.260  -17.875  -17.504  -17.031  -16.384  -15.559  -14.602  -13.562  -12.502  -11.480  -10.563   -9.807   -9.236   -8.856   -8.628   -8.484   -8.353   -8.180   -7.988   -7.847   -7.872   -8.100   -8.473   -8.868   -9.165   -9.309   -9.328   -9.258   -9.142   -9.007   -8.879   -8.798   -8.824   -8.974   -9.218   -9.480   -9.675   -9.740   -9.635   -9.307   -8.721   -7.910   -6.997   -6.177   -5.575   -5.207   -4.997   -4.858   -4.736   -4.645   -4.624   -4.695   -4.860   -5.065   -5.278   -5.517   -5.873   -6.474   -7.332   -8.311   -9.162   -9.840
 -24.832  -24.206  -23.625  -22.952  -22.254  -21.606  -21.045  -20.578  -20.200  -19.917  -19.757  -19.761  -19.981  -20.455  -21.210  -22.223  -23.462  -24.884  -26.447  -28.115  -29.854  -31.651  -33.508  -35.433  -37.406  -39.339  -41.082  -42.440  -43.231  -43.320  -42.651  -41.256  -39.261  -36.892  -34.426  -32.131  -30.207  -28.731  -27.658  -26.848  -26.129  -25.325  -24.319  -23.062  -21.574  -19.910  -18.154  -16.417  -14.787  -13.347  -12.149  -11.206  -10.489   -9.947   -9.506   -9.107   -8.739   -8.470   -8.370   -8.463   -8.695   -8.958   -9.144   -9.224   -9.205   -9.121   -9.014   -8.909   -8.825   -8.808   -8.899   -9.117   -9.418   -9.725   -9.962  -10.065   -9.977   -9.608   -8.898   -7.870   -6.682   -5.569   -4.708   -4.139   -3.778   -3.537   -3.364   -3.258   -3.271   -3.438   -3.758   -4.162   -4.565   -4.957   -5.415   -6.070   -6.963   -7.957   -8.805   -9.438
 -23.256  -22.773  -22.486  -22.209  -21.973  -21.829  -21.817  -21.943  -22.211  -22.629  -23.239  -24.111  -25.326  -26.930  -28.903  -31.157  -33.558  -35.988  -38.383  -40.728  -43.047  -45.382  -47.787  -50.290  -52.861  -55.376  -57.640  -59.422  -60.517  -60.780  -60.137  -58.598  -56.268  -53.365  -50.194  -47.094  -44.351  -42.118  -40.392  -39.036  -37.846  -36.619  -35.202  -33.515  -31.541  -29.329  -26.960  -24.531  -22.144  -19.881  -17.814  -15.983  -14.392  -13.025  -11.837  -10.786   -9.865   -9.124   -8.600   -8.297   -8.166   -8.119   -8.075   -8.000   -7.896   -7.780   -7.662   -7.565   -7.512   -7.545   -7.695   -7.964   -8.310   -8.671   -9.004   -9.263   -9.385   -9.271   -8.813   -7.996   -6.940   -5.870   -4.970   -4.307   -3.830   -3.468   -3.199   -3.042   -3.066   -3.327   -3.817   -4.437   -5.037   -5.542   -6.004   -6.556   -7.271   -8.070   -8.763   -9.279
 -23.156  -22.816  -22.811  -22.929  -23.186  -23.614  -24.236  -25.051  -26.043  -27.217  -28.627  -30.365  -32.526  -35.141  -38.145  -41.359  -44.580  -47.653  -50.518  -53.212  -55.827  -58.467  -61.221  -64.126  -67.130  -70.072  -72.720  -74.836  -76.216  -76.727  -76.301  -74.943  -72.742  -69.873  -66.602  -63.249  -60.123  -57.432  -55.221  -53.389  -51.753  -50.119  -48.335  -46.316  -44.033  -41.506  -38.783  -35.924  -32.988  -30.028  -27.098  -24.250  -21.536  -18.988  -16.622  -14.449  -12.505  -10.842   -9.492   -8.450   -7.681   -7.120   -6.702   -6.387   -6.135   -5.937   -5.772   -5.641   -5.572   -5.592   -5.719   -5.955   -6.273   -6.634   -7.022   -7.421   -7.786   -8.029   -8.014   -7.676   -7.054   -6.315   -5.610   -5.007   -4.491   -4.047   -3.697   -3.495   -3.530   -3.868   -4.489   -5.266   -5.994   -6.523   -6.868   -7.161   -7.522   -7.951   -8.339   -8.702
 -24.833  -24.629  -24.872  -25.347  -26.062  -27.025  -28.230  -29.650  -31.246  -33.014  -35.017  -37.355  -40.128  -43.351  -46.916  -50.608  -54.192  -57.513  -60.539  -63.348  -66.080  -68.880  -71.862  -75.062  -78.411  -81.726  -84.756  -87.244  -88.975  -89.804  -89.670  -88.604  -86.725  -84.208  -81.287  -78.217  -75.248  -72.564  -70.227  -68.175  -66.271  -64.366  -62.338  -60.122  -57.694  -55.060  -52.235  -49.228  -46.035  -42.655  -39.098  -35.400  -31.622  -27.841  -24.137  -20.595  -17.307  -14.362  -11.829   -9.729   -8.057   -6.772   -5.834   -5.176   -4.715   -4.394   -4.149   -3.956   -3.826   -3.769   -3.803   -3.940   -4.155   -4.440   -4.787   -5.217   -5.708   -6.203   -6.574   -6.714   -6.600   -6.308   -5.916   -5.491   -5.046   -4.614   -4.250   -4.047   -4.098   -4.466   -5.128   -5.941   -6.655   -7.099   -7.253   -7.244   -7.225   -7.257   -7.334   -7.547
 -28.941  -28.884  -29.300  -30.010  -31.015  -32.311  -33.861  -35.604  -37.495  -39.520  -41.741  -44.265  -47.181  -50.505  -54.122  -57.820  -61.378  -64.656  -67.638  -70.416  -73.149  -76.001  -79.096  -82.481  -86.091  -89.751  -93.206  -96.184  -98.420  -99.726 -100.030  -99.370  -97.896  -95.827  -93.400  -90.833  -88.309  -85.949  -83.785  -81.768  -79.803  -77.788  -75.642  -73.327  -70.835  -68.169  -65.325  -62.279  -58.987  -55.398  -51.477  -47.226  -42.689  -37.952  -33.133  -28.359  -23.779  -19.523  -15.702  -12.391   -9.640   -7.469   -5.870   -4.763   -4.029   -3.539   -3.189   -2.920   -2.719   -2.588   -2.536   -2.562   -2.668   -2.833   -3.079   -3.430   -3.895   -4.438   -4.974   -5.395   -5.644   -5.709   -5.629   -5.426   -5.125   -4.783   -4.484   -4.325   -4.390   -4.727   -5.309   -5.987   -6.548   -6.820   -6.783   -6.559   -6.300   -6.090   -5.985   -6.121
 -35.654  -35.815  -36.305  -37.066  -38.120  -39.455  -41.015  -42.735  -44.561  -46.483  -48.550  -50.862  -53.500  -56.485  -59.727  -63.052  -66.275  -69.277  -72.042  -74.655  -77.260  -80.009  -83.026  -86.355  -89.948  -93.654  -97.258 -100.511 -103.174 -105.069 -106.092 -106.241 -105.615 -104.367 -102.705 -100.831  -98.904  -97.011  -95.169  -93.329  -91.428  -89.394  -87.191  -84.804  -82.240  -79.510  -76.604  -73.486  -70.093  -66.353  -62.207  -57.634  -52.659  -47.360  -41.855  -36.288  -30.806  -25.553  -20.653  -16.227  -12.390   -9.262   -6.886   -5.212   -4.096   -3.364   -2.871   -2.521   -2.273   -2.114   -2.030   -2.008   -2.046   -2.121   -2.266   -2.499   -2.844   -3.299   -3.803   -4.276   -4.657   -4.907   -5.020   -4.992   -4.851   -4.635   -4.440   -4.334   -4.384   -4.619   -5.005   -5.428   -5.736   -5.806   -5.640   -5.355   -5.062   -4.850   -4.745   -4.893
 -43.777  -44.244  -44.764  -45.466  -46.403  -47.567  -48.910  -50.370  -51.899  -53.488  -55.178  -57.043  -59.161  -61.555  -64.172  -66.893  -69.583  -72.148  -74.571  -76.910  -79.265  -81.750  -84.460  -87.431  -90.621  -93.911  -97.141 -100.150 -102.820 -105.074 -106.861 -108.128 -108.838 -108.982 -108.612 -107.835 -106.776 -105.523 -104.118 -102.543 -100.761  -98.750  -96.497  -94.017  -91.336  -88.474  -85.428  -82.166  -78.624  -74.730  -70.423  -65.677  -60.511  -54.998  -49.249  -43.389  -37.536  -31.791  -26.243  -21.013  -16.272  -12.213   -8.981   -6.596   -4.934   -3.825   -3.107   -2.653   -2.376   -2.240   -2.188   -2.186   -2.198   -2.212   -2.257   -2.374   -2.608   -2.945   -3.362   -3.781   -4.158   -4.449   -4.627   -4.692   -4.647   -4.543   -4.426   -4.351   -4.354   -4.440   -4.576   -4.701   -4.729   -4.609   -4.387   -4.163   -4.025   -3.987   -4.025   -4.252
 -51.238  -52.045  -52.624  -53.279  -54.092  -55.063  -56.155  -57.319  -58.516  -59.737  -61.017  -62.414  -63.989  -65.769  -67.735  -69.820  -71.941  -74.032  -76.071  -78.082  -80.111  -82.216  -84.449  -86.828  -89.327  -91.873  -94.379  -96.792  -99.113 -101.378 -103.610 -105.777 -107.775 -109.456 -110.669 -111.342 -111.468 -111.096 -110.282 -109.066 -107.470 -105.509 -103.211 -100.615  -97.775  -94.730  -91.494  -88.051  -84.356  -80.349  -75.975  -71.215  -66.091  -60.670  -55.054  -49.339  -43.596  -37.857  -32.148  -26.540  -21.203  -16.381  -12.306   -9.090   -6.707   -5.045   -3.955   -3.312   -2.999   -2.904   -2.931   -2.974   -2.972   -2.901   -2.812   -2.795   -2.910   -3.172   -3.535   -3.923   -4.280   -4.564   -4.750   -4.827   -4.815   -4.758   -4.675   -4.594   -4.527   -4.455   -4.360   -4.215   -4.005   -3.750   -3.527   -3.444   -3.541   -3.764   -4.014   -4.348
 -56.390  -57.471  -58.151  -58.831  -59.604  -60.474  -61.410  -62.373  -63.334  -64.288  -65.262  -66.303  -67.463  -68.773  -70.237  -71.825  -73.492  -75.192  -76.900  -78.603  -80.305  -82.008  -83.715  -85.418  -87.104  -88.753  -90.379  -92.037  -93.837  -95.890  -98.262 -100.922 -103.761 -106.583 -109.154 -111.234 -112.650 -113.330 -113.275 -112.553 -111.234 -109.387 -107.079 -104.386 -101.386  -98.149  -94.729  -91.139  -87.354  -83.334  -79.040  -74.453  -69.595  -64.528  -59.328  -54.060  -48.745  -43.358  -37.861  -32.266  -26.703  -21.409  -16.657  -12.640   -9.454   -7.099   -5.511   -4.586   -4.171   -4.102   -4.193   -4.268   -4.203   -3.975   -3.678   -3.446   -3.412   -3.592   -3.924   -4.317   -4.693   -4.979   -5.151   -5.206   -5.180   -5.114   -5.027   -4.922   -4.784   -4.585   -4.327   -4.012   -3.668   -3.374   -3.235   -3.353   -3.721   -4.235   -4.718   -5.164
 -58.480  -59.692  -60.479  -61.246  -62.071  -62.946  -63.844  -64.732  -65.588  -66.412  -67.227  -68.073  -69.000  -70.048  -71.232  -72.543  -73.955  -75.432  -76.937  -78.437  -79.898  -81.286  -82.562  -83.688  -84.639  -85.425  -86.129  -86.916  -88.015  -89.637  -91.897  -94.753  -98.043 -101.532 -104.962 -108.052 -110.536 -112.211 -112.987 -112.876 -111.967 -110.349 -108.121 -105.395 -102.284  -98.914  -95.372  -91.713  -87.943  -84.041  -79.974  -75.725  -71.305  -66.756  -62.123  -57.432  -52.665  -47.764  -42.659  -37.327  -31.850  -26.431  -21.317  -16.740  -12.881   -9.863   -7.734   -6.439   -5.835   -5.703   -5.780   -5.821   -5.640   -5.202   -4.620   -4.110   -3.849   -3.881   -4.141   -4.519   -4.892   -5.177   -5.325   -5.342   -5.279   -5.180   -5.074   -4.945   -4.764   -4.506   -4.185   -3.833   -3.515   -3.331   -3.401   -3.801   -4.487   -5.294   -6.004   -6.540
 -57.594  -58.775  -59.642  -60.514  -61.434  -62.381  -63.322  -64.231  -65.090  -65.899  -66.681  -67.478  -68.344  -69.323  -70.441  -71.699  -73.073  -74.522  -75.999  -77.447  -78.817  -80.049  -81.081  -81.845  -82.293  -82.431  -82.363  -82.314  -82.601  -83.551  -85.379  -88.097  -91.518  -95.344  -99.248 -102.928 -106.097 -108.504 -109.981 -110.477 -110.034 -108.736 -106.690 -104.027 -100.907  -97.491  -93.923  -90.293  -86.643  -82.968  -79.239  -75.429  -71.530  -67.549  -63.495  -59.363  -55.113  -50.678  -45.987  -41.010  -35.809  -30.541  -25.414  -20.631  -16.406  -12.932  -10.345   -8.658   -7.758   -7.416   -7.353   -7.268   -6.930   -6.271   -5.423   -4.630   -4.108   -3.926   -4.027   -4.289   -4.589   -4.825   -4.932   -4.910   -4.812   -4.687   -4.563   -4.427   -4.248   -4.008   -3.742   -3.499   -3.364   -3.446   -3.843   -4.592   -5.600   -6.675   -7.569   -8.165
 -54.635  -55.666  -56.559  -57.510  -58.514  -59.537  -60.545  -61.513  -62.426  -63.284  -64.110  -64.950  -65.869  -66.918  -68.132  -69.507  -71.012  -72.596  -74.192  -75.734  -77.155  -78.389  -79.358  -79.981  -80.186  -79.962  -79.402  -78.738  -78.317  -78.529  -79.686  -81.907  -85.084  -88.928  -93.054  -97.078 -100.660 -103.525 -105.473 -106.420 -106.372 -105.385 -103.562 -101.040  -97.994  -94.627  -91.117  -87.600  -84.144  -80.764  -77.422  -74.076  -70.686  -67.225  -63.671  -59.996  -56.156  -52.097  -47.765  -43.142  -38.284  -33.322  -28.415  -23.732  -19.454  -15.781  -12.892  -10.851   -9.588   -8.925   -8.607   -8.317   -7.811   -6.984   -5.946   -4.944   -4.197   -3.784   -3.663   -3.730   -3.880   -4.010   -4.053   -4.001   -3.885   -3.755   -3.631   -3.511   -3.380   -3.236   -3.114   -3.086   -3.236   -3.659   -4.418   -5.490   -6.753   -8.002   -8.982   -9.602
 -51.087  -51.945  -52.815  -53.783  -54.817  -55.873  -56.919  -57.930  -58.891  -59.803  -60.688  -61.603  -62.614  -63.788  -65.157  -66.714  -68.413  -70.189  -71.962  -73.654  -75.189  -76.502  -77.512  -78.127  -78.268  -77.907  -77.121  -76.121  -75.244  -74.886  -75.395  -76.981  -79.649  -83.197  -87.262  -91.404  -95.207  -98.338 -100.573 -101.810 -102.031 -101.288  -99.666  -97.303  -94.388  -91.135  -87.755  -84.412  -81.199  -78.129  -75.165  -72.237  -69.277  -66.232  -63.059  -59.722  -56.182  -52.405  -48.357  -44.037  -39.500  -34.863  -30.251  -25.793  -21.636  -17.955  -14.917  -12.609  -11.009  -10.007   -9.396   -8.908   -8.265   -7.338   -6.206   -5.095   -4.201   -3.609   -3.280   -3.151   -3.128   -3.135   -3.116   -3.045   -2.934   -2.812   -2.708   -2.623   -2.567   -2.538   -2.585   -2.781   -3.211   -3.926   -4.958   -6.248   -7.652   -8.956   -9.953  -10.570
 -48.291  -49.075  -49.901  -50.831  -51.829  -52.858  -53.886  -54.888  -55.853  -56.778  -57.691  -58.644  -59.714  -60.965  -62.428  -64.091  -65.901  -67.784  -69.655  -71.428  -73.032  -74.396  -75.443  -76.081  -76.229  -75.854  -75.021  -73.922  -72.863  -72.211  -72.312  -73.402  -75.559  -78.667  -82.430  -86.434  -90.239  -93.473  -95.870  -97.285  -97.683  -97.099  -95.622  -93.395  -90.617  -87.519  -84.317  -81.188  -78.224  -75.442  -72.790  -70.187  -67.550  -64.811  -61.920  -58.839  -55.538  -51.996  -48.191  -44.132  -39.871  -35.510  -31.156  -26.915  -22.902  -19.276  -16.194  -13.748  -11.953  -10.737   -9.939   -9.309   -8.583   -7.615   -6.466   -5.323   -4.369   -3.680   -3.239   -2.982   -2.856   -2.786   -2.724   -2.643   -2.538   -2.429   -2.339   -2.284   -2.271   -2.322   -2.472   -2.804   -3.374   -4.241   -5.396   -6.771   -8.204   -9.503  -10.493  -11.172
