DSAA
 100 100
 0.0 400.0
 0.0 400.0
 -182.5474 -2.356012
  -3.511   -3.121   -3.314   -3.684   -4.215   -4.825   -5.457   -5.995   -6.335   -6.408   -6.141   -5.557   -4.782   -3.974   -3.294   -2.848   -2.723   -2.942   -3.567   -4.556   -5.706   -6.644   -7.016   -6.749   -6.122   -5.560   -5.359   -5.465   -5.626   -5.635   -5.440   -5.122   -4.821   -4.556   -4.349   -4.166   -4.045   -4.065   -4.330   -4.885   -5.676   -6.544   -7.363   -8.061   -8.548   -8.721   -8.534   -8.149   -7.836   -7.738   -7.808   -7.915   -7.959   -7.928   -7.818   -7.602   -7.227   -6.725   -6.227   -5.898   -5.884   -6.071   -6.181   -5.949   -5.316   -4.495   -3.807   -3.489   -3.542   -3.825   -4.131   -4.390   -4.655   -4.947   -5.168   -5.144   -4.828   -4.382   -3.996   -3.790   -3.784   -3.918   -4.150   -4.363   -4.515   -4.649   -4.887   -5.335   -6.034   -6.925   -7.863   -8.655   -9.080   -8.955   -8.221   -7.056   -5.739   -4.565   -3.774   -3.870
  -3.736   -3.584   -3.845   -4.269   -4.818   -5.451   -6.070   -6.576   -6.877   -6.879   -6.541   -5.888   -5.033   -4.146   -3.394   -2.879   -2.695   -2.866   -3.426   -4.335   -5.393   -6.257   -6.594   -6.347   -5.758   -5.230   -5.017   -5.105   -5.277   -5.354   -5.268   -5.064   -4.813   -4.554   -4.321   -4.117   -3.994   -4.009   -4.251   -4.740   -5.421   -6.156   -6.842   -7.418   -7.841   -8.043   -7.993   -7.828   -7.765   -7.906   -8.144   -8.337   -8.401   -8.332   -8.153   -7.840   -7.340   -6.697   -6.032   -5.569   -5.422   -5.512   -5.573   -5.367   -4.813   -4.104   -3.532   -3.294   -3.384   -3.684   -3.985   -4.214   -4.437   -4.713   -4.930   -4.930   -4.652   -4.257   -3.937   -3.787   -3.821   -4.000   -4.229   -4.453   -4.634   -4.838   -5.160   -5.705   -6.514   -7.520   -8.598   -9.543  -10.073   -9.970   -9.144   -7.788   -6.247   -4.876   -3.931   -3.766
  -5.129   -5.036   -5.344   -5.820   -6.405   -7.026   -7.601   -8.026   -8.213   -8.087   -7.627   -6.865   -5.904   -4.889   -3.999   -3.344   -3.018   -3.054   -3.466   -4.180   -5.034   -5.723   -5.993   -5.801   -5.327   -4.889   -4.686   -4.731   -4.907   -5.088   -5.190   -5.170   -5.017   -4.789   -4.539   -4.343   -4.243   -4.274   -4.481   -4.860   -5.353   -5.865   -6.330   -6.721   -7.034   -7.232   -7.354   -7.495   -7.792   -8.243   -8.694   -8.989   -9.063   -8.943   -8.659   -8.201   -7.543   -6.739   -5.921   -5.304   -4.995   -4.934   -4.909   -4.730   -4.325   -3.835   -3.459   -3.331   -3.467   -3.732   -3.989   -4.184   -4.360   -4.594   -4.813   -4.873   -4.696   -4.431   -4.248   -4.218   -4.336   -4.527   -4.738   -4.929   -5.128   -5.425   -5.885   -6.577   -7.510   -8.675   -9.959  -11.151  -11.897  -11.876  -10.992   -9.446   -7.650   -6.048   -4.945   -4.672
  -7.044   -6.997   -7.332   -7.828   -8.399   -8.974   -9.447   -9.762   -9.820   -9.568   -8.998   -8.128   -7.051   -5.898   -4.830   -3.981   -3.447   -3.265   -3.429   -3.874   -4.440   -4.911   -5.114   -4.993   -4.681   -4.368   -4.195   -4.199   -4.359   -4.624   -4.878   -5.017   -4.981   -4.809   -4.610   -4.485   -4.468   -4.559   -4.750   -5.031   -5.373   -5.725   -6.034   -6.295   -6.501   -6.675   -6.850   -7.122   -7.563   -8.131   -8.650   -8.960   -9.014   -8.830   -8.481   -7.957   -7.283   -6.496   -5.735   -5.126   -4.769   -4.608   -4.483   -4.293   -4.006   -3.705   -3.493   -3.447   -3.564   -3.772   -3.987   -4.147   -4.309   -4.530   -4.768   -4.902   -4.878   -4.797   -4.795   -4.907   -5.087   -5.253   -5.385   -5.484   -5.647   -5.967   -6.510   -7.284   -8.304   -9.586  -11.059  -12.503  -13.509  -13.687  -12.894  -11.343   -9.491   -7.812   -6.645   -6.324
  -9.111   -9.083   -9.402   -9.853  -10.343  -10.813  -11.183  -11.373  -11.325  -10.989  -10.353   -9.436   -8.294   -7.049   -5.841   -4.796   -4.008   -3.548   -3.412   -3.529   -3.790   -4.036   -4.166   -4.119   -3.955   -3.764   -3.624   -3.586   -3.705   -3.966   -4.265   -4.474   -4.523   -4.443   -4.367   -4.367   -4.467   -4.637   -4.841   -5.092   -5.377   -5.693   -5.992   -6.234   -6.410   -6.535   -6.655   -6.843   -7.151   -7.548   -7.906   -8.111   -8.104   -7.903   -7.577   -7.141   -6.634   -6.105   -5.610   -5.200   -4.905   -4.673   -4.431   -4.158   -3.890   -3.681   -3.573   -3.563   -3.653   -3.808   -3.985   -4.157   -4.346   -4.573   -4.813   -5.013   -5.145   -5.273   -5.470   -5.713   -5.907   -6.000   -5.996   -5.969   -6.049   -6.344   -6.878   -7.653   -8.682  -10.018  -11.640  -13.294  -14.555  -14.985  -14.449  -13.142  -11.500   -9.976   -8.906   -8.605
 -11.012  -10.977  -11.221  -11.568  -11.942  -12.282  -12.516  -12.604  -12.501  -12.149  -11.519  -10.632   -9.514   -8.266   -7.001   -5.827   -4.845   -4.130   -3.686   -3.479   -3.436   -3.466   -3.506   -3.492   -3.427   -3.316   -3.203   -3.123   -3.168   -3.349   -3.605   -3.806   -3.889   -3.909   -3.948   -4.051   -4.214   -4.414   -4.633   -4.886   -5.178   -5.520   -5.880   -6.189   -6.424   -6.568   -6.644   -6.687   -6.735   -6.821   -6.904   -6.944   -6.873   -6.721   -6.506   -6.258   -6.019   -5.812   -5.614   -5.424   -5.184   -4.865   -4.475   -4.084   -3.771   -3.586   -3.533   -3.562   -3.664   -3.828   -4.043   -4.274   -4.502   -4.722   -4.934   -5.145   -5.391   -5.692   -6.051   -6.360   -6.533   -6.544   -6.455   -6.370   -6.403   -6.675   -7.188   -7.947   -8.978  -10.367  -12.108  -13.940  -15.417  -16.119  -15.892  -14.941  -13.635  -12.357  -11.437  -11.157
 -12.525  -12.462  -12.610  -12.836  -13.073  -13.269  -13.390  -13.403  -13.278  -12.954  -12.398  -11.606  -10.595   -9.445   -8.220   -7.044   -5.976   -5.091   -4.410   -3.941   -3.644   -3.492   -3.423   -3.403   -3.375   -3.309   -3.200   -3.105   -3.079   -3.179   -3.355   -3.526   -3.632   -3.703   -3.752   -3.813   -3.913   -4.042   -4.208   -4.435   -4.711   -5.043   -5.414   -5.773   -6.088   -6.322   -6.439   -6.431   -6.329   -6.190   -6.075   -5.975   -5.902   -5.827   -5.762   -5.698   -5.649   -5.628   -5.580   -5.453   -5.180   -4.768   -4.274   -3.802   -3.468   -3.322   -3.328   -3.433   -3.601   -3.843   -4.143   -4.466   -4.736   -4.927   -5.091   -5.295   -5.605   -6.002   -6.402   -6.683   -6.798   -6.774   -6.698   -6.694   -6.845   -7.190   -7.745   -8.536   -9.612  -11.088  -12.962  -14.965  -16.669  -17.632  -17.721  -17.088  -16.029  -14.892  -13.998  -13.696
 -13.590  -13.486  -13.545  -13.659  -13.758  -13.839  -13.875  -13.839  -13.708  -13.436  -12.968  -12.296  -11.428  -10.438   -9.364   -8.277   -7.228   -6.276   -5.465   -4.813   -4.343   -4.044   -3.900   -3.865   -3.856   -3.809   -3.727   -3.662   -3.656   -3.744   -3.899   -4.065   -4.178   -4.208   -4.154   -4.035   -3.923   -3.854   -3.882   -3.994   -4.162   -4.385   -4.665   -4.991   -5.335   -5.641   -5.850   -5.909   -5.819   -5.626   -5.428   -5.302   -5.268   -5.306   -5.360   -5.396   -5.403   -5.363   -5.275   -5.081   -4.749   -4.294   -3.793   -3.379   -3.133   -3.075   -3.145   -3.316   -3.560   -3.878   -4.264   -4.664   -4.971   -5.173   -5.331   -5.552   -5.889   -6.275   -6.605   -6.780   -6.809   -6.788   -6.852   -7.069   -7.459   -8.001   -8.685   -9.544  -10.692  -12.251  -14.246  -16.428  -18.357  -19.629  -20.036  -19.665  -18.749  -17.611  -16.624  -16.241
 -14.252  -14.115  -14.105  -14.126  -14.143  -14.144  -14.115  -14.047  -13.920  -13.694  -13.299  -12.729  -11.994  -11.157  -10.247   -9.285   -8.312   -7.355   -6.485   -5.733   -5.161   -4.790   -4.626   -4.592   -4.615   -4.628   -4.641   -4.703   -4.843   -5.048   -5.282   -5.478   -5.560   -5.487   -5.232   -4.857   -4.451   -4.133   -3.944   -3.872   -3.880   -3.926   -4.043   -4.236   -4.501   -4.802   -5.057   -5.198   -5.168   -5.018   -4.819   -4.703   -4.712   -4.830   -4.981   -5.066   -5.045   -4.934   -4.751   -4.495   -4.155   -3.766   -3.420   -3.188   -3.116   -3.165   -3.276   -3.429   -3.655   -3.976   -4.377   -4.803   -5.159   -5.431   -5.673   -5.971   -6.323   -6.657   -6.867   -6.924   -6.906   -6.957   -7.214   -7.699   -8.350   -9.082   -9.876  -10.796  -11.977  -13.590  -15.650  -17.969  -20.117  -21.679  -22.424  -22.336  -21.596  -20.496  -19.463  -19.008
 -14.608  -14.444  -14.400  -14.369  -14.346  -14.307  -14.253  -14.183  -14.064  -13.864  -13.515  -13.011  -12.361  -11.621  -10.809   -9.932   -8.993   -8.043   -7.138   -6.338   -5.718   -5.332   -5.188   -5.215   -5.317   -5.461   -5.666   -5.974   -6.376   -6.829   -7.219   -7.441   -7.451   -7.209   -6.725   -6.086   -5.435   -4.898   -4.522   -4.280   -4.106   -3.982   -3.922   -3.938   -4.060   -4.253   -4.460   -4.597   -4.582   -4.423   -4.209   -4.062   -4.060   -4.206   -4.397   -4.523   -4.525   -4.425   -4.259   -4.050   -3.816   -3.610   -3.506   -3.534   -3.657   -3.771   -3.834   -3.877   -3.966   -4.188   -4.530   -4.919   -5.294   -5.651   -6.017   -6.421   -6.833   -7.161   -7.329   -7.375   -7.427   -7.621   -8.078   -8.746   -9.529  -10.327  -11.126  -12.024  -13.182  -14.785  -16.861  -19.240  -21.519  -23.306  -24.348  -24.594  -24.160  -23.303  -22.421  -21.991
 -14.761  -14.587  -14.521  -14.482  -14.443  -14.406  -14.372  -14.318  -14.221  -14.044  -13.728  -13.258  -12.647  -11.926  -11.114  -10.230   -9.260   -8.266   -7.306   -6.461   -5.830   -5.472   -5.385   -5.503   -5.770   -6.137   -6.626   -7.259   -7.992   -8.710   -9.240   -9.467   -9.350   -8.909   -8.214   -7.387   -6.593   -5.939   -5.454   -5.085   -4.790   -4.540   -4.336   -4.213   -4.172   -4.222   -4.307   -4.352   -4.271   -4.035   -3.715   -3.464   -3.379   -3.480   -3.681   -3.868   -3.983   -4.022   -4.009   -3.971   -3.934   -3.964   -4.120   -4.378   -4.638   -4.772   -4.722   -4.587   -4.507   -4.590   -4.828   -5.152   -5.502   -5.883   -6.328   -6.835   -7.332   -7.749   -8.034   -8.244   -8.492   -8.881   -9.469  -10.182  -10.917  -11.608  -12.278  -13.063  -14.154  -15.710  -17.758  -20.111  -22.431  -24.325  -25.564  -26.100  -26.040  -25.592  -25.054  -24.761
 -14.819  -14.626  -14.567  -14.519  -14.488  -14.475  -14.458  -14.440  -14.374  -14.237  -13.958  -13.523  -12.920  -12.189  -11.320  -10.338   -9.261   -8.161   -7.112   -6.216   -5.570   -5.240   -5.236   -5.509   -5.988   -6.641   -7.459   -8.423   -9.446  -10.347  -10.934  -11.109  -10.840  -10.217   -9.371   -8.465   -7.654   -6.999   -6.460   -6.007   -5.607   -5.273   -5.011   -4.808   -4.677   -4.620   -4.597   -4.533   -4.328   -3.960   -3.500   -3.102   -2.893   -2.916   -3.099   -3.360   -3.618   -3.848   -4.046   -4.215   -4.402   -4.662   -5.016   -5.418   -5.741   -5.835   -5.678   -5.429   -5.272   -5.320   -5.538   -5.818   -6.118   -6.449   -6.886   -7.432   -8.016   -8.579   -9.083   -9.545  -10.023  -10.572  -11.192  -11.818  -12.380  -12.847  -13.326  -13.960  -14.953  -16.422  -18.380  -20.657  -22.919  -24.818  -26.144  -26.878  -27.127  -27.069  -26.893  -26.768
 -14.812  -14.623  -14.562  -14.516  -14.492  -14.491  -14.501  -14.510  -14.476  -14.374  -14.155  -13.773  -13.208  -12.462  -11.536  -10.435   -9.224   -7.981   -6.822   -5.861   -5.195   -4.891   -4.960   -5.378   -6.076   -7.000   -8.107   -9.311  -10.491  -11.447  -12.017  -12.096  -11.709  -10.977  -10.090   -9.230   -8.502   -7.877   -7.294   -6.733   -6.224   -5.826   -5.564   -5.388   -5.266   -5.193   -5.114   -4.966   -4.662   -4.178   -3.606   -3.091   -2.782   -2.732   -2.892   -3.197   -3.557   -3.939   -4.305   -4.655   -5.025   -5.445   -5.918   -6.381   -6.707   -6.775   -6.622   -6.444   -6.442   -6.658   -6.998   -7.310   -7.574   -7.821   -8.185   -8.693   -9.316   -9.995  -10.662  -11.304  -11.914  -12.508  -13.070  -13.553  -13.902  -14.156  -14.438  -14.927  -15.797  -17.125  -18.922  -21.034  -23.171  -25.015  -26.357  -27.189  -27.622  -27.801  -27.851  -27.855
 -14.791  -14.596  -14.527  -14.485  -14.462  -14.463  -14.480  -14.497  -14.494  -14.427  -14.269  -13.971  -13.472  -12.756  -11.811  -10.641   -9.312   -7.953   -6.693   -5.655   -4.948   -4.638   -4.735   -5.232   -6.058   -7.152   -8.419   -9.730  -10.941  -11.873  -12.384  -12.390  -11.944  -11.204  -10.388   -9.660   -9.045   -8.470   -7.824   -7.146   -6.540   -6.118   -5.901   -5.816   -5.795   -5.774   -5.714   -5.537   -5.172   -4.617   -3.967   -3.387   -3.016   -2.902   -3.038   -3.355   -3.773   -4.247   -4.709   -5.183   -5.697   -6.247   -6.822   -7.341   -7.702   -7.841   -7.861   -7.957   -8.310   -8.861   -9.420   -9.829  -10.078  -10.268  -10.558  -11.003  -11.586  -12.251  -12.934  -13.574  -14.155  -14.662  -15.098  -15.417  -15.604  -15.701  -15.851  -16.221  -16.943  -18.071  -19.620  -21.484  -23.424  -25.162  -26.488  -27.356  -27.861  -28.118  -28.237  -28.303
 -14.761  -14.562  -14.491  -14.443  -14.417  -14.414  -14.425  -14.438  -14.440  -14.404  -14.299  -14.085  -13.686  -13.049  -12.154  -10.990   -9.644   -8.234   -6.923   -5.830   -5.066   -4.681   -4.710   -5.130   -5.910   -6.982   -8.234   -9.537  -10.730  -11.648  -12.134  -12.125  -11.693  -11.020  -10.330   -9.764   -9.276   -8.745   -8.074   -7.348   -6.726   -6.361   -6.252   -6.307   -6.410   -6.468   -6.430   -6.220   -5.792   -5.161   -4.450   -3.816   -3.394   -3.234   -3.332   -3.654   -4.102   -4.628   -5.194   -5.817   -6.508   -7.252   -8.011   -8.695   -9.213   -9.557   -9.880  -10.361  -11.095  -11.944  -12.690  -13.179  -13.427  -13.609  -13.856  -14.233  -14.713  -15.250  -15.784  -16.279  -16.705  -17.050  -17.334  -17.520  -17.602  -17.620  -17.699  -17.970  -18.535  -19.430  -20.687  -22.228  -23.897  -25.452  -26.703  -27.574  -28.092  -28.350  -28.462  -28.536
 -14.722  -14.519  -14.459  -14.415  -14.391  -14.377  -14.376  -14.371  -14.372  -14.342  -14.282  -14.132  -13.837  -13.331  -12.559  -11.514  -10.248   -8.901   -7.601   -6.485   -5.647   -5.125   -4.950   -5.142   -5.675   -6.530   -7.636   -8.867  -10.063  -11.025  -11.568  -11.602  -11.209  -10.594  -10.008   -9.558   -9.184   -8.744   -8.160   -7.544   -7.072   -6.871   -6.943   -7.154   -7.354   -7.455   -7.381   -7.077   -6.526   -5.768   -4.945   -4.211   -3.700   -3.477   -3.554   -3.896   -4.427   -5.086   -5.846   -6.726   -7.730   -8.818   -9.898  -10.883  -11.682  -12.314  -12.935  -13.689  -14.624  -15.586  -16.358  -16.844  -17.101  -17.284  -17.516  -17.835  -18.192  -18.552  -18.894  -19.190  -19.420  -19.599  -19.739  -19.836  -19.863  -19.863  -19.904  -20.101  -20.519  -21.198  -22.163  -23.362  -24.692  -25.979  -27.071  -27.889  -28.408  -28.680  -28.796  -28.873
 -14.703  -14.499  -14.442  -14.400  -14.378  -14.368  -14.351  -14.333  -14.320  -14.293  -14.250  -14.161  -13.963  -13.604  -13.006  -12.159  -11.086   -9.894   -8.683   -7.588   -6.661   -5.970   -5.536   -5.388   -5.550   -6.062   -6.935   -8.070   -9.290  -10.352  -11.002  -11.110  -10.745  -10.144   -9.576   -9.173   -8.899   -8.606   -8.252   -7.907   -7.726   -7.807   -8.091   -8.442   -8.708   -8.778   -8.607   -8.151   -7.409   -6.456   -5.438   -4.535   -3.889   -3.585   -3.669   -4.100   -4.820   -5.756   -6.885   -8.199   -9.661  -11.187  -12.681  -14.008  -15.085  -15.944  -16.710  -17.513  -18.388  -19.228  -19.878  -20.281  -20.514  -20.695  -20.921  -21.188  -21.453  -21.676  -21.857  -21.972  -22.037  -22.078  -22.120  -22.167  -22.188  -22.186  -22.215  -22.346  -22.646  -23.149  -23.863  -24.749  -25.720  -26.686  -27.550  -28.264  -28.784  -29.103  -29.271  -29.369
 -14.705  -14.498  -14.433  -14.404  -14.384  -14.368  -14.347  -14.316  -14.298  -14.270  -14.247  -14.190  -14.082  -13.849  -13.449  -12.837  -12.016  -11.040   -9.986   -8.949   -7.998   -7.185   -6.514   -6.032   -5.808   -5.950   -6.542   -7.543   -8.777   -9.936  -10.685  -10.857  -10.510   -9.881   -9.284   -8.888   -8.691   -8.590   -8.514   -8.514   -8.676   -9.031   -9.505   -9.963  -10.248  -10.279   -9.993   -9.384   -8.460   -7.292   -6.030   -4.903   -4.085   -3.704   -3.837   -4.472   -5.519   -6.906   -8.546  -10.379  -12.329  -14.277  -16.092  -17.637  -18.849  -19.767  -20.486  -21.144  -21.789  -22.379  -22.832  -23.113  -23.297  -23.464  -23.666  -23.893  -24.105  -24.253  -24.323  -24.323  -24.278  -24.229  -24.219  -24.239  -24.269  -24.285  -24.304  -24.384  -24.580  -24.947  -25.474  -26.105  -26.767  -27.409  -28.023  -28.603  -29.112  -29.504  -29.760  -29.898
 -14.712  -14.505  -14.449  -14.414  -14.391  -14.371  -14.351  -14.320  -14.302  -14.273  -14.259  -14.238  -14.184  -14.068  -13.829  -13.437  -12.870  -12.131  -11.283  -10.381   -9.489   -8.628   -7.834   -7.125   -6.600   -6.417   -6.723   -7.551   -8.715   -9.886  -10.701  -10.936  -10.624  -10.002   -9.400   -9.019   -8.890   -8.951   -9.114   -9.390   -9.802  -10.331  -10.898  -11.380  -11.667  -11.670  -11.343  -10.665   -9.627   -8.297   -6.826   -5.458   -4.447   -4.008   -4.258   -5.180   -6.673   -8.579  -10.763  -13.088  -15.415  -17.613  -19.538  -21.099  -22.252  -23.055  -23.605  -24.038  -24.420  -24.764  -25.038  -25.221  -25.351  -25.482  -25.647  -25.839  -26.009  -26.125  -26.147  -26.081  -25.973  -25.879  -25.840  -25.860  -25.904  -25.923  -25.930  -25.964  -26.083  -26.338  -26.726  -27.174  -27.593  -27.969  -28.350  -28.787  -29.273  -29.725  -30.070  -30.256
 -14.723  -14.512  -14.457  -14.427  -14.412  -14.386  -14.366  -14.341  -14.319  -14.299  -14.293  -14.284  -14.270  -14.226  -14.104  -13.880  -13.520  -13.017  -12.394  -11.681  -10.935  -10.158   -9.358   -8.557   -7.860   -7.445   -7.495   -8.103   -9.110  -10.209  -11.016  -11.310  -11.087  -10.572  -10.048   -9.730   -9.663   -9.805  -10.090  -10.486  -10.973  -11.522  -12.062  -12.496  -12.748  -12.746  -12.436  -11.791  -10.765   -9.380   -7.781   -6.221   -5.043   -4.571   -4.972   -6.214   -8.150  -10.543  -13.172  -15.848  -18.382  -20.623  -22.460  -23.855  -24.811  -25.411  -25.764  -25.996  -26.178  -26.359  -26.518  -26.640  -26.729  -26.829  -26.952  -27.111  -27.257  -27.344  -27.333  -27.235  -27.092  -26.985  -26.946  -26.974  -27.013  -27.024  -27.000  -26.988  -27.048  -27.219  -27.506  -27.828  -28.079  -28.265  -28.465  -28.772  -29.210  -29.688  -30.084  -30.319
 -14.753  -14.540  -14.483  -14.451  -14.428  -14.414  -14.392  -14.371  -14.351  -14.337  -14.330  -14.326  -14.327  -14.319  -14.266  -14.147  -13.944  -13.639  -13.233  -12.748  -12.192  -11.566  -10.863  -10.103   -9.365   -8.825   -8.694   -9.068   -9.852  -10.794  -11.549  -11.899  -11.819  -11.472  -11.096  -10.874  -10.857  -11.017  -11.295  -11.660  -12.081  -12.523  -12.936  -13.267  -13.456  -13.463  -13.212  -12.650  -11.710  -10.367   -8.735   -7.069   -5.785   -5.281   -5.805   -7.328   -9.617  -12.373  -15.316  -18.193  -20.787  -22.942  -24.586  -25.721  -26.432  -26.826  -27.023  -27.128  -27.208  -27.302  -27.412  -27.503  -27.581  -27.662  -27.757  -27.878  -27.986  -28.033  -27.998  -27.885  -27.742  -27.645  -27.617  -27.648  -27.670  -27.645  -27.580  -27.521  -27.528  -27.651  -27.867  -28.090  -28.242  -28.314  -28.392  -28.597  -28.962  -29.417  -29.821  -30.072
 -14.779  -14.562  -14.505  -14.478  -14.454  -14.439  -14.421  -14.408  -14.392  -14.373  -14.364  -14.360  -14.362  -14.354  -14.334  -14.278  -14.181  -14.029  -13.807  -13.512  -13.149  -12.691  -12.144  -11.508  -10.842  -10.302  -10.067  -10.246  -10.794  -11.530  -12.185  -12.559  -12.615  -12.457  -12.253  -12.130  -12.139  -12.256  -12.453  -12.702  -12.992  -13.282  -13.546  -13.756  -13.878  -13.865  -13.660  -13.184  -12.349  -11.103   -9.496   -7.792   -6.433   -5.904   -6.489   -8.183  -10.702  -13.696  -16.834  -19.832  -22.441  -24.485  -25.925  -26.830  -27.332  -27.564  -27.662  -27.708  -27.746  -27.813  -27.898  -27.975  -28.049  -28.120  -28.195  -28.278  -28.336  -28.348  -28.297  -28.188  -28.073  -27.999  -27.987  -28.007  -27.994  -27.927  -27.816  -27.715  -27.695  -27.781  -27.947  -28.105  -28.195  -28.217  -28.238  -28.374  -28.659  -29.044  -29.407  -29.650
 -14.813  -14.590  -14.529  -14.492  -14.468  -14.465  -14.453  -14.440  -14.417  -14.399  -14.390  -14.382  -14.375  -14.367  -14.357  -14.338  -14.298  -14.237  -14.140  -13.991  -13.773  -13.476  -13.084  -12.610  -12.097  -11.647  -11.392  -11.434  -11.778  -12.300  -12.825  -13.187  -13.329  -13.309  -13.226  -13.175  -13.181  -13.240  -13.342  -13.474  -13.628  -13.789  -13.923  -14.027  -14.078  -14.030  -13.822  -13.382  -12.604  -11.423   -9.865   -8.152   -6.751   -6.177   -6.765   -8.514  -11.156  -14.307  -17.609  -20.724  -23.378  -25.382  -26.696  -27.441  -27.791  -27.928  -27.972  -27.999  -28.027  -28.079  -28.140  -28.204  -28.258  -28.308  -28.354  -28.393  -28.420  -28.410  -28.359  -28.285  -28.203  -28.156  -28.152  -28.164  -28.127  -28.036  -27.901  -27.790  -27.754  -27.811  -27.919  -28.022  -28.078  -28.090  -28.106  -28.207  -28.412  -28.711  -28.996  -29.208
 -14.846  -14.614  -14.542  -14.503  -14.478  -14.470  -14.459  -14.450  -14.430  -14.408  -14.393  -14.385  -14.384  -14.378  -14.367  -14.352  -14.339  -14.322  -14.293  -14.222  -14.107  -13.930  -13.681  -13.376  -13.034  -12.716  -12.507  -12.484  -12.668  -13.021  -13.404  -13.705  -13.867  -13.907  -13.891  -13.865  -13.853  -13.866  -13.899  -13.944  -14.007  -14.067  -14.121  -14.143  -14.113  -13.991  -13.716  -13.213  -12.407  -11.217   -9.672   -7.972   -6.555   -5.945   -6.490   -8.224  -10.914  -14.194  -17.684  -20.994  -23.781  -25.828  -27.107  -27.774  -28.044  -28.125  -28.146  -28.163  -28.193  -28.230  -28.265  -28.286  -28.295  -28.306  -28.317  -28.326  -28.327  -28.317  -28.294  -28.259  -28.221  -28.197  -28.199  -28.203  -28.170  -28.091  -27.984  -27.896  -27.860  -27.881  -27.930  -27.979  -28.009  -28.019  -28.055  -28.136  -28.287  -28.497  -28.701  -28.879
 -14.841  -14.605  -14.543  -14.504  -14.478  -14.459  -14.447  -14.436  -14.421  -14.400  -14.381  -14.377  -14.378  -14.379  -14.358  -14.339  -14.330  -14.324  -14.316  -14.290  -14.230  -14.125  -13.997  -13.833  -13.650  -13.460  -13.320  -13.287  -13.383  -13.596  -13.857  -14.077  -14.211  -14.256  -14.255  -14.230  -14.206  -14.185  -14.177  -14.173  -14.186  -14.187  -14.174  -14.128  -13.999  -13.745  -13.319  -12.657  -11.707  -10.429   -8.859   -7.202   -5.838   -5.227   -5.711   -7.393  -10.101  -13.506  -17.227  -20.794  -23.803  -25.982  -27.304  -27.950  -28.183  -28.228  -28.238  -28.258  -28.287  -28.311  -28.313  -28.289  -28.256  -28.221  -28.197  -28.188  -28.181  -28.186  -28.189  -28.193  -28.189  -28.175  -28.170  -28.171  -28.168  -28.145  -28.115  -28.082  -28.061  -28.059  -28.050  -28.045  -28.036  -28.046  -28.084  -28.156  -28.268  -28.409  -28.558  -28.700
 -14.815  -14.576  -14.513  -14.475  -14.450  -14.439  -14.434  -14.422  -14.407  -14.382  -14.368  -14.362  -14.359  -14.351  -14.333  -14.305  -14.281  -14.272  -14.273  -14.263  -14.233  -14.187  -14.137  -14.063  -13.989  -13.902  -13.830  -13.806  -13.859  -13.984  -14.141  -14.283  -14.380  -14.405  -14.396  -14.365  -14.333  -14.303  -14.276  -14.256  -14.239  -14.204  -14.129  -13.981  -13.720  -13.276  -12.615  -11.694  -10.521   -9.117   -7.548   -5.990   -4.761   -4.226   -4.695   -6.303   -8.982  -12.494  -16.442  -20.294  -23.562  -25.919  -27.336  -27.997  -28.205  -28.225  -28.223  -28.249  -28.286  -28.307  -28.287  -28.241  -28.181  -28.128  -28.102  -28.090  -28.087  -28.097  -28.114  -28.132  -28.134  -28.120  -28.107  -28.101  -28.123  -28.169  -28.224  -28.267  -28.293  -28.286  -28.252  -28.204  -28.163  -28.151  -28.174  -28.228  -28.300  -28.398  -28.507  -28.626
 -14.797  -14.553  -14.491  -14.459  -14.443  -14.431  -14.423  -14.418  -14.399  -14.376  -14.352  -14.337  -14.329  -14.317  -14.289  -14.257  -14.229  -14.221  -14.218  -14.227  -14.223  -14.216  -14.198  -14.174  -14.147  -14.108  -14.072  -14.064  -14.106  -14.174  -14.261  -14.352  -14.407  -14.412  -14.397  -14.368  -14.337  -14.310  -14.291  -14.268  -14.223  -14.139  -13.983  -13.695  -13.234  -12.540  -11.583  -10.379   -8.978   -7.476   -5.988   -4.630   -3.642   -3.270   -3.758   -5.292   -7.903  -11.467  -15.576  -19.663  -23.157  -25.690  -27.204  -27.898  -28.094  -28.096  -28.085  -28.119  -28.169  -28.188  -28.172  -28.119  -28.074  -28.050  -28.052  -28.057  -28.059  -28.060  -28.058  -28.067  -28.066  -28.046  -28.018  -28.003  -28.039  -28.114  -28.226  -28.339  -28.422  -28.449  -28.429  -28.382  -28.329  -28.296  -28.288  -28.302  -28.336  -28.393  -28.474  -28.573
 -14.834  -14.589  -14.535  -14.511  -14.495  -14.487  -14.484  -14.481  -14.466  -14.433  -14.400  -14.370  -14.353  -14.326  -14.296  -14.266  -14.247  -14.251  -14.263  -14.284  -14.296  -14.299  -14.290  -14.271  -14.235  -14.201  -14.166  -14.150  -14.170  -14.210  -14.262  -14.317  -14.345  -14.345  -14.333  -14.314  -14.298  -14.282  -14.271  -14.236  -14.153  -13.992  -13.700  -13.220  -12.492  -11.503  -10.248   -8.804   -7.276   -5.807   -4.507   -3.461   -2.786   -2.628   -3.173   -4.645   -7.171  -10.693  -14.863  -19.076  -22.703  -25.355  -26.946  -27.676  -27.873  -27.861  -27.843  -27.875  -27.926  -27.950  -27.930  -27.903  -27.894  -27.920  -27.970  -28.005  -28.009  -27.986  -27.957  -27.947  -27.942  -27.917  -27.886  -27.854  -27.868  -27.941  -28.068  -28.205  -28.327  -28.412  -28.445  -28.442  -28.417  -28.386  -28.353  -28.327  -28.312  -28.324  -28.365  -28.443
 -15.090  -14.835  -14.787  -14.757  -14.748  -14.731  -14.729  -14.724  -14.710  -14.675  -14.633  -14.591  -14.562  -14.532  -14.506  -14.487  -14.495  -14.509  -14.547  -14.577  -14.600  -14.596  -14.571  -14.514  -14.428  -14.344  -14.260  -14.200  -14.175  -14.188  -14.222  -14.255  -14.275  -14.279  -14.272  -14.266  -14.262  -14.259  -14.239  -14.173  -14.016  -13.720  -13.229  -12.495  -11.475  -10.184   -8.698   -7.143   -5.658   -4.388   -3.404   -2.735   -2.397   -2.458   -3.081   -4.494   -6.917  -10.344  -14.445  -18.638  -22.280  -24.961  -26.589  -27.341  -27.541  -27.516  -27.478  -27.490  -27.524  -27.537  -27.520  -27.515  -27.539  -27.610  -27.697  -27.758  -27.763  -27.726  -27.677  -27.650  -27.645  -27.637  -27.612  -27.573  -27.559  -27.595  -27.681  -27.800  -27.929  -28.052  -28.148  -28.210  -28.245  -28.247  -28.218  -28.166  -28.113  -28.071  -28.074  -28.138
 -15.751  -15.493  -15.433  -15.396  -15.379  -15.358  -15.343  -15.333  -15.318  -15.284  -15.246  -15.208  -15.168  -15.149  -15.139  -15.140  -15.160  -15.193  -15.237  -15.277  -15.297  -15.278  -15.213  -15.078  -14.891  -14.684  -14.484  -14.329  -14.234  -14.204  -14.205  -14.227  -14.245  -14.256  -14.258  -14.255  -14.258  -14.252  -14.197  -14.050  -13.755  -13.263  -12.523  -11.497  -10.185   -8.678   -7.092   -5.584   -4.319   -3.393   -2.830   -2.576   -2.574   -2.844   -3.535   -4.900   -7.180  -10.426  -14.337  -18.346  -21.856  -24.455  -26.049  -26.797  -26.997  -26.958  -26.895  -26.867  -26.864  -26.852  -26.832  -26.833  -26.874  -26.955  -27.043  -27.103  -27.110  -27.072  -27.030  -27.011  -27.019  -27.035  -27.027  -26.992  -26.955  -26.941  -26.966  -27.034  -27.134  -27.256  -27.389  -27.502  -27.592  -27.645  -27.646  -27.603  -27.534  -27.472  -27.451  -27.500
 -16.998  -16.728  -16.653  -16.604  -16.567  -16.530  -16.512  -16.498  -16.485  -16.457  -16.434  -16.404  -16.383  -16.373  -16.367  -16.383  -16.408  -16.450  -16.493  -16.530  -16.536  -16.492  -16.356  -16.098  -15.746  -15.336  -14.932  -14.610  -14.391  -14.286  -14.257  -14.262  -14.277  -14.288  -14.294  -14.289  -14.288  -14.243  -14.124  -13.849  -13.364  -12.619  -11.589  -10.285   -8.775   -7.176   -5.641   -4.337   -3.403   -2.892   -2.777   -2.949   -3.294   -3.789   -4.559   -5.857   -7.938  -10.877  -14.426  -18.072  -21.276  -23.661  -25.132  -25.820  -26.005  -25.966  -25.888  -25.825  -25.778  -25.744  -25.715  -25.709  -25.743  -25.794  -25.851  -25.890  -25.897  -25.873  -25.844  -25.846  -25.883  -25.915  -25.925  -25.896  -25.843  -25.792  -25.767  -25.777  -25.830  -25.931  -26.054  -26.183  -26.304  -26.394  -26.439  -26.429  -26.377  -26.330  -26.315  -26.376
 -18.848  -18.579  -18.491  -18.424  -18.361  -18.322  -18.296  -18.283  -18.279  -18.270  -18.259  -18.247  -18.238  -18.229  -18.228  -18.245  -18.265  -18.302  -18.339  -18.365  -18.356  -18.261  -18.027  -17.605  -17.009  -16.305  -15.602  -15.027  -14.631  -14.418  -14.331  -14.315  -14.324  -14.334  -14.338  -14.331  -14.310  -14.229  -14.020  -13.598  -12.883  -11.859  -10.562   -9.060   -7.474   -5.942   -4.600   -3.582   -2.989   -2.851   -3.137   -3.707   -4.407   -5.157   -6.040   -7.257   -9.061  -11.550  -14.549  -17.645  -20.369  -22.399  -23.652  -24.237  -24.390  -24.353  -24.282  -24.219  -24.159  -24.106  -24.066  -24.052  -24.057  -24.074  -24.089  -24.105  -24.105  -24.090  -24.087  -24.101  -24.139  -24.178  -24.190  -24.169  -24.115  -24.051  -24.002  -23.983  -24.000  -24.066  -24.155  -24.262  -24.379  -24.480  -24.551  -24.576  -24.570  -24.559  -24.571  -24.678
 -21.092  -20.849  -20.753  -20.678  -20.618  -20.575  -20.554  -20.550  -20.561  -20.569  -20.564  -20.554  -20.544  -20.534  -20.531  -20.539  -20.557  -20.583  -20.609  -20.617  -20.578  -20.426  -20.070  -19.441  -18.542  -17.470  -16.401  -15.512  -14.891  -14.541  -14.392  -14.350  -14.344  -14.347  -14.348  -14.338  -14.311  -14.201  -13.910  -13.342  -12.431  -11.180   -9.687   -8.103   -6.586   -5.241   -4.170   -3.433   -3.090   -3.209   -3.771   -4.652   -5.680   -6.698   -7.694   -8.813  -10.281  -12.230  -14.557  -16.971  -19.096  -20.681  -21.645  -22.080  -22.190  -22.166  -22.126  -22.089  -22.049  -21.999  -21.959  -21.936  -21.920  -21.916  -21.906  -21.907  -21.896  -21.888  -21.889  -21.904  -21.930  -21.951  -21.953  -21.934  -21.889  -21.835  -21.795  -21.778  -21.787  -21.824  -21.881  -21.953  -22.031  -22.109  -22.174  -22.217  -22.242  -22.277  -22.333  -22.492
 -23.401  -23.195  -23.106  -23.035  -22.985  -22.956  -22.942  -22.945  -22.963  -22.976  -22.975  -22.962  -22.941  -22.917  -22.907  -22.915  -22.931  -22.952  -22.969  -22.963  -22.894  -22.672  -22.181  -21.332  -20.119  -18.670  -17.213  -15.982  -15.120  -14.624  -14.405  -14.337  -14.322  -14.319  -14.325  -14.321  -14.285  -14.153  -13.819  -13.173  -12.146  -10.779   -9.236   -7.704   -6.365   -5.271   -4.454   -3.921   -3.721   -3.946   -4.632   -5.684   -6.932   -8.139   -9.215  -10.217  -11.345  -12.742  -14.393  -16.110  -17.622  -18.733  -19.388  -19.655  -19.716  -19.708  -19.708  -19.725  -19.731  -19.714  -19.689  -19.664  -19.646  -19.638  -19.628  -19.627  -19.613  -19.600  -19.592  -19.593  -19.592  -19.588  -19.569  -19.542  -19.510  -19.483  -19.470  -19.472  -19.490  -19.524  -19.556  -19.592  -19.624  -19.657  -19.691  -19.726  -19.768  -19.827  -19.910  -20.128
 -25.436  -25.260  -25.179  -25.124  -25.088  -25.072  -25.064  -25.073  -25.085  -25.094  -25.089  -25.062  -25.028  -24.995  -24.983  -24.988  -25.003  -25.028  -25.049  -25.029  -24.932  -24.644  -24.032  -22.991  -21.503  -19.719  -17.914  -16.383  -15.298  -14.674  -14.392  -14.304  -14.287  -14.288  -14.299  -14.305  -14.272  -14.140  -13.797  -13.136  -12.118  -10.807   -9.375   -8.026   -6.909   -6.052   -5.428   -5.027   -4.892   -5.120   -5.776   -6.830   -8.113   -9.374  -10.441  -11.310  -12.135  -13.065  -14.141  -15.260  -16.231  -16.922  -17.298  -17.425  -17.435  -17.427  -17.474  -17.542  -17.606  -17.639  -17.640  -17.626  -17.621  -17.623  -17.624  -17.625  -17.613  -17.594  -17.577  -17.567  -17.544  -17.509  -17.472  -17.436  -17.415  -17.411  -17.419  -17.444  -17.480  -17.511  -17.531  -17.533  -17.521  -17.512  -17.516  -17.538  -17.576  -17.636  -17.724  -17.983
 -26.973  -26.809  -26.734  -26.693  -26.669  -26.656  -26.655  -26.659  -26.665  -26.659  -26.642  -26.603  -26.561  -26.519  -26.499  -26.505  -26.525  -26.559  -26.582  -26.559  -26.442  -26.108  -25.406  -24.216  -22.530  -20.496  -18.431  -16.675  -15.428  -14.708  -14.383  -14.287  -14.284  -14.304  -14.322  -14.327  -14.297  -14.173  -13.865  -13.272  -12.382  -11.260  -10.068   -8.971   -8.083   -7.416   -6.934   -6.627   -6.521   -6.704   -7.255   -8.173   -9.321  -10.475  -11.436  -12.149  -12.731  -13.323  -13.973  -14.641  -15.203  -15.573  -15.732  -15.751  -15.720  -15.720  -15.782  -15.884  -15.987  -16.058  -16.091  -16.093  -16.092  -16.108  -16.120  -16.129  -16.121  -16.104  -16.090  -16.077  -16.051  -16.006  -15.957  -15.915  -15.900  -15.903  -15.922  -15.966  -16.003  -16.033  -16.037  -16.006  -15.968  -15.936  -15.926  -15.938  -15.967  -16.019  -16.102  -16.378
 -27.962  -27.795  -27.732  -27.691  -27.665  -27.655  -27.645  -27.646  -27.638  -27.623  -27.591  -27.547  -27.494  -27.448  -27.419  -27.424  -27.442  -27.486  -27.512  -27.496  -27.367  -27.008  -26.258  -24.974  -23.160  -20.977  -18.756  -16.850  -15.503  -14.727  -14.400  -14.329  -14.346  -14.382  -14.409  -14.417  -14.388  -14.270  -14.008  -13.535  -12.845  -12.000  -11.107  -10.278   -9.587   -9.056   -8.680   -8.454   -8.397   -8.555   -8.983   -9.694  -10.596  -11.525  -12.295  -12.843  -13.242  -13.601  -13.984  -14.357  -14.646  -14.814  -14.842  -14.801  -14.747  -14.731  -14.765  -14.854  -14.952  -15.041  -15.093  -15.111  -15.119  -15.139  -15.157  -15.170  -15.156  -15.153  -15.150  -15.158  -15.150  -15.115  -15.066  -15.018  -14.992  -14.992  -15.020  -15.066  -15.112  -15.132  -15.110  -15.068  -15.012  -14.985  -14.979  -14.996  -15.028  -15.073  -15.150  -15.418
 -28.511  -28.340  -28.271  -28.222  -28.192  -28.178  -28.164  -28.151  -28.137  -28.118  -28.080  -28.026  -27.967  -27.917  -27.885  -27.878  -27.896  -27.934  -27.965  -27.958  -27.833  -27.462  -26.687  -25.362  -23.485  -21.222  -18.919  -16.943  -15.541  -14.742  -14.428  -14.397  -14.457  -14.514  -14.547  -14.540  -14.498  -14.385  -14.171  -13.828  -13.366  -12.813  -12.215  -11.627  -11.095  -10.664  -10.360  -10.216  -10.220  -10.392  -10.728  -11.229  -11.850  -12.496  -13.036  -13.413  -13.680  -13.905  -14.132  -14.347  -14.498  -14.569  -14.554  -14.485  -14.409  -14.352  -14.326  -14.348  -14.402  -14.476  -14.530  -14.555  -14.581  -14.604  -14.621  -14.622  -14.617  -14.623  -14.650  -14.680  -14.687  -14.667  -14.616  -14.563  -14.529  -14.531  -14.573  -14.635  -14.686  -14.699  -14.660  -14.603  -14.546  -14.533  -14.553  -14.590  -14.636  -14.691  -14.757  -15.010
 -28.773  -28.586  -28.516  -28.461  -28.429  -28.407  -28.389  -28.375  -28.361  -28.339  -28.301  -28.246  -28.191  -28.134  -28.091  -28.075  -28.087  -28.118  -28.153  -28.147  -28.024  -27.657  -26.869  -25.530  -23.624  -21.329  -18.991  -16.973  -15.543  -14.742  -14.447  -14.449  -14.546  -14.631  -14.666  -14.642  -14.568  -14.448  -14.274  -14.054  -13.794  -13.499  -13.150  -12.763  -12.356  -12.003  -11.758  -11.668  -11.739  -11.930  -12.207  -12.550  -12.926  -13.296  -13.599  -13.824  -13.988  -14.146  -14.314  -14.471  -14.587  -14.638  -14.629  -14.573  -14.476  -14.366  -14.265  -14.198  -14.186  -14.217  -14.250  -14.278  -14.315  -14.347  -14.365  -14.359  -14.342  -14.350  -14.390  -14.441  -14.463  -14.460  -14.417  -14.354  -14.313  -14.318  -14.382  -14.475  -14.543  -14.564  -14.519  -14.450  -14.390  -14.385  -14.419  -14.490  -14.560  -14.627  -14.693  -14.931
 -28.895  -28.690  -28.611  -28.559  -28.528  -28.506  -28.491  -28.489  -28.477  -28.455  -28.428  -28.383  -28.333  -28.278  -28.229  -28.197  -28.199  -28.220  -28.249  -28.243  -28.123  -27.751  -26.959  -25.611  -23.693  -21.386  -19.027  -16.994  -15.544  -14.735  -14.440  -14.449  -14.565  -14.659  -14.680  -14.629  -14.524  -14.391  -14.249  -14.131  -14.044  -13.950  -13.798  -13.568  -13.274  -12.998  -12.807  -12.755  -12.854  -13.060  -13.313  -13.559  -13.756  -13.904  -14.007  -14.092  -14.180  -14.300  -14.440  -14.585  -14.701  -14.770  -14.790  -14.760  -14.666  -14.525  -14.372  -14.242  -14.164  -14.132  -14.127  -14.146  -14.186  -14.224  -14.239  -14.225  -14.200  -14.197  -14.239  -14.297  -14.340  -14.345  -14.308  -14.251  -14.216  -14.234  -14.315  -14.438  -14.529  -14.556  -14.511  -14.426  -14.362  -14.350  -14.395  -14.482  -14.572  -14.646  -14.719  -14.954
 -28.959  -28.735  -28.646  -28.606  -28.580  -28.566  -28.560  -28.564  -28.564  -28.559  -28.544  -28.518  -28.478  -28.431  -28.380  -28.334  -28.316  -28.324  -28.339  -28.319  -28.194  -27.819  -27.025  -25.672  -23.746  -21.436  -19.072  -17.029  -15.564  -14.732  -14.410  -14.394  -14.482  -14.555  -14.551  -14.478  -14.359  -14.225  -14.121  -14.082  -14.116  -14.167  -14.163  -14.062  -13.883  -13.691  -13.553  -13.527  -13.633  -13.834  -14.073  -14.273  -14.362  -14.365  -14.318  -14.281  -14.290  -14.353  -14.465  -14.583  -14.694  -14.779  -14.834  -14.835  -14.777  -14.656  -14.511  -14.360  -14.233  -14.129  -14.065  -14.048  -14.080  -14.122  -14.145  -14.128  -14.098  -14.097  -14.139  -14.213  -14.272  -14.292  -14.268  -14.220  -14.190  -14.216  -14.302  -14.432  -14.525  -14.553  -14.503  -14.410  -14.327  -14.304  -14.343  -14.421  -14.508  -14.590  -14.666  -14.911
 -28.996  -28.752  -28.672  -28.636  -28.616  -28.609  -28.612  -28.624  -28.636  -28.653  -28.660  -28.657  -28.630  -28.589  -28.537  -28.475  -28.436  -28.411  -28.405  -28.376  -28.246  -27.868  -27.072  -25.710  -23.784  -21.476  -19.120  -17.076  -15.601  -14.742  -14.369  -14.287  -14.317  -14.342  -14.315  -14.240  -14.135  -14.036  -13.978  -13.999  -14.102  -14.225  -14.307  -14.307  -14.232  -14.135  -14.056  -14.055  -14.155  -14.343  -14.559  -14.717  -14.763  -14.683  -14.535  -14.400  -14.321  -14.319  -14.369  -14.438  -14.522  -14.613  -14.692  -14.740  -14.738  -14.688  -14.588  -14.452  -14.295  -14.132  -14.000  -13.928  -13.937  -13.977  -14.005  -14.015  -14.014  -14.051  -14.123  -14.215  -14.285  -14.315  -14.291  -14.250  -14.218  -14.233  -14.297  -14.395  -14.470  -14.480  -14.426  -14.329  -14.238  -14.201  -14.215  -14.272  -14.341  -14.404  -14.477  -14.736
 -29.046  -28.781  -28.701  -28.660  -28.641  -28.641  -28.643  -28.657  -28.676  -28.712  -28.741  -28.753  -28.739  -28.706  -28.641  -28.566  -28.496  -28.449  -28.422  -28.383  -28.245  -27.866  -27.068  -25.708  -23.786  -21.479  -19.133  -17.107  -15.642  -14.760  -14.333  -14.181  -14.142  -14.126  -14.084  -14.038  -13.981  -13.949  -13.936  -13.981  -14.093  -14.225  -14.334  -14.391  -14.394  -14.368  -14.341  -14.369  -14.457  -14.609  -14.794  -14.920  -14.936  -14.816  -14.614  -14.414  -14.274  -14.214  -14.200  -14.225  -14.275  -14.356  -14.450  -14.539  -14.593  -14.607  -14.562  -14.450  -14.289  -14.095  -13.915  -13.810  -13.791  -13.825  -13.874  -13.913  -13.968  -14.072  -14.197  -14.313  -14.380  -14.399  -14.356  -14.296  -14.241  -14.225  -14.255  -14.309  -14.346  -14.340  -14.287  -14.206  -14.128  -14.091  -14.086  -14.115  -14.142  -14.176  -14.225  -14.503
 -29.148  -28.856  -28.762  -28.714  -28.692  -28.681  -28.676  -28.681  -28.691  -28.727  -28.758  -28.781  -28.777  -28.736  -28.666  -28.586  -28.501  -28.447  -28.413  -28.364  -28.221  -27.839  -27.043  -25.681  -23.762  -21.463  -19.134  -17.134  -15.682  -14.791  -14.335  -14.134  -14.047  -14.000  -13.975  -13.974  -14.004  -14.033  -14.059  -14.097  -14.170  -14.265  -14.347  -14.405  -14.433  -14.442  -14.454  -14.487  -14.555  -14.672  -14.800  -14.881  -14.865  -14.731  -14.514  -14.302  -14.155  -14.069  -14.036  -14.038  -14.065  -14.145  -14.250  -14.356  -14.438  -14.478  -14.452  -14.356  -14.206  -14.026  -13.870  -13.772  -13.754  -13.783  -13.826  -13.879  -13.977  -14.125  -14.301  -14.426  -14.483  -14.467  -14.394  -14.301  -14.220  -14.166  -14.162  -14.182  -14.196  -14.195  -14.174  -14.141  -14.104  -14.104  -14.109  -14.113  -14.103  -14.095  -14.125  -14.409
 -29.379  -29.055  -28.944  -28.890  -28.850  -28.823  -28.799  -28.785  -28.775  -28.789  -28.805  -28.823  -28.821  -28.789  -28.726  -28.647  -28.574  -28.526  -28.496  -28.446  -28.300  -27.912  -27.105  -25.741  -23.817  -21.529  -19.215  -17.235  -15.794  -14.890  -14.411  -14.178  -14.072  -14.020  -14.033  -14.101  -14.210  -14.306  -14.368  -14.396  -14.417  -14.440  -14.452  -14.452  -14.449  -14.447  -14.453  -14.480  -14.530  -14.590  -14.647  -14.658  -14.592  -14.451  -14.256  -14.081  -13.974  -13.922  -13.912  -13.918  -13.953  -14.044  -14.154  -14.260  -14.336  -14.350  -14.312  -14.221  -14.113  -14.006  -13.930  -13.894  -13.890  -13.898  -13.890  -13.912  -14.000  -14.159  -14.338  -14.466  -14.505  -14.458  -14.366  -14.256  -14.143  -14.069  -14.038  -14.057  -14.101  -14.163  -14.231  -14.301  -14.371  -14.459  -14.526  -14.550  -14.522  -14.487  -14.510  -14.791
 -29.884  -29.528  -29.403  -29.332  -29.279  -29.233  -29.188  -29.149  -29.111  -29.095  -29.093  -29.093  -29.086  -29.058  -29.012  -28.957  -28.913  -28.891  -28.877  -28.837  -28.688  -28.287  -27.467  -26.089  -24.159  -21.870  -19.556  -17.571  -16.106  -15.168  -14.638  -14.364  -14.231  -14.197  -14.258  -14.406  -14.608  -14.794  -14.911  -14.949  -14.919  -14.842  -14.737  -14.623  -14.523  -14.466  -14.456  -14.477  -14.492  -14.484  -14.444  -14.363  -14.244  -14.091  -13.936  -13.826  -13.792  -13.807  -13.838  -13.870  -13.923  -14.022  -14.139  -14.240  -14.293  -14.284  -14.219  -14.136  -14.085  -14.080  -14.118  -14.161  -14.174  -14.127  -14.038  -13.980  -14.015  -14.146  -14.303  -14.407  -14.426  -14.384  -14.297  -14.189  -14.080  -14.000  -13.979  -14.033  -14.166  -14.356  -14.599  -14.874  -15.175  -15.466  -15.700  -15.825  -15.840  -15.814  -15.818  -16.106
 -30.830  -30.445  -30.311  -30.233  -30.167  -30.112  -30.053  -29.992  -29.932  -29.882  -29.859  -29.844  -29.831  -29.806  -29.770  -29.742  -29.732  -29.739  -29.751  -29.721  -29.569  -29.156  -28.322  -26.931  -24.997  -22.696  -20.348  -18.303  -16.750  -15.709  -15.076  -14.725  -14.553  -14.530  -14.658  -14.923  -15.260  -15.576  -15.792  -15.866  -15.782  -15.570  -15.282  -14.971  -14.724  -14.576  -14.528  -14.532  -14.517  -14.433  -14.289  -14.122  -13.952  -13.799  -13.683  -13.641  -13.683  -13.766  -13.842  -13.895  -13.951  -14.042  -14.155  -14.245  -14.284  -14.268  -14.206  -14.152  -14.171  -14.256  -14.382  -14.479  -14.478  -14.378  -14.206  -14.066  -14.043  -14.115  -14.229  -14.304  -14.305  -14.264  -14.200  -14.125  -14.053  -14.011  -14.042  -14.173  -14.440  -14.836  -15.385  -16.048  -16.775  -17.480  -18.054  -18.404  -18.543  -18.558  -18.561  -18.824
 -32.323  -31.925  -31.793  -31.713  -31.652  -31.593  -31.525  -31.447  -31.373  -31.307  -31.263  -31.235  -31.211  -31.181  -31.159  -31.140  -31.150  -31.181  -31.207  -31.186  -31.037  -30.624  -29.793  -28.400  -26.454  -24.125  -21.713  -19.546  -17.820  -16.587  -15.770  -15.269  -15.023  -15.017  -15.252  -15.693  -16.238  -16.757  -17.113  -17.221  -17.044  -16.632  -16.079  -15.513  -15.061  -14.785  -14.675  -14.656  -14.613  -14.472  -14.253  -14.009  -13.817  -13.673  -13.597  -13.605  -13.711  -13.847  -13.957  -14.008  -14.033  -14.081  -14.155  -14.232  -14.282  -14.286  -14.271  -14.263  -14.326  -14.470  -14.628  -14.737  -14.720  -14.575  -14.362  -14.180  -14.102  -14.121  -14.175  -14.195  -14.172  -14.128  -14.095  -14.073  -14.071  -14.093  -14.200  -14.435  -14.879  -15.582  -16.602  -17.893  -19.332  -20.714  -21.825  -22.554  -22.899  -22.997  -23.011  -23.213
 -34.376  -33.971  -33.843  -33.770  -33.714  -33.654  -33.571  -33.486  -33.399  -33.323  -33.267  -33.228  -33.191  -33.157  -33.125  -33.105  -33.114  -33.144  -33.173  -33.163  -33.022  -32.624  -31.804  -30.422  -28.468  -26.096  -23.577  -21.225  -19.257  -17.750  -16.676  -15.979  -15.633  -15.650  -16.032  -16.724  -17.555  -18.328  -18.841  -18.957  -18.627  -17.923  -17.022  -16.136  -15.443  -15.014  -14.833  -14.787  -14.732  -14.560  -14.292  -14.024  -13.825  -13.717  -13.688  -13.736  -13.870  -14.019  -14.124  -14.155  -14.125  -14.111  -14.138  -14.197  -14.275  -14.326  -14.356  -14.392  -14.467  -14.607  -14.751  -14.846  -14.815  -14.673  -14.478  -14.307  -14.203  -14.176  -14.165  -14.120  -14.059  -14.003  -14.004  -14.036  -14.100  -14.195  -14.379  -14.731  -15.383  -16.487  -18.146  -20.309  -22.719  -25.020  -26.855  -28.074  -28.703  -28.911  -28.943  -29.045
 -36.870  -36.471  -36.351  -36.288  -36.225  -36.140  -36.023  -35.898  -35.771  -35.675  -35.611  -35.563  -35.523  -35.480  -35.434  -35.399  -35.396  -35.405  -35.427  -35.415  -35.286  -34.904  -34.100  -32.730  -30.767  -28.336  -25.686  -23.120  -20.872  -19.048  -17.679  -16.760  -16.303  -16.355  -16.924  -17.917  -19.081  -20.124  -20.788  -20.872  -20.328  -19.274  -17.966  -16.716  -15.754  -15.168  -14.910  -14.834  -14.775  -14.602  -14.331  -14.065  -13.901  -13.852  -13.883  -13.962  -14.084  -14.207  -14.279  -14.265  -14.187  -14.119  -14.104  -14.163  -14.255  -14.343  -14.401  -14.445  -14.507  -14.599  -14.701  -14.761  -14.736  -14.638  -14.510  -14.393  -14.304  -14.242  -14.183  -14.095  -14.014  -13.964  -13.985  -14.063  -14.166  -14.297  -14.518  -14.957  -15.825  -17.387  -19.809  -22.989  -26.519  -29.847  -32.488  -34.242  -35.180  -35.537  -35.598  -35.580
 -39.819  -39.423  -39.316  -39.239  -39.134  -38.960  -38.709  -38.439  -38.198  -38.029  -37.928  -37.876  -37.834  -37.785  -37.728  -37.675  -37.648  -37.642  -37.646  -37.623  -37.494  -37.118  -36.324  -34.955  -32.971  -30.472  -27.690  -24.913  -22.386  -20.261  -18.617  -17.487  -16.935  -17.046  -17.819  -19.106  -20.588  -21.874  -22.646  -22.675  -21.904  -20.493  -18.781  -17.155  -15.907  -15.146  -14.802  -14.714  -14.662  -14.517  -14.282  -14.071  -13.980  -14.016  -14.111  -14.207  -14.283  -14.337  -14.350  -14.303  -14.202  -14.112  -14.081  -14.128  -14.222  -14.314  -14.368  -14.387  -14.409  -14.448  -14.500  -14.533  -14.523  -14.485  -14.440  -14.397  -14.358  -14.304  -14.234  -14.151  -14.084  -14.071  -14.126  -14.206  -14.296  -14.400  -14.592  -15.060  -16.118  -18.139  -21.330  -25.532  -30.162  -34.470  -37.862  -40.122  -41.363  -41.879  -41.987  -41.848
 -43.641  -43.263  -43.171  -43.056  -42.788  -42.329  -41.713  -41.057  -40.504  -40.126  -39.920  -39.826  -39.779  -39.731  -39.671  -39.609  -39.568  -39.545  -39.533  -39.497  -39.357  -38.973  -38.171  -36.784  -34.764  -32.194  -29.288  -26.321  -23.559  -21.188  -19.329  -18.054  -17.462  -17.656  -18.627  -20.168  -21.885  -23.343  -24.168  -24.117  -23.151  -21.440  -19.376  -17.407  -15.889  -14.951  -14.529  -14.438  -14.430  -14.341  -14.178  -14.046  -14.049  -14.168  -14.307  -14.386  -14.403  -14.384  -14.342  -14.288  -14.208  -14.126  -14.085  -14.111  -14.181  -14.249  -14.280  -14.271  -14.251  -14.248  -14.262  -14.282  -14.287  -14.297  -14.322  -14.351  -14.371  -14.353  -14.310  -14.262  -14.250  -14.294  -14.382  -14.456  -14.490  -14.504  -14.602  -15.058  -16.262  -18.672  -22.549  -27.629  -33.176  -38.292  -42.301  -44.981  -46.470  -47.120  -47.275  -47.028
 -49.388  -49.073  -49.008  -48.748  -48.077  -46.947  -45.488  -43.986  -42.732  -41.897  -41.446  -41.251  -41.174  -41.122  -41.069  -41.013  -40.971  -40.945  -40.925  -40.878  -40.717  -40.312  -39.484  -38.064  -35.991  -33.338  -30.318  -27.197  -24.266  -21.732  -19.761  -18.443  -17.903  -18.225  -19.361  -21.068  -22.911  -24.425  -25.230  -25.092  -23.971  -22.051  -19.733  -17.511  -15.774  -14.698  -14.236  -14.168  -14.229  -14.217  -14.127  -14.067  -14.125  -14.273  -14.403  -14.444  -14.405  -14.347  -14.306  -14.278  -14.228  -14.162  -14.110  -14.104  -14.151  -14.198  -14.216  -14.192  -14.150  -14.123  -14.123  -14.147  -14.174  -14.215  -14.268  -14.331  -14.366  -14.368  -14.353  -14.368  -14.441  -14.556  -14.670  -14.717  -14.669  -14.576  -14.585  -15.008  -16.315  -19.035  -23.423  -29.155  -35.364  -41.048  -45.494  -48.464  -50.125  -50.862  -51.041  -50.721
 -58.548  -58.386  -58.286  -57.641  -56.120  -53.689  -50.671  -47.627  -45.124  -43.454  -42.549  -42.164  -42.028  -41.967  -41.922  -41.884  -41.852  -41.834  -41.814  -41.759  -41.582  -41.150  -40.278  -38.806  -36.659  -33.917  -30.787  -27.546  -24.509  -21.917  -19.956  -18.741  -18.367  -18.856  -20.128  -21.895  -23.730  -25.173  -25.875  -25.621  -24.380  -22.338  -19.892  -17.524  -15.661  -14.517  -14.055  -14.045  -14.179  -14.238  -14.197  -14.154  -14.205  -14.314  -14.391  -14.385  -14.333  -14.281  -14.268  -14.266  -14.238  -14.178  -14.116  -14.099  -14.143  -14.209  -14.244  -14.218  -14.159  -14.128  -14.142  -14.192  -14.246  -14.287  -14.325  -14.343  -14.330  -14.312  -14.326  -14.419  -14.580  -14.764  -14.891  -14.904  -14.789  -14.623  -14.576  -14.985  -16.372  -19.295  -24.003  -30.124  -36.721  -42.738  -47.433  -50.559  -52.301  -53.067  -53.243  -52.883
 -72.091  -72.143  -71.788  -70.334  -67.367  -62.921  -57.562  -52.228  -47.862  -44.951  -43.383  -42.712  -42.482  -42.409  -42.376  -42.352  -42.337  -42.329  -42.314  -42.256  -42.064  -41.603  -40.679  -39.134  -36.899  -34.053  -30.813  -27.486  -24.405  -21.860  -20.055  -19.083  -18.982  -19.695  -21.062  -22.786  -24.481  -25.742  -26.267  -25.870  -24.530  -22.430  -19.939  -17.542  -15.645  -14.488  -14.050  -14.077  -14.262  -14.355  -14.319  -14.258  -14.263  -14.316  -14.335  -14.307  -14.261  -14.222  -14.217  -14.216  -14.184  -14.112  -14.048  -14.062  -14.147  -14.266  -14.333  -14.321  -14.256  -14.227  -14.266  -14.347  -14.419  -14.447  -14.426  -14.346  -14.239  -14.175  -14.213  -14.374  -14.617  -14.850  -14.984  -14.970  -14.824  -14.635  -14.588  -15.026  -16.469  -19.490  -24.338  -30.612  -37.349  -43.476  -48.247  -51.408  -53.151  -53.896  -54.050  -53.675
 -89.212  -89.435  -88.440  -85.666  -80.727  -73.766  -65.573  -57.479  -50.860  -46.451  -44.086  -43.073  -42.730  -42.636  -42.608  -42.592  -42.580  -42.569  -42.557  -42.499  -42.303  -41.816  -40.848  -39.225  -36.880  -33.914  -30.578  -27.205  -24.161  -21.768  -20.232  -19.609  -19.845  -20.781  -22.193  -23.792  -25.263  -26.277  -26.591  -26.049  -24.637  -22.523  -20.055  -17.679  -15.793  -14.630  -14.171  -14.178  -14.336  -14.421  -14.388  -14.317  -14.301  -14.329  -14.341  -14.315  -14.263  -14.210  -14.162  -14.116  -14.046  -13.955  -13.904  -13.955  -14.104  -14.284  -14.394  -14.395  -14.335  -14.304  -14.345  -14.441  -14.526  -14.543  -14.471  -14.309  -14.123  -14.013  -14.053  -14.250  -14.527  -14.766  -14.890  -14.875  -14.737  -14.587  -14.592  -15.081  -16.562  -19.598  -24.409  -30.617  -37.287  -43.341  -48.041  -51.140  -52.825  -53.526  -53.654  -53.281
-107.274 -107.497 -105.510 -101.027  -93.832  -84.237  -73.229  -62.444  -53.646  -47.804  -44.686  -43.358  -42.909  -42.792  -42.760  -42.736  -42.707  -42.680  -42.650  -42.593  -42.410  -41.923  -40.920  -39.223  -36.773  -33.694  -30.281  -26.919  -24.003  -21.848  -20.646  -20.403  -20.956  -22.050  -23.424  -24.837  -26.041  -26.807  -26.933  -26.291  -24.860  -22.776  -20.355  -18.010  -16.123  -14.914  -14.365  -14.255  -14.319  -14.358  -14.329  -14.308  -14.342  -14.416  -14.467  -14.450  -14.351  -14.222  -14.100  -13.995  -13.890  -13.786  -13.737  -13.803  -13.989  -14.209  -14.351  -14.356  -14.287  -14.235  -14.260  -14.355  -14.459  -14.505  -14.442  -14.266  -14.051  -13.903  -13.910  -14.075  -14.314  -14.520  -14.624  -14.612  -14.528  -14.451  -14.539  -15.089  -16.572  -19.512  -24.137  -30.098  -36.495  -42.308  -46.810  -49.765  -51.358  -52.006  -52.116  -51.773
-123.612 -123.546 -120.335 -113.877 -104.292  -92.199  -78.796  -65.915  -55.537  -48.720  -45.111  -43.584  -43.074  -42.942  -42.906  -42.861  -42.802  -42.745  -42.706  -42.663  -42.515  -42.056  -41.040  -39.272  -36.718  -33.542  -30.096  -26.814  -24.098  -22.255  -21.403  -21.488  -22.250  -23.389  -24.637  -25.799  -26.717  -27.243  -27.224  -26.534  -25.138  -23.124  -20.772  -18.461  -16.565  -15.275  -14.574  -14.282  -14.194  -14.173  -14.182  -14.254  -14.403  -14.566  -14.652  -14.596  -14.425  -14.225  -14.053  -13.933  -13.826  -13.716  -13.658  -13.709  -13.875  -14.081  -14.210  -14.203  -14.110  -14.029  -14.033  -14.133  -14.284  -14.408  -14.429  -14.308  -14.103  -13.927  -13.860  -13.925  -14.060  -14.192  -14.259  -14.262  -14.235  -14.247  -14.419  -15.007  -16.426  -19.155  -23.425  -28.940  -34.873  -40.272  -44.451  -47.190  -48.657  -49.249  -49.347  -49.061
-136.903 -136.059 -131.217 -122.460 -110.442  -96.150  -80.985  -66.938  -55.966  -48.924  -45.251  -43.717  -43.218  -43.106  -43.086  -43.050  -42.988  -42.933  -42.922  -42.940  -42.871  -42.460  -41.421  -39.553  -36.858  -33.582  -30.137  -26.999  -24.552  -23.038  -22.502  -22.812  -23.659  -24.732  -25.776  -26.644  -27.254  -27.517  -27.338  -26.606  -25.257  -23.338  -21.077  -18.822  -16.920  -15.560  -14.719  -14.264  -14.048  -13.985  -14.048  -14.226  -14.482  -14.695  -14.766  -14.647  -14.418  -14.208  -14.093  -14.053  -13.998  -13.892  -13.801  -13.792  -13.887  -14.026  -14.099  -14.053  -13.926  -13.828  -13.828  -13.958  -14.183  -14.415  -14.539  -14.485  -14.291  -14.070  -13.922  -13.877  -13.903  -13.947  -13.960  -13.968  -13.977  -14.048  -14.263  -14.824  -16.089  -18.478  -22.218  -27.068  -32.325  -37.124  -40.850  -43.292  -44.593  -45.114  -45.207  -45.004
-146.018 -143.803 -136.802 -125.651 -111.491  -95.486  -79.339  -65.224  -54.775  -48.321  -45.038  -43.704  -43.329  -43.333  -43.445  -43.544  -43.608  -43.680  -43.816  -44.001  -44.060  -43.679  -42.520  -40.400  -37.419  -33.936  -30.452  -27.464  -25.313  -24.122  -23.845  -24.275  -25.110  -26.052  -26.867  -27.443  -27.726  -27.688  -27.289  -26.449  -25.105  -23.261  -21.098  -18.925  -17.053  -15.666  -14.767  -14.233  -13.966  -13.910  -14.041  -14.304  -14.596  -14.788  -14.777  -14.581  -14.356  -14.252  -14.316  -14.434  -14.479  -14.402  -14.276  -14.192  -14.189  -14.225  -14.209  -14.103  -13.955  -13.858  -13.884  -14.041  -14.305  -14.596  -14.766  -14.732  -14.534  -14.277  -14.080  -13.972  -13.930  -13.912  -13.890  -13.867  -13.867  -13.933  -14.109  -14.577  -15.599  -17.536  -20.578  -24.561  -28.904  -32.909  -36.032  -38.082  -39.165  -39.581  -39.653  -39.564
-148.815 -145.188 -136.224 -123.294 -107.609  -90.523  -74.330  -61.272  -52.309  -47.067  -44.510  -43.568  -43.496  -43.859  -44.403  -44.973  -45.513  -46.038  -46.590  -47.094  -47.299  -46.788  -45.195  -42.425  -38.758  -34.768  -31.078  -28.160  -26.246  -25.326  -25.237  -25.718  -26.485  -27.283  -27.908  -28.237  -28.232  -27.888  -27.224  -26.216  -24.816  -23.020  -20.947  -18.864  -17.047  -15.683  -14.794  -14.295  -14.083  -14.110  -14.307  -14.593  -14.840  -14.926  -14.800  -14.560  -14.405  -14.496  -14.802  -15.132  -15.299  -15.259  -15.104  -14.948  -14.848  -14.780  -14.678  -14.530  -14.386  -14.310  -14.347  -14.481  -14.687  -14.902  -15.011  -14.948  -14.744  -14.505  -14.319  -14.222  -14.174  -14.133  -14.084  -14.024  -13.991  -13.988  -14.080  -14.389  -15.105  -16.507  -18.738  -21.685  -24.924  -27.938  -30.304  -31.841  -32.628  -32.895  -32.914  -32.950
-143.948 -139.676 -129.920 -116.187  -99.664  -82.378  -67.261  -56.199  -49.250  -45.450  -43.755  -43.397  -43.951  -45.172  -46.803  -48.587  -50.325  -51.926  -53.315  -54.303  -54.499  -53.401  -50.691  -46.479  -41.387  -36.316  -32.052  -29.010  -27.213  -26.472  -26.488  -26.955  -27.628  -28.285  -28.761  -28.928  -28.732  -28.174  -27.298  -26.141  -24.685  -22.919  -20.932  -18.937  -17.182  -15.868  -15.053  -14.665  -14.591  -14.732  -14.978  -15.218  -15.350  -15.293  -15.062  -14.809  -14.772  -15.080  -15.625  -16.146  -16.422  -16.423  -16.256  -16.062  -15.893  -15.753  -15.607  -15.466  -15.345  -15.281  -15.264  -15.277  -15.316  -15.356  -15.343  -15.248  -15.077  -14.911  -14.796  -14.749  -14.725  -14.690  -14.635  -14.543  -14.458  -14.391  -14.378  -14.517  -14.936  -15.783  -17.150  -18.965  -20.981  -22.847  -24.296  -25.205  -25.613  -25.672  -25.603  -25.733
-133.093 -128.849 -119.256 -105.446  -89.021  -72.844  -59.883  -51.242  -46.246  -43.715  -42.831  -43.271  -44.996  -47.956  -51.806  -56.004  -60.028  -63.510  -66.164  -67.615  -67.358  -64.890  -60.050  -53.292  -45.733  -38.761  -33.396  -29.933  -28.102  -27.430  -27.463  -27.864  -28.398  -28.902  -29.249  -29.331  -29.074  -28.470  -27.558  -26.377  -24.928  -23.222  -21.333  -19.440  -17.777  -16.559  -15.855  -15.616  -15.692  -15.919  -16.157  -16.290  -16.268  -16.073  -15.770  -15.549  -15.632  -16.106  -16.817  -17.459  -17.821  -17.880  -17.748  -17.561  -17.386  -17.239  -17.108  -17.011  -16.925  -16.838  -16.723  -16.563  -16.400  -16.269  -16.161  -16.074  -15.987  -15.912  -15.872  -15.858  -15.859  -15.835  -15.778  -15.679  -15.551  -15.430  -15.354  -15.371  -15.526  -15.869  -16.413  -17.113  -17.861  -18.505  -18.940  -19.114  -19.044  -18.820  -18.613  -18.796
-119.283 -115.006 -105.859  -92.776  -77.851  -64.094  -53.790  -47.289  -43.663  -41.930  -41.702  -43.199  -46.857  -52.745  -60.212  -68.109  -75.336  -81.152  -85.071  -86.634  -85.335  -80.768  -72.952  -62.697  -51.693  -41.996  -34.988  -30.828  -28.821  -28.136  -28.132  -28.416  -28.780  -29.102  -29.315  -29.356  -29.159  -28.698  -27.952  -26.915  -25.592  -24.006  -22.251  -20.507  -19.005  -17.939  -17.384  -17.278  -17.452  -17.692  -17.849  -17.843  -17.672  -17.375  -17.061  -16.893  -17.063  -17.620  -18.411  -19.130  -19.579  -19.729  -19.691  -19.579  -19.469  -19.375  -19.314  -19.284  -19.246  -19.134  -18.926  -18.650  -18.378  -18.167  -18.058  -18.016  -18.004  -17.994  -17.978  -17.962  -17.959  -17.944  -17.893  -17.790  -17.640  -17.502  -17.408  -17.361  -17.328  -17.243  -17.059  -16.745  -16.299  -15.754  -15.151  -14.514  -13.870  -13.287  -12.880  -13.053
-105.124 -100.833  -92.718  -81.545  -69.292  -58.333  -50.149  -44.821  -41.633  -40.059  -40.266  -43.102  -49.503  -59.469  -71.573  -83.680  -94.055 -101.768 -106.389 -107.590 -104.958  -98.131  -87.211  -73.208  -58.331  -45.458  -36.514  -31.526  -29.302  -28.588  -28.534  -28.703  -28.891  -29.027  -29.108  -29.128  -29.052  -28.821  -28.361  -27.590  -26.490  -25.105  -23.559  -22.044  -20.781  -19.916  -19.512  -19.502  -19.689  -19.872  -19.906  -19.767  -19.494  -19.158  -18.871  -18.771  -19.001  -19.616  -20.462  -21.269  -21.845  -22.148  -22.268  -22.292  -22.290  -22.297  -22.329  -22.373  -22.372  -22.268  -22.059  -21.782  -21.536  -21.370  -21.319  -21.340  -21.364  -21.359  -21.326  -21.288  -21.273  -21.278  -21.241  -21.132  -20.971  -20.824  -20.736  -20.655  -20.480  -20.063  -19.293  -18.143  -16.701  -15.116  -13.524  -12.056  -10.775   -9.771   -9.118   -9.229
 -95.351  -91.623  -85.246  -76.489  -66.661  -57.378  -49.781  -44.160  -40.289  -38.155  -38.508  -42.862  -52.559  -67.141  -83.872  -99.523 -112.126 -120.958 -125.827 -126.502 -122.524 -113.573  -99.919  -82.628  -64.179  -48.280  -37.529  -31.843  -29.503  -28.814  -28.753  -28.843  -28.895  -28.883  -28.850  -28.843  -28.860  -28.836  -28.644  -28.159  -27.332  -26.219  -24.957  -23.735  -22.740  -22.090  -21.807  -21.820  -21.956  -22.049  -21.985  -21.766  -21.465  -21.156  -20.943  -20.932  -21.254  -21.959  -22.920  -23.895  -24.680  -25.207  -25.523  -25.709  -25.829  -25.926  -26.023  -26.116  -26.161  -26.103  -25.962  -25.791  -25.663  -25.617  -25.640  -25.699  -25.733  -25.707  -25.646  -25.609  -25.623  -25.672  -25.657  -25.551  -25.374  -25.216  -25.113  -25.000  -24.710  -24.049  -22.866  -21.137  -18.978  -16.591  -14.198  -11.978  -10.084   -8.629   -7.720   -7.737
 -95.250  -92.514  -87.569  -80.251  -71.227  -61.682  -52.818  -45.411  -39.800  -36.448  -36.611  -42.382  -55.328  -74.100  -94.425 -112.457 -126.642 -136.540 -141.800 -141.877 -136.192 -124.902 -108.870  -89.066  -67.869  -49.673  -37.696  -31.696  -29.432  -28.869  -28.862  -28.922  -28.907  -28.813  -28.704  -28.662  -28.703  -28.765  -28.721  -28.443  -27.870  -27.049  -26.103  -25.189  -24.445  -23.964  -23.747  -23.734  -23.793  -23.805  -23.688  -23.464  -23.196  -22.975  -22.872  -22.999  -23.483  -24.373  -25.556  -26.809  -27.886  -28.669  -29.188  -29.506  -29.706  -29.851  -29.974  -30.076  -30.135  -30.135  -30.086  -30.040  -30.043  -30.109  -30.201  -30.292  -30.336  -30.315  -30.276  -30.282  -30.372  -30.485  -30.508  -30.404  -30.215  -30.039  -29.915  -29.763  -29.389  -28.578  -27.174  -25.153  -22.625  -19.790  -16.880  -14.140  -11.772   -9.968   -8.849   -8.777
-103.560 -101.739  -97.300  -90.078  -80.416  -69.283  -58.062  -48.042  -40.117  -35.176  -34.845  -41.596  -56.951  -78.590 -101.056 -120.518 -136.120 -147.306 -152.978 -152.075 -144.257 -130.662 -112.827  -91.401  -68.572  -49.248  -36.951  -31.144  -29.193  -28.845  -28.927  -29.001  -28.963  -28.847  -28.708  -28.634  -28.634  -28.677  -28.654  -28.469  -28.079  -27.508  -26.842  -26.195  -25.658  -25.286  -25.087  -25.025  -25.007  -24.960  -24.833  -24.650  -24.462  -24.346  -24.378  -24.674  -25.379  -26.542  -28.037  -29.619  -31.010  -32.051  -32.733  -33.140  -33.372  -33.514  -33.619  -33.697  -33.748  -33.768  -33.784  -33.824  -33.910  -34.043  -34.183  -34.302  -34.374  -34.398  -34.423  -34.510  -34.681  -34.860  -34.933  -34.853  -34.672  -34.499  -34.363  -34.187  -33.773  -32.927  -31.507  -29.484  -26.938  -24.056  -21.041  -18.132  -15.570  -13.604  -12.375  -12.219
-113.999 -112.714 -108.132 -100.289  -89.503  -76.645  -63.176  -50.761  -40.762  -34.393  -33.431  -40.402  -56.643  -79.308 -102.463 -122.383 -138.501 -150.036 -155.416 -153.486 -144.366 -129.794 -111.269  -89.199  -66.060  -47.062  -35.487  -30.380  -28.906  -28.802  -28.977  -29.081  -29.054  -28.938  -28.809  -28.718  -28.672  -28.644  -28.578  -28.412  -28.123  -27.730  -27.276  -26.829  -26.438  -26.145  -25.954  -25.842  -25.769  -25.684  -25.564  -25.432  -25.321  -25.295  -25.454  -25.923  -26.850  -28.286  -30.095  -31.993  -33.665  -34.913  -35.718  -36.167  -36.395  -36.507  -36.573  -36.612  -36.640  -36.658  -36.691  -36.755  -36.862  -37.005  -37.154  -37.289  -37.395  -37.471  -37.561  -37.714  -37.942  -38.163  -38.271  -38.225  -38.082  -37.940  -37.829  -37.659  -37.276  -36.515  -35.265  -33.499  -31.289  -28.753  -26.057  -23.382  -20.972  -19.072  -17.862  -17.643
-121.743 -120.517 -115.434 -106.742  -94.913  -80.831  -65.971  -52.179  -41.057  -33.910  -32.388  -38.719  -54.013  -75.670  -98.103 -117.350 -132.419 -142.693 -147.080 -144.827 -136.182 -122.356 -104.216  -82.544  -60.628  -43.492  -33.601  -29.571  -28.643  -28.763  -29.015  -29.133  -29.117  -29.027  -28.920  -28.825  -28.751  -28.678  -28.575  -28.413  -28.184  -27.907  -27.605  -27.299  -27.026  -26.797  -26.624  -26.495  -26.389  -26.288  -26.183  -26.080  -26.018  -26.064  -26.306  -26.906  -28.001  -29.641  -31.677  -33.796  -35.663  -37.055  -37.941  -38.411  -38.623  -38.707  -38.736  -38.746  -38.747  -38.749  -38.768  -38.811  -38.888  -39.000  -39.127  -39.253  -39.366  -39.467  -39.587  -39.756  -39.980  -40.189  -40.302  -40.288  -40.197  -40.107  -40.038  -39.921  -39.636  -39.061  -38.136  -36.861  -35.295  -33.491  -31.510  -29.442  -27.457  -25.801  -24.690  -24.412
-124.079 -122.616 -117.028 -107.716  -95.281  -80.682  -65.492  -51.603  -40.551  -33.452  -31.565  -36.543  -49.289  -67.987  -88.188 -105.883 -119.315 -127.934 -131.373 -129.345 -121.855 -109.253  -92.113  -72.110  -53.061  -39.091  -31.538  -28.775  -28.374  -28.673  -28.960  -29.081  -29.072  -29.007  -28.927  -28.847  -28.775  -28.699  -28.598  -28.460  -28.289  -28.104  -27.919  -27.732  -27.559  -27.407  -27.275  -27.158  -27.055  -26.956  -26.859  -26.779  -26.744  -26.816  -27.103  -27.765  -28.940  -30.675  -32.813  -35.042  -37.014  -38.488  -39.423  -39.916  -40.130  -40.200  -40.210  -40.202  -40.187  -40.174  -40.170  -40.178  -40.211  -40.273  -40.356  -40.452  -40.543  -40.628  -40.727  -40.852  -41.015  -41.161  -41.243  -41.234  -41.186  -41.139  -41.116  -41.073  -40.935  -40.644  -40.203  -39.663  -39.064  -38.379  -37.491  -36.322  -34.941  -33.604  -32.603  -32.263
-120.797 -119.033 -113.177 -103.673  -91.168  -76.796  -62.262  -49.342  -39.264  -32.786  -30.677  -33.951  -43.236  -57.539  -73.931  -89.095 -100.878 -108.386 -111.317 -109.497 -102.799  -91.381  -76.147  -59.384  -44.568  -34.457  -29.427  -27.894  -27.950  -28.366  -28.664  -28.781  -28.787  -28.749  -28.700  -28.654  -28.607  -28.562  -28.502  -28.420  -28.323  -28.230  -28.145  -28.068  -27.993  -27.920  -27.844  -27.777  -27.700  -27.620  -27.548  -27.481  -27.462  -27.541  -27.831  -28.485  -29.659  -31.383  -33.519  -35.762  -37.764  -39.287  -40.273  -40.808  -41.052  -41.136  -41.150  -41.138  -41.116  -41.094  -41.068  -41.051  -41.043  -41.062  -41.104  -41.162  -41.221  -41.272  -41.320  -41.379  -41.448  -41.506  -41.530  -41.507  -41.470  -41.451  -41.463  -41.504  -41.556  -41.654  -41.897  -42.404  -43.200  -44.094  -44.704  -44.702  -44.047  -43.045  -42.119  -41.657
-113.892 -111.823 -105.910  -96.561  -84.508  -71.033  -57.820  -46.358  -37.520  -31.742  -29.390  -30.957  -36.755  -46.268  -57.825  -69.211  -78.568  -84.785  -87.281  -85.740  -80.072  -70.661  -58.727  -46.458  -36.378  -30.024  -27.242  -26.729  -27.119  -27.597  -27.898  -28.019  -28.046  -28.041  -28.039  -28.047  -28.070  -28.095  -28.108  -28.111  -28.108  -28.115  -28.129  -28.149  -28.166  -28.168  -28.167  -28.159  -28.142  -28.114  -28.082  -28.040  -28.021  -28.088  -28.344  -28.942  -30.035  -31.665  -33.726  -35.923  -37.929  -39.502  -40.564  -41.183  -41.497  -41.634  -41.672  -41.667  -41.644  -41.617  -41.583  -41.553  -41.525  -41.523  -41.535  -41.566  -41.596  -41.620  -41.630  -41.632  -41.631  -41.613  -41.581  -41.532  -41.491  -41.480  -41.528  -41.662  -41.961  -42.585  -43.776  -45.734  -48.423  -51.393  -53.902  -55.333  -55.556  -54.958  -54.117  -53.430
-105.559 -103.287  -97.571  -88.779  -77.680  -65.524  -53.775  -43.611  -35.677  -30.263  -27.521  -27.611  -30.554  -35.976  -42.928  -50.097  -56.257  -60.522  -62.292  -61.199  -57.180  -50.684  -42.805  -35.156  -29.290  -25.956  -24.850  -25.032  -25.617  -26.120  -26.416  -26.551  -26.612  -26.656  -26.713  -26.798  -26.922  -27.063  -27.197  -27.325  -27.448  -27.579  -27.709  -27.825  -27.918  -27.997  -28.072  -28.154  -28.227  -28.285  -28.314  -28.307  -28.287  -28.317  -28.495  -28.985  -29.927  -31.405  -33.336  -35.461  -37.469  -39.116  -40.299  -41.059  -41.495  -41.718  -41.804  -41.820  -41.804  -41.775  -41.744  -41.719  -41.694  -41.688  -41.699  -41.717  -41.742  -41.763  -41.773  -41.758  -41.725  -41.675  -41.621  -41.571  -41.536  -41.537  -41.617  -41.865  -42.475  -43.761  -46.126  -49.851  -54.768  -60.083  -64.675  -67.698  -68.994  -69.021  -68.407  -67.418
 -97.564  -95.307  -90.068  -82.167  -72.298  -61.504  -50.953  -41.602  -34.038  -28.553  -25.264  -24.173  -25.123  -27.703  -31.278  -35.050  -38.315  -40.573  -41.453  -40.722  -38.346  -34.642  -30.312  -26.321  -23.504  -22.193  -22.111  -22.661  -23.318  -23.806  -24.101  -24.259  -24.355  -24.442  -24.558  -24.734  -24.984  -25.283  -25.593  -25.894  -26.189  -26.477  -26.738  -26.955  -27.132  -27.281  -27.448  -27.634  -27.828  -28.001  -28.116  -28.149  -28.123  -28.088  -28.154  -28.474  -29.224  -30.498  -32.255  -34.285  -36.297  -38.044  -39.394  -40.337  -40.940  -41.280  -41.437  -41.484  -41.482  -41.462  -41.444  -41.442  -41.450  -41.472  -41.508  -41.559  -41.623  -41.688  -41.742  -41.768  -41.766  -41.744  -41.712  -41.688  -41.679  -41.705  -41.825  -42.201  -43.130  -45.080  -48.611  -54.043  -61.038  -68.463  -74.921  -79.480  -81.988  -82.901  -82.767  -81.527
 -90.863  -88.787  -84.148  -77.220  -68.558  -58.961  -49.322  -40.446  -32.926  -27.143  -23.272  -21.283  -20.941  -21.820  -23.358  -25.003  -26.342  -27.139  -27.270  -26.673  -25.376  -23.562  -21.575  -19.888  -18.877  -18.671  -19.072  -19.731  -20.356  -20.817  -21.122  -21.311  -21.425  -21.509  -21.637  -21.877  -22.254  -22.723  -23.236  -23.746  -24.248  -24.718  -25.129  -25.455  -25.706  -25.927  -26.180  -26.479  -26.804  -27.101  -27.310  -27.395  -27.359  -27.245  -27.172  -27.299  -27.822  -28.860  -30.418  -32.321  -34.315  -36.152  -37.666  -38.802  -39.578  -40.044  -40.278  -40.364  -40.383  -40.386  -40.410  -40.459  -40.536  -40.632  -40.758  -40.909  -41.087  -41.274  -41.446  -41.586  -41.685  -41.743  -41.782  -41.810  -41.844  -41.901  -42.065  -42.531  -43.674  -46.076  -50.381  -56.946  -65.310  -74.153  -81.970  -87.824  -91.559  -93.540  -94.104  -92.824
 -85.418  -83.550  -79.464  -73.403  -65.802  -57.265  -48.470  -40.078  -32.668  -26.685  -22.374  -19.750  -18.584  -18.441  -18.821  -19.274  -19.527  -19.467  -19.091  -18.460  -17.652  -16.763  -15.952  -15.384  -15.211  -15.455  -15.974  -16.585  -17.156  -17.625  -17.974  -18.200  -18.281  -18.284  -18.332  -18.547  -18.981  -19.584  -20.274  -20.978  -21.674  -22.318  -22.863  -23.282  -23.592  -23.855  -24.164  -24.545  -24.972  -25.375  -25.682  -25.821  -25.791  -25.609  -25.405  -25.342  -25.638  -26.441  -27.779  -29.521  -31.441  -33.300  -34.910  -36.180  -37.073  -37.630  -37.923  -38.051  -38.100  -38.153  -38.249  -38.395  -38.588  -38.828  -39.130  -39.477  -39.878  -40.297  -40.706  -41.063  -41.350  -41.557  -41.705  -41.809  -41.891  -41.975  -42.151  -42.630  -43.795  -46.241  -50.640  -57.399  -66.093  -75.436  -83.954  -90.730  -95.574  -98.688 -100.121  -99.126
 -80.747  -79.031  -75.382  -70.034  -63.371  -55.866  -48.032  -40.395  -33.443  -27.605  -23.153  -20.160  -18.426  -17.586  -17.207  -16.932  -16.538  -15.966  -15.244  -14.447  -13.671  -13.013  -12.547  -12.326  -12.382  -12.679  -13.144  -13.693  -14.271  -14.827  -15.286  -15.551  -15.560  -15.381  -15.221  -15.282  -15.649  -16.276  -17.049  -17.864  -18.669  -19.406  -20.028  -20.486  -20.805  -21.069  -21.378  -21.776  -22.237  -22.701  -23.071  -23.270  -23.260  -23.045  -22.747  -22.543  -22.654  -23.247  -24.357  -25.896  -27.659  -29.420  -30.992  -32.258  -33.170  -33.742  -34.053  -34.205  -34.307  -34.437  -34.632  -34.915  -35.285  -35.750  -36.314  -36.981  -37.733  -38.523  -39.301  -40.000  -40.567  -40.998  -41.296  -41.494  -41.621  -41.725  -41.884  -42.282  -43.252  -45.324  -49.124  -55.094  -63.021  -71.867  -80.321  -87.500  -93.151  -97.280  -99.635  -99.214
 -76.543  -74.911  -71.591  -66.833  -61.014  -54.547  -47.816  -41.202  -35.075  -29.769  -25.525  -22.412  -20.295  -18.910  -17.930  -17.092  -16.229  -15.260  -14.212  -13.129  -12.111  -11.260  -10.665  -10.347  -10.311  -10.499  -10.862  -11.388  -12.056  -12.785  -13.426  -13.772  -13.693  -13.292  -12.844  -12.638  -12.823  -13.332  -14.045  -14.825  -15.599  -16.312  -16.891  -17.292  -17.554  -17.762  -18.008  -18.341  -18.759  -19.204  -19.584  -19.820  -19.827  -19.611  -19.274  -18.985  -18.965  -19.380  -20.269  -21.553  -23.058  -24.589  -25.974  -27.098  -27.899  -28.400  -28.682  -28.851  -29.006  -29.222  -29.544  -29.991  -30.574  -31.312  -32.215  -33.290  -34.494  -35.775  -37.041  -38.181  -39.113  -39.811  -40.291  -40.585  -40.760  -40.866  -40.975  -41.229  -41.885  -43.336  -46.098  -50.613  -56.891  -64.303  -71.863  -78.804  -84.799  -89.634  -92.769  -93.066
 -72.769  -71.187  -68.115  -63.837  -58.764  -53.274  -47.659  -42.172  -37.045  -32.499  -28.691  -25.665  -23.339  -21.538  -20.059  -18.734  -17.440  -16.108  -14.716  -13.293  -11.917  -10.718   -9.806   -9.223   -8.969   -9.001   -9.276   -9.808  -10.584  -11.511  -12.345  -12.803  -12.708  -12.153  -11.470  -11.009  -10.953  -11.259  -11.789  -12.397  -12.990  -13.513  -13.917  -14.171  -14.312  -14.410  -14.544  -14.755  -15.054  -15.398  -15.713  -15.918  -15.920  -15.705  -15.356  -15.035  -14.925  -15.182  -15.839  -16.825  -17.996  -19.200  -20.287  -21.157  -21.767  -22.137  -22.362  -22.528  -22.727  -23.024  -23.460  -24.057  -24.848  -25.857  -27.098  -28.580  -30.255  -32.044  -33.820  -35.425  -36.743  -37.709  -38.351  -38.731  -38.933  -39.023  -39.066  -39.166  -39.491  -40.310  -41.984  -44.877  -49.137  -54.505  -60.423  -66.389  -72.085  -77.119  -80.718  -81.724
 -69.357  -67.829  -64.947  -61.058  -56.600  -51.941  -47.311  -42.854  -38.687  -34.913  -31.609  -28.780  -26.371  -24.289  -22.410  -20.657  -18.969  -17.301  -15.617  -13.913  -12.264  -10.785   -9.609   -8.819   -8.396   -8.287   -8.475   -8.981   -9.800  -10.826  -11.786  -12.351  -12.323  -11.786  -11.055  -10.475  -10.245  -10.345  -10.639  -10.999  -11.330  -11.580  -11.724  -11.765  -11.747  -11.723  -11.722  -11.790  -11.919  -12.103  -12.283  -12.393  -12.346  -12.120  -11.772  -11.415  -11.217  -11.303  -11.708  -12.382  -13.215  -14.076  -14.842  -15.432  -15.823  -16.052  -16.193  -16.339  -16.551  -16.886  -17.380  -18.064  -18.983  -20.175  -21.647  -23.399  -25.394  -27.552  -29.709  -31.666  -33.259  -34.410  -35.151  -35.574  -35.775  -35.827  -35.793  -35.747  -35.809  -36.135  -36.956  -38.510  -40.958  -44.258  -48.211  -52.609  -57.281  -61.802  -65.318  -66.802
 -65.934  -64.467  -61.758  -58.198  -54.247  -50.262  -46.421  -42.793  -39.406  -36.285  -33.433  -30.825  -28.420  -26.154  -23.985  -21.889  -19.880  -17.956  -16.106  -14.317  -12.625  -11.137   -9.964   -9.157   -8.699   -8.543   -8.677   -9.112   -9.852  -10.804  -11.716  -12.303  -12.383  -11.987  -11.384  -10.864  -10.592  -10.568  -10.691  -10.831  -10.917  -10.912  -10.800  -10.640  -10.465  -10.328  -10.224  -10.154  -10.128  -10.136  -10.154  -10.143  -10.033   -9.785   -9.420   -9.025   -8.719   -8.613   -8.780   -9.192   -9.753  -10.357  -10.882  -11.255  -11.466  -11.564  -11.616  -11.697  -11.863  -12.149  -12.600  -13.260  -14.178  -15.371  -16.847  -18.599  -20.609  -22.800  -25.011  -27.027  -28.651  -29.801  -30.521  -30.925  -31.094  -31.095  -30.980  -30.813  -30.694  -30.720  -31.015  -31.690  -32.854  -34.551  -36.770  -39.518  -42.769  -46.194  -49.061  -50.634
 -61.878  -60.466  -57.962  -54.734  -51.248  -47.821  -44.605  -41.615  -38.826  -36.211  -33.734  -31.350  -29.019  -26.698  -24.378  -22.113  -19.952  -17.964  -16.178  -14.580  -13.181  -12.028  -11.163  -10.616  -10.355  -10.328  -10.509  -10.889  -11.469  -12.172  -12.843  -13.275  -13.334  -13.043  -12.585  -12.174  -11.926  -11.866  -11.890  -11.904  -11.833  -11.649  -11.363  -11.030  -10.734  -10.490  -10.289  -10.107   -9.946   -9.812   -9.716   -9.628   -9.485   -9.244   -8.897   -8.478   -8.074   -7.820   -7.807   -8.070   -8.518   -9.025   -9.441   -9.699   -9.799   -9.791   -9.745   -9.724   -9.762   -9.905  -10.206  -10.732  -11.504  -12.515  -13.730  -15.150  -16.775  -18.552  -20.354  -21.972  -23.248  -24.128  -24.672  -24.967  -25.071  -25.024  -24.851  -24.617  -24.410  -24.294  -24.333  -24.553  -24.990  -25.694  -26.747  -28.259  -30.266  -32.557  -34.584  -35.982
 -56.727  -55.359  -53.124  -50.303  -47.309  -44.412  -41.732  -39.264  -36.945  -34.735  -32.591  -30.469  -28.324  -26.152  -23.962  -21.832  -19.858  -18.163  -16.794  -15.753  -15.009  -14.534  -14.311  -14.326  -14.540  -14.887  -15.320  -15.789  -16.243  -16.642  -16.888  -16.907  -16.649  -16.173  -15.606  -15.109  -14.782  -14.626  -14.562  -14.485  -14.328  -14.029  -13.600  -13.104  -12.618  -12.182  -11.794  -11.436  -11.105  -10.830  -10.633  -10.517  -10.411  -10.254   -9.990   -9.616   -9.195   -8.882   -8.825   -9.080   -9.571  -10.120  -10.559  -10.796  -10.845  -10.772  -10.635  -10.488  -10.381  -10.351  -10.466  -10.804  -11.363  -12.082  -12.899  -13.777  -14.711  -15.682  -16.603  -17.359  -17.872  -18.171  -18.334  -18.420  -18.435  -18.348  -18.158  -17.922  -17.712  -17.598  -17.581  -17.649  -17.784  -18.046  -18.547  -19.438  -20.766  -22.359  -23.821  -25.023
 -50.644  -49.333  -47.468  -45.158  -42.726  -40.386  -38.225  -36.226  -34.346  -32.536  -30.779  -29.046  -27.330  -25.638  -24.003  -22.511  -21.276  -20.392  -19.930  -19.856  -20.111  -20.623  -21.336  -22.216  -23.208  -24.256  -25.243  -26.052  -26.566  -26.712  -26.442  -25.771  -24.778  -23.590  -22.403  -21.376  -20.612  -20.121  -19.817  -19.578  -19.283  -18.839  -18.192  -17.398  -16.527  -15.647  -14.793  -14.001  -13.288  -12.725  -12.334  -12.112  -12.004  -11.919  -11.758  -11.481  -11.136  -10.874  -10.878  -11.218  -11.810  -12.453  -12.940  -13.196  -13.240  -13.140  -12.954  -12.734  -12.525  -12.381  -12.392  -12.611  -13.013  -13.506  -13.971  -14.333  -14.569  -14.636  -14.495  -14.124  -13.605  -13.089  -12.704  -12.488  -12.356  -12.221  -12.048  -11.859  -11.723  -11.704  -11.782  -11.899  -12.040  -12.247  -12.664  -13.471  -14.687  -16.134  -17.428  -18.545
 -44.606  -43.408  -41.993  -40.280  -38.478  -36.750  -35.156  -33.690  -32.334  -31.062  -29.884  -28.822  -27.906  -27.177  -26.672  -26.460  -26.593  -27.120  -28.035  -29.297  -30.817  -32.526  -34.376  -36.343  -38.383  -40.409  -42.243  -43.673  -44.481  -44.529  -43.763  -42.239  -40.138  -37.724  -35.299  -33.144  -31.429  -30.195  -29.355  -28.735  -28.139  -27.379  -26.339  -25.013  -23.474  -21.803  -20.098  -18.455  -16.981  -15.765  -14.848  -14.237  -13.870  -13.638  -13.428  -13.150  -12.841  -12.614  -12.654  -13.022  -13.622  -14.257  -14.733  -14.966  -14.996  -14.884  -14.695  -14.480  -14.275  -14.144  -14.185  -14.427  -14.820  -15.241  -15.553  -15.659  -15.490  -14.961  -14.020  -12.716  -11.248   -9.929   -8.963   -8.370   -8.034   -7.810   -7.615   -7.469   -7.434   -7.547   -7.814   -8.143   -8.485   -8.868   -9.441  -10.407  -11.786  -13.362  -14.729  -15.819
 -39.920  -38.912  -37.980  -36.896  -35.775  -34.733  -33.832  -33.081  -32.475  -32.019  -31.763  -31.767  -32.121  -32.883  -34.097  -35.725  -37.717  -40.003  -42.516  -45.197  -47.994  -50.883  -53.867  -56.963  -60.132  -63.241  -66.044  -68.227  -69.497  -69.641  -68.566  -66.322  -63.115  -59.308  -55.344  -51.654  -48.560  -46.188  -44.462  -43.162  -42.004  -40.711  -39.096  -37.075  -34.682  -32.007  -29.185  -26.391  -23.772  -21.457  -19.531  -18.016  -16.862  -15.991  -15.282  -14.641  -14.049  -13.616  -13.456  -13.605  -13.978  -14.401  -14.701  -14.828  -14.798  -14.662  -14.491  -14.322  -14.187  -14.159  -14.306  -14.656  -15.140  -15.634  -16.015  -16.181  -16.039  -15.445  -14.305  -12.653  -10.743   -8.952   -7.568   -6.654   -6.073   -5.686   -5.408   -5.237   -5.258   -5.528   -6.041   -6.691   -7.338   -7.969   -8.706   -9.759  -11.194  -12.790  -14.155  -15.172
 -37.387  -36.609  -36.149  -35.704  -35.325  -35.092  -35.071  -35.276  -35.706  -36.377  -37.360  -38.761  -40.713  -43.293  -46.464  -50.088  -53.947  -57.854  -61.704  -65.475  -69.201  -72.956  -76.822  -80.846  -84.978  -89.022  -92.662  -95.527  -97.287  -97.710  -96.676  -94.201  -90.456  -85.789  -80.692  -75.709  -71.298  -67.709  -64.935  -62.754  -60.841  -58.869  -56.591  -53.878  -50.705  -47.150  -43.341  -39.437  -35.599  -31.961  -28.637  -25.694  -23.137  -20.940  -19.030  -17.340  -15.859  -14.667  -13.825  -13.338  -13.128  -13.051  -12.980  -12.862  -12.694  -12.508  -12.318  -12.161  -12.076  -12.129  -12.370  -12.802  -13.359  -13.940  -14.474  -14.892  -15.086  -14.904  -14.167  -12.853  -11.156   -9.438   -7.990   -6.923   -6.157   -5.575   -5.143   -4.890   -4.929   -5.348   -6.136   -7.133   -8.097   -8.909   -9.652  -10.539  -11.689  -12.974  -14.087  -14.917
 -37.225  -36.679  -36.671  -36.860  -37.274  -37.962  -38.962  -40.271  -41.867  -43.754  -46.020  -48.815  -52.288  -56.494  -61.321  -66.489  -71.667  -76.608  -81.212  -85.543  -89.747  -93.991  -98.419 -103.090 -107.918 -112.647 -116.905 -120.305 -122.524 -123.346 -122.661 -120.478 -116.939 -112.328 -107.068 -101.680  -96.655  -92.328  -88.773  -85.829  -83.198  -80.571  -77.704  -74.458  -70.787  -66.724  -62.347  -57.752  -53.032  -48.274  -43.562  -38.984  -34.621  -30.525  -26.722  -23.227  -20.103  -17.429  -15.259  -13.584  -12.348  -11.445  -10.775  -10.268   -9.863   -9.545   -9.279   -9.069   -8.958   -8.991   -9.194   -9.573  -10.084  -10.663  -11.288  -11.929  -12.516  -12.907  -12.883  -12.339  -11.340  -10.152   -9.019   -8.050   -7.219   -6.507   -5.942   -5.618   -5.675   -6.218   -7.217   -8.465   -9.636  -10.486  -11.042  -11.512  -12.092  -12.782  -13.405  -13.990
 -39.922  -39.593  -39.984  -40.748  -41.897  -43.445  -45.383  -47.664  -50.231  -53.074  -56.292  -60.051  -64.510  -69.691  -75.423  -81.358  -87.120  -92.458  -97.321 -101.838 -106.231 -110.732 -115.524 -120.669 -126.053 -131.382 -136.254 -140.254 -143.035 -144.368 -144.152 -142.441 -139.418 -135.372 -130.677 -125.741 -120.968 -116.654 -112.896 -109.597 -106.537 -103.474 -100.215  -96.651  -92.748  -88.514  -83.973  -79.138  -74.006  -68.572  -62.854  -56.910  -50.835  -44.757  -38.803  -33.108  -27.823  -23.089  -19.015  -15.641  -12.953  -10.886   -9.379   -8.320   -7.580   -7.065   -6.670   -6.360   -6.151   -6.060   -6.114   -6.333   -6.679   -7.138   -7.696   -8.387   -9.177   -9.973  -10.568  -10.793  -10.610  -10.139   -9.510   -8.827   -8.113   -7.418   -6.833   -6.506   -6.589   -7.178   -8.245   -9.551  -10.698  -11.411  -11.662  -11.646  -11.615  -11.666  -11.791  -12.133
 -46.525  -46.434  -47.103  -48.243  -49.860  -51.942  -54.435  -57.237  -60.276  -63.532  -67.104  -71.160  -75.848  -81.191  -87.006  -92.951  -98.671 -103.941 -108.734 -113.201 -117.594 -122.178 -127.154 -132.596 -138.400 -144.283 -149.839 -154.625 -158.219 -160.320 -160.808 -159.746 -157.378 -154.052 -150.149 -146.023 -141.966 -138.171 -134.692 -131.450 -128.291 -125.051 -121.602 -117.880 -113.874 -109.587 -105.016 -100.120  -94.827  -89.057  -82.754  -75.920  -68.627  -61.012  -53.264  -45.591  -38.227  -31.384  -25.242  -19.920  -15.497  -12.007   -9.436   -7.658   -6.477   -5.689   -5.126   -4.695   -4.371   -4.161   -4.077   -4.119   -4.289   -4.554   -4.950   -5.515   -6.262   -7.135   -7.996   -8.673   -9.073   -9.178   -9.049   -8.722   -8.238   -7.689   -7.209   -6.953   -7.058   -7.599   -8.534   -9.624  -10.526  -10.963  -10.905  -10.545  -10.127   -9.790   -9.622   -9.840
 -57.317  -57.576  -58.364  -59.587  -61.281  -63.427  -65.936  -68.701  -71.636  -74.725  -78.050  -81.765  -86.006  -90.805  -96.018 -101.362 -106.544 -111.369 -115.814 -120.015 -124.202 -128.623 -133.472 -138.823 -144.600 -150.557 -156.351 -161.582 -165.863 -168.909 -170.554 -170.793 -169.786 -167.780 -165.108 -162.095 -158.998 -155.955 -152.993 -150.035 -146.978 -143.710 -140.167 -136.331 -132.209 -127.820 -123.149 -118.136 -112.681 -106.668 -100.005  -92.652  -84.654  -76.135  -67.286  -58.337  -49.524  -41.079  -33.201  -26.086  -19.918  -14.890  -11.071   -8.379   -6.585   -5.408   -4.615   -4.052   -3.654   -3.398   -3.264   -3.229   -3.290   -3.410   -3.643   -4.016   -4.571   -5.304   -6.114   -6.875   -7.487   -7.889   -8.069   -8.025   -7.797   -7.452   -7.138   -6.968   -7.048   -7.426   -8.045   -8.727   -9.222   -9.333   -9.066   -8.608   -8.138   -7.797   -7.628   -7.867
 -70.375  -71.126  -71.961  -73.091  -74.597  -76.468  -78.627  -80.975  -83.433  -85.988  -88.703  -91.703  -95.107  -98.955 -103.162 -107.536 -111.861 -115.985 -119.880 -123.640 -127.425 -131.422 -135.778 -140.553 -145.681 -150.971 -156.163 -161.001 -165.292 -168.916 -171.789 -173.825 -174.967 -175.199 -174.605 -173.356 -171.652 -169.639 -167.379 -164.847 -161.983 -158.750 -155.128 -151.142 -146.831 -142.229 -137.334 -132.089 -126.395 -120.135 -113.212 -105.583  -97.278  -88.415  -79.173  -69.751  -60.344  -51.106  -42.188  -33.781  -26.159  -19.633  -14.438  -10.604   -7.933   -6.150   -4.996   -4.264   -3.820   -3.602   -3.518   -3.515   -3.533   -3.556   -3.629   -3.817   -4.193   -4.734   -5.405   -6.078   -6.684   -7.153   -7.438   -7.543   -7.470   -7.303   -7.114   -6.996   -7.000   -7.138   -7.357   -7.556   -7.603   -7.410   -7.052   -6.692   -6.470   -6.409   -6.471   -6.837
 -82.369  -83.668  -84.598  -85.651  -86.957  -88.518  -90.274  -92.146  -94.070  -96.034  -98.091 -100.337 -102.868 -105.729 -108.890 -112.243 -115.652 -119.013 -122.293 -125.524 -128.786 -132.171 -135.759 -139.585 -143.601 -147.694 -151.723 -155.603 -159.333 -162.974 -166.562 -170.047 -173.259 -175.962 -177.911 -178.993 -179.196 -178.597 -177.289 -175.335 -172.770 -169.615 -165.921 -161.748 -157.184 -152.288 -147.085 -141.550 -135.609 -129.168 -122.137 -114.485 -106.247  -97.534  -88.504  -79.318  -70.085  -60.857  -51.682  -42.665  -34.085  -26.334  -19.784  -14.612  -10.782   -8.111   -6.358   -5.324   -4.822   -4.670   -4.712   -4.781   -4.779   -4.664   -4.521   -4.493   -4.678   -5.099   -5.683   -6.307   -6.881   -7.338   -7.635   -7.760   -7.741   -7.649   -7.514   -7.385   -7.277   -7.162   -7.009   -6.776   -6.438   -6.029   -5.671   -5.536   -5.692   -6.051   -6.452   -6.989
 -90.653  -92.391  -93.483  -94.576  -95.819  -97.218  -98.722 -100.271 -101.816 -103.349 -104.914 -106.588 -108.453 -110.559 -112.912 -115.466 -118.144 -120.879 -123.624 -126.362 -129.098 -131.835 -134.579 -137.318 -140.028 -142.680 -145.293 -147.958 -150.851 -154.153 -157.964 -162.242 -166.806 -171.343 -175.475 -178.818 -181.096 -182.188 -182.100 -180.940 -178.818 -175.849 -172.140 -167.810 -162.988 -157.784 -152.287 -146.514 -140.430 -133.968 -127.064 -119.690 -111.881 -103.734  -95.375  -86.906  -78.363  -69.703  -60.865  -51.872  -42.927  -34.418  -26.778  -20.320  -15.199  -11.412   -8.860   -7.372   -6.705   -6.593   -6.740   -6.860   -6.757   -6.390   -5.913   -5.540   -5.486   -5.774   -6.309   -6.939   -7.545   -8.005   -8.281   -8.370   -8.328   -8.222   -8.083   -7.912   -7.692   -7.371   -6.957   -6.450   -5.897   -5.425   -5.201   -5.389   -5.982   -6.808   -7.586   -8.302
 -94.012  -95.960  -97.227  -98.459  -99.784 -101.192 -102.634 -104.063 -105.439 -106.765 -108.072 -109.434 -110.925 -112.609 -114.512 -116.619 -118.890 -121.264 -123.684 -126.095 -128.444 -130.676 -132.727 -134.536 -136.064 -137.329 -138.460 -139.726 -141.492 -144.101 -147.732 -152.325 -157.613 -163.223 -168.737 -173.704 -177.696 -180.389 -181.637 -181.459 -179.998 -177.396 -173.816 -169.432 -164.432 -159.014 -153.320 -147.438 -141.378 -135.104 -128.566 -121.735 -114.631 -107.317  -99.868  -92.327  -84.664  -76.786  -68.578  -60.006  -51.201  -42.490  -34.269  -26.911  -20.707  -15.855  -12.433  -10.352   -9.380   -9.168   -9.292   -9.358   -9.067   -8.362   -7.428   -6.608   -6.188   -6.238   -6.658   -7.263   -7.864   -8.323   -8.560   -8.588   -8.487   -8.327   -8.157   -7.949   -7.659   -7.244   -6.729   -6.161   -5.651   -5.355   -5.469   -6.109   -7.212   -8.509   -9.653  -10.514
 -92.588  -94.486  -95.880  -97.282  -98.761 -100.283 -101.795 -103.257 -104.639 -105.940 -107.196 -108.478 -109.869 -111.443 -113.240 -115.263 -117.471 -119.802 -122.175 -124.504 -126.705 -128.687 -130.345 -131.574 -132.293 -132.516 -132.407 -132.327 -132.789 -134.317 -137.255 -141.625 -147.125 -153.274 -159.551 -165.466 -170.562 -174.430 -176.806 -177.602 -176.890 -174.803 -171.514 -167.234 -162.218 -156.726 -150.990 -145.155 -139.287 -133.379 -127.385 -121.260 -114.992 -108.591 -102.075  -95.432  -88.598  -81.469  -73.927  -65.927  -57.567  -49.098  -40.855  -33.165  -26.374  -20.789  -16.631  -13.919  -12.471  -11.922  -11.821  -11.683  -11.141  -10.081   -8.719   -7.443   -6.604   -6.310   -6.475   -6.895   -7.377   -7.757   -7.928   -7.893   -7.736   -7.535   -7.337   -7.116   -6.829   -6.443   -6.016   -5.625   -5.408   -5.540   -6.178   -7.383   -9.003  -10.731  -12.168  -13.126
 -87.832  -89.488  -90.924  -92.453  -94.067  -95.711  -97.332  -98.888 -100.356 -101.735 -103.062 -104.414 -105.890 -107.578 -109.528 -111.738 -114.158 -116.704 -119.271 -121.749 -124.034 -126.017 -127.576 -128.577 -128.907 -128.547 -127.647 -126.578 -125.901 -126.243 -128.102 -131.673 -136.781 -142.960 -149.593 -156.062 -161.821 -166.426 -169.558 -171.080 -171.002 -169.417 -166.486 -162.430 -157.535 -152.122 -146.479 -140.825 -135.271 -129.835 -124.464 -119.085 -113.635 -108.070 -102.358  -96.449  -90.276  -83.752  -76.786  -69.354  -61.544  -53.568  -45.680  -38.151  -31.274  -25.371  -20.726  -17.443  -15.414  -14.348  -13.836  -13.370  -12.557  -11.227   -9.558   -7.947   -6.747   -6.083   -5.888   -5.996   -6.237   -6.446   -6.517   -6.432   -6.246   -6.037   -5.838   -5.646   -5.434   -5.201   -5.006   -4.961   -5.203   -5.882   -7.102   -8.825  -10.858  -12.864  -14.440  -15.435
 -82.126  -83.506  -84.905  -86.462  -88.123  -89.821  -91.503  -93.128  -94.673  -96.138  -97.563  -99.032 -100.659 -102.546 -104.746 -107.248 -109.979 -112.835 -115.686 -118.404 -120.874 -122.985 -124.607 -125.596 -125.824 -125.242 -123.979 -122.372 -120.963 -120.386 -121.205 -123.755 -128.043 -133.747 -140.282 -146.941 -153.054 -158.088 -161.681 -163.670 -164.026 -162.831 -160.222 -156.423 -151.737 -146.508 -141.075 -135.701 -130.534 -125.601 -120.835 -116.128 -111.370 -106.474 -101.374  -96.007  -90.318  -84.246  -77.739  -70.794  -63.501  -56.047  -48.631  -41.465  -34.783  -28.864  -23.980  -20.269  -17.698  -16.088  -15.105  -14.321  -13.286  -11.796   -9.977   -8.190   -6.753   -5.802   -5.273   -5.065   -5.028   -5.039   -5.009   -4.895   -4.716   -4.521   -4.353   -4.217   -4.126   -4.079   -4.156   -4.471   -5.162   -6.313   -7.970  -10.043  -12.300  -14.398  -16.001  -16.992
 -77.632  -78.892  -80.222  -81.715  -83.320  -84.974  -86.626  -88.239  -89.789  -91.276  -92.743  -94.275  -95.994  -98.007 -100.359 -103.032 -105.942 -108.969 -111.977 -114.828 -117.406 -119.599 -121.281 -122.307 -122.545 -121.942 -120.603 -118.836 -117.134 -116.086 -116.248 -118.001 -121.468 -126.465 -132.515 -138.951 -145.068 -150.266 -154.119 -156.395 -157.035 -156.096 -153.720 -150.140 -145.675 -140.693 -135.547 -130.517 -125.753 -121.279 -117.017 -112.833 -108.593 -104.191  -99.543  -94.588  -89.282  -83.588  -77.472  -70.946  -64.096  -57.085  -50.087  -43.268  -36.818  -30.987  -26.033  -22.102  -19.216  -17.260  -15.978  -14.965  -13.797  -12.243  -10.395   -8.556   -7.023   -5.916   -5.207   -4.794   -4.590   -4.478   -4.380   -4.249   -4.081   -3.905   -3.760   -3.671   -3.651   -3.734   -3.974   -4.509   -5.424   -6.818   -8.674  -10.884  -13.189  -15.276  -16.868  -17.960
