DSAA
 100 100
 0.0 400.0
 0.0 400.0
 -212.3214 -0.3810907
 -23.002  -23.240  -23.591  -24.117  -24.825  -25.671  -26.569  -27.414  -28.058  -28.360  -28.170  -27.295  -25.585  -23.036  -19.893  -16.657  -13.949  -12.211  -11.540  -11.727  -12.499  -13.630  -15.024  -16.618  -18.279  -19.757  -20.737  -20.983  -20.438  -19.181  -17.329  -15.083  -12.730  -10.672   -9.281   -8.666   -8.672   -8.990   -9.332   -9.515   -9.493   -9.302   -9.027   -8.783   -8.635   -8.631   -8.766   -8.992   -9.252   -9.536   -9.845  -10.196  -10.551  -10.775  -10.658   -9.999   -8.691   -6.896   -4.945   -3.232   -1.998   -1.244   -0.839   -0.654   -0.585   -0.544   -0.532   -0.520   -0.510   -0.498   -0.491   -0.491   -0.492   -0.495   -0.498   -0.502   -0.493   -0.491   -0.497   -0.517   -0.531   -0.541   -0.555   -0.584   -0.623   -0.690   -0.794   -0.968   -1.235   -1.639   -2.227   -2.986   -3.914   -4.982   -6.225   -7.699   -9.395  -11.131  -12.569  -13.505
 -22.770  -22.975  -23.279  -23.733  -24.342  -25.079  -25.883  -26.635  -27.213  -27.482  -27.293  -26.479  -24.866  -22.446  -19.433  -16.313  -13.661  -11.916  -11.186  -11.293  -11.962  -12.999  -14.302  -15.818  -17.417  -18.869  -19.899  -20.292  -19.981  -19.001  -17.436  -15.409  -13.206  -11.204   -9.738   -8.938   -8.699   -8.792   -8.993   -9.118   -9.097   -8.943   -8.722   -8.522   -8.422   -8.450   -8.601   -8.828   -9.078   -9.342   -9.638   -9.979  -10.336  -10.598  -10.558  -10.014   -8.861   -7.208   -5.355   -3.665   -2.375   -1.535   -1.057   -0.814   -0.698   -0.645   -0.612   -0.586   -0.558   -0.535   -0.514   -0.498   -0.496   -0.493   -0.485   -0.487   -0.489   -0.494   -0.501   -0.510   -0.522   -0.548   -0.570   -0.624   -0.706   -0.845   -1.066   -1.405   -1.886   -2.566   -3.477   -4.607   -5.894   -7.284   -8.797  -10.460  -12.282  -14.084  -15.522  -16.375
 -22.125  -22.281  -22.491  -22.802  -23.219  -23.740  -24.329  -24.889  -25.309  -25.483  -25.289  -24.583  -23.211  -21.125  -18.493  -15.702  -13.252  -11.553  -10.732  -10.673  -11.138  -11.959  -13.051  -14.350  -15.747  -17.071  -18.119  -18.733  -18.830  -18.373  -17.354  -15.844  -14.037  -12.236  -10.721   -9.616   -8.916   -8.552   -8.425   -8.411   -8.411   -8.369   -8.305   -8.269   -8.318   -8.450   -8.631   -8.819   -8.983   -9.160   -9.371   -9.656   -9.984  -10.274  -10.349  -10.030   -9.197   -7.882   -6.292   -4.715   -3.384   -2.405   -1.778   -1.410   -1.219   -1.117   -1.044   -0.979   -0.899   -0.815   -0.759   -0.716   -0.692   -0.680   -0.675   -0.665   -0.658   -0.662   -0.670   -0.688   -0.718   -0.756   -0.818   -0.940   -1.147   -1.504   -2.030   -2.763   -3.732   -4.982   -6.523   -8.299  -10.181  -12.044  -13.866  -15.701  -17.554  -19.277  -20.607  -21.277
 -20.925  -21.013  -21.101  -21.224  -21.395  -21.649  -21.978  -22.308  -22.538  -22.588  -22.378  -21.801  -20.736  -19.119  -17.031  -14.742  -12.646  -11.088  -10.227   -9.999  -10.223  -10.766  -11.552  -12.533  -13.615  -14.693  -15.668  -16.441  -16.931  -17.046  -16.700  -15.885  -14.695  -13.300  -11.849  -10.458   -9.233   -8.306   -7.745   -7.534   -7.549   -7.711   -7.972   -8.318   -8.721   -9.096   -9.356   -9.448   -9.396   -9.306   -9.280   -9.379   -9.599   -9.863  -10.052   -9.995   -9.543   -8.687   -7.504   -6.187   -4.939   -3.903   -3.144   -2.656   -2.369   -2.213   -2.086   -1.950   -1.771   -1.584   -1.426   -1.331   -1.279   -1.256   -1.234   -1.203   -1.175   -1.164   -1.178   -1.226   -1.288   -1.378   -1.530   -1.792   -2.259   -3.011   -4.076   -5.458   -7.124   -9.083  -11.302  -13.665  -15.989  -18.116  -20.009  -21.751  -23.383  -24.840  -25.912  -26.320
 -19.076  -19.064  -19.016  -18.933  -18.854  -18.847  -18.924  -19.028  -19.082  -19.019  -18.797  -18.368  -17.646  -16.563  -15.122  -13.468  -11.864  -10.597   -9.801   -9.477   -9.503   -9.771  -10.213  -10.803  -11.476  -12.188  -12.938  -13.696  -14.419  -15.011  -15.360  -15.380  -15.011  -14.211  -12.958  -11.370   -9.678   -8.200   -7.190   -6.742   -6.778   -7.222   -7.979   -8.957   -9.981  -10.826  -11.278  -11.260  -10.858  -10.298   -9.820   -9.550   -9.506   -9.622   -9.818   -9.949   -9.870   -9.488   -8.805   -7.902   -6.910   -5.989   -5.230   -4.696   -4.378   -4.195   -4.043   -3.828   -3.526   -3.187   -2.911   -2.738   -2.661   -2.624   -2.579   -2.511   -2.447   -2.424   -2.455   -2.554   -2.693   -2.879   -3.161   -3.667   -4.523   -5.838   -7.594   -9.697  -12.056  -14.593  -17.234  -19.847  -22.211  -24.193  -25.796  -27.152  -28.351  -29.388  -30.120  -30.262
 -16.667  -16.551  -16.351  -16.066  -15.750  -15.506  -15.370  -15.302  -15.222  -15.080  -14.876  -14.599  -14.230  -13.698  -12.947  -12.007  -11.013  -10.164   -9.582   -9.282   -9.198   -9.249   -9.387   -9.580   -9.797  -10.062  -10.427  -10.962  -11.696  -12.613  -13.633  -14.597  -15.211  -15.141  -14.204  -12.509  -10.451   -8.516   -7.085   -6.348   -6.337   -7.037   -8.363  -10.114  -11.968  -13.489  -14.314  -14.303  -13.587  -12.524  -11.474  -10.654  -10.129   -9.897   -9.920  -10.093  -10.270  -10.302  -10.105   -9.670   -9.083   -8.442   -7.853   -7.409   -7.156   -7.021   -6.898   -6.665   -6.288   -5.852   -5.486   -5.269   -5.185   -5.156   -5.105   -5.015   -4.929   -4.898   -4.962   -5.126   -5.369   -5.699   -6.176   -6.970   -8.257  -10.118  -12.468  -15.109  -17.884  -20.678  -23.403  -25.889  -27.932  -29.420  -30.442  -31.199  -31.864  -32.456  -32.866  -32.802
 -14.078  -13.841  -13.485  -13.006  -12.487  -12.052  -11.763  -11.579  -11.432  -11.263  -11.086  -10.954  -10.912  -10.913  -10.853  -10.652  -10.324   -9.978   -9.717   -9.566   -9.479   -9.415   -9.331   -9.201   -9.009   -8.805   -8.700   -8.839   -9.368  -10.422  -12.020  -13.906  -15.515  -16.216  -15.679  -14.034  -11.794   -9.564   -7.778   -6.672   -6.415   -7.147   -8.869  -11.329  -14.011  -16.288  -17.654  -17.889  -17.142  -15.811  -14.316  -12.919  -11.763  -10.970  -10.623  -10.680  -10.967  -11.260  -11.413  -11.383  -11.192  -10.895  -10.573  -10.325  -10.221  -10.219  -10.212  -10.068   -9.744   -9.339   -8.996   -8.821   -8.788   -8.803   -8.786   -8.714   -8.637   -8.629   -8.737   -8.980   -9.342   -9.825  -10.505  -11.561  -13.153  -15.340  -17.963  -20.780  -23.615  -26.379  -28.957  -31.142  -32.680  -33.498  -33.778  -33.854  -33.972  -34.178  -34.334  -34.119
 -11.824  -11.471  -10.954  -10.287   -9.602   -9.046   -8.678   -8.458   -8.306   -8.141   -8.001   -7.996   -8.233   -8.704   -9.277   -9.774  -10.102  -10.283  -10.384  -10.438  -10.438  -10.354  -10.164   -9.827   -9.347   -8.761   -8.197   -7.854   -8.014   -8.970  -10.865  -13.383  -15.753  -17.139  -17.085  -15.755  -13.703  -11.504   -9.519   -7.974   -7.180   -7.542   -9.260  -12.081  -15.361  -18.302  -20.277  -20.992  -20.569  -19.371  -17.770  -16.003  -14.273  -12.864  -12.049  -11.883  -12.149  -12.537  -12.853  -13.029  -13.088  -13.051  -12.974  -12.925  -12.990  -13.162  -13.332  -13.380  -13.245  -13.001  -12.814  -12.769  -12.841  -12.938  -12.975  -12.958  -12.930  -12.967  -13.133  -13.450  -13.918  -14.532  -15.369  -16.570  -18.278  -20.495  -23.047  -25.706  -28.347  -30.920  -33.301  -35.171  -36.211  -36.340  -35.857  -35.248  -34.865  -34.747  -34.712  -34.398
 -10.384   -9.922   -9.227   -8.365   -7.550   -6.923   -6.556   -6.380   -6.273   -6.160   -6.072   -6.175   -6.649   -7.513   -8.609   -9.694  -10.588  -11.228  -11.663  -11.917  -12.018  -11.969  -11.748  -11.333  -10.698   -9.873   -8.952   -8.141   -7.805   -8.381  -10.121  -12.747  -15.432  -17.268  -17.783  -17.124  -15.755  -14.078  -12.205  -10.271   -8.718   -8.263   -9.445  -12.153  -15.669  -19.061  -21.567  -22.845  -22.959  -22.196  -20.814  -18.987  -16.953  -15.134  -13.984  -13.635  -13.827  -14.180  -14.457  -14.613  -14.702  -14.752  -14.792  -14.885  -15.096  -15.438  -15.812  -16.090  -16.206  -16.203  -16.222  -16.332  -16.508  -16.658  -16.721  -16.728  -16.749  -16.846  -17.074  -17.460  -18.009  -18.717  -19.631  -20.854  -22.490  -24.525  -26.787  -29.104  -31.423  -33.754  -35.933  -37.537  -38.148  -37.683  -36.536  -35.335  -34.518  -34.123  -33.928  -33.535
  -9.949   -9.370   -8.486   -7.427   -6.475   -5.825   -5.499   -5.409   -5.404   -5.383   -5.395   -5.652   -6.338   -7.512   -8.996  -10.508  -11.799  -12.769  -13.421  -13.811  -13.973  -13.946  -13.725  -13.296  -12.607  -11.654  -10.486   -9.283   -8.412   -8.359   -9.494  -11.649  -14.135  -16.152  -17.265  -17.566  -17.322  -16.604  -15.221  -13.114  -10.807   -9.322   -9.573  -11.729  -15.108  -18.661  -21.502  -23.214  -23.810  -23.522  -22.521  -20.913  -18.949  -17.121  -15.949  -15.583  -15.728  -15.963  -16.068  -16.044  -15.983  -15.948  -15.987  -16.145  -16.475  -16.972  -17.548  -18.058  -18.405  -18.616  -18.790  -18.998  -19.197  -19.298  -19.285  -19.223  -19.231  -19.378  -19.683  -20.156  -20.768  -21.510  -22.390  -23.497  -24.921  -26.652  -28.541  -30.451  -32.398  -34.446  -36.401  -37.763  -38.036  -37.132  -35.506  -33.876  -32.718  -32.065  -31.692  -31.242
 -10.413   -9.742   -8.666   -7.412   -6.337   -5.661   -5.388   -5.385   -5.480   -5.567   -5.746   -6.204   -7.134   -8.542  -10.254  -11.982  -13.478  -14.602  -15.339  -15.740  -15.889  -15.837  -15.598  -15.154  -14.451  -13.431  -12.095  -10.571   -9.197   -8.446   -8.718  -10.030  -11.949  -13.894  -15.532  -16.855  -17.876  -18.301  -17.636  -15.666  -12.893  -10.507   -9.770  -11.151  -14.104  -17.526  -20.412  -22.275  -23.114  -23.145  -22.527  -21.346  -19.818  -18.397  -17.532  -17.316  -17.444  -17.540  -17.438  -17.200  -16.939  -16.756  -16.723  -16.890  -17.303  -17.935  -18.684  -19.389  -19.918  -20.246  -20.458  -20.626  -20.709  -20.625  -20.391  -20.139  -20.052  -20.221  -20.625  -21.185  -21.826  -22.502  -23.215  -24.065  -25.158  -26.511  -27.995  -29.494  -31.060  -32.782  -34.469  -35.584  -35.611  -34.460  -32.604  -30.753  -29.366  -28.466  -27.885  -27.411
 -11.512  -10.782   -9.574   -8.182   -7.011   -6.290   -6.026   -6.049   -6.175   -6.376   -6.752   -7.479   -8.655  -10.230  -12.015  -13.760  -15.246  -16.336  -17.003  -17.301  -17.340  -17.190  -16.883  -16.401  -15.671  -14.595  -13.144  -11.396   -9.624   -8.262   -7.729   -8.166   -9.411  -11.118  -13.082  -15.199  -17.249  -18.656  -18.736  -17.140  -14.324  -11.490  -10.034  -10.660  -13.015  -16.040  -18.688  -20.430  -21.267  -21.447  -21.173  -20.549  -19.716  -18.992  -18.634  -18.642  -18.757  -18.721  -18.475  -18.096  -17.710  -17.419  -17.309  -17.458  -17.894  -18.596  -19.443  -20.250  -20.844  -21.163  -21.275  -21.249  -21.076  -20.685  -20.122  -19.598  -19.358  -19.519  -19.984  -20.586  -21.178  -21.669  -22.089  -22.554  -23.231  -24.166  -25.257  -26.384  -27.593  -28.968  -30.343  -31.217  -31.100  -29.926  -28.117  -26.282  -24.798  -23.694  -22.902  -22.419
 -12.900  -12.188  -10.960   -9.538   -8.320   -7.539   -7.192   -7.132   -7.231   -7.505   -8.092   -9.105  -10.522  -12.196  -13.918  -15.512  -16.802  -17.690  -18.141  -18.222  -18.052  -17.733  -17.306  -16.743  -15.960  -14.852  -13.341  -11.474   -9.486   -7.761   -6.693   -6.527   -7.235   -8.661  -10.661  -13.106  -15.656  -17.631  -18.275  -17.200  -14.746  -11.986  -10.244  -10.311  -12.032  -14.501  -16.746  -18.236  -18.970  -19.225  -19.265  -19.214  -19.148  -19.178  -19.336  -19.542  -19.627  -19.511  -19.233  -18.888  -18.537  -18.235  -18.085  -18.180  -18.555  -19.182  -19.943  -20.658  -21.160  -21.340  -21.228  -20.905  -20.396  -19.666  -18.781  -17.989  -17.581  -17.658  -18.081  -18.616  -19.041  -19.268  -19.323  -19.380  -19.639  -20.205  -20.979  -21.828  -22.751  -23.808  -24.851  -25.490  -25.331  -24.334  -22.816  -21.216  -19.777  -18.552  -17.608  -17.121
 -14.244  -13.603  -12.483  -11.149   -9.947   -9.091   -8.588   -8.367   -8.376   -8.704   -9.484  -10.767  -12.382  -14.100  -15.698  -17.034  -18.016  -18.580  -18.708  -18.485  -18.037  -17.489  -16.892  -16.208  -15.362  -14.240  -12.746  -10.909   -8.922   -7.146   -5.955   -5.576   -6.027   -7.184   -8.930  -11.151  -13.571  -15.603  -16.557  -16.032  -14.223  -11.951  -10.325  -10.099  -11.278  -13.199  -15.050  -16.321  -16.997  -17.326  -17.600  -17.981  -18.499  -19.095  -19.619  -19.922  -19.954  -19.815  -19.651  -19.517  -19.366  -19.176  -19.035  -19.052  -19.266  -19.640  -20.094  -20.504  -20.724  -20.637  -20.239  -19.606  -18.802  -17.836  -16.773  -15.836  -15.287  -15.218  -15.482  -15.806  -15.977  -15.904  -15.640  -15.378  -15.352  -15.683  -16.283  -16.999  -17.757  -18.549  -19.267  -19.657  -19.489  -18.739  -17.613  -16.340  -15.052  -13.831  -12.845  -12.378
 -15.193  -14.680  -13.742  -12.589  -11.454  -10.517   -9.852   -9.456   -9.385   -9.771  -10.738  -12.221  -13.971  -15.681  -17.133  -18.216  -18.887  -19.112  -18.897  -18.339  -17.584  -16.781  -15.985  -15.185  -14.288  -13.187  -11.805  -10.158   -8.409   -6.883   -5.914   -5.679   -6.118   -7.023   -8.275   -9.831  -11.593  -13.220  -14.199  -14.136  -13.058  -11.472  -10.205   -9.926  -10.778  -12.337  -13.947  -15.145  -15.839  -16.204  -16.541  -17.063  -17.808  -18.625  -19.269  -19.548  -19.501  -19.370  -19.395  -19.561  -19.696  -19.686  -19.583  -19.516  -19.529  -19.572  -19.601  -19.575  -19.411  -19.010  -18.335  -17.471  -16.528  -15.539  -14.552  -13.691  -13.131  -12.943  -12.988  -13.054  -12.948  -12.622  -12.157  -11.742  -11.594  -11.823  -12.360  -13.035  -13.694  -14.254  -14.650  -14.756  -14.492  -13.895  -13.061  -12.067  -10.981   -9.886   -8.981   -8.591
 -15.472  -15.086  -14.360  -13.407  -12.389  -11.439  -10.664  -10.182  -10.109  -10.592  -11.692  -13.283  -15.069  -16.728  -18.056  -18.965  -19.421  -19.405  -18.940  -18.128  -17.133  -16.115  -15.156  -14.248  -13.342  -12.334  -11.164   -9.842   -8.503   -7.420   -6.881   -6.988   -7.532   -8.200   -8.824   -9.468  -10.261  -11.155  -11.870  -12.052  -11.547  -10.599   -9.765   -9.629  -10.412  -11.858  -13.433  -14.680  -15.416  -15.746  -15.952  -16.316  -16.935  -17.655  -18.182  -18.315  -18.141  -17.987  -18.129  -18.519  -18.879  -19.004  -18.934  -18.807  -18.670  -18.465  -18.160  -17.779  -17.306  -16.664  -15.817  -14.882  -13.996  -13.245  -12.610  -12.105  -11.778  -11.628  -11.540  -11.373  -11.026  -10.511   -9.940   -9.472   -9.266   -9.403   -9.831  -10.387  -10.877  -11.185  -11.240  -11.024  -10.565   -9.955   -9.240   -8.450   -7.587   -6.715   -6.013   -5.744
 -14.920  -14.617  -14.070  -13.315  -12.444  -11.573  -10.842  -10.404  -10.438  -11.050  -12.237  -13.835  -15.545  -17.117  -18.368  -19.216  -19.614  -19.545  -19.010  -18.124  -17.035  -15.919  -14.882  -13.952  -13.086  -12.241  -11.346  -10.408   -9.529   -8.938   -8.856   -9.286   -9.926  -10.351  -10.357  -10.084   -9.856   -9.884  -10.079  -10.171   -9.922   -9.390   -8.946   -9.062   -9.980  -11.517  -13.193  -14.532  -15.284  -15.494  -15.454  -15.502  -15.810  -16.251  -16.537  -16.462  -16.127  -15.855  -15.933  -16.309  -16.681  -16.806  -16.716  -16.572  -16.415  -16.192  -15.838  -15.380  -14.830  -14.140  -13.299  -12.460  -11.814  -11.477  -11.406  -11.481  -11.613  -11.687  -11.586  -11.219  -10.617   -9.907   -9.229   -8.705   -8.408   -8.351   -8.500   -8.745   -8.920   -8.903   -8.626   -8.118   -7.466   -6.785   -6.140   -5.513   -4.892   -4.309   -3.865   -3.736
 -13.583  -13.319  -12.875  -12.279  -11.579  -10.886  -10.336  -10.096  -10.318  -11.074  -12.287  -13.796  -15.368  -16.826  -18.045  -18.952  -19.468  -19.536  -19.155  -18.411  -17.430  -16.382  -15.388  -14.508  -13.754  -13.093  -12.469  -11.861  -11.357  -11.134  -11.358  -11.969  -12.596  -12.785  -12.309  -11.348  -10.311   -9.532   -9.089   -8.816   -8.512   -8.165   -8.026   -8.451   -9.599  -11.300  -13.081  -14.449  -15.115  -15.121  -14.779  -14.477  -14.434  -14.571  -14.622  -14.383  -13.906  -13.462  -13.307  -13.418  -13.554  -13.526  -13.370  -13.265  -13.259  -13.285  -13.228  -13.046  -12.711  -12.188  -11.521  -10.903  -10.566  -10.666  -11.153  -11.827  -12.437  -12.741  -12.577  -11.943  -11.016  -10.047   -9.247   -8.668   -8.258   -7.947   -7.720   -7.530   -7.321   -6.974   -6.445   -5.765   -5.036   -4.374   -3.835   -3.391   -3.024   -2.717   -2.500   -2.490
 -11.781  -11.494  -11.086  -10.572  -10.047   -9.594   -9.323   -9.365   -9.816  -10.680  -11.852  -13.197  -14.578  -15.907  -17.126  -18.169  -18.924  -19.303  -19.269  -18.854  -18.169  -17.349  -16.519  -15.768  -15.148  -14.640  -14.192  -13.779  -13.455  -13.378  -13.671  -14.241  -14.736  -14.721  -13.983  -12.684  -11.214   -9.928   -8.968   -8.290   -7.815   -7.562   -7.714   -8.460   -9.859  -11.677  -13.439  -14.650  -15.050  -14.697  -13.945  -13.235  -12.834  -12.693  -12.564  -12.242  -11.711  -11.142  -10.725  -10.495  -10.307  -10.079   -9.883   -9.903  -10.203  -10.697  -11.185  -11.514  -11.577  -11.358  -10.954  -10.572  -10.473  -10.834  -11.624  -12.610  -13.427  -13.741  -13.360  -12.365  -11.072   -9.869   -8.974   -8.383   -7.919   -7.437   -6.905   -6.374   -5.850   -5.289   -4.651   -3.965   -3.309   -2.784   -2.414   -2.161   -1.985   -1.883   -1.833   -1.910
 -10.086   -9.734   -9.265   -8.762   -8.354   -8.137   -8.171   -8.492   -9.129  -10.018  -11.056  -12.160  -13.293  -14.461  -15.667  -16.865  -17.920  -18.710  -19.139  -19.202  -18.948  -18.476  -17.905  -17.338  -16.841  -16.404  -15.994  -15.580  -15.222  -15.061  -15.183  -15.514  -15.767  -15.582  -14.792  -13.506  -12.035  -10.662   -9.531   -8.708   -8.220   -8.182   -8.698   -9.822  -11.460  -13.292  -14.841  -15.654  -15.530  -14.594  -13.259  -12.016  -11.165  -10.691  -10.379  -10.007   -9.504   -8.915   -8.376   -7.926   -7.542   -7.225   -7.089   -7.336   -8.043   -9.079  -10.168  -11.031  -11.516  -11.615  -11.453  -11.243  -11.223  -11.564  -12.273  -13.138  -13.770  -13.802  -13.056  -11.701  -10.147   -8.830   -7.955   -7.422   -6.977   -6.447   -5.796   -5.115   -4.471   -3.868   -3.291   -2.747   -2.292   -1.970   -1.780   -1.682   -1.648   -1.662   -1.702   -1.822
  -9.155   -8.703   -8.104   -7.514   -7.144   -7.096   -7.354   -7.871   -8.568   -9.354  -10.146  -10.910  -11.710  -12.637  -13.757  -15.052  -16.390  -17.600  -18.551  -19.170  -19.438  -19.410  -19.169  -18.816  -18.415  -17.973  -17.462  -16.890  -16.322  -15.879  -15.654  -15.608  -15.547  -15.223  -14.511  -13.483  -12.344  -11.272  -10.383   -9.789   -9.617  -10.006  -11.004  -12.553  -14.415  -16.188  -17.388  -17.635  -16.819  -15.146  -13.099  -11.195   -9.777   -8.872   -8.289   -7.822   -7.338   -6.806   -6.280   -5.802   -5.421   -5.182   -5.245   -5.791   -6.895   -8.390   -9.945  -11.214  -12.021  -12.365  -12.398  -12.300  -12.247  -12.368  -12.693  -13.087  -13.225  -12.787  -11.660  -10.070   -8.442   -7.175   -6.393   -5.945   -5.557   -5.070   -4.453   -3.820   -3.244   -2.759   -2.349   -2.024   -1.812   -1.714   -1.682   -1.692   -1.738   -1.808   -1.888   -2.020
  -9.414   -8.863   -8.090   -7.353   -6.936   -6.936   -7.291   -7.837   -8.438   -8.973   -9.385   -9.702  -10.062  -10.646  -11.568  -12.837  -14.341  -15.908  -17.370  -18.566  -19.407  -19.890  -20.045  -19.941  -19.631  -19.130  -18.450  -17.624  -16.742  -15.925  -15.274  -14.790  -14.394  -13.935  -13.343  -12.663  -12.001  -11.455  -11.096  -11.023  -11.381  -12.303  -13.794  -15.712  -17.729  -19.403  -20.260  -19.987  -18.548  -16.239  -13.569  -11.068   -9.083   -7.698   -6.780   -6.129   -5.591   -5.093   -4.624   -4.230   -3.958   -3.910   -4.218   -5.058   -6.451   -8.213   -9.996  -11.449  -12.413  -12.921  -13.121  -13.142  -13.061  -12.946  -12.823  -12.628  -12.172  -11.252   -9.848   -8.189   -6.651   -5.515   -4.824   -4.410   -4.050   -3.633   -3.142   -2.666   -2.272   -1.971   -1.769   -1.677   -1.683   -1.756   -1.843   -1.914   -1.987   -2.081   -2.177   -2.305
 -10.760  -10.152   -9.246   -8.368   -7.858   -7.829   -8.148   -8.583   -8.942   -9.088   -9.018   -8.799   -8.658   -8.798   -9.402  -10.506  -12.023  -13.806  -15.658  -17.379  -18.794  -19.805  -20.391  -20.569  -20.374  -19.830  -18.978  -17.893  -16.688  -15.495  -14.430  -13.552  -12.844  -12.255  -11.760  -11.388  -11.200  -11.222  -11.461  -11.969  -12.841  -14.168  -15.939  -17.994  -20.001  -21.527  -22.119  -21.522  -19.776  -17.204  -14.302  -11.539   -9.240   -7.501   -6.260   -5.383   -4.712   -4.169   -3.727   -3.409   -3.274   -3.413   -3.947   -4.969   -6.466   -8.240   -9.972  -11.365  -12.311  -12.877  -13.219  -13.397  -13.386  -13.146  -12.688  -12.005  -11.057   -9.791   -8.261   -6.668   -5.277   -4.251   -3.589   -3.162   -2.825   -2.485   -2.156   -1.869   -1.666   -1.559   -1.535   -1.610   -1.753   -1.911   -2.041   -2.112   -2.175   -2.261   -2.343   -2.466
 -12.594  -12.008  -11.079  -10.157   -9.610   -9.541   -9.778  -10.029  -10.072   -9.781   -9.188   -8.444   -7.791   -7.496   -7.727   -8.548   -9.907  -11.705  -13.763  -15.848  -17.714  -19.179  -20.153  -20.609  -20.561  -20.036  -19.089  -17.820  -16.363  -14.876  -13.498  -12.327  -11.403  -10.711  -10.274  -10.123  -10.306  -10.803  -11.540  -12.486  -13.639  -15.065  -16.756  -18.611  -20.354  -21.599  -21.973  -21.285  -19.613  -17.275  -14.676  -12.170   -9.960   -8.147   -6.734   -5.654   -4.832   -4.214   -3.761   -3.502   -3.477   -3.755   -4.399   -5.444   -6.825   -8.359   -9.777  -10.876  -11.613  -12.120  -12.535  -12.875  -12.989  -12.738  -12.103  -11.134   -9.903   -8.481   -6.973   -5.541   -4.310   -3.381   -2.747   -2.321   -2.021   -1.793   -1.617   -1.501   -1.464   -1.498   -1.608   -1.768   -1.957   -2.115   -2.196   -2.212   -2.214   -2.253   -2.311   -2.418
 -14.293  -13.797  -12.996  -12.189  -11.715  -11.652  -11.816  -11.896  -11.644  -10.969   -9.956   -8.793   -7.751   -7.097   -6.998   -7.500   -8.601  -10.222  -12.236  -14.408  -16.460  -18.161  -19.367  -20.033  -20.130  -19.685  -18.741  -17.405  -15.827  -14.170  -12.616  -11.289  -10.254   -9.528   -9.134   -9.132   -9.561  -10.367  -11.420  -12.573  -13.753  -14.976  -16.278  -17.620  -18.834  -19.644  -19.802  -19.182  -17.889  -16.181  -14.326  -12.497  -10.769   -9.184   -7.787   -6.622   -5.705   -5.026   -4.578   -4.367   -4.410   -4.726   -5.340   -6.225   -7.294   -8.373   -9.291   -9.926  -10.323  -10.651  -11.050  -11.466  -11.674  -11.460  -10.773   -9.715   -8.431   -7.071   -5.755   -4.567   -3.569   -2.780   -2.216   -1.845   -1.627   -1.516   -1.469   -1.490   -1.568   -1.705   -1.882   -2.076   -2.243   -2.331   -2.311   -2.218   -2.126   -2.094   -2.113   -2.216
 -15.508  -15.165  -14.607  -14.064  -13.762  -13.764  -13.896  -13.864  -13.430  -12.527  -11.270   -9.884   -8.643   -7.792   -7.479   -7.730   -8.536   -9.848  -11.569  -13.496  -15.383  -16.995  -18.183  -18.889  -19.079  -18.734  -17.876  -16.591  -15.012  -13.321  -11.716  -10.347   -9.300   -8.599   -8.274   -8.378   -8.943   -9.898  -11.061  -12.227  -13.273  -14.168  -14.961  -15.686  -16.272  -16.597  -16.539  -16.081  -15.315  -14.403  -13.448  -12.451  -11.363  -10.178   -8.960   -7.822   -6.876   -6.183   -5.748   -5.561   -5.586   -5.822   -6.249   -6.808   -7.412   -7.946   -8.302   -8.451   -8.481   -8.590   -8.884   -9.278   -9.496   -9.311   -8.679   -7.716   -6.609   -5.512   -4.527   -3.682   -2.970   -2.400   -1.977   -1.709   -1.590   -1.568   -1.611   -1.708   -1.855   -2.041   -2.246   -2.433   -2.547   -2.542   -2.412   -2.199   -2.005   -1.900   -1.885   -1.975
 -16.246  -16.077  -15.838  -15.620  -15.558  -15.669  -15.807  -15.733  -15.240  -14.294  -12.995  -11.591  -10.331   -9.446   -9.046   -9.143   -9.691  -10.642  -11.894  -13.304  -14.695  -15.896  -16.805  -17.368  -17.543  -17.275  -16.546  -15.385  -13.907  -12.294  -10.741   -9.408   -8.404   -7.757   -7.496   -7.661   -8.259   -9.212  -10.327  -11.398  -12.267  -12.897  -13.309  -13.561  -13.671  -13.647  -13.501  -13.282  -13.044  -12.837  -12.619  -12.309  -11.775  -10.973   -9.967   -8.908   -7.957   -7.231   -6.752   -6.476   -6.376   -6.410   -6.539   -6.693   -6.820   -6.856   -6.755   -6.549   -6.335   -6.273   -6.453   -6.751   -6.933   -6.789   -6.305   -5.594   -4.831   -4.142   -3.569   -3.098   -2.684   -2.333   -2.065   -1.917   -1.871   -1.906   -1.991   -2.110   -2.259   -2.440   -2.616   -2.736   -2.771   -2.680   -2.469   -2.190   -1.940   -1.800   -1.750   -1.837
 -16.646  -16.661  -16.732  -16.860  -17.043  -17.271  -17.444  -17.381  -16.937  -16.075  -14.888  -13.591  -12.423  -11.585  -11.170  -11.165  -11.517  -12.114  -12.840  -13.613  -14.332  -14.938  -15.407  -15.710  -15.781  -15.549  -14.943  -13.951  -12.652  -11.205   -9.780   -8.536   -7.581   -6.952   -6.688   -6.821   -7.342   -8.169   -9.130  -10.053  -10.791  -11.291  -11.548  -11.620  -11.570  -11.497  -11.486  -11.588  -11.801  -12.079  -12.311  -12.374  -12.156  -11.585  -10.706   -9.675   -8.677   -7.841   -7.209   -6.744   -6.405   -6.167   -5.974   -5.787   -5.563   -5.289   -4.969   -4.643   -4.386   -4.296   -4.413   -4.629   -4.775   -4.720   -4.450   -4.074   -3.702   -3.414   -3.210   -3.032   -2.856   -2.683   -2.558   -2.512   -2.538   -2.612   -2.702   -2.799   -2.885   -2.949   -2.984   -2.972   -2.897   -2.738   -2.505   -2.238   -2.009   -1.882   -1.836   -1.913
 -16.840  -17.003  -17.341  -17.761  -18.163  -18.494  -18.687  -18.645  -18.277  -17.555  -16.549  -15.426  -14.390  -13.601  -13.159  -13.060  -13.213  -13.484  -13.742  -13.911  -13.988  -14.021  -14.048  -14.082  -14.050  -13.851  -13.376  -12.587  -11.538  -10.340   -9.125   -7.995   -7.054   -6.363   -5.985   -5.948   -6.256   -6.845   -7.572   -8.301   -8.933   -9.394   -9.670   -9.802   -9.877  -10.030  -10.351  -10.844  -11.436  -12.003  -12.434  -12.626  -12.493  -11.973  -11.103  -10.025   -8.924   -7.934   -7.084   -6.372   -5.778   -5.295   -4.871   -4.490   -4.126   -3.800   -3.509   -3.276   -3.140   -3.153   -3.296   -3.510   -3.675   -3.738   -3.693   -3.596   -3.517   -3.502   -3.517   -3.516   -3.480   -3.451   -3.480   -3.561   -3.686   -3.812   -3.909   -3.946   -3.889   -3.735   -3.528   -3.279   -3.033   -2.804   -2.593   -2.404   -2.260   -2.193   -2.180   -2.272
 -16.873  -17.132  -17.651  -18.268  -18.804  -19.173  -19.340  -19.273  -18.946  -18.351  -17.525  -16.588  -15.680  -14.939  -14.444  -14.212  -14.154  -14.132  -14.004  -13.723  -13.344  -12.968  -12.700  -12.567  -12.505  -12.388  -12.099  -11.587  -10.875  -10.026   -9.093   -8.130   -7.199   -6.369   -5.736   -5.383   -5.344   -5.579   -5.981   -6.459   -6.939   -7.358   -7.689   -7.973   -8.300   -8.791   -9.503  -10.367  -11.249  -11.997  -12.502  -12.704  -12.541  -11.981  -11.055   -9.908   -8.714   -7.599   -6.600   -5.719   -4.965   -4.339   -3.835   -3.438   -3.136   -2.934   -2.824   -2.789   -2.847   -2.993   -3.227   -3.486   -3.726   -3.919   -4.046   -4.114   -4.169   -4.245   -4.320   -4.372   -4.426   -4.541   -4.759   -5.042   -5.333   -5.558   -5.674   -5.631   -5.383   -4.950   -4.403   -3.857   -3.391   -3.052   -2.840   -2.717   -2.669   -2.684   -2.732   -2.849
 -16.748  -17.057  -17.668  -18.363  -18.919  -19.228  -19.267  -19.076  -18.700  -18.152  -17.470  -16.706  -15.947  -15.270  -14.737  -14.366  -14.088  -13.805  -13.407  -12.859  -12.252  -11.702  -11.321  -11.160  -11.160  -11.218  -11.211  -11.078  -10.815  -10.429   -9.883   -9.171   -8.278   -7.278   -6.314   -5.533   -5.034   -4.812   -4.807   -4.950   -5.199   -5.507   -5.846   -6.242   -6.777   -7.536   -8.521   -9.623  -10.671  -11.508  -12.049  -12.239  -12.033  -11.427  -10.470   -9.306   -8.108   -7.006   -6.026   -5.156   -4.411   -3.811   -3.366   -3.086   -2.958   -2.964   -3.060   -3.211   -3.415   -3.676   -3.971   -4.285   -4.604   -4.897   -5.104   -5.210   -5.247   -5.274   -5.308   -5.358   -5.488   -5.782   -6.250   -6.810   -7.325   -7.691   -7.849   -7.729   -7.299   -6.596   -5.720   -4.851   -4.113   -3.577   -3.277   -3.145   -3.135   -3.193   -3.287   -3.428
 -16.518  -16.838  -17.461  -18.131  -18.599  -18.724  -18.511  -18.072  -17.522  -16.925  -16.316  -15.703  -15.110  -14.544  -14.028  -13.559  -13.111  -12.634  -12.083  -11.448  -10.800  -10.253   -9.912   -9.821   -9.961  -10.248  -10.605  -10.951  -11.245  -11.416  -11.366  -10.983  -10.206   -9.092   -7.827   -6.621   -5.642   -4.930   -4.470   -4.223   -4.174   -4.309   -4.583   -5.002   -5.611   -6.441   -7.464   -8.561   -9.583  -10.398  -10.915  -11.094  -10.888  -10.293   -9.377   -8.296   -7.228   -6.294   -5.522   -4.865   -4.311   -3.891   -3.638   -3.561   -3.661   -3.863   -4.123   -4.385   -4.659   -4.942   -5.241   -5.561   -5.905   -6.215   -6.403   -6.441   -6.357   -6.264   -6.219   -6.273   -6.508   -7.018   -7.776   -8.645   -9.408   -9.933  -10.136   -9.971   -9.420   -8.511   -7.380   -6.208   -5.169   -4.378   -3.871   -3.603   -3.532   -3.574   -3.676   -3.828
 -16.308  -16.611  -17.201  -17.783  -18.080  -17.925  -17.359  -16.554  -15.708  -14.958  -14.339  -13.837  -13.409  -12.992  -12.551  -12.064  -11.535  -10.975  -10.385   -9.784   -9.216   -8.766   -8.513   -8.519   -8.794   -9.322  -10.054  -10.915  -11.806  -12.587  -13.067  -13.077  -12.515  -11.427  -10.004   -8.504   -7.153   -6.036   -5.165   -4.552   -4.220   -4.163   -4.336   -4.693   -5.223   -5.910   -6.705   -7.522   -8.268   -8.877   -9.275   -9.419   -9.234   -8.718   -7.939   -7.049   -6.227   -5.591   -5.154   -4.853   -4.652   -4.538   -4.567   -4.758   -5.074   -5.444   -5.797   -6.094   -6.343   -6.569   -6.805   -7.068   -7.341   -7.574   -7.648   -7.534   -7.303   -7.090   -6.995   -7.093   -7.465   -8.194   -9.222  -10.354  -11.329  -11.980  -12.226  -12.036  -11.413  -10.383   -9.076   -7.657   -6.333   -5.263   -4.511   -4.055   -3.841   -3.818   -3.896   -4.053
 -16.221  -16.506  -17.048  -17.525  -17.620  -17.159  -16.199  -14.961  -13.741  -12.738  -12.030  -11.582  -11.289  -11.025  -10.700  -10.281   -9.773   -9.232   -8.703   -8.203   -7.754   -7.415   -7.234   -7.305   -7.672   -8.372   -9.412  -10.723  -12.159  -13.487  -14.466  -14.881  -14.620  -13.709  -12.336  -10.771   -9.250   -7.895   -6.763   -5.907   -5.378   -5.178   -5.245   -5.483   -5.821   -6.190   -6.540   -6.847   -7.093   -7.302   -7.453   -7.482   -7.317   -6.933   -6.373   -5.774   -5.286   -5.028   -5.004   -5.137   -5.344   -5.608   -5.965   -6.430   -6.941   -7.417   -7.782   -8.034   -8.213   -8.354   -8.486   -8.641   -8.799   -8.900   -8.827   -8.565   -8.210   -7.923   -7.833   -8.009   -8.519   -9.402  -10.577  -11.823  -12.880  -13.551  -13.771  -13.543  -12.872  -11.775  -10.357   -8.775   -7.263   -5.998   -5.057   -4.439   -4.108   -4.007   -4.069   -4.229
 -16.257  -16.539  -17.049  -17.439  -17.364  -16.640  -15.319  -13.663  -12.041  -10.744   -9.892   -9.438   -9.231   -9.092   -8.890   -8.578   -8.179   -7.746   -7.334   -6.954   -6.619   -6.356   -6.230   -6.319   -6.707   -7.489   -8.709  -10.320  -12.147  -13.895  -15.280  -16.065  -16.132  -15.517  -14.380  -12.951  -11.468  -10.090   -8.892   -7.958   -7.353   -7.072   -7.042   -7.125   -7.191   -7.143   -6.949   -6.624   -6.261   -5.956   -5.762   -5.616   -5.453   -5.208   -4.910   -4.655   -4.556   -4.708   -5.113   -5.684   -6.313   -6.955   -7.618   -8.301   -8.934   -9.433   -9.760   -9.944  -10.035  -10.093  -10.149  -10.217  -10.279  -10.261  -10.090   -9.750   -9.359   -9.085   -9.045   -9.286   -9.839  -10.712  -11.808  -12.936  -13.846  -14.364  -14.448  -14.115  -13.381  -12.252  -10.798   -9.180   -7.637   -6.346   -5.374   -4.715   -4.341   -4.235   -4.297   -4.471
 -16.230  -16.514  -17.021  -17.383  -17.214  -16.315  -14.727  -12.744  -10.776   -9.193   -8.172   -7.681   -7.521   -7.480   -7.393   -7.215   -6.961   -6.679   -6.401   -6.140   -5.892   -5.682   -5.586   -5.671   -6.030   -6.781   -8.033   -9.776  -11.816  -13.835  -15.501  -16.581  -16.968  -16.686  -15.861  -14.697  -13.405  -12.162  -11.071  -10.209   -9.629   -9.307   -9.160   -9.049   -8.807   -8.330   -7.595   -6.677   -5.747   -4.967   -4.437   -4.129   -3.952   -3.832   -3.774   -3.842   -4.128   -4.682   -5.479   -6.434   -7.432   -8.392   -9.294  -10.104  -10.772  -11.236  -11.496  -11.609  -11.642  -11.667  -11.700  -11.735  -11.758  -11.711  -11.541  -11.248  -10.933  -10.730  -10.735  -10.966  -11.412  -12.046  -12.800  -13.525  -14.050  -14.242  -14.068  -13.563  -12.745  -11.621  -10.240   -8.755   -7.370   -6.242   -5.410   -4.850   -4.546   -4.478   -4.571   -4.775
 -15.770  -16.071  -16.602  -16.975  -16.800  -15.849  -14.136  -11.961   -9.773   -7.983   -6.838   -6.311   -6.178   -6.203   -6.215   -6.160   -6.066   -5.954   -5.811   -5.649   -5.467   -5.307   -5.235   -5.300   -5.594   -6.248   -7.421   -9.139  -11.240  -13.375  -15.209  -16.501  -17.143  -17.158  -16.637  -15.762  -14.733  -13.721  -12.838  -12.138  -11.628  -11.280  -11.005  -10.677  -10.134   -9.260   -8.075   -6.709   -5.386   -4.324   -3.626   -3.243   -3.079   -3.057   -3.169   -3.477   -4.061   -4.923   -6.033   -7.279   -8.545   -9.734  -10.776  -11.630  -12.256  -12.653  -12.852  -12.926  -12.948  -12.975  -13.028  -13.089  -13.134  -13.123  -13.036  -12.867  -12.685  -12.578  -12.599  -12.734  -12.939  -13.174  -13.384  -13.522  -13.498  -13.243  -12.742  -12.042  -11.149  -10.086   -8.900   -7.703   -6.647   -5.828   -5.251   -4.880   -4.692   -4.704   -4.837   -5.063
 -14.547  -14.843  -15.401  -15.839  -15.734  -14.843  -13.159  -10.973   -8.740   -6.902   -5.719   -5.177   -5.059   -5.114   -5.188   -5.235   -5.276   -5.293   -5.275   -5.199   -5.089   -4.988   -4.936   -4.983   -5.203   -5.746   -6.786   -8.384  -10.406  -12.526  -14.411  -15.817  -16.628  -16.857  -16.588  -15.975  -15.220  -14.478  -13.846  -13.332  -12.908  -12.531  -12.130  -11.599  -10.790   -9.617   -8.130   -6.519   -5.047   -3.946   -3.282   -2.975   -2.891   -2.946   -3.164   -3.611   -4.351   -5.387   -6.656   -8.052   -9.456  -10.757  -11.851  -12.678  -13.226  -13.549  -13.704  -13.763  -13.790  -13.839  -13.923  -14.025  -14.109  -14.164  -14.176  -14.141  -14.087  -14.042  -14.043  -14.044  -13.978  -13.786  -13.444  -12.977  -12.388  -11.684  -10.883  -10.018   -9.112   -8.187   -7.275   -6.442   -5.774   -5.303   -5.011   -4.860   -4.823   -4.912   -5.095   -5.335
 -12.512  -12.768  -13.335  -13.838  -13.861  -13.138  -11.639   -9.624   -7.542   -5.826   -4.720   -4.208   -4.086   -4.130   -4.219   -4.309   -4.408   -4.507   -4.570   -4.581   -4.543   -4.516   -4.505   -4.555   -4.736   -5.190   -6.086   -7.506   -9.325  -11.295  -13.110  -14.521  -15.411  -15.766  -15.667  -15.281  -14.784  -14.321  -13.934  -13.599  -13.260  -12.853  -12.338  -11.634  -10.645   -9.304   -7.695   -6.052   -4.661   -3.719   -3.246   -3.120   -3.179   -3.337   -3.615   -4.107   -4.878   -5.918   -7.178   -8.556   -9.949  -11.237  -12.289  -13.039  -13.496  -13.745  -13.858  -13.900  -13.923  -13.985  -14.087  -14.210  -14.326  -14.430  -14.510  -14.562  -14.579  -14.566  -14.525  -14.406  -14.135  -13.627  -12.884  -11.970  -10.975   -9.962   -8.975   -8.051   -7.207   -6.470   -5.854   -5.371   -5.051   -4.874   -4.828   -4.867   -4.978   -5.166   -5.388   -5.661
  -9.992  -10.183  -10.726  -11.266  -11.435  -10.947   -9.748   -8.061   -6.296   -4.851   -3.914   -3.461   -3.319   -3.317   -3.357   -3.428   -3.529   -3.640   -3.742   -3.824   -3.883   -3.946   -4.015   -4.117   -4.311   -4.719   -5.483   -6.662   -8.191   -9.882  -11.491  -12.798  -13.661  -14.055  -14.059  -13.845  -13.575  -13.361  -13.191  -13.005  -12.726  -12.299  -11.707  -10.906   -9.832   -8.474   -6.933   -5.445   -4.275   -3.590   -3.364   -3.446   -3.663   -3.926   -4.259   -4.733   -5.415   -6.317   -7.404   -8.612   -9.845  -10.989  -11.919  -12.553  -12.910  -13.080  -13.146  -13.158  -13.164  -13.206  -13.299  -13.426  -13.548  -13.668  -13.774  -13.856  -13.892  -13.873  -13.794  -13.610  -13.240  -12.597  -11.684  -10.587   -9.435   -8.319   -7.319   -6.465   -5.779   -5.254   -4.903   -4.692   -4.614   -4.637   -4.751   -4.934   -5.187   -5.473   -5.755   -6.055
  -7.639   -7.747   -8.223   -8.761   -9.038   -8.787   -7.920   -6.631   -5.274   -4.167   -3.446   -3.064   -2.895   -2.830   -2.803   -2.815   -2.876   -2.967   -3.090   -3.231   -3.391   -3.561   -3.736   -3.926   -4.163   -4.557   -5.203   -6.151   -7.348   -8.680   -9.979  -11.071  -11.814  -12.171  -12.221  -12.125  -12.031  -12.005  -11.986  -11.885  -11.637  -11.211  -10.602   -9.798   -8.768   -7.542   -6.228   -5.027   -4.145   -3.708   -3.664   -3.872   -4.195   -4.537   -4.903   -5.337   -5.866   -6.516   -7.299   -8.193   -9.130  -10.021  -10.753  -11.241  -11.495  -11.587  -11.602  -11.573  -11.549  -11.560  -11.630  -11.744  -11.864  -11.972  -12.069  -12.137  -12.145  -12.104  -12.010  -11.824  -11.457  -10.848   -9.973   -8.943   -7.861   -6.859   -6.009   -5.342   -4.868   -4.572   -4.428   -4.401   -4.453   -4.574   -4.773   -5.041   -5.384   -5.754   -6.086   -6.400
  -6.132   -6.141   -6.498   -6.959   -7.261   -7.165   -6.588   -5.678   -4.715   -3.929   -3.408   -3.094   -2.897   -2.758   -2.671   -2.628   -2.650   -2.734   -2.873   -3.068   -3.312   -3.578   -3.856   -4.124   -4.419   -4.828   -5.407   -6.187   -7.113   -8.109   -9.077   -9.889  -10.451  -10.719  -10.769  -10.757  -10.790  -10.868  -10.904  -10.804  -10.562  -10.172   -9.629   -8.934   -8.079   -7.109   -6.120   -5.259   -4.661   -4.397   -4.423   -4.641   -4.967   -5.324   -5.686   -6.041   -6.379   -6.724   -7.107   -7.569   -8.095   -8.634   -9.091   -9.396   -9.534   -9.556   -9.522   -9.461   -9.418   -9.406   -9.462   -9.563   -9.666   -9.761   -9.828   -9.849   -9.818   -9.754   -9.669   -9.524   -9.246   -8.757   -8.068   -7.249   -6.408   -5.655   -5.056   -4.634   -4.386   -4.295   -4.324   -4.410   -4.533   -4.681   -4.884   -5.164   -5.525   -5.917   -6.260   -6.593
  -5.843   -5.764   -5.968   -6.256   -6.470   -6.403   -5.984   -5.339   -4.679   -4.135   -3.745   -3.453   -3.219   -3.032   -2.898   -2.831   -2.844   -2.933   -3.106   -3.343   -3.637   -3.962   -4.291   -4.607   -4.957   -5.397   -5.995   -6.740   -7.561   -8.372   -9.093   -9.663  -10.045  -10.228  -10.293  -10.360  -10.477  -10.580  -10.572  -10.417  -10.158   -9.835   -9.439   -8.947   -8.356   -7.709   -7.078   -6.549   -6.197   -6.037   -6.046   -6.183   -6.413   -6.712   -7.016   -7.254   -7.378   -7.371   -7.297   -7.246   -7.256   -7.340   -7.443   -7.514   -7.521   -7.473   -7.394   -7.317   -7.272   -7.262   -7.316   -7.411   -7.507   -7.592   -7.631   -7.610   -7.544   -7.470   -7.413   -7.328   -7.160   -6.841   -6.379   -5.822   -5.275   -4.811   -4.482   -4.311   -4.281   -4.354   -4.503   -4.663   -4.822   -4.966   -5.126   -5.344   -5.651   -5.996   -6.309   -6.642
  -6.791   -6.630   -6.668   -6.744   -6.749   -6.548   -6.112   -5.559   -5.031   -4.600   -4.257   -3.957   -3.686   -3.469   -3.323   -3.258   -3.286   -3.399   -3.591   -3.849   -4.154   -4.478   -4.803   -5.121   -5.501   -6.020   -6.745   -7.621   -8.537   -9.368  -10.032  -10.499  -10.788  -10.959  -11.090  -11.252  -11.417  -11.493  -11.401  -11.160  -10.884  -10.642  -10.424  -10.166   -9.857   -9.525   -9.229   -9.004   -8.860   -8.769   -8.724   -8.740   -8.850   -9.045   -9.246   -9.351   -9.246   -8.887   -8.338   -7.709   -7.125   -6.662   -6.336   -6.122   -5.965   -5.840   -5.733   -5.643   -5.600   -5.598   -5.654   -5.752   -5.846   -5.929   -5.956   -5.921   -5.851   -5.792   -5.765   -5.748   -5.681   -5.519   -5.260   -4.947   -4.656   -4.441   -4.340   -4.361   -4.489   -4.690   -4.925   -5.144   -5.325   -5.454   -5.566   -5.706   -5.935   -6.215   -6.488   -6.830
  -8.767   -8.552   -8.459   -8.318   -8.038   -7.542   -6.882   -6.202   -5.616   -5.150   -4.773   -4.450   -4.178   -3.976   -3.849   -3.812   -3.860   -3.977   -4.153   -4.385   -4.641   -4.910   -5.169   -5.459   -5.861   -6.493   -7.417   -8.559   -9.753  -10.811  -11.615  -12.142  -12.473  -12.715  -12.957  -13.212  -13.403  -13.435  -13.267  -12.973  -12.702  -12.531  -12.442  -12.370  -12.285  -12.214  -12.188  -12.205  -12.222  -12.201  -12.123  -12.059  -12.079  -12.176  -12.280  -12.249  -11.941  -11.286  -10.315   -9.143   -7.950   -6.903   -6.115   -5.587   -5.258   -5.046   -4.911   -4.811   -4.753   -4.746   -4.792   -4.883   -4.981   -5.065   -5.118   -5.115   -5.079   -5.049   -5.057   -5.084   -5.092   -5.051   -4.939   -4.797   -4.682   -4.634   -4.676   -4.809   -5.029   -5.301   -5.606   -5.887   -6.121   -6.272   -6.375   -6.479   -6.652   -6.901   -7.150   -7.510
 -11.442  -11.228  -11.064  -10.737  -10.149   -9.270   -8.224   -7.209   -6.377   -5.753   -5.289   -4.950   -4.710   -4.567   -4.485   -4.464   -4.509   -4.585   -4.698   -4.836   -4.992   -5.145   -5.315   -5.546   -5.961   -6.704   -7.846   -9.303  -10.856  -12.257  -13.347  -14.076  -14.545  -14.909  -15.255  -15.566  -15.760  -15.759  -15.569  -15.285  -15.039  -14.912  -14.881  -14.905  -14.957  -15.054  -15.199  -15.366  -15.501  -15.539  -15.478  -15.404  -15.392  -15.440  -15.470  -15.342  -14.912  -14.074  -12.818  -11.237   -9.541   -8.001   -6.817   -6.036   -5.577   -5.309   -5.144   -5.025   -4.955   -4.931   -4.962   -5.024   -5.122   -5.227   -5.313   -5.373   -5.404   -5.427   -5.476   -5.541   -5.604   -5.638   -5.615   -5.565   -5.520   -5.515   -5.585   -5.737   -5.978   -6.298   -6.673   -7.067   -7.410   -7.660   -7.807   -7.907   -8.052   -8.279   -8.516   -8.898
 -14.474  -14.274  -14.078  -13.625  -12.760  -11.489   -9.988   -8.543   -7.359   -6.492   -5.905   -5.543   -5.342   -5.245   -5.191   -5.161   -5.159   -5.159   -5.164   -5.178   -5.184   -5.204   -5.260   -5.411   -5.805   -6.614   -7.915   -9.630  -11.523  -13.301  -14.729  -15.722  -16.380  -16.860  -17.268  -17.590  -17.767  -17.753  -17.592  -17.365  -17.171  -17.060  -17.049  -17.102  -17.211  -17.371  -17.574  -17.800  -17.980  -18.059  -18.049  -18.015  -18.027  -18.082  -18.086  -17.922  -17.455  -16.566  -15.196  -13.412  -11.454   -9.656   -8.281   -7.411   -6.930   -6.672   -6.519   -6.410   -6.333   -6.303   -6.325   -6.389   -6.483   -6.614   -6.753   -6.894   -7.029   -7.144   -7.247   -7.354   -7.455   -7.532   -7.539   -7.491   -7.406   -7.324   -7.291   -7.363   -7.574   -7.941   -8.440   -9.015   -9.550   -9.957  -10.170  -10.257  -10.335  -10.485  -10.673  -11.049
 -17.563  -17.365  -17.130  -16.562  -15.483  -13.888  -11.987  -10.116   -8.543   -7.389   -6.639   -6.208   -6.003   -5.903   -5.839   -5.773   -5.698   -5.609   -5.500   -5.387   -5.265   -5.155   -5.091   -5.154   -5.502   -6.313   -7.684   -9.558  -11.701  -13.789  -15.532  -16.798  -17.641  -18.218  -18.639  -18.933  -19.073  -19.069  -18.971  -18.838  -18.716  -18.647  -18.646  -18.706  -18.818  -18.965  -19.138  -19.321  -19.481  -19.571  -19.607  -19.635  -19.705  -19.796  -19.815  -19.659  -19.220  -18.374  -17.053  -15.315  -13.397  -11.665  -10.400   -9.659   -9.307   -9.161   -9.091   -9.031   -8.988   -8.981   -9.037   -9.134   -9.259   -9.425   -9.623   -9.866  -10.136  -10.399  -10.617  -10.792  -10.939  -11.039  -11.049  -10.937  -10.704  -10.402  -10.133  -10.019  -10.159  -10.591  -11.283  -12.122  -12.926  -13.522  -13.810  -13.846  -13.798  -13.806  -13.888  -14.264
 -20.831  -20.587  -20.249  -19.527  -18.237  -16.377  -14.142  -11.880   -9.908   -8.427   -7.451   -6.896   -6.619   -6.478   -6.380   -6.269   -6.134   -5.977   -5.795   -5.599   -5.390   -5.202   -5.066   -5.068   -5.363   -6.136   -7.495   -9.420  -11.699  -13.992  -15.968  -17.457  -18.464  -19.110  -19.523  -19.764  -19.871  -19.894  -19.882  -19.868  -19.864  -19.880  -19.933  -20.021  -20.120  -20.223  -20.317  -20.407  -20.485  -20.544  -20.595  -20.671  -20.792  -20.921  -20.975  -20.864  -20.501  -19.788  -18.666  -17.206  -15.635  -14.284  -13.399  -12.994  -12.914  -12.964  -13.018  -13.041  -13.055  -13.105  -13.211  -13.364  -13.532  -13.730  -13.987  -14.347  -14.801  -15.276  -15.684  -15.998  -16.238  -16.398  -16.428  -16.241  -15.809  -15.190  -14.567  -14.177  -14.213  -14.748  -15.704  -16.900  -18.073  -18.952  -19.391  -19.452  -19.376  -19.374  -19.469  -19.955
 -25.118  -24.760  -24.210  -23.209  -21.624  -19.455  -16.860  -14.165  -11.731   -9.830   -8.534   -7.769   -7.367   -7.171   -7.042   -6.909   -6.748   -6.558   -6.353   -6.137   -5.921   -5.717   -5.578   -5.577   -5.855   -6.583   -7.892   -9.782  -12.082  -14.452  -16.562  -18.202  -19.328  -20.024  -20.416  -20.612  -20.702  -20.770  -20.869  -21.013  -21.190  -21.378  -21.571  -21.745  -21.879  -21.954  -21.974  -21.956  -21.929  -21.917  -21.937  -22.008  -22.138  -22.291  -22.402  -22.393  -22.191  -21.726  -20.975  -20.008  -19.017  -18.268  -17.935  -17.988  -18.254  -18.528  -18.709  -18.800  -18.856  -18.942  -19.066  -19.217  -19.373  -19.559  -19.849  -20.335  -21.025  -21.787  -22.481  -23.039  -23.480  -23.827  -23.989  -23.839  -23.277  -22.388  -21.435  -20.802  -20.791  -21.524  -22.884  -24.626  -26.381  -27.823  -28.761  -29.308  -29.753  -30.302  -30.867  -31.725
 -31.717  -31.235  -30.343  -28.891  -26.839  -24.205  -21.104  -17.819  -14.743  -12.242  -10.480   -9.395   -8.803   -8.511   -8.351   -8.213   -8.053   -7.872   -7.683   -7.497   -7.329   -7.199   -7.132   -7.183   -7.479   -8.168   -9.401  -11.204  -13.418  -15.762  -17.895  -19.604  -20.794  -21.515  -21.888  -22.047  -22.140  -22.265  -22.501  -22.864  -23.329  -23.833  -24.305  -24.688  -24.940  -25.050  -25.029  -24.918  -24.774  -24.651  -24.580  -24.582  -24.668  -24.834  -25.049  -25.244  -25.348  -25.305  -25.107  -24.809  -24.554  -24.517  -24.801  -25.345  -25.958  -26.447  -26.733  -26.861  -26.924  -26.977  -27.030  -27.072  -27.114  -27.224  -27.533  -28.168  -29.132  -30.260  -31.349  -32.308  -33.158  -33.915  -34.454  -34.585  -34.186  -33.356  -32.444  -31.941  -32.254  -33.521  -35.613  -38.227  -40.961  -43.456  -45.549  -47.381  -49.210  -51.070  -52.588  -53.836
 -41.359  -40.843  -39.562  -37.555  -34.896  -31.627  -27.836  -23.751  -19.809  -16.486  -14.068  -12.514  -11.627  -11.169  -10.932  -10.774  -10.607  -10.432  -10.264  -10.138  -10.056  -10.039  -10.103  -10.274  -10.625  -11.280  -12.403  -14.040  -16.094  -18.312  -20.384  -22.080  -23.283  -24.003  -24.347  -24.476  -24.568  -24.766  -25.175  -25.833  -26.705  -27.690  -28.623  -29.371  -29.856  -30.063  -30.037  -29.846  -29.577  -29.314  -29.099  -28.975  -28.974  -29.164  -29.551  -30.083  -30.666  -31.229  -31.737  -32.215  -32.741  -33.422  -34.309  -35.323  -36.267  -36.967  -37.382  -37.586  -37.679  -37.707  -37.672  -37.584  -37.515  -37.597  -38.006  -38.877  -40.194  -41.760  -43.354  -44.881  -46.355  -47.766  -48.964  -49.750  -50.026  -49.934  -49.870  -50.342  -51.725  -54.118  -57.353  -61.110  -65.024  -68.798  -72.330  -75.715  -79.031  -82.021  -84.070  -84.907
 -53.166  -52.811  -51.234  -48.732  -45.491  -41.581  -37.054  -32.107  -27.209  -22.953  -19.739  -17.590  -16.295  -15.577  -15.195  -14.961  -14.746  -14.535  -14.361  -14.264  -14.280  -14.409  -14.651  -14.980  -15.409  -16.033  -17.005  -18.417  -20.230  -22.241  -24.187  -25.830  -27.015  -27.715  -28.016  -28.097  -28.173  -28.440  -29.040  -30.047  -31.424  -33.004  -34.525  -35.751  -36.545  -36.893  -36.873  -36.608  -36.228  -35.830  -35.472  -35.210  -35.136  -35.382  -36.010  -36.977  -38.148  -39.397  -40.645  -41.878  -43.127  -44.448  -45.865  -47.295  -48.570  -49.547  -50.211  -50.643  -50.936  -51.125  -51.220  -51.262  -51.364  -51.698  -52.455  -53.737  -55.501  -57.547  -59.680  -61.820  -63.971  -66.109  -68.112  -69.836  -71.261  -72.565  -74.103  -76.253  -79.224  -82.980  -87.306  -91.923  -96.578 -101.095 -105.417 -109.549 -113.368 -116.438 -118.031 -117.507
 -64.971  -64.947  -63.261  -60.468  -56.840  -52.471  -47.391  -41.778  -36.112  -31.066  -27.142  -24.423  -22.699  -21.677  -21.086  -20.710  -20.384  -20.073  -19.815  -19.698  -19.776  -20.057  -20.506  -21.029  -21.564  -22.169  -22.989  -24.158  -25.694  -27.473  -29.278  -30.863  -32.038  -32.714  -32.958  -32.970  -33.010  -33.322  -34.092  -35.426  -37.278  -39.423  -41.503  -43.181  -44.272  -44.758  -44.759  -44.456  -44.015  -43.551  -43.124  -42.809  -42.739  -43.107  -44.022  -45.439  -47.177  -49.048  -50.926  -52.760  -54.564  -56.377  -58.210  -59.996  -61.611  -62.958  -64.040  -64.932  -65.714  -66.422  -67.071  -67.714  -68.460  -69.464  -70.869  -72.728  -74.969  -77.434  -79.984  -82.569  -85.199  -87.872  -90.533  -93.133  -95.716  -98.446 -101.553 -105.213 -109.451 -114.133 -119.048 -123.992 -128.812 -133.416 -137.750 -141.714 -145.023 -147.135 -147.280 -145.009
 -74.623  -74.972  -73.340  -70.472  -66.706  -62.153  -56.840  -50.938  -44.928  -39.498  -35.186  -32.112  -30.075  -28.786  -27.984  -27.437  -26.949  -26.470  -26.060  -25.835  -25.911  -26.317  -26.976  -27.721  -28.415  -29.058  -29.778  -30.752  -32.068  -33.678  -35.404  -36.994  -38.202  -38.886  -39.090  -39.035  -39.026  -39.347  -40.211  -41.743  -43.890  -46.381  -48.804  -50.764  -52.043  -52.636  -52.688  -52.415  -52.017  -51.612  -51.263  -51.046  -51.121  -51.709  -52.935  -54.741  -56.915  -59.228  -61.522  -63.737  -65.882  -67.998  -70.108  -72.175  -74.128  -75.918  -77.562  -79.127  -80.678  -82.239  -83.816  -85.437  -87.161  -89.075  -91.247  -93.681  -96.313  -99.040 -101.787 -104.541 -107.341 -110.226 -113.216 -116.340 -119.667 -123.307 -127.355 -131.822 -136.603 -141.511 -146.348 -150.967 -155.281 -159.228 -162.725 -165.584 -167.504 -168.041 -166.391 -164.509
 -80.748  -81.382  -79.880  -77.090  -73.387  -68.904  -63.685  -57.907  -52.036  -46.722  -42.459  -39.351  -37.210  -35.781  -34.833  -34.128  -33.471  -32.794  -32.171  -31.775  -31.781  -32.259  -33.109  -34.099  -35.013  -35.782  -36.521  -37.437  -38.686  -40.286  -42.081  -43.801  -45.139  -45.913  -46.149  -46.086  -46.055  -46.356  -47.215  -48.749  -50.904  -53.409  -55.847  -57.835  -59.156  -59.807  -59.947  -59.798  -59.559  -59.351  -59.233  -59.283  -59.656  -60.555  -62.092  -64.189  -66.625  -69.163  -71.643  -74.008  -76.282  -78.518  -80.765  -83.028  -85.291  -87.545  -89.821  -92.170  -94.624  -97.179  -99.803 -102.467 -105.166 -107.915 -110.723 -113.575 -116.427 -119.229 -121.960 -124.646 -127.354 -130.161 -133.141 -136.365 -139.898 -143.785 -148.015 -152.490 -157.059 -161.560 -165.878 -169.951 -173.746 -177.215 -180.285 -182.836 -184.673 -185.337 -183.367 -186.831
 -82.766  -83.515  -82.136  -79.496  -75.987  -71.767  -66.907  -61.597  -56.273  -51.498  -47.666  -44.827  -42.805  -41.395  -40.399  -39.602  -38.818  -37.970  -37.146  -36.568  -36.468  -36.975  -37.988  -39.231  -40.416  -41.425  -42.356  -43.430  -44.851  -46.671  -48.742  -50.761  -52.377  -53.381  -53.792  -53.846  -53.872  -54.167  -54.940  -56.299  -58.197  -60.399  -62.551  -64.327  -65.547  -66.207  -66.453  -66.482  -66.472  -66.536  -66.735  -67.144  -67.893  -69.136  -70.942  -73.215  -75.743  -78.310  -80.775  -83.101  -85.329  -87.539  -89.809  -92.188  -94.706  -97.389 -100.270 -103.369 -106.673 -110.123 -113.632 -117.118 -120.523 -123.819 -126.989 -130.018 -132.887 -135.591 -138.147 -140.610 -143.070 -145.627 -148.385 -151.435 -154.839 -158.628 -162.769 -167.193 -171.799 -176.479 -181.110 -185.569 -189.738 -193.504 -196.814 -199.540 -201.438 -201.853 -198.888 -207.583
 -80.710  -81.382  -80.068  -77.589  -74.339  -70.497  -66.173  -61.565  -57.051  -53.075  -49.904  -47.532  -45.797  -44.545  -43.615  -42.823  -42.000  -41.077  -40.149  -39.458  -39.296  -39.836  -41.009  -42.519  -44.049  -45.441  -46.780  -48.286  -50.170  -52.490  -55.080  -57.598  -59.677  -61.093  -61.863  -62.200  -62.405  -62.745  -63.412  -64.504  -65.994  -67.712  -69.396  -70.807  -71.817  -72.425  -72.738  -72.910  -73.086  -73.368  -73.825  -74.532  -75.589  -77.091  -79.052  -81.361  -83.826  -86.265  -88.570  -90.728  -92.804  -94.902  -97.128  -99.563 -102.270 -105.293 -108.653 -112.331 -116.256 -120.310 -124.364 -128.303 -132.050 -135.563 -138.826 -141.833 -144.591 -147.114 -149.443 -151.647 -153.821 -156.085 -158.555 -161.335 -164.504 -168.095 -172.090 -176.421 -180.972 -185.600 -190.126 -194.411 -198.328 -201.784 -204.672 -206.801 -207.859 -207.164 -202.827 -211.400
 -75.131  -75.553  -74.228  -71.883  -68.898  -65.482  -61.776  -57.972  -54.367  -51.272  -48.834  -47.008  -45.655  -44.658  -43.895  -43.217  -42.481  -41.636  -40.777  -40.153  -40.076  -40.757  -42.163  -44.028  -46.037  -48.024  -50.050  -52.309  -54.980  -58.081  -61.411  -64.606  -67.304  -69.292  -70.576  -71.333  -71.817  -72.264  -72.853  -73.682  -74.753  -75.960  -77.138  -78.135  -78.866  -79.330  -79.593  -79.761  -79.948  -80.252  -80.757  -81.542  -82.685  -84.231  -86.150  -88.321  -90.577  -92.771  -94.825  -96.756  -98.645 -100.612 -102.775 -105.229 -108.045 -111.268 -114.897 -118.869 -123.066 -127.339 -131.539 -135.550 -139.300 -142.754 -145.899 -148.737 -151.280 -153.551 -155.598 -157.492 -159.330 -161.230 -163.318 -165.692 -168.429 -171.544 -175.008 -178.727 -182.582 -186.445 -190.208 -193.814 -197.181 -200.270 -202.906 -204.890 -205.846 -205.110 -201.007 -205.817
 -67.052  -67.114  -65.719  -63.461  -60.710  -57.706  -54.608  -51.582  -48.836  -46.557  -44.800  -43.505  -42.562  -41.879  -41.368  -40.917  -40.429  -39.867  -39.334  -39.063  -39.358  -40.435  -42.302  -44.742  -47.481  -50.353  -53.378  -56.683  -60.377  -64.416  -68.566  -72.474  -75.810  -78.393  -80.217  -81.420  -82.206  -82.782  -83.319  -83.930  -84.645  -85.415  -86.144  -86.740  -87.150  -87.363  -87.416  -87.379  -87.347  -87.421  -87.698  -88.269  -89.202  -90.516  -92.156  -94.006  -95.921  -97.785  -99.550 -101.247 -102.967 -104.824 -106.924 -109.354 -112.171 -115.402 -119.021 -122.939 -127.020 -131.109 -135.068 -138.796 -142.234 -145.357 -148.162 -150.652 -152.846 -154.776 -156.487 -158.051 -159.558 -161.115 -162.834 -164.813 -167.115 -169.764 -172.737 -175.972 -179.370 -182.845 -186.316 -189.719 -192.993 -196.033 -198.708 -200.789 -201.962 -201.600 -198.327 -199.230
 -57.907  -57.595  -56.113  -53.916  -51.364  -48.719  -46.148  -43.779  -41.739  -40.119  -38.921  -38.091  -37.544  -37.214  -37.037  -36.952  -36.905  -36.893  -37.014  -37.476  -38.543  -40.416  -43.109  -46.461  -50.229  -54.231  -58.415  -62.823  -67.482  -72.305  -77.067  -81.467  -85.240  -88.240  -90.458  -91.994  -93.004  -93.669  -94.152  -94.577  -95.004  -95.422  -95.777  -96.010  -96.079  -95.966  -95.691  -95.306  -94.899  -94.571  -94.427  -94.568  -95.063  -95.923  -97.099  -98.485  -99.967 -101.457 -102.926 -104.408 -105.981 -107.735 -109.748 -112.072 -114.740 -117.753 -121.069 -124.596 -128.205 -131.766 -135.164 -138.326 -141.216 -143.823 -146.153 -148.216 -150.031 -151.629 -153.052 -154.356 -155.619 -156.932 -158.392 -160.086 -162.078 -164.402 -167.052 -169.992 -173.156 -176.477 -179.877 -183.280 -186.598 -189.710 -192.475 -194.652 -195.955 -195.838 -193.258 -191.509
 -49.364  -48.767  -47.251  -45.146  -42.797  -40.473  -38.332  -36.469  -34.951  -33.817  -33.058  -32.625  -32.460  -32.523  -32.784  -33.225  -33.841  -34.652  -35.749  -37.291  -39.486  -42.485  -46.292  -50.753  -55.622  -60.674  -65.792  -70.949  -76.136  -81.276  -86.199  -90.690  -94.554  -97.680 -100.053 -101.735 -102.843 -103.523 -103.928 -104.186 -104.372 -104.499 -104.541 -104.452 -104.193 -103.746 -103.122 -102.371 -101.575 -100.830 -100.243  -99.912  -99.907 -100.247 -100.895 -101.775 -102.803 -103.917 -105.098 -106.372 -107.789 -109.403 -111.252 -113.351 -115.704 -118.292 -121.069 -123.954 -126.849 -129.657 -132.306 -134.757 -136.995 -139.023 -140.850 -142.488 -143.949 -145.258 -146.445 -147.555 -148.647 -149.795 -151.079 -152.573 -154.336 -156.398 -158.766 -161.420 -164.321 -167.419 -170.659 -173.973 -177.275 -180.447 -183.316 -185.641 -187.106 -187.249 -185.270 -182.172
 -43.017  -42.304  -40.882  -38.981  -36.919  -34.939  -33.183  -31.720  -30.596  -29.830  -29.422  -29.343  -29.565  -30.061  -30.840  -31.921  -33.328  -35.081  -37.233  -39.889  -43.190  -47.232  -52.002  -57.324  -62.928  -68.557  -74.063  -79.393  -84.549  -89.497  -94.146  -98.360 -102.008 -105.002 -107.318 -108.986 -110.082 -110.722 -111.037 -111.147 -111.133 -111.025 -110.811 -110.455 -109.921 -109.195 -108.290 -107.258 -106.174 -105.129 -104.217 -103.527 -103.122 -103.029 -103.225 -103.663 -104.289 -105.063 -105.970 -107.022 -108.240 -109.642 -111.229 -112.988 -114.900 -116.936 -119.053 -121.190 -123.283 -125.278 -127.142 -128.865 -130.453 -131.916 -133.262 -134.501 -135.642 -136.701 -137.702 -138.675 -139.664 -140.722 -141.911 -143.290 -144.904 -146.779 -148.920 -151.320 -153.955 -156.792 -159.795 -162.914 -166.079 -169.180 -172.056 -174.476 -176.118 -176.553 -175.133 -171.732
 -40.017  -39.393  -38.243  -36.725  -35.101  -33.569  -32.228  -31.140  -30.329  -29.839  -29.687  -29.889  -30.422  -31.291  -32.515  -34.137  -36.176  -38.625  -41.478  -44.795  -48.669  -53.186  -58.321  -63.900  -69.639  -75.274  -80.637  -85.677  -90.411  -94.854  -98.977 -102.710 -105.969 -108.684 -110.822 -112.385 -113.417 -114.000 -114.242 -114.249 -114.097 -113.825 -113.431 -112.890 -112.173 -111.273 -110.210 -109.036 -107.823 -106.649 -105.594 -104.727 -104.103 -103.741 -103.636 -103.760 -104.081 -104.576 -105.232 -106.049 -107.025 -108.153 -109.411 -110.768 -112.197 -113.663 -115.132 -116.563 -117.922 -119.189 -120.362 -121.457 -122.489 -123.474 -124.418 -125.324 -126.201 -127.061 -127.921 -128.803 -129.736 -130.756 -131.907 -133.231 -134.760 -136.515 -138.497 -140.699 -143.105 -145.693 -148.437 -151.302 -154.229 -157.133 -159.872 -162.242 -163.951 -164.601 -163.637 -160.520
 -40.721  -40.377  -39.655  -38.686  -37.656  -36.678  -35.808  -35.057  -34.461  -34.075  -33.970  -34.204  -34.784  -35.732  -37.069  -38.834  -41.027  -43.605  -46.519  -49.796  -53.529  -57.816  -62.656  -67.893  -73.255  -78.470  -83.358  -87.862  -92.006  -95.832  -99.355 -102.551 -105.371 -107.764 -109.689 -111.132 -112.107 -112.669 -112.899 -112.885 -112.695 -112.369 -111.911 -111.306 -110.538 -109.605 -108.535 -107.382 -106.209 -105.081 -104.058 -103.190 -102.517 -102.056 -101.804 -101.746 -101.868 -102.155 -102.600 -103.193 -103.921 -104.761 -105.683 -106.654 -107.642 -108.618 -109.555 -110.427 -111.220 -111.938 -112.600 -113.234 -113.862 -114.498 -115.146 -115.805 -116.481 -117.186 -117.935 -118.743 -119.630 -120.622 -121.745 -123.032 -124.506 -126.179 -128.047 -130.100 -132.320 -134.689 -137.187 -139.787 -142.446 -145.093 -147.615 -149.838 -151.506 -152.267 -151.631 -148.977
 -44.393  -44.457  -44.198  -43.796  -43.364  -42.930  -42.473  -41.951  -41.373  -40.821  -40.426  -40.306  -40.521  -41.105  -42.089  -43.496  -45.301  -47.441  -49.844  -52.517  -55.563  -59.104  -63.181  -67.671  -72.325  -76.871  -81.118  -84.997  -88.523  -91.748  -94.707  -97.407  -99.827 -101.933 -103.688 -105.062 -106.053 -106.685 -107.017 -107.114 -107.032 -106.805 -106.439 -105.931 -105.270 -104.466 -103.549 -102.571 -101.583 -100.635  -99.770  -99.023  -98.421  -97.977  -97.691  -97.557  -97.570  -97.724  -98.015  -98.430  -98.950  -99.548 -100.192 -100.854 -101.508 -102.130 -102.698 -103.196 -103.623 -103.992 -104.333 -104.677 -105.047 -105.456 -105.903 -106.387 -106.912 -107.491 -108.138 -108.869 -109.699 -110.644 -111.729 -112.974 -114.400 -116.011 -117.800 -119.746 -121.825 -124.018 -126.307 -128.673 -131.087 -133.497 -135.811 -137.883 -139.493 -140.328 -139.949 -137.756
 -49.296  -49.756  -49.824  -49.796  -49.748  -49.650  -49.408  -48.914  -48.142  -47.181  -46.213  -45.423  -44.936  -44.813  -45.087  -45.770  -46.830  -48.187  -49.758  -51.541  -53.634  -56.181  -59.255  -62.780  -66.546  -70.298  -73.842  -77.093  -80.051  -82.758  -85.255  -87.564  -89.684  -91.602  -93.287  -94.707  -95.839  -96.689  -97.286  -97.669  -97.876  -97.930  -97.836  -97.591  -97.196  -96.664  -96.026  -95.327  -94.608  -93.905  -93.249  -92.667  -92.182  -91.809  -91.551  -91.409  -91.386  -91.481  -91.693  -92.008  -92.401  -92.845  -93.312  -93.778  -94.226  -94.638  -94.996  -95.288  -95.517  -95.699  -95.866  -96.048  -96.264  -96.528  -96.837  -97.193  -97.600  -98.069  -98.617  -99.259 -100.015 -100.900 -101.936 -103.143 -104.538 -106.122 -107.873 -109.759 -111.745 -113.808 -115.933 -118.113 -120.336 -122.565 -124.732 -126.711 -128.305 -129.232 -129.091 -127.316
 -53.335  -54.027  -54.150  -54.153  -54.135  -54.053  -53.762  -53.097  -51.989  -50.516  -48.883  -47.335  -46.050  -45.116  -44.569  -44.412  -44.612  -45.091  -45.767  -46.629  -47.757  -49.295  -51.333  -53.842  -56.669  -59.595  -62.445  -65.126  -67.619  -69.945  -72.133  -74.204  -76.175  -78.050  -79.811  -81.426  -82.859  -84.092  -85.125  -85.966  -86.628  -87.115  -87.425  -87.558  -87.518  -87.325  -87.007  -86.602  -86.140  -85.654  -85.171  -84.725  -84.341  -84.040  -83.833  -83.726  -83.724  -83.835  -84.053  -84.361  -84.731  -85.130  -85.529  -85.912  -86.268  -86.585  -86.850  -87.052  -87.194  -87.292  -87.373  -87.466  -87.590  -87.754  -87.962  -88.216  -88.520  -88.887  -89.332  -89.879  -90.551  -91.373  -92.373  -93.573  -94.985  -96.598  -98.373 -100.258 -102.202 -104.177 -106.178 -108.213 -110.292 -112.400 -114.485 -116.435 -118.066 -119.113 -119.202 -117.803
 -54.846  -55.493  -55.356  -55.015  -54.650  -54.257  -53.676  -52.704  -51.222  -49.285  -47.101  -44.944  -43.021  -41.432  -40.206  -39.340  -38.804  -38.539  -38.473  -38.586  -38.938  -39.654  -40.816  -42.429  -44.401  -46.579  -48.832  -51.075  -53.272  -55.409  -57.488  -59.521  -61.528  -63.522  -65.501  -67.432  -69.276  -70.987  -72.537  -73.901  -75.061  -76.004  -76.722  -77.214  -77.494  -77.583  -77.513  -77.313  -77.011  -76.643  -76.246  -75.864  -75.534  -75.286  -75.137  -75.096  -75.168  -75.361  -75.665  -76.056  -76.492  -76.932  -77.348  -77.726  -78.060  -78.345  -78.575  -78.745  -78.855  -78.918  -78.961  -79.003  -79.065  -79.158  -79.286  -79.453  -79.664  -79.929  -80.266  -80.709  -81.293  -82.063  -83.058  -84.304  -85.806  -87.530  -89.409  -91.360  -93.312  -95.235  -97.138  -99.055 -101.019 -103.042 -105.086 -107.047 -108.748 -109.925 -110.229 -109.162
 -52.967  -53.277  -52.607  -51.610  -50.585  -49.614  -48.570  -47.230  -45.440  -43.215  -40.757  -38.328  -36.134  -34.259  -32.712  -31.472  -30.521  -29.817  -29.320  -29.002  -28.909  -29.121  -29.708  -30.691  -32.037  -33.676  -35.536  -37.554  -39.681  -41.856  -44.049  -46.244  -48.452  -50.680  -52.929  -55.178  -57.385  -59.493  -61.451  -63.207  -64.719  -65.964  -66.933  -67.633  -68.085  -68.314  -68.351  -68.222  -67.958  -67.601  -67.207  -66.831  -66.526  -66.325  -66.249  -66.302  -66.489  -66.809  -67.245  -67.756  -68.293  -68.806  -69.262  -69.649  -69.968  -70.225  -70.422  -70.564  -70.652  -70.697  -70.718  -70.731  -70.756  -70.802  -70.873  -70.970  -71.096  -71.259  -71.482  -71.812  -72.307  -73.035  -74.058  -75.407  -77.071  -78.989  -81.048  -83.129  -85.139  -87.046  -88.875  -90.688  -92.550  -94.499  -96.515  -98.499 -100.271 -101.571 -102.065 -101.289
 -47.707  -47.487  -46.146  -44.338  -42.491  -40.811  -39.235  -37.561  -35.616  -33.387  -31.040  -28.785  -26.786  -25.077  -23.643  -22.452  -21.479  -20.717  -20.134  -19.730  -19.520  -19.556  -19.889  -20.543  -21.548  -22.908  -24.617  -26.637  -28.901  -31.310  -33.780  -36.263  -38.741  -41.208  -43.663  -46.092  -48.465  -50.733  -52.835  -54.709  -56.310  -57.615  -58.621  -59.344  -59.811  -60.049  -60.084  -59.938  -59.647  -59.262  -58.855  -58.493  -58.233  -58.109  -58.132  -58.302  -58.615  -59.053  -59.592  -60.180  -60.764  -61.292  -61.733  -62.077  -62.330  -62.506  -62.627  -62.705  -62.749  -62.767  -62.770  -62.775  -62.788  -62.817  -62.859  -62.912  -62.970  -63.037  -63.144  -63.355  -63.758  -64.454  -65.524  -67.009  -68.886  -71.050  -73.343  -75.602  -77.713  -79.637  -81.412  -83.131  -84.892  -86.761  -88.739  -90.735  -92.566  -93.970  -94.623  -94.097
 -39.952  -39.193  -37.284  -34.800  -32.265  -29.983  -27.992  -26.133  -24.254  -22.317  -20.432  -18.715  -17.255  -16.028  -15.007  -14.150  -13.437  -12.874  -12.455  -12.175  -12.050  -12.107  -12.384  -12.922  -13.782  -15.041  -16.741  -18.876  -21.364  -24.070  -26.854  -29.629  -32.341  -34.965  -37.492  -39.920  -42.241  -44.420  -46.414  -48.164  -49.638  -50.824  -51.734  -52.390  -52.816  -53.034  -53.062  -52.920  -52.646  -52.296  -51.951  -51.681  -51.536  -51.540  -51.689  -51.968  -52.358  -52.836  -53.364  -53.900  -54.394  -54.810  -55.121  -55.323  -55.425  -55.451  -55.433  -55.399  -55.363  -55.336  -55.320  -55.324  -55.349  -55.394  -55.443  -55.484  -55.500  -55.490  -55.491  -55.588  -55.902  -56.569  -57.696  -59.334  -61.440  -63.871  -66.420  -68.878  -71.106  -73.058  -74.786  -76.406  -78.047  -79.811  -81.724  -83.705  -85.573  -87.060  -87.847  -87.532
 -31.367  -30.281  -28.166  -25.459  -22.692  -20.207  -18.085  -16.259  -14.613  -13.116  -11.796  -10.680   -9.773   -9.042   -8.443   -7.940   -7.533   -7.229   -7.018   -6.905   -6.902   -7.023   -7.299   -7.777   -8.555   -9.737  -11.420  -13.624  -16.264  -19.177  -22.187  -25.156  -27.994  -30.654  -33.129  -35.424  -37.554  -39.506  -41.257  -42.778  -44.054  -45.088  -45.907  -46.530  -46.978  -47.261  -47.387  -47.369  -47.241  -47.062  -46.908  -46.838  -46.882  -47.047  -47.313  -47.643  -48.015  -48.399  -48.765  -49.083  -49.330  -49.491  -49.554  -49.522  -49.406  -49.235  -49.042  -48.866  -48.726  -48.637  -48.598  -48.605  -48.658  -48.738  -48.821  -48.876  -48.878  -48.821  -48.746  -48.761  -49.018  -49.684  -50.895  -52.707  -55.050  -57.743  -60.530  -63.162  -65.477  -67.421  -69.061  -70.540  -72.017  -73.629  -75.431  -77.361  -79.236  -80.782  -81.678  -81.539
 -23.970  -22.854  -20.931  -18.477  -15.938  -13.612  -11.605   -9.933   -8.546   -7.426   -6.538   -5.849   -5.295   -4.851   -4.478   -4.194   -3.978   -3.829   -3.755   -3.744   -3.808   -3.950   -4.191   -4.598   -5.252   -6.298   -7.848   -9.957  -12.558  -15.491  -18.547  -21.549  -24.376  -26.958  -29.292  -31.391  -33.287  -34.988  -36.494  -37.803  -38.928  -39.888  -40.711  -41.409  -42.001  -42.485  -42.852  -43.108  -43.275  -43.403  -43.550  -43.752  -44.017  -44.331  -44.654  -44.952  -45.194  -45.359  -45.431  -45.406  -45.294  -45.108  -44.860  -44.557  -44.216  -43.855  -43.507  -43.203  -42.971  -42.822  -42.760  -42.776  -42.852  -42.967  -43.084  -43.168  -43.181  -43.119  -43.031  -43.039  -43.321  -44.069  -45.438  -47.472  -50.068  -52.995  -55.951  -58.664  -60.961  -62.801  -64.266  -65.524  -66.771  -68.174  -69.815  -71.647  -73.491  -75.066  -76.042  -76.048
 -19.178  -18.203  -16.591  -14.506  -12.261  -10.115   -8.229   -6.687   -5.509   -4.668   -4.080   -3.646   -3.273   -2.922   -2.614   -2.375   -2.218   -2.122   -2.091   -2.110   -2.177   -2.297   -2.476   -2.773   -3.277   -4.098   -5.391   -7.211   -9.546  -12.253  -15.135  -17.983  -20.660  -23.078  -25.225  -27.121  -28.805  -30.304  -31.633  -32.814  -33.878  -34.857  -35.776  -36.651  -37.483  -38.267  -38.978  -39.607  -40.162  -40.669  -41.157  -41.638  -42.099  -42.510  -42.826  -43.014  -43.051  -42.925  -42.642  -42.234  -41.742  -41.211  -40.671  -40.138  -39.628  -39.143  -38.706  -38.338  -38.057  -37.880  -37.811  -37.833  -37.924  -38.062  -38.209  -38.330  -38.387  -38.376  -38.360  -38.472  -38.911  -39.882  -41.526  -43.847  -46.689  -49.770  -52.760  -55.391  -57.508  -59.098  -60.274  -61.235  -62.197  -63.350  -64.794  -66.492  -68.269  -69.835  -70.860  -70.979
 -16.941  -16.105  -14.670  -12.735  -10.565   -8.426   -6.542   -5.062   -4.046   -3.435   -3.087   -2.837   -2.566   -2.246   -1.935   -1.682   -1.505   -1.400   -1.363   -1.372   -1.423   -1.498   -1.616   -1.814   -2.143   -2.719   -3.660   -5.062   -6.934   -9.209  -11.703  -14.219  -16.611  -18.794  -20.733  -22.441  -23.965  -25.331  -26.560  -27.691  -28.762  -29.808  -30.862  -31.933  -33.020  -34.109  -35.170  -36.175  -37.110  -37.972  -38.765  -39.477  -40.080  -40.537  -40.808  -40.865  -40.687  -40.283  -39.686  -38.956  -38.164  -37.379  -36.648  -35.990  -35.411  -34.905  -34.471  -34.120  -33.858  -33.703  -33.654  -33.698  -33.811  -33.976  -34.161  -34.335  -34.472  -34.579  -34.729  -35.068  -35.802  -37.127  -39.141  -41.773  -44.792  -47.877  -50.708  -53.058  -54.820  -56.029  -56.837  -57.460  -58.129  -59.038  -60.287  -61.838  -63.520  -65.043  -66.079  -66.282
 -15.906  -15.161  -13.777  -11.851   -9.634   -7.417   -5.493   -4.067   -3.181   -2.752   -2.588   -2.477   -2.288   -2.011   -1.709   -1.444   -1.242   -1.117   -1.068   -1.061   -1.088   -1.129   -1.210   -1.319   -1.521   -1.876   -2.479   -3.425   -4.768   -6.469   -8.419  -10.464  -12.475  -14.343  -16.046  -17.588  -18.985  -20.259  -21.439  -22.558  -23.649  -24.753  -25.905  -27.112  -28.371  -29.670  -30.974  -32.249  -33.455  -34.568  -35.570  -36.436  -37.130  -37.614  -37.849  -37.813  -37.492  -36.912  -36.132  -35.229  -34.302  -33.431  -32.663  -32.018  -31.491  -31.069  -30.730  -30.474  -30.302  -30.225  -30.244  -30.347  -30.512  -30.730  -30.978  -31.229  -31.483  -31.755  -32.134  -32.784  -33.902  -35.640  -38.028  -40.897  -43.949  -46.850  -49.332  -51.233  -52.520  -53.286  -53.711  -54.019  -54.443  -55.158  -56.248  -57.669  -59.243  -60.695  -61.707  -61.963
 -14.533  -13.867  -12.577  -10.755   -8.629   -6.497   -4.651   -3.326   -2.545   -2.232   -2.163   -2.132   -2.010   -1.800   -1.548   -1.312   -1.123   -0.995   -0.929   -0.918   -0.930   -0.958   -1.011   -1.075   -1.180   -1.373   -1.721   -2.283   -3.137   -4.272   -5.651   -7.161   -8.702  -10.211  -11.641  -12.988  -14.252  -15.441  -16.575  -17.681  -18.776  -19.896  -21.065  -22.291  -23.579  -24.920  -26.291  -27.645  -28.946  -30.152  -31.239  -32.169  -32.910  -33.424  -33.672  -33.635  -33.306  -32.719  -31.949  -31.087  -30.234  -29.468  -28.830  -28.331  -27.963  -27.705  -27.529  -27.431  -27.406  -27.465  -27.603  -27.810  -28.073  -28.378  -28.711  -29.064  -29.440  -29.890  -30.518  -31.490  -32.979  -35.080  -37.729  -40.678  -43.587  -46.147  -48.155  -49.534  -50.326  -50.675  -50.777  -50.854  -51.112  -51.701  -52.681  -53.989  -55.451  -56.809  -57.768  -58.043
 -12.063  -11.499  -10.455   -8.959   -7.197   -5.408   -3.854   -2.711   -2.041   -1.770   -1.719   -1.709   -1.641   -1.500   -1.323   -1.152   -1.007   -0.906   -0.853   -0.846   -0.859   -0.882   -0.915   -0.943   -0.992   -1.089   -1.267   -1.578   -2.060   -2.748   -3.617   -4.628   -5.710   -6.823   -7.946   -9.053  -10.150  -11.225  -12.287  -13.354  -14.435  -15.531  -16.651  -17.789  -18.960  -20.165  -21.397  -22.628  -23.826  -24.958  -25.993  -26.906  -27.656  -28.213  -28.541  -28.610  -28.425  -28.024  -27.468  -26.853  -26.263  -25.759  -25.378  -25.117  -24.969  -24.909  -24.928  -25.017  -25.177  -25.411  -25.708  -26.057  -26.441  -26.853  -27.280  -27.719  -28.203  -28.799  -29.634  -30.861  -32.621  -34.939  -37.674  -40.526  -43.154  -45.290  -46.805  -47.700  -48.076  -48.107  -47.995  -47.945  -48.128  -48.653  -49.553  -50.759  -52.105  -53.353  -54.244  -54.514
  -8.776   -8.341   -7.642   -6.634   -5.421   -4.160   -3.018   -2.152   -1.614   -1.369   -1.307   -1.287   -1.254   -1.175   -1.082   -0.980   -0.887   -0.825   -0.805   -0.819   -0.837   -0.857   -0.877   -0.884   -0.907   -0.944   -1.022   -1.176   -1.431   -1.804   -2.313   -2.929   -3.616   -4.370   -5.171   -6.016   -6.890   -7.810   -8.777   -9.788  -10.837  -11.892  -12.919  -13.902  -14.857  -15.799  -16.746  -17.695  -18.637  -19.554  -20.436  -21.254  -21.986  -22.598  -23.056  -23.329  -23.416  -23.340  -23.157  -22.931  -22.716  -22.562  -22.488  -22.489  -22.564  -22.705  -22.910  -23.181  -23.527  -23.935  -24.393  -24.880  -25.380  -25.881  -26.368  -26.861  -27.403  -28.089  -29.046  -30.411  -32.290  -34.647  -37.301  -39.928  -42.214  -43.940  -45.037  -45.560  -45.650  -45.494  -45.288  -45.209  -45.386  -45.892  -46.736  -47.851  -49.088  -50.231  -51.054  -51.317
  -5.551   -5.264   -4.892   -4.345   -3.659   -2.915   -2.203   -1.627   -1.252   -1.052   -0.989   -0.966   -0.958   -0.926   -0.880   -0.833   -0.794   -0.776   -0.793   -0.826   -0.861   -0.880   -0.889   -0.874   -0.859   -0.867   -0.892   -0.961   -1.082   -1.276   -1.554   -1.892   -2.295   -2.757   -3.276   -3.850   -4.501   -5.234   -6.079   -7.014   -8.012   -8.997   -9.904  -10.713  -11.413  -12.052  -12.658  -13.262  -13.884  -14.525  -15.195  -15.883  -16.579  -17.250  -17.861  -18.385  -18.809  -19.130  -19.374  -19.574  -19.761  -19.966  -20.192  -20.439  -20.718  -21.032  -21.390  -21.810  -22.294  -22.831  -23.396  -23.967  -24.523  -25.052  -25.547  -26.037  -26.576  -27.274  -28.252  -29.637  -31.490  -33.745  -36.209  -38.566  -40.535  -41.941  -42.746  -43.039  -42.980  -42.755  -42.547  -42.503  -42.718  -43.240  -44.059  -45.111  -46.265  -47.336  -48.111  -48.378
  -3.170   -2.991   -2.832   -2.590   -2.269   -1.890   -1.512   -1.183   -0.949   -0.823   -0.786   -0.778   -0.792   -0.789   -0.772   -0.760   -0.749   -0.774   -0.825   -0.890   -0.938   -0.949   -0.928   -0.892   -0.845   -0.816   -0.813   -0.838   -0.893   -0.994   -1.127   -1.304   -1.521   -1.775   -2.078   -2.441   -2.870   -3.423   -4.110   -4.922   -5.814   -6.678   -7.442   -8.058   -8.527   -8.897   -9.208   -9.505   -9.829  -10.210  -10.675  -11.231  -11.884  -12.599  -13.357  -14.125  -14.870  -15.568  -16.206  -16.797  -17.356  -17.892  -18.396  -18.879  -19.340  -19.800  -20.273  -20.784  -21.335  -21.912  -22.491  -23.049  -23.566  -24.040  -24.473  -24.895  -25.379  -26.028  -26.952  -28.259  -29.988  -32.072  -34.310  -36.429  -38.166  -39.371  -40.021  -40.217  -40.118  -39.907  -39.752  -39.771  -40.050  -40.612  -41.439  -42.476  -43.599  -44.643  -45.409  -45.697
  -1.792   -1.671   -1.620   -1.521   -1.379   -1.210   -1.033   -0.869   -0.747   -0.693   -0.679   -0.689   -0.714   -0.730   -0.731   -0.733   -0.755   -0.824   -0.911   -0.987   -1.032   -1.020   -0.967   -0.895   -0.824   -0.785   -0.761   -0.763   -0.785   -0.827   -0.892   -0.980   -1.094   -1.219   -1.379   -1.582   -1.856   -2.230   -2.738   -3.370   -4.079   -4.766   -5.342   -5.780   -6.065   -6.240   -6.346   -6.442   -6.560   -6.755   -7.055   -7.497   -8.089   -8.822   -9.679  -10.622  -11.603  -12.576  -13.515  -14.428  -15.309  -16.149  -16.927  -17.635  -18.273  -18.862  -19.418  -19.967  -20.508  -21.037  -21.525  -21.964  -22.354  -22.701  -23.016  -23.337  -23.735  -24.304  -25.147  -26.343  -27.923  -29.826  -31.868  -33.806  -35.410  -36.531  -37.152  -37.362  -37.310  -37.169  -37.091  -37.187  -37.534  -38.148  -39.012  -40.072  -41.213  -42.272  -43.055  -43.371
  -1.142   -1.045   -1.013   -0.978   -0.913   -0.831   -0.758   -0.681   -0.638   -0.613   -0.613   -0.645   -0.684   -0.705   -0.722   -0.737   -0.787   -0.887   -1.015   -1.113   -1.138   -1.079   -0.983   -0.879   -0.789   -0.740   -0.712   -0.703   -0.709   -0.730   -0.761   -0.807   -0.857   -0.920   -1.001   -1.108   -1.261   -1.494   -1.820   -2.252   -2.740   -3.211   -3.600   -3.875   -4.031   -4.095   -4.108   -4.102   -4.114   -4.204   -4.393   -4.730   -5.241   -5.929   -6.789   -7.781   -8.848   -9.964  -11.089  -12.228  -13.370  -14.483  -15.531  -16.471  -17.296  -18.016  -18.644  -19.195  -19.682  -20.096  -20.436  -20.703  -20.922  -21.114  -21.297  -21.522  -21.847  -22.361  -23.141  -24.253  -25.712  -27.464  -29.356  -31.172  -32.710  -33.829  -34.502  -34.808  -34.871  -34.846  -34.870  -35.053  -35.465  -36.131  -37.041  -38.137  -39.311  -40.394  -41.192  -41.521
  -0.874   -0.782   -0.757   -0.732   -0.694   -0.659   -0.620   -0.586   -0.574   -0.563   -0.580   -0.606   -0.642   -0.672   -0.693   -0.722   -0.799   -0.939   -1.096   -1.200   -1.196   -1.094   -0.953   -0.821   -0.733   -0.686   -0.658   -0.649   -0.661   -0.663   -0.684   -0.711   -0.736   -0.771   -0.806   -0.867   -0.946   -1.070   -1.258   -1.505   -1.783   -2.064   -2.281   -2.432   -2.513   -2.538   -2.520   -2.490   -2.480   -2.525   -2.643   -2.883   -3.282   -3.851   -4.599   -5.496   -6.504   -7.590   -8.760  -10.009  -11.328  -12.670  -13.964  -15.141  -16.167  -17.027  -17.728  -18.292  -18.727  -19.030  -19.224  -19.336  -19.407  -19.475  -19.576  -19.750  -20.055  -20.564  -21.330  -22.400  -23.783  -25.408  -27.165  -28.878  -30.359  -31.496  -32.255  -32.695  -32.914  -33.046  -33.200  -33.485  -33.965  -34.687  -35.634  -36.751  -37.937  -39.022  -39.814  -40.123
  -0.750   -0.664   -0.652   -0.621   -0.597   -0.578   -0.558   -0.538   -0.530   -0.535   -0.542   -0.560   -0.593   -0.615   -0.640   -0.685   -0.778   -0.929   -1.099   -1.203   -1.189   -1.062   -0.892   -0.756   -0.672   -0.627   -0.610   -0.607   -0.605   -0.613   -0.627   -0.642   -0.662   -0.679   -0.708   -0.734   -0.777   -0.841   -0.936   -1.052   -1.192   -1.322   -1.435   -1.510   -1.547   -1.561   -1.551   -1.539   -1.527   -1.554   -1.629   -1.786   -2.051   -2.461   -3.010   -3.700   -4.516   -5.453   -6.526   -7.756   -9.134  -10.613  -12.090  -13.476  -14.693  -15.710  -16.518  -17.124  -17.543  -17.795  -17.911  -17.942  -17.945  -17.973  -18.065  -18.258  -18.600  -19.146  -19.933  -20.977  -22.272  -23.757  -25.349  -26.906  -28.284  -29.399  -30.217  -30.776  -31.159  -31.458  -31.763  -32.164  -32.736  -33.514  -34.495  -35.623  -36.794  -37.852  -38.617  -38.882
  -0.691   -0.609   -0.588   -0.567   -0.551   -0.533   -0.521   -0.512   -0.504   -0.499   -0.510   -0.519   -0.539   -0.551   -0.574   -0.619   -0.710   -0.853   -1.019   -1.115   -1.089   -0.962   -0.811   -0.683   -0.609   -0.572   -0.565   -0.560   -0.566   -0.577   -0.589   -0.601   -0.614   -0.627   -0.641   -0.660   -0.687   -0.717   -0.757   -0.815   -0.876   -0.930   -0.980   -1.014   -1.042   -1.047   -1.051   -1.050   -1.058   -1.074   -1.120   -1.203   -1.358   -1.602   -1.950   -2.402   -2.963   -3.657   -4.522   -5.601   -6.900   -8.364   -9.907  -11.412  -12.783  -13.950  -14.878  -15.565  -16.037  -16.316  -16.447  -16.502  -16.530  -16.602  -16.759  -17.036  -17.454  -18.052  -18.844  -19.822  -20.970  -22.257  -23.612  -24.930  -26.129  -27.140  -27.946  -28.571  -29.071  -29.510  -29.954  -30.480  -31.147  -31.996  -33.013  -34.148  -35.297  -36.320  -37.052  -37.284
  -0.659   -0.581   -0.560   -0.541   -0.526   -0.513   -0.503   -0.494   -0.487   -0.481   -0.477   -0.489   -0.495   -0.497   -0.516   -0.557   -0.625   -0.741   -0.862   -0.936   -0.927   -0.826   -0.712   -0.614   -0.558   -0.531   -0.522   -0.526   -0.536   -0.545   -0.555   -0.567   -0.577   -0.588   -0.600   -0.612   -0.624   -0.641   -0.667   -0.690   -0.719   -0.738   -0.764   -0.785   -0.800   -0.810   -0.817   -0.828   -0.830   -0.848   -0.873   -0.922   -0.998   -1.123   -1.304   -1.555   -1.887   -2.332   -2.942   -3.761   -4.833   -6.129   -7.573   -9.063  -10.476  -11.723  -12.739  -13.522  -14.082  -14.454  -14.684  -14.838  -14.978  -15.169  -15.454  -15.844  -16.362  -16.998  -17.744  -18.592  -19.535  -20.540  -21.581  -22.599  -23.541  -24.368  -25.076  -25.684  -26.222  -26.737  -27.275  -27.888  -28.632  -29.526  -30.570  -31.700  -32.827  -33.823  -34.542  -34.782
  -0.636   -0.561   -0.541   -0.523   -0.508   -0.496   -0.486   -0.478   -0.471   -0.466   -0.461   -0.458   -0.460   -0.469   -0.474   -0.499   -0.544   -0.616   -0.694   -0.745   -0.743   -0.678   -0.609   -0.539   -0.508   -0.499   -0.494   -0.502   -0.510   -0.519   -0.527   -0.536   -0.545   -0.555   -0.565   -0.576   -0.586   -0.596   -0.607   -0.622   -0.633   -0.656   -0.668   -0.681   -0.695   -0.703   -0.711   -0.723   -0.734   -0.745   -0.759   -0.780   -0.821   -0.878   -0.956   -1.075   -1.241   -1.490   -1.861   -2.402   -3.173   -4.170   -5.355   -6.645   -7.940   -9.133  -10.152  -10.979  -11.620  -12.104  -12.465  -12.757  -13.056  -13.413  -13.877  -14.426  -15.049  -15.711  -16.383  -17.053  -17.740  -18.424  -19.108  -19.782  -20.417  -20.998  -21.534  -22.040  -22.533  -23.037  -23.582  -24.212  -24.963  -25.849  -26.861  -27.951  -29.030  -29.993  -30.704  -30.986
  -0.616   -0.543   -0.525   -0.507   -0.492   -0.481   -0.471   -0.463   -0.457   -0.452   -0.447   -0.443   -0.441   -0.439   -0.446   -0.458   -0.482   -0.513   -0.560   -0.586   -0.585   -0.557   -0.520   -0.494   -0.477   -0.469   -0.475   -0.481   -0.488   -0.495   -0.502   -0.510   -0.519   -0.527   -0.535   -0.544   -0.553   -0.562   -0.572   -0.581   -0.590   -0.599   -0.609   -0.619   -0.628   -0.638   -0.647   -0.657   -0.667   -0.676   -0.687   -0.702   -0.725   -0.748   -0.787   -0.831   -0.908   -1.027   -1.217   -1.530   -2.005   -2.662   -3.496   -4.461   -5.485   -6.473   -7.375   -8.146   -8.799   -9.339   -9.804  -10.239  -10.705  -11.266  -11.928  -12.671  -13.418  -14.112  -14.703  -15.194  -15.612  -15.971  -16.304  -16.615  -16.920  -17.227  -17.541  -17.878  -18.256  -18.671  -19.143  -19.702  -20.372  -21.155  -22.049  -23.008  -23.980  -24.863  -25.534  -25.874
  -0.598   -0.528   -0.509   -0.492   -0.479   -0.468   -0.459   -0.451   -0.445   -0.440   -0.435   -0.432   -0.429   -0.428   -0.426   -0.427   -0.445   -0.458   -0.473   -0.493   -0.493   -0.479   -0.467   -0.457   -0.447   -0.451   -0.457   -0.463   -0.469   -0.475   -0.481   -0.488   -0.495   -0.502   -0.509   -0.518   -0.526   -0.533   -0.541   -0.550   -0.558   -0.566   -0.574   -0.583   -0.591   -0.599   -0.609   -0.617   -0.626   -0.634   -0.643   -0.652   -0.662   -0.675   -0.693   -0.717   -0.749   -0.800   -0.892   -1.047   -1.294   -1.667   -2.159   -2.765   -3.447   -4.147   -4.813   -5.432   -5.990   -6.506   -7.005   -7.532   -8.139   -8.878   -9.735  -10.651  -11.525  -12.246  -12.772  -13.108  -13.283  -13.360  -13.364  -13.349  -13.334  -13.363  -13.456  -13.611  -13.837  -14.122  -14.471  -14.893  -15.407  -16.013  -16.709  -17.451  -18.222  -18.946  -19.516  -19.888
  -0.583   -0.514   -0.497   -0.480   -0.467   -0.457   -0.448   -0.441   -0.435   -0.430   -0.426   -0.422   -0.420   -0.418   -0.416   -0.415   -0.416   -0.425   -0.435   -0.440   -0.442   -0.440   -0.432   -0.429   -0.433   -0.437   -0.441   -0.446   -0.451   -0.457   -0.463   -0.469   -0.475   -0.481   -0.488   -0.494   -0.501   -0.508   -0.516   -0.523   -0.530   -0.537   -0.545   -0.552   -0.560   -0.567   -0.575   -0.583   -0.590   -0.598   -0.606   -0.615   -0.623   -0.632   -0.640   -0.651   -0.671   -0.694   -0.736   -0.801   -0.914   -1.091   -1.341   -1.663   -2.037   -2.449   -2.864   -3.266   -3.679   -4.091   -4.538   -5.070   -5.730   -6.554   -7.515   -8.519   -9.437  -10.163  -10.626  -10.839  -10.844  -10.705  -10.467  -10.191   -9.921   -9.730   -9.630   -9.639   -9.735   -9.897  -10.121  -10.406  -10.750  -11.161  -11.629  -12.130  -12.661  -13.168  -13.584  -13.943
  -0.570   -0.503   -0.486   -0.470   -0.458   -0.447   -0.439   -0.432   -0.426   -0.421   -0.417   -0.414   -0.411   -0.409   -0.408   -0.407   -0.407   -0.407   -0.408   -0.409   -0.410   -0.412   -0.415   -0.418   -0.421   -0.425   -0.429   -0.433   -0.437   -0.442   -0.447   -0.452   -0.458   -0.464   -0.469   -0.475   -0.481   -0.487   -0.494   -0.500   -0.506   -0.513   -0.520   -0.526   -0.533   -0.540   -0.547   -0.553   -0.560   -0.568   -0.575   -0.582   -0.590   -0.597   -0.605   -0.613   -0.622   -0.633   -0.652   -0.685   -0.725   -0.803   -0.910   -1.057   -1.226   -1.425   -1.638   -1.869   -2.110   -2.388   -2.735   -3.189   -3.794   -4.562   -5.472   -6.405   -7.253   -7.900   -8.273   -8.402   -8.313   -8.058   -7.698   -7.282   -6.889   -6.579   -6.383   -6.303   -6.319   -6.401   -6.536   -6.717   -6.953   -7.221   -7.532   -7.867   -8.208   -8.532   -8.812   -9.117
  -0.559   -0.493   -0.477   -0.462   -0.450   -0.440   -0.432   -0.425   -0.419   -0.414   -0.410   -0.407   -0.404   -0.402   -0.401   -0.400   -0.399   -0.399   -0.400   -0.401   -0.402   -0.404   -0.406   -0.408   -0.411   -0.415   -0.418   -0.422   -0.425   -0.429   -0.434   -0.438   -0.443   -0.448   -0.453   -0.459   -0.464   -0.470   -0.475   -0.481   -0.487   -0.493   -0.498   -0.504   -0.510   -0.516   -0.523   -0.529   -0.535   -0.542   -0.548   -0.555   -0.561   -0.568   -0.576   -0.583   -0.591   -0.598   -0.607   -0.621   -0.644   -0.675   -0.714   -0.766   -0.840   -0.922   -1.013   -1.122   -1.245   -1.409   -1.634   -1.959   -2.426   -3.023   -3.730   -4.459   -5.115   -5.604   -5.877   -5.935   -5.822   -5.569   -5.203   -4.798   -4.422   -4.117   -3.922   -3.823   -3.802   -3.849   -3.935   -4.075   -4.251   -4.485   -4.753   -5.037   -5.322   -5.585   -5.794   -6.058
  -0.551   -0.486   -0.470   -0.455   -0.443   -0.434   -0.426   -0.419   -0.414   -0.409   -0.405   -0.402   -0.399   -0.397   -0.396   -0.394   -0.394   -0.394   -0.394   -0.395   -0.396   -0.397   -0.399   -0.401   -0.403   -0.406   -0.409   -0.412   -0.416   -0.419   -0.423   -0.427   -0.431   -0.436   -0.440   -0.445   -0.450   -0.454   -0.460   -0.465   -0.470   -0.475   -0.481   -0.486   -0.492   -0.497   -0.503   -0.508   -0.514   -0.520   -0.526   -0.532   -0.538   -0.544   -0.550   -0.557   -0.564   -0.571   -0.578   -0.586   -0.594   -0.607   -0.630   -0.649   -0.677   -0.708   -0.741   -0.790   -0.848   -0.935   -1.058   -1.254   -1.546   -1.938   -2.384   -2.851   -3.270   -3.576   -3.738   -3.766   -3.676   -3.484   -3.222   -2.928   -2.653   -2.436   -2.294   -2.214   -2.201   -2.229   -2.304   -2.427   -2.612   -2.871   -3.176   -3.517   -3.853   -4.149   -4.373   -4.613
  -0.545   -0.481   -0.466   -0.451   -0.439   -0.430   -0.422   -0.415   -0.410   -0.405   -0.402   -0.398   -0.396   -0.394   -0.392   -0.391   -0.390   -0.390   -0.390   -0.390   -0.391   -0.392   -0.394   -0.395   -0.397   -0.400   -0.402   -0.405   -0.408   -0.411   -0.415   -0.418   -0.422   -0.426   -0.430   -0.434   -0.439   -0.443   -0.447   -0.452   -0.456   -0.461   -0.466   -0.471   -0.476   -0.481   -0.486   -0.491   -0.497   -0.502   -0.507   -0.513   -0.518   -0.524   -0.530   -0.536   -0.542   -0.548   -0.555   -0.562   -0.569   -0.576   -0.584   -0.595   -0.604   -0.627   -0.638   -0.662   -0.684   -0.727   -0.794   -0.891   -1.047   -1.242   -1.479   -1.722   -1.938   -2.100   -2.181   -2.199   -2.145   -2.034   -1.889   -1.723   -1.573   -1.451   -1.383   -1.344   -1.339   -1.365   -1.431   -1.548   -1.734   -2.015   -2.372   -2.782   -3.196   -3.564   -3.844   -4.097
  -0.543   -0.479   -0.464   -0.449   -0.437   -0.428   -0.420   -0.414   -0.409   -0.404   -0.400   -0.397   -0.395   -0.392   -0.391   -0.390   -0.389   -0.388   -0.388   -0.388   -0.389   -0.390   -0.391   -0.392   -0.394   -0.396   -0.398   -0.401   -0.403   -0.406   -0.409   -0.413   -0.416   -0.419   -0.423   -0.427   -0.431   -0.435   -0.439   -0.443   -0.447   -0.451   -0.455   -0.460   -0.464   -0.469   -0.474   -0.478   -0.483   -0.488   -0.493   -0.498   -0.503   -0.508   -0.514   -0.519   -0.525   -0.530   -0.536   -0.543   -0.549   -0.555   -0.562   -0.569   -0.576   -0.583   -0.590   -0.602   -0.618   -0.640   -0.669   -0.713   -0.781   -0.862   -0.972   -1.079   -1.164   -1.240   -1.274   -1.281   -1.256   -1.216   -1.157   -1.086   -1.025   -0.979   -0.949   -0.934   -0.939   -0.966   -1.012   -1.111   -1.286   -1.560   -1.916   -2.335   -2.794   -3.232   -3.562   -3.830
  -0.545   -0.481   -0.465   -0.450   -0.439   -0.430   -0.422   -0.416   -0.410   -0.406   -0.402   -0.399   -0.396   -0.394   -0.392   -0.391   -0.390   -0.390   -0.389   -0.389   -0.390   -0.390   -0.391   -0.393   -0.394   -0.396   -0.397   -0.400   -0.402   -0.404   -0.407   -0.410   -0.413   -0.416   -0.419   -0.423   -0.426   -0.430   -0.433   -0.437   -0.441   -0.445   -0.449   -0.453   -0.457   -0.461   -0.465   -0.469   -0.474   -0.478   -0.483   -0.488   -0.492   -0.497   -0.502   -0.507   -0.512   -0.517   -0.523   -0.528   -0.534   -0.540   -0.546   -0.552   -0.558   -0.565   -0.571   -0.578   -0.584   -0.594   -0.612   -0.632   -0.660   -0.691   -0.731   -0.768   -0.805   -0.832   -0.841   -0.849   -0.852   -0.840   -0.825   -0.808   -0.793   -0.775   -0.765   -0.771   -0.777   -0.797   -0.830   -0.903   -1.040   -1.255   -1.564   -1.955   -2.402   -2.847   -3.211   -3.499
  -0.552   -0.482   -0.468   -0.453   -0.441   -0.432   -0.424   -0.418   -0.412   -0.408   -0.404   -0.401   -0.398   -0.396   -0.394   -0.393   -0.392   -0.391   -0.391   -0.391   -0.391   -0.391   -0.392   -0.393   -0.394   -0.396   -0.397   -0.399   -0.401   -0.403   -0.406   -0.408   -0.411   -0.414   -0.416   -0.419   -0.423   -0.426   -0.429   -0.432   -0.436   -0.439   -0.443   -0.447   -0.451   -0.454   -0.458   -0.462   -0.466   -0.470   -0.475   -0.479   -0.483   -0.488   -0.492   -0.497   -0.501   -0.506   -0.511   -0.516   -0.521   -0.527   -0.532   -0.538   -0.543   -0.549   -0.555   -0.561   -0.567   -0.574   -0.580   -0.589   -0.606   -0.620   -0.631   -0.651   -0.666   -0.672   -0.679   -0.686   -0.693   -0.700   -0.693   -0.692   -0.694   -0.698   -0.692   -0.694   -0.703   -0.721   -0.750   -0.798   -0.886   -1.046   -1.278   -1.619   -2.030   -2.470   -2.837   -3.139
  -0.705   -0.537   -0.517   -0.501   -0.488   -0.479   -0.471   -0.464   -0.459   -0.454   -0.450   -0.447   -0.444   -0.441   -0.439   -0.438   -0.437   -0.436   -0.435   -0.435   -0.435   -0.435   -0.435   -0.436   -0.437   -0.438   -0.439   -0.441   -0.442   -0.444   -0.446   -0.448   -0.451   -0.453   -0.456   -0.459   -0.461   -0.464   -0.467   -0.471   -0.474   -0.477   -0.480   -0.484   -0.487   -0.491   -0.495   -0.499   -0.502   -0.506   -0.510   -0.514   -0.519   -0.523   -0.527   -0.532   -0.536   -0.541   -0.546   -0.551   -0.556   -0.561   -0.566   -0.571   -0.577   -0.583   -0.588   -0.594   -0.600   -0.606   -0.612   -0.619   -0.624   -0.631   -0.640   -0.649   -0.671   -0.679   -0.686   -0.692   -0.699   -0.692   -0.693   -0.700   -0.703   -0.710   -0.716   -0.723   -0.729   -0.738   -0.766   -0.799   -0.868   -0.999   -1.201   -1.496   -1.890   -2.314   -2.688   -3.115
