DSAA
 100 100
 0.0 400.0
 0.0 400.0
 -130.8017 -1.688165
  -2.516   -2.236   -2.374   -2.640   -3.021   -3.458   -3.910   -4.296   -4.540   -4.592   -4.400   -3.982   -3.426   -2.847   -2.360   -2.041   -1.951   -2.108   -2.556   -3.264   -4.088   -4.760   -5.028   -4.837   -4.387   -3.983   -3.840   -3.915   -4.031   -4.038   -3.898   -3.670   -3.455   -3.265   -3.116   -2.985   -2.898   -2.912   -3.103   -3.500   -4.067   -4.689   -5.276   -5.777   -6.125   -6.249   -6.115   -5.839   -5.614   -5.544   -5.594   -5.671   -5.703   -5.681   -5.602   -5.448   -5.178   -4.819   -4.462   -4.226   -4.216   -4.350   -4.429   -4.262   -3.810   -3.221   -2.728   -2.500   -2.538   -2.741   -2.960   -3.145   -3.336   -3.545   -3.703   -3.686   -3.459   -3.140   -2.864   -2.716   -2.711   -2.808   -2.974   -3.126   -3.235   -3.332   -3.501   -3.822   -4.323   -4.962   -5.634   -6.201   -6.507   -6.417   -5.891   -5.056   -4.112   -3.271   -2.704   -2.773
  -2.677   -2.568   -2.755   -3.058   -3.452   -3.906   -4.349   -4.712   -4.928   -4.929   -4.687   -4.219   -3.607   -2.971   -2.432   -2.063   -1.931   -2.053   -2.454   -3.105   -3.864   -4.484   -4.725   -4.548   -4.126   -3.747   -3.595   -3.658   -3.781   -3.837   -3.775   -3.628   -3.448   -3.263   -3.096   -2.950   -2.862   -2.873   -3.046   -3.396   -3.884   -4.411   -4.903   -5.315   -5.618   -5.763   -5.727   -5.609   -5.564   -5.665   -5.836   -5.974   -6.020   -5.971   -5.842   -5.617   -5.259   -4.799   -4.322   -3.990   -3.885   -3.950   -3.994   -3.845   -3.448   -2.941   -2.531   -2.360   -2.425   -2.640   -2.856   -3.019   -3.179   -3.377   -3.532   -3.533   -3.334   -3.051   -2.821   -2.713   -2.738   -2.866   -3.031   -3.191   -3.320   -3.466   -3.698   -4.089   -4.668   -5.389   -6.161   -6.838   -7.218   -7.143   -6.552   -5.580   -4.476   -3.494   -2.817   -2.699
  -3.675   -3.608   -3.829   -4.170   -4.590   -5.035   -5.447   -5.751   -5.885   -5.795   -5.465   -4.919   -4.231   -3.504   -2.865   -2.397   -2.163   -2.188   -2.484   -2.995   -3.607   -4.101   -4.294   -4.158   -3.817   -3.503   -3.358   -3.390   -3.515   -3.646   -3.719   -3.704   -3.595   -3.431   -3.253   -3.112   -3.040   -3.063   -3.210   -3.483   -3.835   -4.202   -4.536   -4.816   -5.040   -5.182   -5.269   -5.371   -5.583   -5.906   -6.230   -6.441   -6.494   -6.409   -6.204   -5.876   -5.405   -4.829   -4.243   -3.801   -3.579   -3.535   -3.518   -3.389   -3.099   -2.748   -2.479   -2.387   -2.485   -2.674   -2.858   -2.998   -3.124   -3.292   -3.449   -3.491   -3.365   -3.174   -3.044   -3.022   -3.106   -3.244   -3.396   -3.532   -3.675   -3.887   -4.217   -4.713   -5.382   -6.215   -7.136   -7.991   -8.525   -8.509   -7.876   -6.768   -5.481   -4.334   -3.543   -3.348
  -5.047   -5.014   -5.254   -5.609   -6.018   -6.430   -6.769   -6.995   -7.036   -6.856   -6.448   -5.823   -5.053   -4.227   -3.461   -2.853   -2.470   -2.340   -2.458   -2.776   -3.181   -3.519   -3.665   -3.577   -3.355   -3.130   -3.006   -3.008   -3.123   -3.314   -3.495   -3.595   -3.569   -3.446   -3.303   -3.213   -3.201   -3.266   -3.404   -3.604   -3.850   -4.103   -4.323   -4.511   -4.658   -4.783   -4.908   -5.103   -5.419   -5.826   -6.198   -6.420   -6.458   -6.327   -6.077   -5.701   -5.219   -4.655   -4.109   -3.673   -3.417   -3.302   -3.212   -3.076   -2.870   -2.655   -2.503   -2.470   -2.554   -2.703   -2.857   -2.971   -3.088   -3.246   -3.417   -3.513   -3.495   -3.437   -3.436   -3.517   -3.645   -3.764   -3.858   -3.929   -4.047   -4.275   -4.665   -5.220   -5.950   -6.869   -7.924   -8.959   -9.680   -9.807   -9.240   -8.128   -6.801   -5.598   -4.762   -4.532
  -6.528   -6.509   -6.737   -7.061   -7.411   -7.748   -8.013   -8.149   -8.115   -7.874   -7.419   -6.762   -5.943   -5.051   -4.185   -3.437   -2.872   -2.543   -2.445   -2.529   -2.716   -2.892   -2.985   -2.951   -2.833   -2.697   -2.596   -2.569   -2.655   -2.842   -3.056   -3.206   -3.241   -3.184   -3.128   -3.129   -3.200   -3.322   -3.468   -3.649   -3.853   -4.079   -4.293   -4.467   -4.594   -4.682   -4.769   -4.903   -5.124   -5.408   -5.665   -5.812   -5.807   -5.663   -5.429   -5.117   -4.753   -4.375   -4.020   -3.726   -3.515   -3.349   -3.175   -2.980   -2.788   -2.638   -2.560   -2.553   -2.618   -2.729   -2.855   -2.979   -3.114   -3.277   -3.449   -3.592   -3.686   -3.779   -3.920   -4.093   -4.233   -4.299   -4.296   -4.277   -4.335   -4.545   -4.928   -5.484   -6.221   -7.178   -8.341   -9.526  -10.429  -10.737  -10.354   -9.416   -8.240   -7.148   -6.381   -6.165
  -7.890   -7.865   -8.041   -8.289   -8.557   -8.800   -8.969   -9.032   -8.957   -8.706   -8.254   -7.619   -6.817   -5.923   -5.016   -4.175   -3.472   -2.959   -2.641   -2.493   -2.462   -2.483   -2.513   -2.502   -2.455   -2.376   -2.295   -2.238   -2.270   -2.399   -2.583   -2.727   -2.787   -2.801   -2.829   -2.903   -3.020   -3.163   -3.320   -3.501   -3.710   -3.955   -4.213   -4.435   -4.603   -4.706   -4.760   -4.791   -4.826   -4.887   -4.946   -4.975   -4.925   -4.817   -4.661   -4.484   -4.313   -4.165   -4.023   -3.886   -3.715   -3.486   -3.207   -2.926   -2.702   -2.569   -2.531   -2.552   -2.625   -2.742   -2.898   -3.063   -3.226   -3.383   -3.536   -3.686   -3.863   -4.079   -4.336   -4.557   -4.681   -4.689   -4.625   -4.564   -4.588   -4.783   -5.151   -5.694   -6.433   -7.429   -8.675   -9.988  -11.047  -11.550  -11.387  -10.706   -9.770   -8.855   -8.196   -7.995
  -8.975   -8.929   -9.036   -9.198   -9.367   -9.507   -9.594   -9.603   -9.514   -9.282   -8.884   -8.316   -7.591   -6.768   -5.890   -5.048   -4.282   -3.648   -3.160   -2.823   -2.611   -2.502   -2.453   -2.438   -2.418   -2.371   -2.293   -2.225   -2.206   -2.277   -2.404   -2.527   -2.602   -2.653   -2.689   -2.732   -2.804   -2.896   -3.015   -3.178   -3.375   -3.613   -3.879   -4.136   -4.363   -4.530   -4.614   -4.608   -4.535   -4.435   -4.353   -4.281   -4.229   -4.175   -4.129   -4.083   -4.048   -4.033   -3.998   -3.907   -3.711   -3.417   -3.062   -2.724   -2.486   -2.380   -2.384   -2.460   -2.580   -2.753   -2.969   -3.200   -3.393   -3.531   -3.647   -3.794   -4.017   -4.301   -4.587   -4.789   -4.871   -4.854   -4.800   -4.796   -4.904   -5.152   -5.550   -6.116   -6.887   -7.945   -9.288  -10.723  -11.944  -12.634  -12.698  -12.244  -11.486  -10.670  -10.030   -9.813
  -9.738   -9.663   -9.706   -9.787   -9.858   -9.916   -9.942   -9.916   -9.823   -9.627   -9.292   -8.811   -8.189   -7.479   -6.709   -5.931   -5.179   -4.497   -3.916   -3.449   -3.112   -2.897   -2.794   -2.770   -2.763   -2.729   -2.670   -2.624   -2.619   -2.682   -2.794   -2.913   -2.993   -3.015   -2.976   -2.891   -2.811   -2.762   -2.782   -2.862   -2.983   -3.142   -3.343   -3.576   -3.823   -4.042   -4.192   -4.234   -4.169   -4.031   -3.889   -3.799   -3.775   -3.802   -3.841   -3.866   -3.872   -3.843   -3.780   -3.641   -3.403   -3.077   -2.718   -2.421   -2.245   -2.204   -2.254   -2.376   -2.550   -2.779   -3.055   -3.342   -3.562   -3.707   -3.821   -3.978   -4.220   -4.496   -4.732   -4.859   -4.879   -4.864   -4.910   -5.064   -5.344   -5.732   -6.223   -6.839   -7.661   -8.778  -10.208  -11.771  -13.154  -14.065  -14.357  -14.091  -13.434  -12.618  -11.912  -11.638
 -10.212  -10.113  -10.107  -10.122  -10.134  -10.134  -10.113  -10.066   -9.974   -9.812   -9.529   -9.121   -8.595   -7.994   -7.343   -6.653   -5.956   -5.270   -4.647   -4.107   -3.698   -3.432   -3.315   -3.290   -3.307   -3.316   -3.326   -3.370   -3.471   -3.617   -3.785   -3.925   -3.985   -3.931   -3.749   -3.481   -3.190   -2.961   -2.826   -2.774   -2.780   -2.814   -2.897   -3.035   -3.226   -3.441   -3.623   -3.724   -3.703   -3.596   -3.453   -3.370   -3.377   -3.461   -3.570   -3.630   -3.615   -3.536   -3.404   -3.221   -2.977   -2.698   -2.451   -2.285   -2.233   -2.268   -2.348   -2.457   -2.620   -2.848   -3.137   -3.442   -3.697   -3.891   -4.065   -4.278   -4.530   -4.770   -4.921   -4.962   -4.948   -4.985   -5.170   -5.516   -5.983   -6.508   -7.076   -7.736   -8.582   -9.738  -11.213  -12.875  -14.414  -15.534  -16.068  -16.005  -15.474  -14.686  -13.946  -13.620
 -10.466  -10.350  -10.318  -10.295  -10.279  -10.251  -10.213  -10.163  -10.077   -9.934   -9.684   -9.323   -8.857   -8.327   -7.745   -7.117   -6.444   -5.763   -5.114   -4.542   -4.097   -3.821   -3.718   -3.737   -3.810   -3.913   -4.060   -4.281   -4.568   -4.893   -5.173   -5.332   -5.338   -5.166   -4.819   -4.361   -3.894   -3.509   -3.240   -3.067   -2.942   -2.853   -2.810   -2.822   -2.909   -3.047   -3.196   -3.293   -3.283   -3.169   -3.016   -2.910   -2.908   -3.014   -3.150   -3.240   -3.242   -3.170   -3.052   -2.902   -2.734   -2.586   -2.512   -2.532   -2.620   -2.702   -2.747   -2.778   -2.842   -3.001   -3.246   -3.524   -3.793   -4.049   -4.311   -4.601   -4.896   -5.131   -5.252   -5.284   -5.322   -5.461   -5.788   -6.267   -6.828   -7.399   -7.972   -8.615   -9.446  -10.594  -12.082  -13.786  -15.419  -16.700  -17.446  -17.622  -17.311  -16.697  -16.066  -15.758
 -10.577  -10.452  -10.405  -10.377  -10.349  -10.322  -10.298  -10.259  -10.190  -10.063   -9.836   -9.500   -9.063   -8.545   -7.964   -7.330   -6.635   -5.923   -5.235   -4.630   -4.177   -3.921   -3.858   -3.943   -4.134   -4.397   -4.748   -5.201   -5.727   -6.241   -6.621   -6.783   -6.700   -6.384   -5.885   -5.293   -4.724   -4.256   -3.908   -3.644   -3.432   -3.253   -3.107   -3.019   -2.989   -3.025   -3.086   -3.118   -3.060   -2.891   -2.662   -2.483   -2.421   -2.493   -2.638   -2.771   -2.854   -2.882   -2.872   -2.845   -2.819   -2.840   -2.951   -3.137   -3.324   -3.419   -3.383   -3.286   -3.229   -3.289   -3.459   -3.692   -3.942   -4.216   -4.535   -4.897   -5.253   -5.552   -5.756   -5.907   -6.085   -6.364   -6.785   -7.296   -7.822   -8.318   -8.798   -9.360  -10.141  -11.256  -12.724  -14.410  -16.072  -17.430  -18.318  -18.701  -18.659  -18.338  -17.952  -17.743
 -10.618  -10.480  -10.438  -10.403  -10.381  -10.371  -10.360  -10.347  -10.300  -10.201  -10.001   -9.689   -9.257   -8.734   -8.111   -7.408   -6.636   -5.848   -5.096   -4.454   -3.991   -3.755   -3.751   -3.948   -4.291   -4.759   -5.345   -6.036   -6.768   -7.414   -7.835   -7.960   -7.767   -7.321   -6.715   -6.066   -5.485   -5.015   -4.628   -4.305   -4.017   -3.778   -3.590   -3.445   -3.351   -3.311   -3.294   -3.248   -3.101   -2.838   -2.508   -2.222   -2.073   -2.090   -2.221   -2.408   -2.592   -2.758   -2.900   -3.020   -3.154   -3.341   -3.593   -3.882   -4.114   -4.181   -4.068   -3.890   -3.777   -3.812   -3.968   -4.169   -4.384   -4.621   -4.933   -5.325   -5.744   -6.147   -6.508   -6.839   -7.182   -7.575   -8.019   -8.468   -8.871   -9.206   -9.549  -10.003  -10.714  -11.767  -13.170  -14.801  -16.422  -17.783  -18.733  -19.259  -19.437  -19.396  -19.270  -19.180
 -10.613  -10.478  -10.434  -10.401  -10.384  -10.383  -10.391  -10.397  -10.373  -10.300  -10.143   -9.869   -9.464   -8.930   -8.266   -7.477   -6.609   -5.719   -4.888   -4.200   -3.722   -3.504   -3.554   -3.854   -4.353   -5.016   -5.809   -6.672   -7.517   -8.202   -8.610   -8.667   -8.390   -7.865   -7.230   -6.614   -6.092   -5.644   -5.227   -4.825   -4.459   -4.174   -3.987   -3.861   -3.773   -3.720   -3.665   -3.558   -3.340   -2.994   -2.584   -2.215   -1.993   -1.958   -2.072   -2.291   -2.549   -2.822   -3.085   -3.335   -3.601   -3.902   -4.240   -4.573   -4.806   -4.855   -4.745   -4.618   -4.616   -4.770   -5.014   -5.238   -5.427   -5.603   -5.865   -6.228   -6.676   -7.162   -7.639   -8.100   -8.537   -8.962   -9.365   -9.712   -9.961  -10.144  -10.345  -10.696  -11.319  -12.271  -13.558  -15.072  -16.602  -17.924  -18.886  -19.482  -19.792  -19.921  -19.956  -19.959
 -10.598  -10.459  -10.409  -10.379  -10.363  -10.363  -10.376  -10.388  -10.385  -10.338  -10.225  -10.010   -9.653   -9.140   -8.463   -7.625   -6.672   -5.698   -4.796   -4.052   -3.545   -3.323   -3.392   -3.749   -4.341   -5.125   -6.032   -6.972   -7.839   -8.507   -8.874   -8.878   -8.559   -8.028   -7.444   -6.922   -6.481   -6.069   -5.606   -5.120   -4.686   -4.384   -4.229   -4.167   -4.152   -4.137   -4.095   -3.967   -3.706   -3.308   -2.842   -2.427   -2.162   -2.079   -2.177   -2.404   -2.704   -3.043   -3.374   -3.714   -4.082   -4.476   -4.888   -5.260   -5.519   -5.618   -5.633   -5.702   -5.955   -6.349   -6.750   -7.043   -7.221   -7.358   -7.565   -7.884   -8.301   -8.778   -9.268   -9.726  -10.143  -10.506  -10.819  -11.047  -11.181  -11.251  -11.358  -11.623  -12.140  -12.948  -14.058  -15.394  -16.785  -18.030  -18.981  -19.602  -19.963  -20.147  -20.233  -20.280
 -10.577  -10.434  -10.384  -10.349  -10.331  -10.329  -10.336  -10.345  -10.347  -10.321  -10.246  -10.092   -9.806   -9.350   -8.709   -7.875   -6.910   -5.900   -4.960   -4.178   -3.630   -3.354   -3.375   -3.675   -4.234   -5.003   -5.900   -6.834   -7.688   -8.346   -8.694   -8.688   -8.379   -7.896   -7.402   -6.997   -6.646   -6.266   -5.785   -5.265   -4.820   -4.558   -4.480   -4.520   -4.593   -4.635   -4.607   -4.457   -4.150   -3.698   -3.188   -2.734   -2.432   -2.317   -2.388   -2.618   -2.939   -3.316   -3.721   -4.167   -4.663   -5.196   -5.740   -6.231   -6.602   -6.848   -7.079   -7.424   -7.950   -8.558   -9.093   -9.444   -9.621   -9.752   -9.928  -10.199  -10.542  -10.927  -11.309  -11.664  -11.970  -12.217  -12.421  -12.554  -12.613  -12.626  -12.682  -12.877  -13.281  -13.922  -14.823  -15.927  -17.123  -18.237  -19.134  -19.757  -20.129  -20.314  -20.395  -20.447
 -10.549  -10.404  -10.360  -10.328  -10.311  -10.301  -10.301  -10.297  -10.298  -10.276  -10.233  -10.126   -9.915   -9.553   -8.999   -8.250   -7.343   -6.378   -5.446   -4.646   -4.047   -3.673   -3.547   -3.684   -4.067   -4.678   -5.472   -6.353   -7.211   -7.900   -8.289   -8.313   -8.032   -7.591   -7.171   -6.849   -6.581   -6.265   -5.847   -5.406   -5.067   -4.924   -4.975   -5.126   -5.270   -5.341   -5.289   -5.071   -4.676   -4.133   -3.544   -3.018   -2.651   -2.491   -2.546   -2.792   -3.172   -3.644   -4.188   -4.819   -5.539   -6.318   -7.092   -7.798   -8.370   -8.824   -9.268   -9.808  -10.479  -11.168  -11.721  -12.069  -12.254  -12.385  -12.551  -12.779  -13.035  -13.293  -13.538  -13.750  -13.914  -14.043  -14.144  -14.213  -14.232  -14.233  -14.262  -14.403  -14.702  -15.189  -15.881  -16.740  -17.692  -18.614  -19.397  -19.983  -20.355  -20.550  -20.633  -20.688
 -10.535  -10.389  -10.348  -10.319  -10.302  -10.295  -10.283  -10.270  -10.260  -10.241  -10.211  -10.147  -10.005   -9.747   -9.320   -8.713   -7.943   -7.089   -6.221   -5.437   -4.773   -4.278   -3.967   -3.860   -3.976   -4.344   -4.969   -5.783   -6.657   -7.418   -7.883   -7.961   -7.699   -7.268   -6.861   -6.573   -6.376   -6.166   -5.913   -5.665   -5.536   -5.594   -5.798   -6.049   -6.239   -6.289   -6.168   -5.841   -5.309   -4.626   -3.896   -3.249   -2.787   -2.569   -2.629   -2.938   -3.454   -4.124   -4.933   -5.874   -6.923   -8.016   -9.087  -10.038  -10.809  -11.425  -11.973  -12.548  -13.176  -13.778  -14.243  -14.532  -14.699  -14.829  -14.991  -15.182  -15.372  -15.532  -15.661  -15.744  -15.790  -15.819  -15.850  -15.883  -15.899  -15.898  -15.918  -16.011  -16.227  -16.587  -17.099  -17.734  -18.429  -19.121  -19.740  -20.252  -20.625  -20.853  -20.973  -21.044
 -10.536  -10.389  -10.341  -10.321  -10.306  -10.295  -10.280  -10.258  -10.245  -10.225  -10.209  -10.168  -10.090   -9.923   -9.637   -9.199   -8.610   -7.910   -7.156   -6.412   -5.731   -5.148   -4.668   -4.322   -4.162   -4.264   -4.688   -5.405   -6.289   -7.120   -7.656   -7.779   -7.531   -7.081   -6.652   -6.368   -6.228   -6.155   -6.101   -6.101   -6.216   -6.471   -6.810   -7.139   -7.343   -7.365   -7.160   -6.724   -6.062   -5.225   -4.321   -3.513   -2.926   -2.654   -2.749   -3.204   -3.955   -4.949   -6.123   -7.437   -8.834  -10.230  -11.530  -12.638  -13.506  -14.164  -14.679  -15.150  -15.613  -16.036  -16.360  -16.561  -16.693  -16.812  -16.957  -17.120  -17.272  -17.378  -17.428  -17.428  -17.396  -17.361  -17.354  -17.368  -17.390  -17.401  -17.415  -17.472  -17.613  -17.876  -18.252  -18.705  -19.179  -19.639  -20.080  -20.495  -20.860  -21.141  -21.324  -21.423
 -10.542  -10.393  -10.353  -10.328  -10.311  -10.297  -10.283  -10.261  -10.248  -10.227  -10.217  -10.202  -10.163  -10.080   -9.909   -9.628   -9.222   -8.692   -8.085   -7.439   -6.799   -6.182   -5.613   -5.106   -4.729   -4.599   -4.817   -5.410   -6.244   -7.084   -7.667   -7.836   -7.613   -7.167   -6.735   -6.463   -6.370   -6.414   -6.531   -6.729   -7.023   -7.403   -7.809   -8.154   -8.360   -8.362   -8.127   -7.642   -6.898   -5.945   -4.891   -3.911   -3.187   -2.872   -3.051   -3.712   -4.781   -6.148   -7.712   -9.378  -11.045  -12.620  -13.999  -15.118  -15.944  -16.520  -16.914  -17.224  -17.497  -17.744  -17.940  -18.072  -18.165  -18.259  -18.378  -18.515  -18.637  -18.719  -18.735  -18.688  -18.610  -18.544  -18.515  -18.529  -18.561  -18.575  -18.580  -18.604  -18.690  -18.873  -19.150  -19.471  -19.771  -20.041  -20.314  -20.627  -20.976  -21.299  -21.546  -21.680
 -10.550  -10.399  -10.359  -10.338  -10.327  -10.308  -10.294  -10.276  -10.260  -10.246  -10.242  -10.235  -10.225  -10.193  -10.106   -9.945   -9.687   -9.327   -8.881   -8.370   -7.835   -7.279   -6.705   -6.132   -5.633   -5.335   -5.371   -5.806   -6.528   -7.315   -7.894   -8.104   -7.944   -7.575   -7.200   -6.972   -6.923   -7.025   -7.230   -7.514   -7.862   -8.256   -8.643   -8.954   -9.134   -9.133   -8.911   -8.449   -7.713   -6.721   -5.575   -4.458   -3.614   -3.275   -3.562   -4.453   -5.840   -7.554   -9.438  -11.356  -13.171  -14.777  -16.093  -17.093  -17.778  -18.207  -18.461  -18.627  -18.758  -18.887  -19.001  -19.088  -19.152  -19.225  -19.313  -19.426  -19.531  -19.593  -19.585  -19.515  -19.412  -19.336  -19.308  -19.328  -19.356  -19.364  -19.346  -19.339  -19.381  -19.503  -19.709  -19.939  -20.119  -20.253  -20.396  -20.615  -20.930  -21.272  -21.556  -21.724
 -10.572  -10.418  -10.377  -10.355  -10.338  -10.328  -10.312  -10.298  -10.283  -10.273  -10.268  -10.265  -10.266  -10.260  -10.222  -10.137   -9.992   -9.774   -9.482   -9.135   -8.736   -8.287   -7.785   -7.239   -6.711   -6.323   -6.229   -6.498   -7.060   -7.734   -8.276   -8.527   -8.469   -8.220   -7.951   -7.791   -7.779   -7.894   -8.093   -8.355   -8.657   -8.973   -9.269   -9.507   -9.642   -9.647   -9.466   -9.064   -8.390   -7.428   -6.259   -5.065   -4.145   -3.784   -4.160   -5.251   -6.891   -8.865  -10.975  -13.035  -14.895  -16.439  -17.617  -18.430  -18.940  -19.222  -19.363  -19.438  -19.495  -19.563  -19.642  -19.707  -19.763  -19.821  -19.889  -19.976  -20.053  -20.087  -20.062  -19.981  -19.878  -19.809  -19.788  -19.811  -19.826  -19.809  -19.763  -19.720  -19.724  -19.813  -19.968  -20.128  -20.236  -20.288  -20.343  -20.491  -20.751  -21.078  -21.368  -21.548
 -10.590  -10.434  -10.393  -10.374  -10.357  -10.346  -10.334  -10.323  -10.312  -10.299  -10.292  -10.289  -10.290  -10.285  -10.271  -10.231  -10.162  -10.052   -9.893   -9.681   -9.422   -9.093   -8.701   -8.246   -7.769   -7.381   -7.213   -7.342   -7.734   -8.262   -8.732   -8.999   -9.040   -8.926   -8.780   -8.692   -8.698   -8.782   -8.923   -9.101   -9.309   -9.517   -9.707   -9.857   -9.944   -9.935   -9.788   -9.446   -8.848   -7.955   -6.805   -5.583   -4.610   -4.230   -4.649   -5.863   -7.669   -9.814  -12.062  -14.210  -16.079  -17.544  -18.576  -19.225  -19.584  -19.751  -19.821  -19.854  -19.881  -19.929  -19.989  -20.045  -20.098  -20.149  -20.202  -20.262  -20.303  -20.313  -20.276  -20.198  -20.115  -20.062  -20.053  -20.068  -20.059  -20.011  -19.932  -19.859  -19.844  -19.906  -20.025  -20.138  -20.203  -20.219  -20.233  -20.331  -20.534  -20.811  -21.070  -21.246
 -10.614  -10.455  -10.411  -10.384  -10.367  -10.364  -10.355  -10.346  -10.330  -10.317  -10.311  -10.305  -10.300  -10.294  -10.287  -10.273  -10.245  -10.202  -10.132  -10.024   -9.869   -9.656   -9.376   -9.036   -8.668   -8.346   -8.163   -8.193   -8.439   -8.814   -9.189   -9.449   -9.551   -9.537   -9.477   -9.440   -9.445   -9.487   -9.560   -9.655   -9.765   -9.880   -9.976  -10.051  -10.088  -10.052   -9.904   -9.589   -9.031   -8.184   -7.068   -5.841   -4.837   -4.426   -4.847   -6.100   -7.994  -10.252  -12.618  -14.849  -16.751  -18.187  -19.129  -19.663  -19.913  -20.011  -20.043  -20.063  -20.082  -20.119  -20.164  -20.209  -20.248  -20.284  -20.317  -20.344  -20.364  -20.356  -20.320  -20.267  -20.209  -20.175  -20.172  -20.181  -20.154  -20.089  -19.992  -19.913  -19.886  -19.928  -20.005  -20.079  -20.119  -20.127  -20.139  -20.211  -20.359  -20.573  -20.777  -20.929
 -10.637  -10.472  -10.420  -10.392  -10.374  -10.369  -10.361  -10.354  -10.340  -10.324  -10.313  -10.308  -10.307  -10.302  -10.294  -10.284  -10.275  -10.262  -10.242  -10.191  -10.108   -9.982   -9.802   -9.584   -9.340   -9.111   -8.962   -8.945   -9.077   -9.330   -9.605   -9.820   -9.936   -9.965   -9.953   -9.935   -9.926   -9.935   -9.959   -9.991  -10.037  -10.080  -10.118  -10.134  -10.112  -10.025   -9.828   -9.468   -8.890   -8.037   -6.930   -5.712   -4.697   -4.260   -4.650   -5.893   -7.820  -10.171  -12.671  -15.043  -17.040  -18.507  -19.423  -19.901  -20.095  -20.153  -20.167  -20.180  -20.201  -20.228  -20.253  -20.268  -20.275  -20.283  -20.290  -20.296  -20.298  -20.290  -20.274  -20.248  -20.221  -20.204  -20.206  -20.209  -20.185  -20.128  -20.052  -19.989  -19.963  -19.977  -20.013  -20.048  -20.070  -20.077  -20.102  -20.161  -20.268  -20.419  -20.565  -20.693
 -10.634  -10.466  -10.420  -10.393  -10.374  -10.361  -10.351  -10.344  -10.333  -10.318  -10.304  -10.302  -10.303  -10.303  -10.288  -10.275  -10.269  -10.264  -10.257  -10.239  -10.196  -10.121  -10.029   -9.912   -9.780   -9.645   -9.545   -9.520   -9.589   -9.742   -9.929  -10.087  -10.182  -10.215  -10.215  -10.196  -10.180  -10.164  -10.159  -10.156  -10.165  -10.165  -10.156  -10.123  -10.031   -9.849   -9.543   -9.069   -8.388   -7.472   -6.348   -5.161   -4.183   -3.746   -4.092   -5.298   -7.238   -9.677  -12.343  -14.899  -17.056  -18.617  -19.564  -20.027  -20.195  -20.227  -20.234  -20.248  -20.269  -20.286  -20.287  -20.270  -20.247  -20.221  -20.204  -20.197  -20.192  -20.196  -20.198  -20.202  -20.199  -20.188  -20.185  -20.185  -20.183  -20.166  -20.145  -20.121  -20.107  -20.105  -20.099  -20.095  -20.089  -20.096  -20.123  -20.174  -20.255  -20.357  -20.462  -20.565
 -10.615  -10.444  -10.399  -10.372  -10.354  -10.346  -10.343  -10.334  -10.324  -10.306  -10.295  -10.291  -10.288  -10.282  -10.270  -10.250  -10.233  -10.226  -10.227  -10.219  -10.199  -10.166  -10.129  -10.077  -10.024   -9.962   -9.910   -9.893   -9.931  -10.020  -10.133  -10.234  -10.304  -10.322  -10.315  -10.293  -10.270  -10.249  -10.229  -10.215  -10.202  -10.178  -10.124  -10.018   -9.831   -9.513   -9.039   -8.379   -7.539   -6.532   -5.408   -4.292   -3.411   -3.028   -3.365   -4.516   -6.436   -8.952  -11.781  -14.542  -16.883  -18.572  -19.587  -20.061  -20.210  -20.224  -20.223  -20.241  -20.267  -20.282  -20.268  -20.236  -20.193  -20.155  -20.136  -20.127  -20.125  -20.132  -20.145  -20.157  -20.159  -20.149  -20.139  -20.135  -20.151  -20.184  -20.224  -20.254  -20.273  -20.268  -20.243  -20.209  -20.180  -20.171  -20.188  -20.226  -20.277  -20.349  -20.426  -20.512
 -10.602  -10.427  -10.383  -10.361  -10.349  -10.341  -10.335  -10.331  -10.317  -10.301  -10.284  -10.273  -10.267  -10.259  -10.239  -10.216  -10.196  -10.190  -10.188  -10.194  -10.191  -10.186  -10.173  -10.156  -10.137  -10.109  -10.083  -10.077  -10.107  -10.156  -10.218  -10.283  -10.322  -10.327  -10.316  -10.295  -10.273  -10.254  -10.240  -10.223  -10.191  -10.132  -10.020   -9.813   -9.483   -8.985   -8.299   -7.437   -6.433   -5.357   -4.291   -3.318   -2.610   -2.344   -2.693   -3.791   -5.662   -8.216  -11.161  -14.089  -16.592  -18.408  -19.492  -19.990  -20.130  -20.132  -20.124  -20.148  -20.184  -20.198  -20.186  -20.149  -20.116  -20.098  -20.100  -20.103  -20.105  -20.106  -20.104  -20.111  -20.111  -20.096  -20.076  -20.065  -20.090  -20.144  -20.225  -20.305  -20.366  -20.384  -20.370  -20.337  -20.299  -20.274  -20.269  -20.279  -20.304  -20.344  -20.403  -20.474
 -10.629  -10.454  -10.415  -10.398  -10.386  -10.380  -10.379  -10.376  -10.365  -10.342  -10.318  -10.297  -10.284  -10.265  -10.244  -10.223  -10.209  -10.211  -10.220  -10.235  -10.243  -10.247  -10.239  -10.226  -10.200  -10.176  -10.150  -10.139  -10.154  -10.182  -10.219  -10.259  -10.278  -10.279  -10.270  -10.257  -10.245  -10.233  -10.226  -10.201  -10.141  -10.026   -9.817   -9.472   -8.951   -8.242   -7.343   -6.308   -5.214   -4.161   -3.230   -2.480   -1.996   -1.883   -2.273   -3.328   -5.139   -7.662  -10.650  -13.668  -16.267  -18.167  -19.308  -19.831  -19.972  -19.964  -19.950  -19.973  -20.010  -20.027  -20.013  -19.993  -19.987  -20.006  -20.041  -20.066  -20.070  -20.053  -20.033  -20.025  -20.022  -20.004  -19.982  -19.958  -19.968  -20.021  -20.112  -20.210  -20.298  -20.358  -20.382  -20.380  -20.362  -20.340  -20.317  -20.297  -20.287  -20.295  -20.325  -20.380
 -10.813  -10.630  -10.595  -10.574  -10.567  -10.556  -10.554  -10.551  -10.541  -10.515  -10.485  -10.454  -10.434  -10.413  -10.394  -10.381  -10.387  -10.397  -10.424  -10.445  -10.461  -10.458  -10.440  -10.400  -10.338  -10.278  -10.217  -10.175  -10.157  -10.166  -10.191  -10.214  -10.229  -10.231  -10.226  -10.222  -10.219  -10.217  -10.202  -10.155  -10.043   -9.831   -9.479   -8.953   -8.222   -7.297   -6.233   -5.118   -4.054   -3.144   -2.439   -1.960   -1.718   -1.761   -2.208   -3.220   -4.956   -7.412  -10.351  -13.354  -15.965  -17.886  -19.052  -19.591  -19.734  -19.716  -19.689  -19.698  -19.722  -19.731  -19.719  -19.716  -19.733  -19.783  -19.846  -19.889  -19.893  -19.867  -19.832  -19.812  -19.808  -19.803  -19.785  -19.757  -19.747  -19.772  -19.835  -19.919  -20.012  -20.100  -20.169  -20.214  -20.238  -20.240  -20.219  -20.182  -20.144  -20.114  -20.116  -20.162
 -11.286  -11.102  -11.058  -11.032  -11.020  -11.005  -10.994  -10.987  -10.975  -10.952  -10.924  -10.897  -10.869  -10.855  -10.847  -10.849  -10.862  -10.886  -10.917  -10.947  -10.961  -10.948  -10.901  -10.804  -10.670  -10.521  -10.378  -10.267  -10.199  -10.178  -10.178  -10.194  -10.207  -10.215  -10.217  -10.214  -10.217  -10.212  -10.172  -10.068   -9.855   -9.503   -8.973   -8.237   -7.298   -6.218   -5.082   -4.001   -3.094   -2.431   -2.028   -1.846   -1.844   -2.038   -2.533   -3.511   -5.145   -7.471  -10.273  -13.146  -15.661  -17.523  -18.665  -19.201  -19.344  -19.317  -19.271  -19.251  -19.249  -19.240  -19.226  -19.226  -19.256  -19.314  -19.378  -19.420  -19.426  -19.398  -19.368  -19.354  -19.360  -19.372  -19.365  -19.341  -19.314  -19.304  -19.321  -19.370  -19.442  -19.530  -19.625  -19.706  -19.771  -19.808  -19.810  -19.779  -19.729  -19.685  -19.669  -19.704
 -12.180  -11.986  -11.932  -11.897  -11.870  -11.844  -11.831  -11.822  -11.812  -11.792  -11.776  -11.754  -11.740  -11.732  -11.728  -11.739  -11.757  -11.787  -11.818  -11.845  -11.849  -11.817  -11.720  -11.535  -11.283  -10.989  -10.700  -10.468  -10.312  -10.236  -10.215  -10.219  -10.230  -10.238  -10.242  -10.239  -10.237  -10.206  -10.120   -9.923   -9.575   -9.042   -8.304   -7.369   -6.288   -5.142   -4.042   -3.107   -2.439   -2.072   -1.990   -2.113   -2.360   -2.715   -3.267   -4.197   -5.688   -7.793  -10.337  -12.949  -15.245  -16.954  -18.008  -18.501  -18.633  -18.606  -18.550  -18.504  -18.471  -18.446  -18.425  -18.422  -18.446  -18.482  -18.523  -18.551  -18.556  -18.539  -18.518  -18.520  -18.546  -18.568  -18.576  -18.556  -18.518  -18.481  -18.463  -18.470  -18.508  -18.580  -18.668  -18.761  -18.848  -18.912  -18.944  -18.937  -18.900  -18.867  -18.856  -18.899
 -13.505  -13.312  -13.249  -13.201  -13.157  -13.129  -13.109  -13.100  -13.098  -13.091  -13.083  -13.074  -13.068  -13.062  -13.062  -13.074  -13.088  -13.114  -13.141  -13.159  -13.152  -13.084  -12.917  -12.614  -12.188  -11.684  -11.179  -10.767  -10.484  -10.331  -10.269  -10.257  -10.263  -10.271  -10.274  -10.268  -10.253  -10.196  -10.045   -9.744   -9.231   -8.497   -7.568   -6.492   -5.355   -4.258   -3.296   -2.566   -2.142   -2.043   -2.248   -2.656   -3.158   -3.695   -4.328   -5.201   -6.492   -8.276  -10.425  -12.644  -14.595  -16.050  -16.948  -17.367  -17.477  -17.449  -17.399  -17.354  -17.311  -17.273  -17.244  -17.234  -17.238  -17.250  -17.260  -17.272  -17.272  -17.261  -17.259  -17.269  -17.296  -17.325  -17.333  -17.318  -17.280  -17.234  -17.198  -17.185  -17.197  -17.244  -17.308  -17.385  -17.469  -17.541  -17.591  -17.609  -17.605  -17.597  -17.607  -17.682
 -15.114  -14.939  -14.871  -14.817  -14.773  -14.742  -14.727  -14.725  -14.732  -14.738  -14.735  -14.728  -14.721  -14.714  -14.711  -14.717  -14.730  -14.748  -14.768  -14.773  -14.745  -14.636  -14.381  -13.930  -13.286  -12.517  -11.752  -11.114  -10.670  -10.419  -10.313  -10.282  -10.278  -10.281  -10.280  -10.274  -10.254  -10.176   -9.967   -9.560   -8.908   -8.011   -6.941   -5.806   -4.719   -3.756   -2.988   -2.460   -2.214   -2.299   -2.703   -3.334   -4.069   -4.800   -5.513   -6.314   -7.367   -8.763  -10.430  -12.160  -13.683  -14.819  -15.509  -15.821  -15.900  -15.883  -15.854  -15.827  -15.799  -15.763  -15.734  -15.717  -15.707  -15.704  -15.696  -15.697  -15.689  -15.684  -15.685  -15.695  -15.714  -15.728  -15.730  -15.716  -15.684  -15.645  -15.617  -15.605  -15.611  -15.638  -15.679  -15.730  -15.786  -15.842  -15.889  -15.920  -15.936  -15.962  -16.003  -16.116
 -16.768  -16.620  -16.557  -16.505  -16.470  -16.449  -16.439  -16.440  -16.453  -16.463  -16.463  -16.453  -16.438  -16.420  -16.413  -16.420  -16.431  -16.446  -16.458  -16.454  -16.404  -16.245  -15.893  -15.285  -14.416  -13.378  -12.334  -11.452  -10.834  -10.478  -10.321  -10.273  -10.262  -10.260  -10.264  -10.261  -10.236  -10.142   -9.902   -9.439   -8.703   -7.724   -6.618   -5.520   -4.561   -3.777   -3.192   -2.810   -2.666   -2.827   -3.319   -4.073   -4.967   -5.832   -6.603   -7.321   -8.129   -9.130  -10.313  -11.543  -12.626  -13.423  -13.892  -14.084  -14.127  -14.121  -14.121  -14.134  -14.138  -14.125  -14.107  -14.090  -14.078  -14.071  -14.064  -14.064  -14.053  -14.044  -14.038  -14.039  -14.038  -14.035  -14.022  -14.002  -13.980  -13.960  -13.951  -13.953  -13.965  -13.989  -14.013  -14.039  -14.061  -14.085  -14.109  -14.134  -14.165  -14.207  -14.266  -14.423
 -18.225  -18.099  -18.042  -18.002  -17.976  -17.965  -17.959  -17.965  -17.974  -17.980  -17.977  -17.958  -17.934  -17.910  -17.901  -17.905  -17.916  -17.933  -17.948  -17.934  -17.865  -17.658  -17.220  -16.473  -15.408  -14.129  -12.836  -11.739  -10.962  -10.514  -10.312  -10.249  -10.237  -10.238  -10.246  -10.250  -10.227  -10.132   -9.886   -9.412   -8.684   -7.744   -6.718   -5.751   -4.950   -4.336   -3.889   -3.602   -3.506   -3.668   -4.138   -4.894   -5.814   -6.717   -7.481   -8.104   -8.695   -9.361  -10.132  -10.934  -11.630  -12.125  -12.395  -12.486  -12.493  -12.487  -12.521  -12.570  -12.615  -12.639  -12.640  -12.630  -12.626  -12.627  -12.629  -12.629  -12.620  -12.607  -12.595  -12.587  -12.571  -12.545  -12.519  -12.493  -12.478  -12.476  -12.481  -12.500  -12.526  -12.548  -12.561  -12.563  -12.555  -12.548  -12.551  -12.567  -12.594  -12.637  -12.700  -12.885
 -19.327  -19.210  -19.156  -19.126  -19.109  -19.101  -19.100  -19.101  -19.107  -19.102  -19.090  -19.062  -19.032  -19.002  -18.988  -18.992  -19.006  -19.030  -19.047  -19.031  -18.947  -18.707  -18.204  -17.352  -16.144  -14.686  -13.206  -11.948  -11.055  -10.538  -10.306  -10.237  -10.235  -10.249  -10.262  -10.266  -10.244  -10.155   -9.935   -9.510   -8.872   -8.068   -7.214   -6.428   -5.792   -5.313   -4.968   -4.749   -4.673   -4.804   -5.199   -5.857   -6.679   -7.506   -8.195   -8.705   -9.122   -9.547  -10.012  -10.491  -10.894  -11.159  -11.273  -11.286  -11.264  -11.264  -11.308  -11.382  -11.455  -11.506  -11.530  -11.531  -11.531  -11.542  -11.550  -11.557  -11.552  -11.539  -11.529  -11.519  -11.501  -11.469  -11.434  -11.404  -11.393  -11.396  -11.409  -11.440  -11.466  -11.488  -11.491  -11.469  -11.442  -11.419  -11.411  -11.420  -11.441  -11.478  -11.538  -11.735
 -20.036  -19.916  -19.870  -19.841  -19.823  -19.815  -19.809  -19.809  -19.803  -19.793  -19.770  -19.738  -19.700  -19.668  -19.647  -19.650  -19.663  -19.695  -19.714  -19.702  -19.610  -19.352  -18.814  -17.895  -16.595  -15.031  -13.439  -12.074  -11.108  -10.552  -10.318  -10.267  -10.280  -10.305  -10.324  -10.330  -10.310  -10.225  -10.037   -9.698   -9.204   -8.598   -7.958   -7.364   -6.870   -6.489   -6.219   -6.058   -6.016   -6.130   -6.437   -6.946   -7.593   -8.258   -8.810   -9.203   -9.488   -9.746  -10.020  -10.287  -10.494  -10.615  -10.635  -10.606  -10.567  -10.555  -10.580  -10.643  -10.714  -10.777  -10.814  -10.827  -10.833  -10.848  -10.860  -10.870  -10.860  -10.858  -10.856  -10.861  -10.855  -10.830  -10.795  -10.761  -10.742  -10.742  -10.763  -10.796  -10.828  -10.843  -10.827  -10.796  -10.756  -10.737  -10.733  -10.746  -10.768  -10.801  -10.856  -11.048
 -20.429  -20.306  -20.257  -20.222  -20.201  -20.190  -20.180  -20.171  -20.162  -20.148  -20.121  -20.081  -20.039  -20.003  -19.980  -19.975  -19.988  -20.016  -20.037  -20.033  -19.943  -19.678  -19.122  -18.172  -16.828  -15.206  -13.556  -12.140  -11.135  -10.563  -10.338  -10.316  -10.359  -10.400  -10.423  -10.418  -10.389  -10.307  -10.154   -9.908   -9.577   -9.181   -8.752   -8.331   -7.950   -7.641   -7.424   -7.320   -7.323   -7.446   -7.687   -8.046   -8.491   -8.954   -9.341   -9.611   -9.802   -9.964  -10.126  -10.280  -10.388  -10.440  -10.428  -10.379  -10.325  -10.284  -10.265  -10.281  -10.320  -10.373  -10.412  -10.429  -10.448  -10.464  -10.476  -10.477  -10.474  -10.477  -10.497  -10.519  -10.524  -10.510  -10.473  -10.435  -10.411  -10.412  -10.442  -10.487  -10.523  -10.532  -10.505  -10.464  -10.423  -10.414  -10.428  -10.454  -10.487  -10.526  -10.574  -10.755
 -20.617  -20.483  -20.433  -20.393  -20.370  -20.354  -20.342  -20.332  -20.322  -20.306  -20.279  -20.239  -20.200  -20.160  -20.128  -20.117  -20.125  -20.148  -20.173  -20.168  -20.080  -19.817  -19.253  -18.293  -16.927  -15.283  -13.608  -12.162  -11.137  -10.563  -10.352  -10.353  -10.423  -10.483  -10.509  -10.491  -10.438  -10.352  -10.228  -10.070   -9.883   -9.672   -9.423   -9.145   -8.853   -8.601   -8.425   -8.361   -8.411   -8.548   -8.746   -8.992   -9.262   -9.526   -9.744   -9.905  -10.023  -10.136  -10.256  -10.369  -10.452  -10.489  -10.482  -10.442  -10.372  -10.294  -10.221  -10.174  -10.165  -10.187  -10.210  -10.231  -10.258  -10.280  -10.293  -10.289  -10.277  -10.282  -10.311  -10.347  -10.363  -10.361  -10.331  -10.285  -10.255  -10.259  -10.305  -10.372  -10.420  -10.435  -10.403  -10.354  -10.312  -10.307  -10.331  -10.382  -10.433  -10.481  -10.528  -10.699
 -20.704  -20.557  -20.501  -20.464  -20.441  -20.426  -20.415  -20.413  -20.405  -20.389  -20.370  -20.337  -20.302  -20.263  -20.227  -20.204  -20.205  -20.220  -20.241  -20.237  -20.151  -19.885  -19.317  -18.351  -16.976  -15.324  -13.633  -12.177  -11.138  -10.558  -10.346  -10.353  -10.437  -10.503  -10.519  -10.482  -10.407  -10.312  -10.210  -10.126  -10.063   -9.996   -9.887   -9.722   -9.512   -9.313   -9.176   -9.139   -9.210   -9.358   -9.539   -9.716   -9.857   -9.963  -10.036  -10.098  -10.160  -10.246  -10.347  -10.451  -10.534  -10.583  -10.598  -10.576  -10.509  -10.408  -10.298  -10.205  -10.149  -10.126  -10.123  -10.136  -10.165  -10.192  -10.203  -10.192  -10.174  -10.172  -10.203  -10.244  -10.275  -10.278  -10.252  -10.211  -10.186  -10.199  -10.257  -10.345  -10.411  -10.430  -10.397  -10.337  -10.290  -10.282  -10.315  -10.377  -10.442  -10.494  -10.547  -10.716
 -20.750  -20.589  -20.526  -20.498  -20.478  -20.469  -20.465  -20.467  -20.467  -20.464  -20.453  -20.435  -20.406  -20.372  -20.335  -20.302  -20.289  -20.295  -20.306  -20.291  -20.202  -19.934  -19.364  -18.395  -17.015  -15.360  -13.665  -12.202  -11.152  -10.556  -10.325  -10.314  -10.377  -10.429  -10.426  -10.374  -10.289  -10.193  -10.118  -10.090  -10.115  -10.151  -10.149  -10.076   -9.948   -9.810   -9.711   -9.693   -9.769   -9.913  -10.084  -10.227  -10.291  -10.293  -10.259  -10.233  -10.239  -10.285  -10.364  -10.449  -10.529  -10.590  -10.630  -10.630  -10.588  -10.501  -10.398  -10.290  -10.198  -10.124  -10.078  -10.066  -10.089  -10.119  -10.135  -10.123  -10.102  -10.101  -10.131  -10.184  -10.227  -10.240  -10.223  -10.189  -10.168  -10.186  -10.248  -10.341  -10.408  -10.427  -10.392  -10.325  -10.266  -10.249  -10.277  -10.333  -10.396  -10.454  -10.509  -10.685
 -20.776  -20.602  -20.545  -20.519  -20.504  -20.500  -20.501  -20.510  -20.518  -20.530  -20.536  -20.534  -20.514  -20.485  -20.448  -20.404  -20.375  -20.357  -20.353  -20.332  -20.239  -19.969  -19.398  -18.422  -17.042  -15.388  -13.701  -12.236  -11.178  -10.563  -10.295  -10.237  -10.258  -10.277  -10.257  -10.204  -10.129  -10.057  -10.015  -10.031  -10.104  -10.192  -10.251  -10.252  -10.198  -10.128  -10.071  -10.071  -10.143  -10.277  -10.432  -10.546  -10.578  -10.521  -10.415  -10.319  -10.262  -10.260  -10.295  -10.345  -10.406  -10.470  -10.528  -10.562  -10.560  -10.524  -10.453  -10.355  -10.242  -10.126  -10.031   -9.980   -9.986  -10.015  -10.035  -10.042  -10.041  -10.068  -10.120  -10.186  -10.236  -10.257  -10.240  -10.211  -10.188  -10.198  -10.244  -10.315  -10.368  -10.375  -10.337  -10.267  -10.203  -10.176  -10.185  -10.226  -10.276  -10.320  -10.373  -10.559
 -20.812  -20.622  -20.565  -20.536  -20.522  -20.522  -20.524  -20.534  -20.548  -20.573  -20.594  -20.603  -20.593  -20.569  -20.523  -20.468  -20.419  -20.384  -20.366  -20.338  -20.239  -19.967  -19.395  -18.420  -17.044  -15.391  -13.709  -12.258  -11.208  -10.576  -10.270  -10.161  -10.133  -10.122  -10.091  -10.059  -10.018   -9.995   -9.986  -10.018  -10.098  -10.192  -10.271  -10.312  -10.314  -10.295  -10.276  -10.296  -10.359  -10.468  -10.600  -10.691  -10.702  -10.616  -10.471  -10.328  -10.228  -10.185  -10.175  -10.192  -10.228  -10.286  -10.354  -10.417  -10.456  -10.466  -10.434  -10.353  -10.238  -10.099   -9.970   -9.895   -9.882   -9.906   -9.941   -9.969  -10.009  -10.083  -10.173  -10.255  -10.303  -10.317  -10.287  -10.244  -10.204  -10.193  -10.215  -10.253  -10.279  -10.275  -10.237  -10.179  -10.124  -10.097  -10.093  -10.114  -10.133  -10.157  -10.193  -10.392
 -20.886  -20.676  -20.609  -20.574  -20.558  -20.551  -20.547  -20.551  -20.558  -20.584  -20.606  -20.623  -20.620  -20.590  -20.540  -20.482  -20.422  -20.384  -20.359  -20.323  -20.221  -19.948  -19.377  -18.401  -17.027  -15.379  -13.710  -12.277  -11.237  -10.599  -10.272  -10.128  -10.065  -10.031  -10.014  -10.013  -10.034  -10.055  -10.074  -10.101  -10.153  -10.221  -10.280  -10.322  -10.342  -10.349  -10.357  -10.380  -10.429  -10.513  -10.605  -10.663  -10.652  -10.556  -10.400  -10.248  -10.142  -10.081  -10.057  -10.059  -10.078  -10.135  -10.211  -10.286  -10.345  -10.374  -10.355  -10.287  -10.179  -10.050   -9.939   -9.868   -9.855   -9.876   -9.907   -9.945  -10.015  -10.121  -10.247  -10.337  -10.378  -10.366  -10.314  -10.248  -10.189  -10.151  -10.148  -10.162  -10.172  -10.172  -10.157  -10.133  -10.106  -10.106  -10.109  -10.112  -10.105  -10.100  -10.121  -10.324
 -21.052  -20.819  -20.739  -20.700  -20.672  -20.653  -20.635  -20.626  -20.619  -20.629  -20.640  -20.653  -20.651  -20.628  -20.583  -20.527  -20.474  -20.439  -20.419  -20.382  -20.278  -20.000  -19.422  -18.444  -17.066  -15.426  -13.768  -12.350  -11.317  -10.669  -10.326  -10.159  -10.083  -10.046  -10.055  -10.104  -10.182  -10.251  -10.295  -10.315  -10.330  -10.347  -10.355  -10.355  -10.353  -10.352  -10.357  -10.375  -10.411  -10.455  -10.495  -10.503  -10.455  -10.355  -10.215  -10.090  -10.013   -9.976   -9.969   -9.973   -9.997  -10.063  -10.141  -10.218  -10.272  -10.283  -10.255  -10.190  -10.112  -10.036   -9.981   -9.955   -9.953   -9.958   -9.953   -9.969  -10.032  -10.145  -10.274  -10.365  -10.393  -10.359  -10.293  -10.215  -10.134  -10.081  -10.059  -10.073  -10.104  -10.149  -10.197  -10.247  -10.297  -10.360  -10.409  -10.426  -10.406  -10.380  -10.397  -10.598
 -21.413  -21.158  -21.068  -21.018  -20.980  -20.947  -20.914  -20.887  -20.859  -20.847  -20.846  -20.846  -20.841  -20.821  -20.788  -20.749  -20.717  -20.701  -20.691  -20.663  -20.556  -20.268  -19.681  -18.693  -17.311  -15.671  -14.012  -12.590  -11.540  -10.868  -10.489  -10.292  -10.196  -10.172  -10.216  -10.322  -10.467  -10.601  -10.684  -10.712  -10.690  -10.635  -10.559  -10.478  -10.406  -10.365  -10.358  -10.373  -10.385  -10.378  -10.350  -10.292  -10.206  -10.097   -9.986   -9.907   -9.883   -9.893   -9.915   -9.938   -9.977  -10.047  -10.131  -10.204  -10.241  -10.235  -10.188  -10.129  -10.092  -10.089  -10.116  -10.147  -10.156  -10.122  -10.059  -10.017  -10.042  -10.136  -10.249  -10.323  -10.337  -10.306  -10.244  -10.167  -10.088  -10.032  -10.016  -10.055  -10.150  -10.287  -10.461  -10.658  -10.873  -11.082  -11.250  -11.339  -11.350  -11.331  -11.334  -11.541
 -22.090  -21.815  -21.719  -21.663  -21.616  -21.577  -21.534  -21.490  -21.448  -21.412  -21.395  -21.384  -21.375  -21.357  -21.331  -21.311  -21.305  -21.309  -21.318  -21.296  -21.187  -20.892  -20.293  -19.298  -17.911  -16.262  -14.581  -13.115  -12.002  -11.256  -10.803  -10.551  -10.428  -10.411  -10.503  -10.693  -10.934  -11.161  -11.316  -11.368  -11.309  -11.156  -10.950  -10.728  -10.551  -10.444  -10.409  -10.412  -10.402  -10.342  -10.238  -10.119   -9.998   -9.888   -9.805   -9.774   -9.804   -9.864   -9.919   -9.956   -9.997  -10.062  -10.143  -10.207  -10.235  -10.224  -10.179  -10.140  -10.154  -10.215  -10.306  -10.375  -10.374  -10.302  -10.179  -10.079  -10.062  -10.114  -10.196  -10.249  -10.250  -10.221  -10.174  -10.121  -10.070  -10.040  -10.062  -10.156  -10.347  -10.631  -11.024  -11.499  -12.020  -12.524  -12.937  -13.187  -13.286  -13.297  -13.300  -13.488
 -23.161  -22.875  -22.781  -22.724  -22.679  -22.638  -22.589  -22.533  -22.480  -22.433  -22.401  -22.381  -22.364  -22.342  -22.326  -22.313  -22.320  -22.342  -22.361  -22.346  -22.239  -21.943  -21.347  -20.350  -18.956  -17.286  -15.558  -14.005  -12.769  -11.885  -11.300  -10.941  -10.765  -10.760  -10.929  -11.245  -11.635  -12.007  -12.262  -12.339  -12.213  -11.917  -11.521  -11.115  -10.792  -10.594  -10.515  -10.502  -10.470  -10.369  -10.213  -10.038   -9.901   -9.797   -9.743   -9.748   -9.824   -9.922  -10.001  -10.037  -10.055  -10.090  -10.142  -10.197  -10.233  -10.237  -10.226  -10.220  -10.265  -10.369  -10.481  -10.559  -10.547  -10.443  -10.291  -10.161  -10.105  -10.118  -10.157  -10.171  -10.155  -10.124  -10.100  -10.084  -10.082  -10.098  -10.174  -10.343  -10.661  -11.165  -11.895  -12.821  -13.852  -14.843  -15.639  -16.161  -16.408  -16.478  -16.488  -16.634
 -24.632  -24.342  -24.250  -24.197  -24.158  -24.114  -24.055  -23.994  -23.931  -23.877  -23.837  -23.809  -23.783  -23.758  -23.736  -23.721  -23.727  -23.749  -23.770  -23.762  -23.661  -23.377  -22.789  -21.799  -20.398  -18.699  -16.894  -15.209  -13.799  -12.719  -11.949  -11.450  -11.202  -11.214  -11.487  -11.983  -12.579  -13.133  -13.500  -13.583  -13.347  -12.843  -12.197  -11.562  -11.066  -10.758  -10.629  -10.595  -10.556  -10.433  -10.241  -10.048   -9.907   -9.828   -9.808   -9.843   -9.938  -10.045  -10.121  -10.143  -10.121  -10.111  -10.130  -10.173  -10.229  -10.265  -10.287  -10.312  -10.366  -10.466  -10.569  -10.637  -10.615  -10.514  -10.374  -10.252  -10.177  -10.158  -10.150  -10.117  -10.074  -10.034  -10.034  -10.057  -10.103  -10.171  -10.303  -10.555  -11.022  -11.813  -13.002  -14.552  -16.278  -17.928  -19.243  -20.116  -20.567  -20.716  -20.738  -20.812
 -26.419  -26.133  -26.047  -26.001  -25.957  -25.895  -25.813  -25.722  -25.631  -25.563  -25.517  -25.482  -25.454  -25.422  -25.390  -25.365  -25.362  -25.369  -25.385  -25.376  -25.284  -25.010  -24.434  -23.452  -22.045  -20.304  -18.405  -16.566  -14.956  -13.649  -12.668  -12.009  -11.682  -11.719  -12.127  -12.838  -13.672  -14.420  -14.895  -14.956  -14.566  -13.811  -12.873  -11.978  -11.288  -10.869  -10.684  -10.629  -10.587  -10.463  -10.269  -10.078   -9.961   -9.925   -9.947  -10.004  -10.092  -10.180  -10.232  -10.221  -10.165  -10.117  -10.106  -10.148  -10.214  -10.277  -10.319  -10.350  -10.395  -10.461  -10.534  -10.577  -10.559  -10.488  -10.397  -10.313  -10.249  -10.204  -10.163  -10.100  -10.041  -10.006  -10.021  -10.076  -10.150  -10.244  -10.403  -10.717  -11.340  -12.459  -14.194  -16.472  -19.002  -21.386  -23.278  -24.536  -25.207  -25.463  -25.507  -25.495
 -28.531  -28.247  -28.172  -28.116  -28.041  -27.916  -27.737  -27.543  -27.370  -27.249  -27.177  -27.140  -27.109  -27.074  -27.034  -26.995  -26.977  -26.972  -26.975  -26.959  -26.866  -26.596  -26.027  -25.047  -23.625  -21.834  -19.840  -17.851  -16.040  -14.518  -13.340  -12.530  -12.135  -12.215  -12.768  -13.690  -14.752  -15.674  -16.227  -16.248  -15.695  -14.684  -13.457  -12.292  -11.398  -10.852  -10.606  -10.543  -10.506  -10.402  -10.234  -10.082  -10.017  -10.043  -10.111  -10.180  -10.235  -10.273  -10.283  -10.248  -10.176  -10.112  -10.089  -10.123  -10.191  -10.256  -10.296  -10.309  -10.325  -10.352  -10.390  -10.413  -10.406  -10.379  -10.346  -10.316  -10.288  -10.250  -10.200  -10.139  -10.092  -10.082  -10.122  -10.179  -10.243  -10.319  -10.456  -10.791  -11.549  -12.997  -15.284  -18.294  -21.613  -24.699  -27.129  -28.749  -29.638  -30.007  -30.085  -29.986
 -31.271  -30.999  -30.934  -30.851  -30.659  -30.330  -29.889  -29.419  -29.022  -28.752  -28.604  -28.537  -28.503  -28.469  -28.426  -28.381  -28.352  -28.336  -28.327  -28.301  -28.201  -27.926  -27.350  -26.358  -24.910  -23.069  -20.986  -18.860  -16.881  -15.182  -13.850  -12.936  -12.513  -12.651  -13.347  -14.451  -15.681  -16.726  -17.318  -17.280  -16.588  -15.363  -13.883  -12.473  -11.385  -10.713  -10.410  -10.346  -10.339  -10.276  -10.159  -10.065  -10.066  -10.152  -10.251  -10.308  -10.320  -10.307  -10.277  -10.238  -10.180  -10.121  -10.092  -10.111  -10.162  -10.210  -10.233  -10.226  -10.212  -10.210  -10.219  -10.233  -10.237  -10.245  -10.262  -10.283  -10.298  -10.284  -10.254  -10.219  -10.211  -10.243  -10.305  -10.358  -10.383  -10.392  -10.463  -10.790  -11.652  -13.379  -16.157  -19.798  -23.772  -27.437  -30.310  -32.231  -33.297  -33.764  -33.874  -33.697
 -35.388  -35.162  -35.116  -34.929  -34.449  -33.639  -32.593  -31.518  -30.619  -30.021  -29.698  -29.558  -29.502  -29.465  -29.428  -29.387  -29.357  -29.339  -29.324  -29.290  -29.175  -28.885  -28.291  -27.274  -25.789  -23.888  -21.724  -19.488  -17.388  -15.572  -14.160  -13.215  -12.828  -13.059  -13.873  -15.096  -16.417  -17.502  -18.078  -17.979  -17.176  -15.801  -14.140  -12.548  -11.303  -10.532  -10.201  -10.152  -10.196  -10.187  -10.122  -10.079  -10.122  -10.227  -10.320  -10.350  -10.322  -10.280  -10.251  -10.230  -10.195  -10.148  -10.111  -10.106  -10.139  -10.173  -10.186  -10.169  -10.139  -10.120  -10.120  -10.136  -10.156  -10.185  -10.223  -10.269  -10.294  -10.295  -10.285  -10.295  -10.347  -10.429  -10.512  -10.545  -10.511  -10.444  -10.450  -10.754  -11.690  -13.639  -16.783  -20.891  -25.339  -29.412  -32.598  -34.727  -35.917  -36.444  -36.573  -36.343
 -41.952  -41.835  -41.764  -41.302  -40.212  -38.470  -36.308  -34.126  -32.333  -31.137  -30.488  -30.212  -30.114  -30.071  -30.039  -30.012  -29.988  -29.976  -29.961  -29.922  -29.796  -29.486  -28.861  -27.806  -26.267  -24.303  -22.060  -19.738  -17.561  -15.704  -14.299  -13.428  -13.160  -13.511  -14.422  -15.689  -17.003  -18.037  -18.540  -18.358  -17.469  -16.006  -14.253  -12.557  -11.222  -10.402  -10.072  -10.064  -10.159  -10.202  -10.173  -10.142  -10.178  -10.256  -10.311  -10.308  -10.270  -10.233  -10.224  -10.222  -10.202  -10.159  -10.115  -10.102  -10.134  -10.181  -10.206  -10.188  -10.146  -10.123  -10.134  -10.169  -10.208  -10.237  -10.265  -10.277  -10.268  -10.255  -10.265  -10.332  -10.447  -10.579  -10.670  -10.680  -10.596  -10.478  -10.445  -10.737  -11.731  -13.826  -17.199  -21.585  -26.312  -30.623  -33.987  -36.227  -37.475  -38.024  -38.151  -37.892
 -51.656  -51.693  -51.438  -50.396  -48.271  -45.086  -41.245  -37.423  -34.295  -32.209  -31.086  -30.605  -30.440  -30.388  -30.364  -30.347  -30.336  -30.330  -30.319  -30.278  -30.141  -29.810  -29.148  -28.041  -26.439  -24.401  -22.079  -19.694  -17.487  -15.664  -14.370  -13.674  -13.601  -14.112  -15.092  -16.327  -17.541  -18.445  -18.821  -18.537  -17.576  -16.072  -14.287  -12.569  -11.211  -10.381  -10.068  -10.087  -10.220  -10.285  -10.260  -10.216  -10.221  -10.258  -10.271  -10.251  -10.219  -10.191  -10.187  -10.186  -10.163  -10.112  -10.066  -10.076  -10.137  -10.222  -10.270  -10.261  -10.215  -10.194  -10.222  -10.280  -10.331  -10.352  -10.337  -10.279  -10.203  -10.157  -10.184  -10.299  -10.473  -10.641  -10.736  -10.727  -10.622  -10.487  -10.453  -10.766  -11.801  -13.965  -17.439  -21.935  -26.762  -31.152  -34.571  -36.836  -38.085  -38.618  -38.729  -38.460
 -63.924  -64.083  -63.371  -61.383  -57.844  -52.856  -46.985  -41.185  -36.443  -33.284  -31.589  -30.864  -30.617  -30.551  -30.530  -30.518  -30.510  -30.502  -30.493  -30.452  -30.312  -29.963  -29.269  -28.106  -26.426  -24.301  -21.910  -19.493  -17.313  -15.598  -14.497  -14.051  -14.220  -14.890  -15.902  -17.048  -18.102  -18.828  -19.053  -18.665  -17.653  -16.139  -14.370  -12.667  -11.316  -10.483  -10.154  -10.159  -10.273  -10.333  -10.310  -10.259  -10.247  -10.267  -10.276  -10.257  -10.220  -10.182  -10.148  -10.115  -10.065   -9.999   -9.963   -9.999  -10.106  -10.235  -10.314  -10.315  -10.271  -10.249  -10.278  -10.347  -10.408  -10.420  -10.369  -10.253  -10.119  -10.041  -10.069  -10.211  -10.409  -10.580  -10.669  -10.658  -10.560  -10.452  -10.455  -10.807  -11.867  -14.042  -17.490  -21.938  -26.717  -31.055  -34.423  -36.643  -37.851  -38.354  -38.445  -38.177
 -76.865  -77.025  -75.602  -72.390  -67.234  -60.358  -52.471  -44.744  -38.439  -34.253  -32.019  -31.068  -30.746  -30.662  -30.639  -30.622  -30.601  -30.582  -30.561  -30.519  -30.388  -30.039  -29.321  -28.105  -26.349  -24.143  -21.697  -19.288  -17.199  -15.655  -14.793  -14.620  -15.016  -15.800  -16.784  -17.796  -18.660  -19.208  -19.298  -18.839  -17.813  -16.320  -14.585  -12.905  -11.552  -10.686  -10.293  -10.214  -10.260  -10.288  -10.267  -10.252  -10.276  -10.330  -10.366  -10.354  -10.284  -10.191  -10.103  -10.028   -9.953   -9.878   -9.843   -9.890  -10.024  -10.181  -10.283  -10.286  -10.237  -10.200  -10.218  -10.286  -10.361  -10.394  -10.348  -10.223  -10.068   -9.962   -9.967  -10.085  -10.256  -10.405  -10.479  -10.470  -10.410  -10.355  -10.418  -10.811  -11.874  -13.981  -17.295  -21.566  -26.150  -30.315  -33.541  -35.658  -36.799  -37.264  -37.343  -37.097
 -88.573  -88.525  -86.224  -81.597  -74.729  -66.064  -56.460  -47.230  -39.794  -34.909  -32.324  -31.230  -30.864  -30.770  -30.743  -30.711  -30.669  -30.628  -30.600  -30.569  -30.464  -30.135  -29.407  -28.139  -26.310  -24.034  -21.565  -19.212  -17.267  -15.947  -15.336  -15.397  -15.943  -16.759  -17.654  -18.486  -19.144  -19.521  -19.507  -19.013  -18.012  -16.569  -14.884  -13.228  -11.870  -10.945  -10.443  -10.234  -10.171  -10.155  -10.162  -10.214  -10.320  -10.437  -10.499  -10.459  -10.336  -10.193  -10.070   -9.983   -9.907   -9.827   -9.786   -9.823   -9.942  -10.090  -10.182  -10.177  -10.110  -10.053  -10.055  -10.127  -10.235  -10.324  -10.339  -10.253  -10.105   -9.979   -9.931   -9.978  -10.075  -10.169  -10.217  -10.219  -10.200  -10.208  -10.332  -10.753  -11.770  -13.725  -16.785  -20.736  -24.988  -28.856  -31.851  -33.813  -34.865  -35.289  -35.359  -35.154
 -98.096  -97.491  -94.021  -87.747  -79.136  -68.894  -58.029  -47.964  -40.102  -35.055  -32.424  -31.325  -30.967  -30.887  -30.873  -30.846  -30.802  -30.763  -30.755  -30.768  -30.719  -30.424  -29.679  -28.341  -26.410  -24.063  -21.594  -19.346  -17.592  -16.508  -16.124  -16.345  -16.952  -17.722  -18.470  -19.091  -19.529  -19.717  -19.589  -19.064  -18.097  -16.723  -15.102  -13.486  -12.123  -11.149  -10.547  -10.221  -10.066  -10.021  -10.066  -10.193  -10.377  -10.530  -10.580  -10.495  -10.331  -10.181  -10.098  -10.069  -10.030   -9.954   -9.888   -9.882   -9.951  -10.050  -10.103  -10.069   -9.978   -9.908   -9.909  -10.001  -10.163  -10.329  -10.418  -10.379  -10.240  -10.082   -9.976   -9.943   -9.962   -9.994  -10.003  -10.009  -10.015  -10.066  -10.220  -10.622  -11.528  -13.240  -15.920  -19.395  -23.162  -26.601  -29.271  -31.019  -31.953  -32.326  -32.393  -32.247
-104.627 -103.040  -98.023  -90.033  -79.887  -68.419  -56.849  -46.736  -39.248  -34.624  -32.271  -31.316  -31.046  -31.050  -31.130  -31.201  -31.246  -31.298  -31.396  -31.528  -31.570  -31.297  -30.467  -28.948  -26.812  -24.316  -21.820  -19.679  -18.137  -17.284  -17.086  -17.394  -17.993  -18.667  -19.252  -19.664  -19.867  -19.839  -19.554  -18.952  -17.989  -16.667  -15.118  -13.560  -12.219  -11.225  -10.581  -10.198  -10.007   -9.967  -10.060  -10.249  -10.459  -10.596  -10.588  -10.448  -10.286  -10.212  -10.257  -10.342  -10.375  -10.320  -10.229  -10.168  -10.166  -10.193  -10.181  -10.105   -9.999   -9.929   -9.948  -10.061  -10.250  -10.458  -10.581  -10.556  -10.414  -10.230  -10.089  -10.012   -9.981   -9.968   -9.953   -9.936   -9.936   -9.983  -10.110  -10.445  -11.177  -12.565  -14.745  -17.598  -20.711  -23.580  -25.818  -27.287  -28.063  -28.362  -28.413  -28.349
-106.631 -104.033  -97.610  -88.345  -77.106  -64.863  -53.261  -43.903  -37.481  -33.725  -31.893  -31.218  -31.166  -31.426  -31.816  -32.225  -32.612  -32.988  -33.383  -33.744  -33.892  -33.525  -32.383  -30.399  -27.772  -24.912  -22.269  -20.178  -18.806  -18.147  -18.084  -18.427  -18.978  -19.549  -19.997  -20.233  -20.229  -19.983  -19.507  -18.785  -17.782  -16.495  -15.009  -13.517  -12.214  -11.237  -10.601  -10.243  -10.091  -10.110  -10.251  -10.457  -10.633  -10.695  -10.605  -10.432  -10.322  -10.387  -10.606  -10.843  -10.962  -10.933  -10.822  -10.710  -10.639  -10.590  -10.517  -10.411  -10.308  -10.254  -10.280  -10.376  -10.524  -10.678  -10.756  -10.711  -10.564  -10.394  -10.260  -10.190  -10.156  -10.127  -10.091  -10.049  -10.025  -10.023  -10.089  -10.310  -10.824  -11.828  -13.427  -15.538  -17.860  -20.019  -21.714  -22.815  -23.379  -23.571  -23.584  -23.610
-103.144 -100.083  -93.093  -83.252  -71.412  -59.027  -48.195  -40.269  -35.289  -32.567  -31.352  -31.095  -31.493  -32.367  -33.536  -34.814  -36.060  -37.206  -38.202  -38.910  -39.050  -38.264  -36.322  -33.304  -29.655  -26.022  -22.966  -20.787  -19.499  -18.968  -18.980  -19.315  -19.797  -20.268  -20.608  -20.728  -20.587  -20.188  -19.560  -18.731  -17.687  -16.423  -14.999  -13.569  -12.311  -11.370  -10.786  -10.508  -10.455  -10.556  -10.732  -10.905  -10.999  -10.958  -10.793  -10.612  -10.585  -10.806  -11.196  -11.569  -11.767  -11.768  -11.648  -11.509  -11.388  -11.288  -11.183  -11.082  -10.996  -10.949  -10.937  -10.947  -10.975  -11.003  -10.994  -10.926  -10.803  -10.684  -10.602  -10.568  -10.552  -10.526  -10.487  -10.420  -10.360  -10.312  -10.302  -10.402  -10.702  -11.309  -12.289  -13.589  -15.034  -16.371  -17.409  -18.060  -18.352  -18.395  -18.345  -18.439
 -95.366  -92.325  -85.451  -75.556  -63.786  -52.195  -42.908  -36.717  -33.136  -31.324  -30.690  -31.006  -32.242  -34.362  -37.121  -40.129  -43.013  -45.507  -47.409  -48.449  -48.265  -46.496  -43.028  -38.186  -32.769  -27.774  -23.929  -21.447  -20.137  -19.654  -19.678  -19.965  -20.348  -20.709  -20.958  -21.017  -20.832  -20.399  -19.746  -18.900  -17.862  -16.639  -15.286  -13.929  -12.738  -11.865  -11.361  -11.189  -11.244  -11.406  -11.577  -11.672  -11.657  -11.517  -11.300  -11.142  -11.201  -11.540  -12.050  -12.510  -12.770  -12.812  -12.717  -12.583  -12.458  -12.353  -12.259  -12.189  -12.127  -12.065  -11.983  -11.868  -11.751  -11.658  -11.580  -11.518  -11.455  -11.402  -11.372  -11.363  -11.363  -11.346  -11.306  -11.234  -11.143  -11.056  -11.002  -11.014  -11.125  -11.371  -11.760  -12.262  -12.798  -13.259  -13.571  -13.696  -13.646  -13.485  -13.336  -13.468
 -85.470  -82.406  -75.852  -66.477  -55.783  -45.926  -38.542  -33.884  -31.286  -30.044  -29.881  -30.953  -33.575  -37.794  -43.144  -48.802  -53.981  -58.148  -60.957  -62.076  -61.146  -57.873  -52.273  -44.924  -37.040  -30.092  -25.070  -22.089  -20.651  -20.161  -20.157  -20.361  -20.622  -20.853  -21.005  -21.035  -20.894  -20.563  -20.029  -19.285  -18.338  -17.201  -15.944  -14.694  -13.618  -12.854  -12.456  -12.380  -12.505  -12.677  -12.789  -12.785  -12.663  -12.450  -12.225  -12.104  -12.227  -12.625  -13.192  -13.707  -14.029  -14.136  -14.110  -14.029  -13.950  -13.883  -13.839  -13.817  -13.790  -13.710  -13.561  -13.363  -13.168  -13.017  -12.939  -12.909  -12.900  -12.893  -12.881  -12.870  -12.868  -12.858  -12.822  -12.747  -12.640  -12.541  -12.473  -12.439  -12.416  -12.355  -12.223  -11.998  -11.679  -11.288  -10.857  -10.400   -9.939   -9.520   -9.229   -9.353
 -75.325  -72.250  -66.435  -58.430  -49.650  -41.798  -35.934  -32.116  -29.832  -28.704  -28.852  -30.884  -35.470  -42.611  -51.285  -59.959  -67.394  -72.920  -76.231  -77.093  -75.206  -70.315  -62.490  -52.456  -41.796  -32.572  -26.164  -22.589  -20.997  -20.484  -20.446  -20.567  -20.702  -20.798  -20.857  -20.871  -20.817  -20.651  -20.322  -19.769  -18.982  -17.989  -16.881  -15.796  -14.891  -14.270  -13.981  -13.974  -14.108  -14.239  -14.264  -14.164  -13.968  -13.727  -13.522  -13.450  -13.615  -14.056  -14.662  -15.240  -15.653  -15.870  -15.956  -15.973  -15.971  -15.977  -16.000  -16.031  -16.031  -15.956  -15.806  -15.608  -15.431  -15.312  -15.276  -15.290  -15.308  -15.305  -15.281  -15.253  -15.243  -15.246  -15.220  -15.142  -15.026  -14.922  -14.858  -14.800  -14.674  -14.376  -13.824  -13.000  -11.967  -10.831   -9.691   -8.639   -7.721   -7.001   -6.533   -6.613
 -68.322  -65.651  -61.082  -54.807  -47.764  -41.114  -35.670  -31.642  -28.869  -27.339  -27.592  -30.712  -37.661  -48.109  -60.097  -71.312  -80.342  -86.670  -90.159  -90.643  -87.793  -81.379  -71.596  -59.206  -45.987  -34.594  -26.891  -22.817  -21.139  -20.646  -20.602  -20.667  -20.704  -20.696  -20.672  -20.667  -20.679  -20.662  -20.524  -20.177  -19.584  -18.787  -17.882  -17.007  -16.294  -15.828  -15.625  -15.635  -15.732  -15.799  -15.753  -15.596  -15.380  -15.159  -15.006  -14.998  -15.229  -15.734  -16.423  -17.122  -17.684  -18.062  -18.289  -18.421  -18.507  -18.577  -18.646  -18.713  -18.746  -18.704  -18.602  -18.480  -18.389  -18.355  -18.372  -18.414  -18.438  -18.420  -18.376  -18.350  -18.360  -18.395  -18.385  -18.308  -18.181  -18.068  -17.995  -17.914  -17.706  -17.232  -16.384  -15.145  -13.598  -11.887  -10.174   -8.583   -7.225   -6.183   -5.532   -5.544
 -68.250  -66.289  -62.746  -57.503  -51.037  -44.197  -37.846  -32.538  -28.519  -26.116  -26.233  -30.368  -39.645  -53.095  -67.659  -80.579  -90.744  -97.836 -101.605 -101.659  -97.586  -89.496  -78.010  -63.819  -48.630  -35.593  -27.010  -22.712  -21.089  -20.686  -20.680  -20.724  -20.712  -20.646  -20.568  -20.538  -20.566  -20.612  -20.579  -20.380  -19.970  -19.382  -18.704  -18.049  -17.516  -17.171  -17.015  -17.006  -17.049  -17.057  -16.973  -16.813  -16.621  -16.462  -16.389  -16.480  -16.826  -17.464  -18.312  -19.210  -19.981  -20.542  -20.914  -21.142  -21.285  -21.389  -21.477  -21.550  -21.593  -21.593  -21.558  -21.524  -21.527  -21.574  -21.640  -21.705  -21.737  -21.722  -21.693  -21.698  -21.762  -21.844  -21.860  -21.786  -21.650  -21.524  -21.435  -21.327  -21.058  -20.477  -19.470  -18.023  -16.211  -14.180  -12.095  -10.132   -8.435   -7.143   -6.340   -6.290
 -74.204  -72.900  -69.719  -64.544  -57.620  -49.644  -41.603  -34.424  -28.745  -25.205  -24.968  -29.804  -40.808  -56.313  -72.410  -86.355  -97.535 -105.550 -109.614 -108.967 -103.366  -93.624  -80.844  -65.492  -49.134  -35.288  -26.477  -22.316  -20.918  -20.668  -20.727  -20.780  -20.753  -20.670  -20.571  -20.517  -20.517  -20.548  -20.531  -20.400  -20.120  -19.710  -19.234  -18.770  -18.385  -18.118  -17.976  -17.931  -17.918  -17.885  -17.793  -17.662  -17.528  -17.445  -17.468  -17.680  -18.185  -19.018  -20.090  -21.223  -22.220  -22.966  -23.455  -23.746  -23.912  -24.014  -24.089  -24.146  -24.182  -24.196  -24.207  -24.236  -24.298  -24.393  -24.494  -24.579  -24.630  -24.647  -24.665  -24.728  -24.850  -24.978  -25.031  -24.974  -24.844  -24.719  -24.623  -24.496  -24.200  -23.594  -22.576  -21.127  -19.303  -17.237  -15.077  -12.992  -11.156   -9.748   -8.867   -8.756
 -81.684  -80.763  -77.481  -71.861  -64.132  -54.919  -45.268  -36.372  -29.207  -24.644  -23.955  -28.949  -40.586  -56.827  -73.419  -87.692  -99.240 -107.506 -111.361 -109.979 -103.444  -93.002  -79.728  -63.914  -47.334  -33.722  -25.428  -21.769  -20.712  -20.638  -20.764  -20.837  -20.818  -20.735  -20.642  -20.577  -20.545  -20.524  -20.478  -20.358  -20.152  -19.870  -19.544  -19.224  -18.944  -18.734  -18.597  -18.517  -18.465  -18.403  -18.317  -18.223  -18.143  -18.125  -18.239  -18.575  -19.239  -20.268  -21.564  -22.925  -24.122  -25.016  -25.593  -25.915  -26.079  -26.158  -26.206  -26.234  -26.253  -26.266  -26.290  -26.336  -26.413  -26.516  -26.622  -26.719  -26.795  -26.850  -26.914  -27.024  -27.186  -27.345  -27.422  -27.390  -27.288  -27.185  -27.106  -26.984  -26.709  -26.164  -25.269  -24.004  -22.420  -20.603  -18.670  -16.754  -15.027  -13.666  -12.799  -12.642
 -87.234  -86.355  -82.713  -76.484  -68.009  -57.919  -47.271  -37.388  -29.419  -24.297  -23.207  -27.743  -38.702  -54.221  -70.294  -84.085  -94.882 -102.245 -105.388 -103.774  -97.579  -87.672  -74.675  -59.146  -43.442  -31.164  -24.077  -21.188  -20.524  -20.609  -20.790  -20.875  -20.863  -20.799  -20.722  -20.654  -20.601  -20.549  -20.475  -20.358  -20.195  -19.997  -19.780  -19.561  -19.365  -19.201  -19.077  -18.985  -18.909  -18.836  -18.761  -18.687  -18.643  -18.675  -18.849  -19.279  -20.064  -21.239  -22.697  -24.216  -25.554  -26.551  -27.186  -27.523  -27.675  -27.735  -27.756  -27.762  -27.764  -27.765  -27.779  -27.809  -27.865  -27.945  -28.036  -28.126  -28.207  -28.280  -28.365  -28.486  -28.647  -28.797  -28.878  -28.868  -28.803  -28.739  -28.689  -28.605  -28.401  -27.988  -27.326  -26.412  -25.290  -23.997  -22.578  -21.096  -19.674  -18.487  -17.691  -17.492
 -88.907  -87.858  -83.854  -77.182  -68.272  -57.811  -46.927  -36.975  -29.056  -23.969  -22.618  -26.184  -35.317  -48.715  -63.190  -75.869  -85.493  -91.669  -94.134  -92.680  -87.313  -78.283  -66.002  -51.669  -38.020  -28.011  -22.598  -20.619  -20.331  -20.545  -20.751  -20.838  -20.831  -20.785  -20.727  -20.670  -20.618  -20.564  -20.491  -20.393  -20.270  -20.138  -20.005  -19.871  -19.747  -19.638  -19.544  -19.459  -19.386  -19.315  -19.245  -19.188  -19.163  -19.215  -19.421  -19.895  -20.737  -21.980  -23.512  -25.109  -26.522  -27.578  -28.248  -28.602  -28.754  -28.805  -28.812  -28.806  -28.795  -28.786  -28.783  -28.789  -28.813  -28.857  -28.916  -28.985  -29.050  -29.111  -29.182  -29.271  -29.389  -29.494  -29.552  -29.546  -29.511  -29.478  -29.461  -29.430  -29.331  -29.122  -28.808  -28.420  -27.991  -27.501  -26.864  -26.026  -25.037  -24.078  -23.361  -23.118
 -86.555  -85.291  -81.096  -74.285  -65.325  -55.027  -44.613  -35.355  -28.134  -23.492  -21.981  -24.327  -30.981  -41.229  -52.974  -63.840  -72.283  -77.662  -79.763  -78.458  -73.659  -65.478  -54.562  -42.551  -31.935  -24.690  -21.085  -19.987  -20.027  -20.326  -20.538  -20.623  -20.627  -20.600  -20.565  -20.531  -20.498  -20.466  -20.423  -20.364  -20.295  -20.228  -20.167  -20.112  -20.058  -20.006  -19.951  -19.903  -19.848  -19.791  -19.739  -19.691  -19.677  -19.734  -19.942  -20.411  -21.252  -22.487  -24.017  -25.625  -27.059  -28.151  -28.857  -29.240  -29.415  -29.475  -29.485  -29.476  -29.461  -29.445  -29.426  -29.414  -29.409  -29.423  -29.452  -29.494  -29.536  -29.572  -29.607  -29.650  -29.699  -29.741  -29.757  -29.741  -29.715  -29.701  -29.710  -29.739  -29.777  -29.847  -30.021  -30.384  -30.955  -31.594  -32.032  -32.031  -31.561  -30.843  -30.180  -29.849
 -81.608  -80.125  -75.888  -69.189  -60.552  -50.897  -41.431  -33.217  -26.885  -22.744  -21.059  -22.182  -26.336  -33.153  -41.434  -49.592  -56.297  -60.751  -62.540  -61.435  -57.374  -50.631  -42.080  -33.289  -26.066  -21.513  -19.520  -19.153  -19.432  -19.774  -19.990  -20.077  -20.096  -20.092  -20.091  -20.097  -20.113  -20.132  -20.141  -20.142  -20.140  -20.145  -20.155  -20.170  -20.182  -20.183  -20.183  -20.177  -20.165  -20.145  -20.122  -20.091  -20.078  -20.126  -20.310  -20.738  -21.522  -22.689  -24.166  -25.740  -27.178  -28.305  -29.065  -29.509  -29.734  -29.832  -29.859  -29.856  -29.840  -29.820  -29.796  -29.774  -29.754  -29.753  -29.762  -29.784  -29.805  -29.822  -29.830  -29.831  -29.830  -29.817  -29.795  -29.759  -29.730  -29.722  -29.756  -29.853  -30.066  -30.513  -31.366  -32.771  -34.697  -36.825  -38.623  -39.648  -39.808  -39.380  -38.777  -38.284
 -75.636  -74.009  -69.913  -63.613  -55.661  -46.951  -38.531  -31.249  -25.563  -21.685  -19.719  -19.783  -21.893  -25.778  -30.760  -35.896  -40.311  -43.366  -44.634  -43.851  -40.972  -36.317  -30.671  -25.190  -20.987  -18.598  -17.805  -17.937  -18.356  -18.716  -18.927  -19.025  -19.069  -19.100  -19.141  -19.202  -19.291  -19.391  -19.488  -19.580  -19.668  -19.761  -19.855  -19.938  -20.004  -20.061  -20.115  -20.174  -20.225  -20.267  -20.288  -20.283  -20.269  -20.290  -20.418  -20.769  -21.444  -22.503  -23.886  -25.409  -26.848  -28.028  -28.876  -29.420  -29.732  -29.893  -29.954  -29.966  -29.954  -29.933  -29.911  -29.893  -29.876  -29.871  -29.879  -29.892  -29.910  -29.925  -29.931  -29.922  -29.897  -29.862  -29.823  -29.788  -29.761  -29.762  -29.820  -29.998  -30.435  -31.356  -33.051  -35.719  -39.243  -43.051  -46.342  -48.508  -49.437  -49.455  -49.016  -48.307
 -69.908  -68.291  -64.537  -58.875  -51.804  -44.070  -36.510  -29.809  -24.390  -20.459  -18.103  -17.320  -18.001  -19.850  -22.411  -25.115  -27.455  -29.072  -29.702  -29.179  -27.476  -24.822  -21.719  -18.860  -16.841  -15.902  -15.843  -16.238  -16.708  -17.058  -17.269  -17.383  -17.452  -17.513  -17.597  -17.723  -17.902  -18.116  -18.338  -18.554  -18.766  -18.971  -19.159  -19.314  -19.441  -19.548  -19.667  -19.801  -19.939  -20.064  -20.146  -20.170  -20.151  -20.126  -20.173  -20.403  -20.940  -21.852  -23.112  -24.566  -26.008  -27.260  -28.227  -28.902  -29.335  -29.579  -29.691  -29.725  -29.723  -29.709  -29.697  -29.695  -29.701  -29.716  -29.742  -29.779  -29.825  -29.871  -29.909  -29.929  -29.927  -29.911  -29.888  -29.871  -29.865  -29.883  -29.969  -30.238  -30.904  -32.301  -34.831  -38.724  -43.736  -49.056  -53.684  -56.950  -58.747  -59.402  -59.305  -58.417
 -65.107  -63.619  -60.295  -55.331  -49.124  -42.248  -35.341  -28.981  -23.592  -19.449  -16.675  -15.250  -15.005  -15.635  -16.737  -17.915  -18.875  -19.446  -19.540  -19.112  -18.183  -16.883  -15.459  -14.250  -13.525  -13.378  -13.666  -14.138  -14.586  -14.916  -15.135  -15.271  -15.352  -15.412  -15.504  -15.676  -15.946  -16.282  -16.649  -17.014  -17.375  -17.711  -18.006  -18.239  -18.419  -18.578  -18.759  -18.973  -19.206  -19.419  -19.569  -19.629  -19.603  -19.522  -19.469  -19.561  -19.935  -20.679  -21.795  -23.159  -24.588  -25.904  -26.988  -27.803  -28.359  -28.693  -28.860  -28.923  -28.936  -28.939  -28.955  -28.990  -29.046  -29.115  -29.204  -29.313  -29.440  -29.574  -29.697  -29.798  -29.869  -29.910  -29.939  -29.958  -29.983  -30.024  -30.141  -30.475  -31.294  -33.015  -36.100  -40.804  -46.797  -53.133  -58.735  -62.929  -65.605  -67.025  -67.429  -66.512
 -61.205  -59.867  -56.939  -52.596  -47.149  -41.032  -34.730  -28.717  -23.408  -19.120  -16.032  -14.152  -13.316  -13.214  -13.486  -13.811  -13.992  -13.949  -13.680  -13.227  -12.649  -12.011  -11.430  -11.023  -10.899  -11.074  -11.446  -11.884  -12.293  -12.629  -12.879  -13.040  -13.099  -13.101  -13.136  -13.289  -13.601  -14.033  -14.527  -15.031  -15.531  -15.992  -16.382  -16.682  -16.905  -17.093  -17.314  -17.587  -17.894  -18.182  -18.402  -18.502  -18.480  -18.349  -18.203  -18.158  -18.370  -18.945  -19.905  -21.153  -22.528  -23.861  -25.014  -25.924  -26.564  -26.963  -27.173  -27.265  -27.300  -27.338  -27.407  -27.512  -27.650  -27.822  -28.038  -28.287  -28.574  -28.874  -29.167  -29.423  -29.628  -29.777  -29.883  -29.958  -30.016  -30.076  -30.203  -30.546  -31.381  -33.132  -36.286  -41.128  -47.358  -54.053  -60.156  -65.011  -68.482  -70.714  -71.740  -71.027
 -57.858  -56.628  -54.014  -50.182  -45.407  -40.030  -34.416  -28.944  -23.964  -19.780  -16.590  -14.445  -13.203  -12.601  -12.330  -12.132  -11.850  -11.440  -10.922  -10.352   -9.796   -9.324   -8.990   -8.832   -8.872   -9.085   -9.418   -9.812  -10.225  -10.625  -10.953  -11.142  -11.149  -11.021  -10.906  -10.950  -11.214  -11.663  -12.216  -12.800  -13.377  -13.905  -14.351  -14.679  -14.908  -15.097  -15.318  -15.603  -15.934  -16.266  -16.531  -16.674  -16.667  -16.512  -16.299  -16.152  -16.232  -16.657  -17.452  -18.555  -19.819  -21.081  -22.207  -23.114  -23.767  -24.177  -24.400  -24.509  -24.583  -24.675  -24.815  -25.017  -25.283  -25.616  -26.021  -26.498  -27.036  -27.603  -28.161  -28.661  -29.068  -29.377  -29.590  -29.732  -29.823  -29.897  -30.012  -30.297  -30.992  -32.477  -35.199  -39.477  -45.156  -51.496  -57.553  -62.697  -66.746  -69.704  -71.391  -71.091
 -54.846  -53.676  -51.298  -47.888  -43.719  -39.085  -34.262  -29.523  -25.132  -21.330  -18.290  -16.059  -14.542  -13.549  -12.848  -12.247  -11.629  -10.934  -10.183   -9.407   -8.678   -8.068   -7.642   -7.414   -7.388   -7.523   -7.783   -8.160   -8.638   -9.161   -9.620   -9.868   -9.811   -9.524   -9.203   -9.055   -9.188   -9.553  -10.064  -10.622  -11.177  -11.688  -12.103  -12.391  -12.578  -12.727  -12.904  -13.142  -13.441  -13.760  -14.033  -14.201  -14.206  -14.052  -13.811  -13.604  -13.589  -13.887  -14.523  -15.443  -16.522  -17.619  -18.611  -19.417  -19.991  -20.350  -20.552  -20.673  -20.783  -20.938  -21.169  -21.490  -21.907  -22.436  -23.083  -23.854  -24.716  -25.634  -26.541  -27.358  -28.026  -28.526  -28.870  -29.081  -29.206  -29.282  -29.360  -29.542  -30.012  -31.052  -33.030  -36.266  -40.765  -46.075  -51.492  -56.467  -60.761  -64.226  -66.472  -66.685
 -52.142  -51.008  -48.807  -45.742  -42.107  -38.173  -34.149  -30.217  -26.544  -23.287  -20.558  -18.390  -16.723  -15.432  -14.373  -13.424  -12.496  -11.542  -10.545   -9.525   -8.539   -7.680   -7.027   -6.608   -6.427   -6.449   -6.647   -7.028   -7.584   -8.248   -8.846   -9.174   -9.106   -8.708   -8.219   -7.889   -7.848   -8.068   -8.447   -8.883   -9.308   -9.683   -9.972  -10.154  -10.255  -10.326  -10.421  -10.572  -10.787  -11.033  -11.259  -11.406  -11.407  -11.253  -11.003  -10.773  -10.694  -10.879  -11.349  -12.056  -12.895  -13.758  -14.536  -15.160  -15.597  -15.862  -16.023  -16.143  -16.285  -16.498  -16.810  -17.237  -17.805  -18.527  -19.416  -20.478  -21.678  -22.961  -24.233  -25.384  -26.328  -27.020  -27.480  -27.752  -27.897  -27.961  -27.993  -28.064  -28.297  -28.884  -30.083  -32.156  -35.209  -39.055  -43.296  -47.570  -51.651  -55.259  -57.838  -58.558
 -49.697  -48.602  -46.537  -43.751  -40.556  -37.218  -33.900  -30.706  -27.720  -25.016  -22.649  -20.621  -18.895  -17.404  -16.058  -14.801  -13.592  -12.397  -11.190   -9.969   -8.787   -7.728   -6.886   -6.320   -6.016   -5.937   -6.073   -6.435   -7.022   -7.757   -8.445   -8.850   -8.830   -8.445   -7.921   -7.506   -7.342   -7.412   -7.623   -7.881   -8.119   -8.297   -8.401   -8.430   -8.417   -8.400   -8.399   -8.448   -8.540   -8.672   -8.801   -8.880   -8.846   -8.685   -8.435   -8.179   -8.038   -8.099   -8.389   -8.872   -9.469  -10.085  -10.635  -11.058  -11.337  -11.502  -11.603  -11.708  -11.859  -12.099  -12.453  -12.943  -13.602  -14.457  -15.511  -16.766  -18.196  -19.742  -21.288  -22.690  -23.831  -24.655  -25.186  -25.490  -25.634  -25.672  -25.647  -25.614  -25.658  -25.892  -26.481  -27.594  -29.348  -31.712  -34.545  -37.696  -41.044  -44.283  -46.802  -47.866
 -47.244  -46.192  -44.252  -41.701  -38.870  -36.014  -33.262  -30.662  -28.236  -26.000  -23.956  -22.088  -20.364  -18.740  -17.187  -15.684  -14.244  -12.866  -11.540  -10.259   -9.046   -7.980   -7.139   -6.562   -6.233   -6.121   -6.218   -6.529   -7.060   -7.742   -8.395   -8.815   -8.873   -8.589   -8.157   -7.784   -7.590   -7.572   -7.660   -7.761   -7.822   -7.819   -7.739   -7.624   -7.498   -7.400   -7.326   -7.276   -7.257   -7.263   -7.276   -7.268   -7.189   -7.011   -6.750   -6.467   -6.247   -6.171   -6.291   -6.586   -6.988   -7.422   -7.797   -8.065   -8.216   -8.286   -8.323   -8.381   -8.500   -8.705   -9.029   -9.501  -10.159  -11.014  -12.071  -13.327  -14.767  -16.338  -17.921  -19.366  -20.530  -21.354  -21.869  -22.158  -22.280  -22.281  -22.198  -22.079  -21.994  -22.012  -22.223  -22.706  -23.541  -24.757  -26.347  -28.317  -30.645  -33.100  -35.154  -36.281
 -44.338  -43.326  -41.532  -39.219  -36.721  -34.266  -31.961  -29.819  -27.821  -25.946  -24.172  -22.463  -20.793  -19.130  -17.468  -15.845  -14.297  -12.872  -11.592  -10.447   -9.444   -8.619   -7.999   -7.607   -7.420   -7.400   -7.530   -7.802   -8.218   -8.722   -9.203   -9.512   -9.554   -9.346   -9.018   -8.723   -8.546   -8.503   -8.519   -8.530   -8.479   -8.347   -8.142   -7.903   -7.691   -7.517   -7.373   -7.242   -7.127   -7.031   -6.962   -6.899   -6.796   -6.624   -6.375   -6.075   -5.785   -5.603   -5.594   -5.783   -6.103   -6.467   -6.765   -6.949   -7.022   -7.015   -6.983   -6.968   -6.995   -7.097   -7.313   -7.690   -8.244   -8.968   -9.837  -10.855  -12.020  -13.294  -14.585  -15.744  -16.658  -17.289  -17.678  -17.890  -17.964  -17.930  -17.807  -17.639  -17.490  -17.407  -17.436  -17.593  -17.906  -18.410  -19.165  -20.249  -21.687  -23.328  -24.780  -25.783
 -40.647  -39.666  -38.065  -36.044  -33.899  -31.823  -29.902  -28.133  -26.472  -24.888  -23.353  -21.832  -20.295  -18.739  -17.170  -15.644  -14.229  -13.014  -12.033  -11.287  -10.755  -10.414  -10.254  -10.265  -10.418  -10.667  -10.977  -11.313  -11.639  -11.924  -12.100  -12.114  -11.930  -11.589  -11.183  -10.826  -10.592  -10.480  -10.434  -10.379  -10.266  -10.052   -9.745   -9.390   -9.042   -8.729   -8.451   -8.194   -7.957   -7.761   -7.619   -7.536   -7.460   -7.347   -7.158   -6.890   -6.588   -6.364   -6.324   -6.506   -6.858   -7.252   -7.566   -7.735   -7.771   -7.719   -7.621   -7.515   -7.438   -7.417   -7.499   -7.741   -8.142   -8.658   -9.243   -9.871  -10.541  -11.237  -11.896  -12.439  -12.806  -13.020  -13.137  -13.199  -13.210  -13.147  -13.011  -12.842  -12.691  -12.609  -12.597  -12.646  -12.743  -12.931  -13.290  -13.928  -14.880  -16.021  -17.069  -17.930
 -36.288  -35.349  -34.012  -32.357  -30.614  -28.938  -27.389  -25.957  -24.610  -23.312  -22.053  -20.812  -19.583  -18.371  -17.200  -16.130  -15.245  -14.612  -14.281  -14.228  -14.411  -14.777  -15.289  -15.919  -16.630  -17.380  -18.087  -18.667  -19.035  -19.140  -18.947  -18.465  -17.754  -16.903  -16.052  -15.316  -14.770  -14.417  -14.200  -14.028  -13.817  -13.499  -13.035  -12.466  -11.842  -11.212  -10.599  -10.032   -9.521   -9.117   -8.837   -8.679   -8.601   -8.540   -8.425   -8.227   -7.979   -7.792   -7.795   -8.038   -8.463   -8.923   -9.272   -9.456   -9.487   -9.415   -9.281   -9.124   -8.975   -8.871   -8.879   -9.036   -9.324   -9.677  -10.010  -10.270  -10.439  -10.487  -10.386  -10.120   -9.749   -9.378   -9.103   -8.948   -8.853   -8.756   -8.633   -8.498   -8.400   -8.386   -8.443   -8.526   -8.628   -8.776   -9.074   -9.653  -10.524  -11.560  -12.488  -13.288
 -31.961  -31.104  -30.090  -28.862  -27.571  -26.333  -25.190  -24.140  -23.168  -22.257  -21.414  -20.652  -19.996  -19.473  -19.112  -18.960  -19.055  -19.432  -20.088  -20.992  -22.081  -23.306  -24.631  -26.041  -27.502  -28.955  -30.269  -31.293  -31.872  -31.906  -31.358  -30.266  -28.761  -27.030  -25.293  -23.749  -22.520  -21.636  -21.034  -20.589  -20.163  -19.618  -18.873  -17.923  -16.819  -15.622  -14.401  -13.224  -12.168  -11.296  -10.639  -10.201   -9.938   -9.772   -9.622   -9.422   -9.201   -9.039   -9.067   -9.331   -9.761  -10.215  -10.557  -10.724  -10.745  -10.665  -10.530  -10.375  -10.228  -10.135  -10.164  -10.337  -10.619  -10.920  -11.145  -11.220  -11.099  -10.720  -10.046   -9.112   -8.060   -7.115   -6.422   -5.997   -5.757   -5.596   -5.456   -5.352   -5.327   -5.408   -5.599   -5.835   -6.080   -6.354   -6.765   -7.457   -8.445   -9.574  -10.554  -11.335
 -28.603  -27.882  -27.213  -26.438  -25.634  -24.888  -24.242  -23.704  -23.269  -22.943  -22.759  -22.762  -23.016  -23.562  -24.432  -25.598  -27.026  -28.664  -30.465  -32.386  -34.389  -36.460  -38.597  -40.816  -43.087  -45.314  -47.323  -48.887  -49.797  -49.901  -49.130  -47.523  -45.225  -42.496  -39.656  -37.012  -34.795  -33.095  -31.859  -30.927  -30.098  -29.171  -28.014  -26.566  -24.851  -22.934  -20.912  -18.910  -17.033  -15.374  -13.995  -12.909  -12.082  -11.458  -10.950  -10.491  -10.067   -9.757   -9.642   -9.749  -10.016  -10.319  -10.534  -10.624  -10.603  -10.506  -10.383  -10.262  -10.165  -10.146  -10.251  -10.502  -10.849  -11.203  -11.475  -11.594  -11.493  -11.067  -10.250   -9.066   -7.698   -6.414   -5.423   -4.768   -4.352   -4.074   -3.876   -3.752   -3.768   -3.961   -4.328   -4.794   -5.258   -5.710   -6.239   -6.992   -8.021   -9.165  -10.142  -10.871
 -26.789  -26.231  -25.902  -25.583  -25.311  -25.144  -25.130  -25.277  -25.585  -26.066  -26.770  -27.774  -29.172  -31.021  -33.293  -35.890  -38.655  -41.455  -44.214  -46.915  -49.585  -52.275  -55.046  -57.929  -60.890  -63.788  -66.396  -68.448  -69.709  -70.013  -69.272  -67.499  -64.815  -61.471  -57.818  -54.248  -51.088  -48.516  -46.528  -44.965  -43.595  -42.182  -40.549  -38.605  -36.332  -33.785  -31.055  -28.258  -25.508  -22.902  -20.520  -18.411  -16.578  -15.004  -13.635  -12.425  -11.364  -10.509   -9.906   -9.557   -9.406   -9.352   -9.300   -9.216   -9.096   -8.962   -8.826   -8.714   -8.653   -8.691   -8.863   -9.173   -9.572   -9.988  -10.371  -10.671  -10.810  -10.679  -10.151   -9.210   -7.994   -6.762   -5.725   -4.961   -4.412   -3.995   -3.685   -3.503   -3.532   -3.832   -4.396   -5.111   -5.802   -6.383   -6.916   -7.552   -8.375   -9.297  -10.093  -10.688
 -26.673  -26.282  -26.277  -26.412  -26.707  -27.201  -27.918  -28.856  -29.999  -31.351  -32.975  -34.978  -37.466  -40.480  -43.939  -47.642  -51.352  -54.892  -58.191  -61.295  -64.308  -67.348  -70.521  -73.868  -77.328  -80.716  -83.767  -86.203  -87.793  -88.382  -87.890  -86.327  -83.791  -80.487  -76.718  -72.857  -69.256  -66.156  -63.609  -61.500  -59.614  -57.732  -55.677  -53.352  -50.721  -47.810  -44.674  -41.381  -37.999  -34.590  -31.213  -27.933  -24.807  -21.873  -19.148  -16.644  -14.405  -12.489  -10.934   -9.733   -8.848   -8.201   -7.720   -7.358   -7.067   -6.839   -6.648   -6.499   -6.419   -6.442   -6.588   -6.859   -7.226   -7.641   -8.088   -8.548   -8.968   -9.249   -9.232   -8.842   -8.125   -7.275   -6.462   -5.768   -5.172   -4.662   -4.258   -4.026   -4.066   -4.456   -5.171   -6.066   -6.904   -7.513   -7.912   -8.249   -8.665   -9.159   -9.605  -10.025
 -28.605  -28.370  -28.650  -29.198  -30.020  -31.130  -32.519  -34.153  -35.992  -38.029  -40.335  -43.029  -46.223  -49.936  -54.043  -58.296  -62.424  -66.249  -69.734  -72.971  -76.118  -79.344  -82.777  -86.463  -90.322  -94.140  -97.631 -100.497 -102.490 -103.444 -103.291 -102.064  -99.898  -96.999  -93.635  -90.097  -86.678  -83.587  -80.894  -78.531  -76.337  -74.143  -71.808  -69.254  -66.458  -63.424  -60.169  -56.706  -53.028  -49.134  -45.037  -40.778  -36.425  -32.070  -27.804  -23.723  -19.936  -16.544  -13.625  -11.207   -9.281   -7.801   -6.721   -5.961   -5.431   -5.062   -4.779   -4.557   -4.407   -4.342   -4.381   -4.538   -4.786   -5.114   -5.514   -6.010   -6.575   -7.145   -7.572   -7.734   -7.602   -7.266   -6.814   -6.324   -5.813   -5.316   -4.895   -4.661   -4.721   -5.144   -5.907   -6.843   -7.665   -8.176   -8.356   -8.345   -8.322   -8.359   -8.449   -8.693
 -33.337  -33.271  -33.751  -34.568  -35.726  -37.218  -39.005  -41.013  -43.190  -45.523  -48.082  -50.989  -54.348  -58.176  -62.343  -66.603  -70.701  -74.477  -77.912  -81.113  -84.261  -87.545  -91.111  -95.010  -99.168 -103.384 -107.365 -110.794 -113.369 -114.875 -115.225 -114.464 -112.767 -110.384 -107.587 -104.631 -101.724  -99.004  -96.511  -94.188  -91.925  -89.603  -87.131  -84.466  -81.595  -78.523  -75.247  -71.739  -67.947  -63.812  -59.296  -54.399  -49.174  -43.717  -38.166  -32.667  -27.391  -22.488  -18.087  -14.274  -11.105   -8.604   -6.762   -5.487   -4.641   -4.077   -3.673   -3.364   -3.132   -2.982   -2.922   -2.951   -3.074   -3.263   -3.547   -3.952   -4.486   -5.112   -5.730   -6.214   -6.501   -6.577   -6.484   -6.249   -5.904   -5.510   -5.166   -4.982   -5.057   -5.445   -6.115   -6.896   -7.542   -7.856   -7.813   -7.556   -7.257   -7.015   -6.894   -7.050
 -41.070  -41.255  -41.820  -42.696  -43.910  -45.447  -47.246  -49.226  -51.329  -53.543  -55.926  -58.587  -61.627  -65.065  -68.800  -72.629  -76.343  -79.800  -82.984  -85.995  -88.995  -92.163  -95.637  -99.472 -103.611 -107.880 -112.031 -115.779 -118.846 -121.029 -122.208 -122.380 -121.658 -120.221 -118.306 -116.147 -113.928 -111.747 -109.625 -107.506 -105.316 -102.973 -100.435  -97.686  -94.732  -91.588  -88.241  -84.648  -80.740  -76.432  -71.657  -66.388  -60.658  -54.554  -48.213  -41.801  -35.486  -29.435  -23.790  -18.691  -14.272  -10.669   -7.933   -6.004   -4.718   -3.875   -3.307   -2.904   -2.618   -2.434   -2.338   -2.314   -2.357   -2.443   -2.610   -2.878   -3.276   -3.801   -4.381   -4.926   -5.365   -5.653   -5.781   -5.750   -5.587   -5.339   -5.115   -4.993   -5.050   -5.321   -5.764   -6.253   -6.607   -6.688   -6.496   -6.168   -5.831   -5.586   -5.466   -5.637
 -50.426  -50.964  -51.563  -52.372  -53.452  -54.792  -56.339  -58.021  -59.783  -61.613  -63.559  -65.708  -68.147  -70.905  -73.919  -77.054  -80.152  -83.107  -85.899  -88.592  -91.304  -94.168  -97.290 -100.711 -104.386 -108.176 -111.897 -115.363 -118.438 -121.034 -123.093 -124.552 -125.370 -125.536 -125.110 -124.215 -122.995 -121.553 -119.933 -118.119 -116.067 -113.750 -111.155 -108.298 -105.210 -101.912  -98.405  -94.646  -90.567  -86.081  -81.121  -75.653  -69.703  -63.352  -56.730  -49.979  -43.238  -36.619  -30.229  -24.205  -18.745  -14.068  -10.346   -7.598   -5.684   -4.407   -3.579   -3.055   -2.737   -2.581   -2.521   -2.518   -2.531   -2.549   -2.600   -2.735   -3.005   -3.392   -3.873   -4.355   -4.789   -5.125   -5.329   -5.405   -5.353   -5.233   -5.098   -5.012   -5.015   -5.114   -5.271   -5.415   -5.448   -5.309   -5.053   -4.795   -4.636   -4.593   -4.636   -4.899
 -59.020  -59.951  -60.618  -61.372  -62.308  -63.427  -64.685  -66.026  -67.404  -68.812  -70.286  -71.895  -73.709  -75.759  -78.023  -80.426  -82.868  -85.277  -87.627  -89.943  -92.280  -94.705  -97.276 -100.017 -102.896 -105.828 -108.715 -111.495 -114.168 -116.777 -119.347 -121.844 -124.146 -126.083 -127.479 -128.255 -128.400 -127.971 -127.034 -125.634 -123.795 -121.535 -118.888 -115.898 -112.628 -109.120 -105.392 -101.425  -97.169  -92.553  -87.516  -82.033  -76.129  -69.886  -63.417  -56.834  -50.218  -43.606  -37.031  -30.571  -24.423  -18.869  -14.176  -10.470   -7.726   -5.811   -4.556   -3.815   -3.455   -3.346   -3.376   -3.426   -3.424   -3.342   -3.240   -3.219   -3.352   -3.653   -4.071   -4.519   -4.930   -5.258   -5.471   -5.560   -5.547   -5.481   -5.384   -5.291   -5.214   -5.132   -5.023   -4.855   -4.613   -4.320   -4.063   -3.967   -4.079   -4.336   -4.624   -5.008
 -64.956  -66.201  -66.984  -67.766  -68.657  -69.660  -70.738  -71.848  -72.955  -74.053  -75.175  -76.375  -77.710  -79.219  -80.906  -82.736  -84.655  -86.614  -88.581  -90.543  -92.503  -94.464  -96.431  -98.393 -100.335 -102.235 -104.107 -106.017 -108.090 -110.456 -113.187 -116.252 -119.523 -122.773 -125.734 -128.130 -129.762 -130.544 -130.481 -129.650 -128.129 -126.002 -123.344 -120.241 -116.787 -113.058 -109.119 -104.982 -100.623  -95.993  -91.046  -85.762  -80.167  -74.329  -68.340  -62.272  -56.150  -49.944  -43.612  -37.168  -30.759  -24.661  -19.188  -14.560  -10.891   -8.177   -6.348   -5.282   -4.805   -4.724   -4.830   -4.916   -4.841   -4.579   -4.238   -3.970   -3.930   -4.138   -4.520   -4.972   -5.406   -5.736   -5.934   -5.998   -5.967   -5.891   -5.792   -5.669   -5.512   -5.282   -4.985   -4.622   -4.225   -3.887   -3.726   -3.862   -4.286   -4.878   -5.436   -5.948
 -67.364  -68.759  -69.666  -70.549  -71.498  -72.508  -73.541  -74.565  -75.551  -76.501  -77.438  -78.413  -79.482  -80.688  -82.052  -83.562  -85.188  -86.891  -88.624  -90.351  -92.035  -93.634  -95.104  -96.400  -97.495  -98.401  -99.212 -100.119 -101.384 -103.253 -105.855 -109.146 -112.935 -116.955 -120.906 -124.465 -127.326 -129.256 -130.150 -130.022 -128.974 -127.111 -124.545 -121.404 -117.821 -113.939 -109.859 -105.644 -101.302  -96.807  -92.122  -87.228  -82.137  -76.896  -71.559  -66.155  -60.665  -55.020  -49.139  -42.996  -36.687  -30.445  -24.554  -19.283  -14.838  -11.361   -8.909   -7.417   -6.721   -6.569   -6.658   -6.705   -6.496   -5.992   -5.323   -4.735   -4.433   -4.470   -4.771   -5.204   -5.634   -5.964   -6.133   -6.154   -6.081   -5.967   -5.845   -5.695   -5.488   -5.190   -4.821   -4.414   -4.049   -3.837   -3.919   -4.377   -5.168   -6.098   -6.916   -7.533
 -66.342  -67.702  -68.701  -69.706  -70.766  -71.856  -72.940  -73.988  -74.978  -75.910  -76.810  -77.728  -78.725  -79.853  -81.141  -82.590  -84.172  -85.843  -87.543  -89.212  -90.789  -92.208  -93.398  -94.277  -94.793  -94.952  -94.874  -94.817  -95.148  -96.243  -98.348 -101.480 -105.420 -109.826 -114.324 -118.562 -122.214 -124.986 -126.687 -127.258 -126.748 -125.253 -122.896 -119.829 -116.235 -112.300 -108.190 -104.008  -99.804  -95.571  -91.275  -86.887  -82.396  -77.810  -73.141  -68.380  -63.484  -58.375  -52.972  -47.239  -41.249  -35.181  -29.274  -23.764  -18.898  -14.896  -11.916   -9.974   -8.936   -8.542   -8.470   -8.371   -7.983   -7.224   -6.247   -5.333   -4.733   -4.522   -4.639   -4.940   -5.286   -5.557   -5.681   -5.656   -5.543   -5.399   -5.257   -5.099   -4.893   -4.617   -4.311   -4.030   -3.875   -3.969   -4.426   -5.290   -6.451   -7.689   -8.719   -9.406
 -62.935  -64.121  -65.151  -66.246  -67.402  -68.580  -69.741  -70.857  -71.909  -72.896  -73.847  -74.816  -75.874  -77.084  -78.481  -80.064  -81.799  -83.623  -85.462  -87.238  -88.875  -90.296  -91.412  -92.130  -92.366  -92.108  -91.463  -90.698  -90.213  -90.457  -91.790  -94.348  -98.009 -102.436 -107.189 -111.824 -115.950 -119.250 -121.495 -122.585 -122.529 -121.393 -119.293 -116.387 -112.879 -109.001 -104.957 -100.906  -96.927  -93.031  -89.183  -85.329  -81.423  -77.436  -73.343  -69.109  -64.685  -60.011  -55.020  -49.695  -44.099  -38.384  -32.731  -27.336  -22.409  -18.179  -14.850  -12.499  -11.045  -10.281   -9.914   -9.580   -8.997   -8.045   -6.849   -5.695   -4.834   -4.359   -4.219   -4.297   -4.469   -4.620   -4.670   -4.609   -4.475   -4.325   -4.183   -4.045   -3.894   -3.727   -3.587   -3.554   -3.728   -4.215   -5.089   -6.324   -7.780   -9.217  -10.347  -11.060
 -58.846  -59.835  -60.838  -61.953  -63.143  -64.360  -65.565  -66.729  -67.836  -68.887  -69.907  -70.959  -72.126  -73.478  -75.054  -76.848  -78.804  -80.850  -82.893  -84.841  -86.610  -88.123  -89.286  -89.994  -90.157  -89.740  -88.835  -87.684  -86.674  -86.261  -86.848  -88.675  -91.747  -95.834 -100.517 -105.288 -109.668 -113.276 -115.851 -117.275 -117.530 -116.674 -114.805 -112.083 -108.724 -104.978 -101.085  -97.235  -93.532  -89.997  -86.582  -83.210  -79.800  -76.292  -72.638  -68.793  -64.716  -60.365  -55.703  -50.726  -45.501  -40.159  -34.846  -29.711  -24.923  -20.682  -17.182  -14.523  -12.681  -11.528  -10.823  -10.261   -9.520   -8.453   -7.149   -5.868   -4.839   -4.157   -3.779   -3.629   -3.603   -3.611   -3.589   -3.508   -3.379   -3.239   -3.119   -3.022   -2.957   -2.923   -2.978   -3.204   -3.699   -4.523   -5.711   -7.196   -8.814  -10.317  -11.465  -12.176
 -55.626  -56.530  -57.481  -58.552  -59.702  -60.887  -62.071  -63.227  -64.337  -65.402  -66.454  -67.551  -68.784  -70.225  -71.911  -73.826  -75.911  -78.081  -80.235  -82.278  -84.126  -85.697  -86.902  -87.637  -87.808  -87.376  -86.416  -85.150  -83.931  -83.180  -83.295  -84.552  -87.036  -90.617  -94.952  -99.563 -103.946 -107.670 -110.432 -112.062 -112.520 -111.849 -110.146 -107.581 -104.382 -100.812  -97.125  -93.520  -90.106  -86.901  -83.847  -80.849  -77.811  -74.656  -71.326  -67.776  -63.974  -59.894  -55.511  -50.835  -45.927  -40.904  -35.889  -31.003  -26.381  -22.203  -18.654  -15.837  -13.769  -12.367  -11.448  -10.723   -9.886   -8.772   -7.448   -6.131   -5.033   -4.239   -3.730   -3.434   -3.289   -3.209   -3.138   -3.045   -2.925   -2.798   -2.695   -2.630   -2.616   -2.676   -2.848   -3.231   -3.887   -4.885   -6.215   -7.799   -9.450  -10.946  -12.087  -12.869
