DSAA
 100 100
 0.0 400.0
 0.0 400.0
 -53.18309 -0.6863977
  -1.023   -0.909   -0.966   -1.073   -1.229   -1.406   -1.590   -1.746   -1.846   -1.867   -1.789   -1.619   -1.393   -1.158   -0.960   -0.830   -0.793   -0.857   -1.039   -1.327   -1.662   -1.935   -2.044   -1.966   -1.784   -1.620   -1.561   -1.592   -1.639   -1.641   -1.585   -1.492   -1.405   -1.327   -1.267   -1.214   -1.178   -1.184   -1.262   -1.423   -1.654   -1.907   -2.145   -2.349   -2.490   -2.541   -2.486   -2.374   -2.283   -2.254   -2.275   -2.306   -2.319   -2.310   -2.278   -2.215   -2.106   -1.960   -1.814   -1.718   -1.714   -1.769   -1.801   -1.733   -1.549   -1.310   -1.109   -1.016   -1.032   -1.115   -1.204   -1.279   -1.356   -1.441   -1.505   -1.498   -1.406   -1.276   -1.164   -1.104   -1.102   -1.141   -1.209   -1.271   -1.315   -1.354   -1.423   -1.555   -1.757   -2.017   -2.291   -2.522   -2.646   -2.609   -2.395   -2.055   -1.672   -1.330   -1.100   -1.127
  -1.089   -1.044   -1.120   -1.243   -1.404   -1.588   -1.768   -1.916   -2.004   -2.004   -1.906   -1.715   -1.466   -1.208   -0.989   -0.839   -0.786   -0.835   -0.998   -1.262   -1.571   -1.823   -1.921   -1.849   -1.678   -1.523   -1.462   -1.487   -1.537   -1.560   -1.535   -1.475   -1.402   -1.327   -1.259   -1.199   -1.163   -1.168   -1.239   -1.381   -1.579   -1.793   -1.993   -2.161   -2.285   -2.343   -2.328   -2.281   -2.262   -2.303   -2.373   -2.429   -2.448   -2.427   -2.375   -2.284   -2.139   -1.951   -1.757   -1.622   -1.580   -1.606   -1.624   -1.564   -1.402   -1.196   -1.029   -0.959   -0.986   -1.074   -1.161   -1.227   -1.293   -1.373   -1.436   -1.437   -1.355   -1.240   -1.147   -1.103   -1.113   -1.165   -1.232   -1.297   -1.350   -1.409   -1.504   -1.662   -1.898   -2.191   -2.505   -2.780   -2.935   -2.904   -2.664   -2.269   -1.820   -1.420   -1.145   -1.097
  -1.494   -1.467   -1.557   -1.695   -1.866   -2.047   -2.215   -2.338   -2.393   -2.357   -2.222   -2.000   -1.720   -1.425   -1.165   -0.974   -0.879   -0.890   -1.010   -1.218   -1.467   -1.667   -1.746   -1.690   -1.552   -1.424   -1.366   -1.379   -1.429   -1.483   -1.512   -1.506   -1.462   -1.395   -1.323   -1.265   -1.236   -1.245   -1.305   -1.416   -1.559   -1.709   -1.844   -1.958   -2.049   -2.107   -2.142   -2.184   -2.270   -2.401   -2.533   -2.619   -2.640   -2.605   -2.523   -2.389   -2.198   -1.963   -1.725   -1.545   -1.455   -1.437   -1.430   -1.378   -1.260   -1.118   -1.008   -0.971   -1.010   -1.087   -1.162   -1.219   -1.270   -1.339   -1.402   -1.419   -1.368   -1.291   -1.237   -1.228   -1.263   -1.319   -1.381   -1.436   -1.494   -1.581   -1.715   -1.916   -2.188   -2.527   -2.902   -3.248   -3.466   -3.460   -3.203   -2.751   -2.229   -1.762   -1.441   -1.361
  -2.052   -2.039   -2.137   -2.281   -2.447   -2.614   -2.752   -2.844   -2.861   -2.787   -2.622   -2.368   -2.054   -1.719   -1.407   -1.160   -1.004   -0.951   -0.999   -1.129   -1.294   -1.431   -1.490   -1.455   -1.364   -1.272   -1.222   -1.223   -1.270   -1.347   -1.421   -1.462   -1.452   -1.401   -1.343   -1.307   -1.301   -1.328   -1.384   -1.465   -1.566   -1.668   -1.758   -1.834   -1.894   -1.944   -1.996   -2.075   -2.204   -2.369   -2.520   -2.610   -2.626   -2.573   -2.471   -2.318   -2.122   -1.893   -1.671   -1.493   -1.390   -1.342   -1.307   -1.251   -1.167   -1.080   -1.018   -1.005   -1.038   -1.099   -1.161   -1.208   -1.255   -1.320   -1.389   -1.428   -1.421   -1.397   -1.397   -1.430   -1.482   -1.530   -1.569   -1.598   -1.645   -1.738   -1.897   -2.122   -2.419   -2.792   -3.222   -3.643   -3.936   -3.987   -3.757   -3.305   -2.765   -2.276   -1.936   -1.842
  -2.655   -2.646   -2.738   -2.871   -3.013   -3.150   -3.258   -3.313   -3.300   -3.201   -3.016   -2.749   -2.417   -2.053   -1.702   -1.397   -1.168   -1.034   -0.994   -1.028   -1.104   -1.176   -1.214   -1.200   -1.152   -1.097   -1.056   -1.045   -1.079   -1.155   -1.243   -1.304   -1.318   -1.295   -1.272   -1.272   -1.301   -1.351   -1.410   -1.484   -1.567   -1.658   -1.746   -1.816   -1.867   -1.904   -1.939   -1.994   -2.083   -2.199   -2.303   -2.363   -2.361   -2.302   -2.207   -2.081   -1.933   -1.779   -1.634   -1.515   -1.429   -1.361   -1.291   -1.211   -1.133   -1.072   -1.041   -1.038   -1.065   -1.110   -1.161   -1.211   -1.266   -1.333   -1.402   -1.460   -1.499   -1.537   -1.594   -1.664   -1.721   -1.748   -1.747   -1.739   -1.762   -1.848   -2.004   -2.230   -2.529   -2.919   -3.391   -3.874   -4.241   -4.365   -4.210   -3.829   -3.351   -2.906   -2.595   -2.507
  -3.208   -3.198   -3.269   -3.370   -3.479   -3.578   -3.647   -3.672   -3.642   -3.539   -3.356   -3.098   -2.772   -2.409   -2.040   -1.697   -1.412   -1.203   -1.074   -1.013   -1.001   -1.010   -1.021   -1.017   -0.999   -0.966   -0.934   -0.910   -0.923   -0.975   -1.050   -1.109   -1.133   -1.139   -1.150   -1.180   -1.228   -1.286   -1.350   -1.424   -1.508   -1.608   -1.713   -1.803   -1.871   -1.913   -1.935   -1.948   -1.962   -1.987   -2.011   -2.023   -2.003   -1.958   -1.896   -1.823   -1.754   -1.693   -1.636   -1.580   -1.511   -1.417   -1.304   -1.190   -1.098   -1.045   -1.029   -1.038   -1.067   -1.115   -1.178   -1.245   -1.312   -1.376   -1.437   -1.499   -1.571   -1.659   -1.763   -1.853   -1.903   -1.906   -1.881   -1.856   -1.866   -1.945   -2.094   -2.316   -2.616   -3.020   -3.527   -4.061   -4.492   -4.696   -4.630   -4.353   -3.973   -3.600   -3.332   -3.251
  -3.649   -3.630   -3.674   -3.739   -3.808   -3.866   -3.901   -3.905   -3.869   -3.774   -3.612   -3.381   -3.086   -2.752   -2.395   -2.053   -1.741   -1.483   -1.285   -1.148   -1.062   -1.017   -0.997   -0.991   -0.983   -0.964   -0.932   -0.905   -0.897   -0.926   -0.977   -1.027   -1.058   -1.079   -1.093   -1.111   -1.140   -1.177   -1.226   -1.292   -1.373   -1.469   -1.578   -1.681   -1.774   -1.842   -1.876   -1.873   -1.844   -1.804   -1.770   -1.741   -1.720   -1.698   -1.679   -1.660   -1.646   -1.640   -1.626   -1.589   -1.509   -1.389   -1.245   -1.108   -1.010   -0.968   -0.969   -1.001   -1.049   -1.120   -1.207   -1.301   -1.380   -1.436   -1.484   -1.543   -1.634   -1.749   -1.865   -1.947   -1.981   -1.974   -1.951   -1.950   -1.994   -2.095   -2.256   -2.487   -2.800   -3.231   -3.777   -4.360   -4.856   -5.137   -5.163   -4.978   -4.670   -4.339   -4.078   -3.990
  -3.960   -3.929   -3.946   -3.979   -4.008   -4.032   -4.042   -4.032   -3.994   -3.915   -3.778   -3.582   -3.330   -3.041   -2.728   -2.412   -2.106   -1.829   -1.592   -1.402   -1.265   -1.178   -1.136   -1.126   -1.123   -1.110   -1.086   -1.067   -1.065   -1.091   -1.136   -1.185   -1.217   -1.226   -1.210   -1.175   -1.143   -1.123   -1.131   -1.164   -1.213   -1.278   -1.359   -1.454   -1.554   -1.643   -1.704   -1.722   -1.695   -1.639   -1.581   -1.544   -1.535   -1.546   -1.561   -1.572   -1.574   -1.562   -1.537   -1.480   -1.384   -1.251   -1.105   -0.984   -0.913   -0.896   -0.916   -0.966   -1.037   -1.130   -1.242   -1.359   -1.448   -1.508   -1.553   -1.618   -1.715   -1.828   -1.924   -1.975   -1.983   -1.977   -1.997   -2.059   -2.173   -2.330   -2.530   -2.780   -3.115   -3.569   -4.151   -4.786   -5.348   -5.719   -5.837   -5.729   -5.462   -5.131   -4.844   -4.732
  -4.152   -4.112   -4.109   -4.115   -4.121   -4.121   -4.112   -4.093   -4.056   -3.989   -3.874   -3.708   -3.494   -3.250   -2.985   -2.705   -2.422   -2.142   -1.889   -1.670   -1.504   -1.396   -1.348   -1.338   -1.344   -1.348   -1.352   -1.370   -1.411   -1.471   -1.539   -1.596   -1.620   -1.599   -1.524   -1.415   -1.297   -1.204   -1.149   -1.128   -1.130   -1.144   -1.178   -1.234   -1.311   -1.399   -1.473   -1.514   -1.506   -1.462   -1.404   -1.370   -1.373   -1.407   -1.451   -1.476   -1.470   -1.437   -1.384   -1.310   -1.211   -1.097   -0.996   -0.929   -0.908   -0.922   -0.954   -0.999   -1.065   -1.158   -1.276   -1.399   -1.503   -1.582   -1.653   -1.740   -1.842   -1.940   -2.001   -2.018   -2.012   -2.027   -2.102   -2.243   -2.433   -2.646   -2.877   -3.146   -3.489   -3.959   -4.559   -5.235   -5.860   -6.316   -6.533   -6.507   -6.292   -5.971   -5.670   -5.538
  -4.256   -4.208   -4.195   -4.186   -4.179   -4.168   -4.152   -4.132   -4.097   -4.039   -3.938   -3.790   -3.601   -3.385   -3.149   -2.894   -2.620   -2.343   -2.080   -1.846   -1.666   -1.554   -1.512   -1.520   -1.549   -1.591   -1.651   -1.741   -1.858   -1.990   -2.103   -2.168   -2.171   -2.101   -1.960   -1.773   -1.583   -1.427   -1.318   -1.247   -1.196   -1.160   -1.143   -1.147   -1.183   -1.239   -1.299   -1.339   -1.335   -1.289   -1.226   -1.183   -1.183   -1.225   -1.281   -1.317   -1.318   -1.289   -1.241   -1.180   -1.112   -1.052   -1.022   -1.030   -1.065   -1.099   -1.117   -1.129   -1.156   -1.220   -1.320   -1.433   -1.542   -1.646   -1.753   -1.871   -1.991   -2.086   -2.135   -2.149   -2.164   -2.220   -2.353   -2.548   -2.776   -3.009   -3.241   -3.503   -3.840   -4.308   -4.912   -5.606   -6.270   -6.790   -7.094   -7.165   -7.039   -6.789   -6.532   -6.407
  -4.300   -4.250   -4.231   -4.219   -4.208   -4.197   -4.187   -4.171   -4.143   -4.091   -3.999   -3.862   -3.685   -3.474   -3.238   -2.980   -2.698   -2.409   -2.129   -1.883   -1.699   -1.594   -1.568   -1.603   -1.681   -1.788   -1.930   -2.115   -2.329   -2.537   -2.692   -2.758   -2.724   -2.596   -2.393   -2.152   -1.920   -1.731   -1.589   -1.481   -1.395   -1.323   -1.263   -1.227   -1.215   -1.230   -1.255   -1.268   -1.244   -1.176   -1.083   -1.009   -0.985   -1.013   -1.072   -1.127   -1.160   -1.172   -1.168   -1.157   -1.146   -1.155   -1.200   -1.276   -1.352   -1.390   -1.376   -1.337   -1.313   -1.337   -1.407   -1.501   -1.603   -1.714   -1.844   -1.991   -2.136   -2.258   -2.341   -2.402   -2.474   -2.588   -2.758   -2.966   -3.181   -3.381   -3.577   -3.806   -4.123   -4.577   -5.174   -5.859   -6.535   -7.087   -7.448   -7.604   -7.586   -7.456   -7.299   -7.214
  -4.317   -4.261   -4.244   -4.230   -4.221   -4.217   -4.212   -4.207   -4.188   -4.148   -4.067   -3.939   -3.764   -3.552   -3.298   -3.012   -2.698   -2.378   -2.072   -1.811   -1.623   -1.527   -1.525   -1.605   -1.745   -1.935   -2.173   -2.454   -2.752   -3.014   -3.186   -3.236   -3.158   -2.977   -2.730   -2.466   -2.230   -2.039   -1.882   -1.750   -1.633   -1.536   -1.460   -1.401   -1.362   -1.346   -1.339   -1.321   -1.261   -1.154   -1.019   -0.904   -0.843   -0.850   -0.903   -0.979   -1.054   -1.121   -1.179   -1.228   -1.283   -1.358   -1.461   -1.578   -1.672   -1.700   -1.654   -1.582   -1.536   -1.550   -1.613   -1.695   -1.782   -1.879   -2.006   -2.165   -2.336   -2.499   -2.646   -2.781   -2.920   -3.080   -3.261   -3.443   -3.607   -3.743   -3.882   -4.067   -4.356   -4.784   -5.355   -6.018   -6.677   -7.231   -7.617   -7.830   -7.903   -7.886   -7.835   -7.799
  -4.316   -4.261   -4.242   -4.229   -4.222   -4.222   -4.225   -4.227   -4.218   -4.188   -4.124   -4.013   -3.848   -3.631   -3.361   -3.040   -2.687   -2.325   -1.988   -1.707   -1.513   -1.425   -1.445   -1.567   -1.770   -2.039   -2.362   -2.713   -3.057   -3.335   -3.501   -3.524   -3.411   -3.198   -2.940   -2.689   -2.477   -2.295   -2.125   -1.961   -1.813   -1.697   -1.621   -1.570   -1.534   -1.513   -1.490   -1.447   -1.358   -1.217   -1.050   -0.901   -0.810   -0.796   -0.842   -0.932   -1.036   -1.148   -1.254   -1.356   -1.464   -1.586   -1.724   -1.859   -1.954   -1.974   -1.929   -1.877   -1.877   -1.939   -2.039   -2.130   -2.206   -2.279   -2.384   -2.533   -2.714   -2.912   -3.106   -3.293   -3.471   -3.644   -3.808   -3.949   -4.050   -4.124   -4.206   -4.349   -4.603   -4.989   -5.512   -6.128   -6.750   -7.288   -7.678   -7.921   -8.047   -8.100   -8.114   -8.115
  -4.309   -4.252   -4.232   -4.220   -4.214   -4.213   -4.219   -4.223   -4.223   -4.203   -4.157   -4.070   -3.925   -3.716   -3.441   -3.100   -2.713   -2.317   -1.950   -1.647   -1.441   -1.351   -1.380   -1.524   -1.765   -2.084   -2.453   -2.835   -3.188   -3.459   -3.608   -3.610   -3.480   -3.264   -3.027   -2.815   -2.635   -2.468   -2.280   -2.082   -1.905   -1.783   -1.719   -1.695   -1.689   -1.682   -1.665   -1.613   -1.507   -1.345   -1.155   -0.987   -0.879   -0.846   -0.885   -0.977   -1.099   -1.237   -1.372   -1.510   -1.659   -1.820   -1.987   -2.139   -2.244   -2.284   -2.290   -2.318   -2.421   -2.582   -2.745   -2.864   -2.936   -2.992   -3.076   -3.206   -3.375   -3.569   -3.768   -3.955   -4.124   -4.272   -4.399   -4.492   -4.546   -4.574   -4.618   -4.726   -4.936   -5.265   -5.716   -6.259   -6.824   -7.331   -7.718   -7.970   -8.117   -8.191   -8.227   -8.246
  -4.300   -4.242   -4.222   -4.208   -4.200   -4.199   -4.203   -4.207   -4.207   -4.196   -4.166   -4.104   -3.988   -3.802   -3.541   -3.202   -2.810   -2.399   -2.017   -1.698   -1.476   -1.363   -1.372   -1.494   -1.722   -2.034   -2.399   -2.778   -3.126   -3.394   -3.535   -3.533   -3.407   -3.210   -3.010   -2.845   -2.703   -2.548   -2.352   -2.141   -1.960   -1.853   -1.821   -1.837   -1.867   -1.885   -1.873   -1.812   -1.687   -1.504   -1.296   -1.112   -0.989   -0.942   -0.971   -1.064   -1.195   -1.349   -1.513   -1.695   -1.896   -2.113   -2.334   -2.534   -2.684   -2.785   -2.879   -3.019   -3.232   -3.479   -3.697   -3.840   -3.912   -3.965   -4.037   -4.147   -4.286   -4.443   -4.599   -4.743   -4.867   -4.967   -5.050   -5.105   -5.128   -5.133   -5.156   -5.236   -5.400   -5.660   -6.027   -6.476   -6.962   -7.415   -7.780   -8.033   -8.184   -8.259   -8.293   -8.314
  -4.290   -4.230   -4.212   -4.200   -4.193   -4.189   -4.188   -4.187   -4.187   -4.178   -4.161   -4.117   -4.031   -3.884   -3.659   -3.355   -2.986   -2.593   -2.215   -1.889   -1.646   -1.493   -1.442   -1.498   -1.653   -1.902   -2.225   -2.583   -2.932   -3.212   -3.370   -3.380   -3.266   -3.086   -2.916   -2.785   -2.676   -2.547   -2.378   -2.198   -2.060   -2.002   -2.023   -2.084   -2.142   -2.172   -2.150   -2.062   -1.902   -1.680   -1.441   -1.227   -1.078   -1.013   -1.035   -1.135   -1.289   -1.482   -1.703   -1.960   -2.252   -2.569   -2.883   -3.171   -3.404   -3.588   -3.769   -3.988   -4.260   -4.541   -4.765   -4.907   -4.982   -5.036   -5.103   -5.196   -5.299   -5.405   -5.504   -5.591   -5.658   -5.710   -5.751   -5.779   -5.787   -5.787   -5.799   -5.856   -5.978   -6.176   -6.457   -6.806   -7.193   -7.568   -7.887   -8.125   -8.276   -8.355   -8.389   -8.412
  -4.284   -4.224   -4.208   -4.196   -4.189   -4.186   -4.181   -4.176   -4.172   -4.164   -4.152   -4.126   -4.068   -3.964   -3.790   -3.542   -3.230   -2.882   -2.529   -2.211   -1.941   -1.739   -1.613   -1.570   -1.617   -1.767   -2.020   -2.351   -2.707   -3.016   -3.205   -3.237   -3.131   -2.955   -2.790   -2.673   -2.593   -2.507   -2.404   -2.304   -2.251   -2.274   -2.357   -2.460   -2.537   -2.558   -2.508   -2.375   -2.158   -1.881   -1.584   -1.322   -1.133   -1.044   -1.069   -1.195   -1.404   -1.677   -2.006   -2.389   -2.815   -3.260   -3.695   -4.081   -4.395   -4.645   -4.868   -5.102   -5.357   -5.602   -5.791   -5.908   -5.976   -6.030   -6.095   -6.173   -6.250   -6.315   -6.368   -6.401   -6.421   -6.432   -6.444   -6.458   -6.465   -6.464   -6.472   -6.510   -6.597   -6.744   -6.952   -7.210   -7.493   -7.775   -8.026   -8.235   -8.386   -8.479   -8.528   -8.556
  -4.284   -4.224   -4.205   -4.196   -4.190   -4.186   -4.180   -4.171   -4.166   -4.158   -4.150   -4.134   -4.102   -4.035   -3.918   -3.740   -3.500   -3.217   -2.909   -2.607   -2.330   -2.093   -1.897   -1.757   -1.693   -1.734   -1.906   -2.197   -2.557   -2.895   -3.113   -3.163   -3.062   -2.879   -2.705   -2.589   -2.532   -2.502   -2.481   -2.480   -2.527   -2.631   -2.769   -2.903   -2.986   -2.995   -2.911   -2.734   -2.465   -2.124   -1.757   -1.428   -1.190   -1.079   -1.118   -1.303   -1.608   -2.012   -2.490   -3.024   -3.592   -4.159   -4.688   -5.138   -5.491   -5.759   -5.968   -6.160   -6.348   -6.520   -6.652   -6.733   -6.787   -6.836   -6.895   -6.961   -7.023   -7.066   -7.086   -7.086   -7.073   -7.059   -7.056   -7.062   -7.070   -7.075   -7.081   -7.104   -7.161   -7.268   -7.421   -7.606   -7.798   -7.985   -8.164   -8.333   -8.482   -8.596   -8.670   -8.711
  -4.286   -4.226   -4.209   -4.199   -4.192   -4.187   -4.181   -4.172   -4.167   -4.158   -4.154   -4.148   -4.132   -4.099   -4.029   -3.915   -3.750   -3.534   -3.287   -3.025   -2.765   -2.514   -2.282   -2.075   -1.923   -1.870   -1.959   -2.199   -2.539   -2.880   -3.118   -3.186   -3.095   -2.914   -2.739   -2.628   -2.590   -2.608   -2.656   -2.735   -2.856   -3.010   -3.175   -3.315   -3.399   -3.400   -3.304   -3.107   -2.805   -2.417   -1.989   -1.590   -1.295   -1.168   -1.241   -1.509   -1.944   -2.500   -3.136   -3.813   -4.491   -5.132   -5.693   -6.147   -6.483   -6.717   -6.877   -7.003   -7.114   -7.215   -7.295   -7.348   -7.386   -7.424   -7.472   -7.528   -7.578   -7.611   -7.618   -7.599   -7.567   -7.540   -7.528   -7.534   -7.547   -7.553   -7.555   -7.564   -7.599   -7.673   -7.786   -7.917   -8.039   -8.148   -8.260   -8.387   -8.528   -8.660   -8.761   -8.815
  -4.290   -4.228   -4.211   -4.203   -4.198   -4.191   -4.186   -4.178   -4.172   -4.166   -4.164   -4.161   -4.157   -4.144   -4.109   -4.044   -3.939   -3.792   -3.611   -3.403   -3.186   -2.959   -2.726   -2.493   -2.290   -2.169   -2.184   -2.361   -2.654   -2.974   -3.209   -3.295   -3.230   -3.080   -2.927   -2.835   -2.815   -2.856   -2.940   -3.055   -3.197   -3.357   -3.514   -3.640   -3.714   -3.713   -3.623   -3.435   -3.136   -2.733   -2.267   -1.812   -1.469   -1.332   -1.449   -1.811   -2.374   -3.072   -3.838   -4.617   -5.355   -6.009   -6.544   -6.950   -7.228   -7.403   -7.506   -7.573   -7.627   -7.679   -7.725   -7.761   -7.787   -7.816   -7.852   -7.899   -7.941   -7.967   -7.963   -7.935   -7.893   -7.862   -7.851   -7.858   -7.870   -7.873   -7.866   -7.863   -7.880   -7.930   -8.013   -8.108   -8.181   -8.235   -8.293   -8.382   -8.510   -8.649   -8.764   -8.833
  -4.299   -4.236   -4.220   -4.210   -4.204   -4.199   -4.193   -4.187   -4.181   -4.177   -4.175   -4.173   -4.174   -4.171   -4.156   -4.121   -4.062   -3.974   -3.855   -3.714   -3.552   -3.370   -3.165   -2.943   -2.729   -2.571   -2.532   -2.642   -2.870   -3.145   -3.365   -3.467   -3.443   -3.342   -3.233   -3.168   -3.163   -3.209   -3.291   -3.397   -3.520   -3.648   -3.769   -3.865   -3.920   -3.922   -3.849   -3.685   -3.412   -3.020   -2.545   -2.059   -1.685   -1.538   -1.691   -2.135   -2.802   -3.604   -4.462   -5.300   -6.056   -6.684   -7.163   -7.493   -7.701   -7.816   -7.873   -7.904   -7.927   -7.955   -7.986   -8.012   -8.035   -8.059   -8.086   -8.122   -8.153   -8.167   -8.157   -8.124   -8.082   -8.054   -8.046   -8.055   -8.061   -8.054   -8.035   -8.018   -8.020   -8.056   -8.119   -8.184   -8.228   -8.249   -8.272   -8.332   -8.437   -8.570   -8.688   -8.761
  -4.306   -4.242   -4.226   -4.218   -4.211   -4.207   -4.202   -4.198   -4.193   -4.187   -4.185   -4.183   -4.184   -4.182   -4.176   -4.159   -4.131   -4.088   -4.022   -3.937   -3.831   -3.697   -3.538   -3.352   -3.159   -3.002   -2.933   -2.985   -3.145   -3.359   -3.550   -3.659   -3.675   -3.629   -3.570   -3.534   -3.537   -3.571   -3.628   -3.700   -3.785   -3.870   -3.947   -4.008   -4.044   -4.040   -3.980   -3.841   -3.598   -3.235   -2.767   -2.270   -1.874   -1.720   -1.891   -2.384   -3.118   -3.990   -4.905   -5.778   -6.538   -7.133   -7.553   -7.816   -7.963   -8.030   -8.059   -8.072   -8.083   -8.103   -8.127   -8.150   -8.172   -8.193   -8.214   -8.238   -8.255   -8.259   -8.244   -8.212   -8.179   -8.157   -8.153   -8.160   -8.156   -8.136   -8.104   -8.074   -8.069   -8.094   -8.142   -8.188   -8.215   -8.221   -8.227   -8.267   -8.349   -8.462   -8.567   -8.639
  -4.316   -4.251   -4.233   -4.222   -4.215   -4.215   -4.211   -4.207   -4.201   -4.195   -4.192   -4.190   -4.188   -4.185   -4.183   -4.177   -4.166   -4.148   -4.120   -4.076   -4.013   -3.926   -3.812   -3.674   -3.524   -3.394   -3.319   -3.331   -3.432   -3.584   -3.736   -3.842   -3.883   -3.877   -3.853   -3.838   -3.840   -3.857   -3.887   -3.926   -3.970   -4.017   -4.056   -4.087   -4.102   -4.087   -4.027   -3.899   -3.672   -3.328   -2.874   -2.375   -1.967   -1.800   -1.971   -2.480   -3.250   -4.168   -5.130   -6.037   -6.811   -7.395   -7.778   -7.995   -8.096   -8.136   -8.149   -8.157   -8.166   -8.180   -8.199   -8.217   -8.233   -8.247   -8.261   -8.272   -8.280   -8.277   -8.262   -8.240   -8.217   -8.203   -8.201   -8.205   -8.194   -8.168   -8.129   -8.096   -8.086   -8.103   -8.134   -8.164   -8.180   -8.184   -8.188   -8.218   -8.277   -8.365   -8.447   -8.510
  -4.325   -4.258   -4.237   -4.225   -4.218   -4.215   -4.213   -4.210   -4.204   -4.198   -4.193   -4.191   -4.191   -4.189   -4.186   -4.181   -4.177   -4.173   -4.165   -4.144   -4.110   -4.059   -3.986   -3.897   -3.798   -3.704   -3.644   -3.638   -3.691   -3.793   -3.905   -3.993   -4.040   -4.051   -4.047   -4.040   -4.036   -4.040   -4.050   -4.063   -4.081   -4.098   -4.114   -4.120   -4.111   -4.076   -3.996   -3.849   -3.614   -3.268   -2.818   -2.322   -1.910   -1.732   -1.891   -2.396   -3.180   -4.136   -5.152   -6.116   -6.928   -7.525   -7.897   -8.091   -8.171   -8.194   -8.200   -8.205   -8.214   -8.225   -8.235   -8.241   -8.244   -8.247   -8.250   -8.252   -8.253   -8.250   -8.243   -8.233   -8.222   -8.215   -8.215   -8.217   -8.207   -8.184   -8.152   -8.127   -8.117   -8.123   -8.137   -8.151   -8.160   -8.163   -8.174   -8.197   -8.241   -8.302   -8.362   -8.413
  -4.324   -4.255   -4.237   -4.226   -4.218   -4.212   -4.208   -4.206   -4.201   -4.195   -4.189   -4.189   -4.189   -4.189   -4.183   -4.178   -4.175   -4.173   -4.171   -4.163   -4.145   -4.115   -4.078   -4.030   -3.977   -3.922   -3.881   -3.871   -3.899   -3.961   -4.037   -4.101   -4.140   -4.153   -4.153   -4.146   -4.139   -4.133   -4.130   -4.129   -4.133   -4.133   -4.130   -4.116   -4.079   -4.005   -3.880   -3.688   -3.411   -3.039   -2.581   -2.098   -1.701   -1.523   -1.664   -2.154   -2.943   -3.935   -5.019   -6.058   -6.935   -7.570   -7.955   -8.143   -8.211   -8.224   -8.227   -8.233   -8.241   -8.248   -8.248   -8.241   -8.232   -8.222   -8.215   -8.212   -8.210   -8.212   -8.213   -8.214   -8.212   -8.209   -8.207   -8.207   -8.206   -8.199   -8.191   -8.181   -8.176   -8.175   -8.172   -8.171   -8.168   -8.171   -8.182   -8.203   -8.235   -8.277   -8.320   -8.362
  -4.316   -4.247   -4.228   -4.217   -4.210   -4.207   -4.205   -4.201   -4.197   -4.190   -4.186   -4.184   -4.183   -4.180   -4.176   -4.168   -4.161   -4.158   -4.158   -4.155   -4.147   -4.133   -4.118   -4.097   -4.075   -4.050   -4.029   -4.022   -4.038   -4.074   -4.120   -4.161   -4.189   -4.197   -4.194   -4.185   -4.176   -4.167   -4.159   -4.153   -4.148   -4.138   -4.117   -4.073   -3.997   -3.868   -3.675   -3.407   -3.065   -2.656   -2.199   -1.745   -1.387   -1.231   -1.368   -1.836   -2.617   -3.640   -4.790   -5.913   -6.864   -7.551   -7.964   -8.157   -8.217   -8.223   -8.223   -8.230   -8.240   -8.247   -8.241   -8.228   -8.210   -8.195   -8.187   -8.183   -8.183   -8.186   -8.191   -8.196   -8.197   -8.192   -8.188   -8.187   -8.193   -8.207   -8.223   -8.235   -8.243   -8.241   -8.231   -8.217   -8.205   -8.201   -8.208   -8.223   -8.245   -8.274   -8.305   -8.340
  -4.311   -4.240   -4.222   -4.213   -4.207   -4.204   -4.202   -4.201   -4.195   -4.188   -4.181   -4.177   -4.174   -4.171   -4.163   -4.154   -4.145   -4.143   -4.143   -4.145   -4.143   -4.142   -4.136   -4.129   -4.122   -4.111   -4.100   -4.097   -4.109   -4.129   -4.155   -4.181   -4.197   -4.199   -4.195   -4.186   -4.177   -4.169   -4.164   -4.157   -4.144   -4.119   -4.074   -3.990   -3.856   -3.653   -3.375   -3.024   -2.616   -2.178   -1.744   -1.349   -1.061   -0.953   -1.095   -1.542   -2.302   -3.341   -4.538   -5.729   -6.747   -7.484   -7.925   -8.128   -8.185   -8.185   -8.182   -8.192   -8.207   -8.213   -8.208   -8.192   -8.179   -8.172   -8.173   -8.174   -8.175   -8.175   -8.174   -8.177   -8.177   -8.171   -8.163   -8.158   -8.169   -8.191   -8.223   -8.256   -8.280   -8.288   -8.282   -8.269   -8.253   -8.244   -8.241   -8.245   -8.255   -8.272   -8.295   -8.325
  -4.322   -4.251   -4.235   -4.228   -4.223   -4.220   -4.220   -4.219   -4.214   -4.205   -4.195   -4.186   -4.182   -4.174   -4.165   -4.157   -4.150   -4.152   -4.155   -4.161   -4.165   -4.166   -4.163   -4.158   -4.148   -4.137   -4.127   -4.123   -4.128   -4.140   -4.155   -4.171   -4.179   -4.180   -4.176   -4.170   -4.165   -4.161   -4.157   -4.148   -4.124   -4.076   -3.992   -3.851   -3.639   -3.351   -2.986   -2.565   -2.120   -1.692   -1.313   -1.009   -0.812   -0.766   -0.924   -1.353   -2.090   -3.115   -4.330   -5.557   -6.614   -7.387   -7.850   -8.063   -8.121   -8.117   -8.112   -8.121   -8.136   -8.143   -8.137   -8.129   -8.126   -8.134   -8.148   -8.159   -8.160   -8.153   -8.145   -8.142   -8.141   -8.133   -8.124   -8.115   -8.119   -8.140   -8.177   -8.217   -8.253   -8.278   -8.287   -8.287   -8.279   -8.270   -8.260   -8.253   -8.248   -8.252   -8.264   -8.287
  -4.397   -4.322   -4.308   -4.299   -4.297   -4.292   -4.291   -4.290   -4.286   -4.275   -4.263   -4.251   -4.243   -4.234   -4.226   -4.220   -4.223   -4.227   -4.238   -4.247   -4.253   -4.252   -4.245   -4.229   -4.203   -4.179   -4.155   -4.137   -4.129   -4.134   -4.143   -4.153   -4.159   -4.160   -4.158   -4.156   -4.155   -4.154   -4.149   -4.129   -4.083   -3.997   -3.854   -3.640   -3.343   -2.967   -2.534   -2.081   -1.648   -1.278   -0.992   -0.797   -0.698   -0.716   -0.898   -1.310   -2.015   -3.014   -4.208   -5.430   -6.491   -7.272   -7.746   -7.966   -8.024   -8.016   -8.005   -8.009   -8.019   -8.023   -8.017   -8.016   -8.023   -8.044   -8.069   -8.087   -8.089   -8.078   -8.063   -8.055   -8.054   -8.052   -8.044   -8.033   -8.029   -8.039   -8.065   -8.099   -8.137   -8.172   -8.201   -8.219   -8.229   -8.229   -8.221   -8.206   -8.190   -8.179   -8.179   -8.197
  -4.589   -4.514   -4.496   -4.485   -4.481   -4.474   -4.470   -4.467   -4.463   -4.453   -4.442   -4.430   -4.419   -4.413   -4.411   -4.411   -4.416   -4.426   -4.439   -4.451   -4.457   -4.451   -4.432   -4.393   -4.339   -4.278   -4.219   -4.175   -4.147   -4.138   -4.138   -4.145   -4.150   -4.153   -4.154   -4.153   -4.154   -4.152   -4.136   -4.093   -4.008   -3.864   -3.649   -3.349   -2.967   -2.528   -2.066   -1.627   -1.258   -0.989   -0.824   -0.751   -0.750   -0.829   -1.030   -1.427   -2.092   -3.037   -4.177   -5.345   -6.367   -7.125   -7.589   -7.807   -7.866   -7.854   -7.835   -7.827   -7.826   -7.823   -7.817   -7.817   -7.830   -7.853   -7.879   -7.896   -7.898   -7.887   -7.874   -7.870   -7.872   -7.876   -7.874   -7.864   -7.853   -7.849   -7.856   -7.876   -7.905   -7.941   -7.980   -8.013   -8.038   -8.054   -8.055   -8.042   -8.022   -8.004   -7.998   -8.011
  -4.952   -4.873   -4.851   -4.837   -4.827   -4.816   -4.811   -4.807   -4.803   -4.795   -4.788   -4.779   -4.773   -4.770   -4.768   -4.773   -4.780   -4.792   -4.805   -4.816   -4.818   -4.805   -4.765   -4.690   -4.588   -4.468   -4.351   -4.256   -4.192   -4.162   -4.154   -4.155   -4.159   -4.163   -4.164   -4.163   -4.162   -4.150   -4.114   -4.035   -3.893   -3.676   -3.376   -2.996   -2.556   -2.091   -1.644   -1.263   -0.992   -0.843   -0.809   -0.859   -0.960   -1.104   -1.328   -1.706   -2.312   -3.169   -4.203   -5.265   -6.199   -6.893   -7.322   -7.523   -7.576   -7.565   -7.542   -7.523   -7.510   -7.500   -7.491   -7.490   -7.500   -7.515   -7.532   -7.543   -7.545   -7.538   -7.530   -7.530   -7.541   -7.550   -7.553   -7.544   -7.529   -7.514   -7.507   -7.510   -7.525   -7.555   -7.591   -7.628   -7.663   -7.689   -7.703   -7.700   -7.684   -7.671   -7.667   -7.684
  -5.491   -5.413   -5.387   -5.367   -5.349   -5.338   -5.330   -5.327   -5.325   -5.323   -5.319   -5.316   -5.314   -5.311   -5.311   -5.316   -5.321   -5.332   -5.342   -5.350   -5.348   -5.320   -5.252   -5.129   -4.955   -4.750   -4.546   -4.378   -4.262   -4.201   -4.175   -4.171   -4.173   -4.176   -4.177   -4.175   -4.169   -4.146   -4.085   -3.962   -3.754   -3.455   -3.077   -2.640   -2.177   -1.731   -1.340   -1.043   -0.871   -0.831   -0.914   -1.080   -1.284   -1.502   -1.760   -2.114   -2.639   -3.365   -4.238   -5.141   -5.934   -6.526   -6.891   -7.061   -7.106   -7.094   -7.074   -7.056   -7.038   -7.023   -7.012   -7.007   -7.009   -7.014   -7.018   -7.023   -7.023   -7.018   -7.017   -7.022   -7.033   -7.044   -7.047   -7.042   -7.026   -7.007   -6.993   -6.988   -6.992   -7.012   -7.037   -7.068   -7.103   -7.132   -7.152   -7.160   -7.158   -7.155   -7.158   -7.190
  -6.145   -6.074   -6.047   -6.024   -6.007   -5.994   -5.988   -5.987   -5.990   -5.992   -5.991   -5.988   -5.985   -5.983   -5.982   -5.984   -5.989   -5.996   -6.004   -6.007   -5.995   -5.951   -5.847   -5.664   -5.402   -5.090   -4.778   -4.519   -4.338   -4.236   -4.193   -4.180   -4.179   -4.180   -4.180   -4.177   -4.170   -4.137   -4.052   -3.887   -3.622   -3.257   -2.822   -2.361   -1.919   -1.527   -1.215   -1.000   -0.900   -0.935   -1.099   -1.356   -1.655   -1.952   -2.242   -2.567   -2.995   -3.563   -4.241   -4.944   -5.563   -6.025   -6.306   -6.433   -6.465   -6.458   -6.446   -6.435   -6.424   -6.409   -6.398   -6.391   -6.386   -6.385   -6.382   -6.383   -6.379   -6.377   -6.377   -6.381   -6.389   -6.395   -6.396   -6.390   -6.377   -6.361   -6.350   -6.345   -6.347   -6.358   -6.375   -6.396   -6.418   -6.441   -6.461   -6.473   -6.480   -6.490   -6.507   -6.553
  -6.818   -6.758   -6.732   -6.711   -6.696   -6.688   -6.684   -6.685   -6.690   -6.694   -6.693   -6.690   -6.684   -6.676   -6.673   -6.676   -6.681   -6.687   -6.692   -6.690   -6.670   -6.605   -6.462   -6.215   -5.861   -5.439   -5.015   -4.656   -4.405   -4.261   -4.196   -4.177   -4.172   -4.172   -4.173   -4.172   -4.162   -4.123   -4.026   -3.838   -3.539   -3.140   -2.691   -2.245   -1.855   -1.536   -1.298   -1.143   -1.084   -1.149   -1.350   -1.656   -2.020   -2.371   -2.685   -2.977   -3.305   -3.712   -4.193   -4.694   -5.134   -5.458   -5.648   -5.726   -5.744   -5.742   -5.742   -5.747   -5.748   -5.743   -5.736   -5.729   -5.724   -5.721   -5.719   -5.718   -5.714   -5.710   -5.708   -5.708   -5.708   -5.707   -5.701   -5.693   -5.684   -5.676   -5.673   -5.673   -5.678   -5.688   -5.697   -5.708   -5.717   -5.726   -5.736   -5.746   -5.759   -5.776   -5.801   -5.864
  -7.410   -7.359   -7.335   -7.319   -7.309   -7.305   -7.302   -7.305   -7.308   -7.311   -7.310   -7.301   -7.292   -7.282   -7.279   -7.280   -7.285   -7.292   -7.298   -7.292   -7.264   -7.180   -7.001   -6.698   -6.265   -5.745   -5.219   -4.773   -4.457   -4.275   -4.193   -4.168   -4.163   -4.162   -4.166   -4.167   -4.158   -4.119   -4.020   -3.827   -3.530   -3.149   -2.731   -2.339   -2.013   -1.763   -1.581   -1.465   -1.425   -1.492   -1.683   -1.990   -2.364   -2.731   -3.042   -3.295   -3.535   -3.806   -4.120   -4.446   -4.729   -4.930   -5.039   -5.077   -5.080   -5.077   -5.091   -5.111   -5.129   -5.139   -5.139   -5.135   -5.133   -5.135   -5.134   -5.135   -5.131   -5.126   -5.121   -5.118   -5.111   -5.101   -5.090   -5.079   -5.074   -5.073   -5.075   -5.082   -5.093   -5.101   -5.108   -5.108   -5.105   -5.102   -5.103   -5.109   -5.121   -5.138   -5.163   -5.239
  -7.858   -7.810   -7.788   -7.776   -7.770   -7.766   -7.766   -7.767   -7.769   -7.767   -7.762   -7.751   -7.738   -7.726   -7.720   -7.722   -7.728   -7.737   -7.744   -7.738   -7.703   -7.606   -7.402   -7.055   -6.564   -5.971   -5.370   -4.858   -4.495   -4.285   -4.190   -4.162   -4.162   -4.167   -4.173   -4.174   -4.165   -4.129   -4.039   -3.867   -3.607   -3.280   -2.933   -2.614   -2.355   -2.160   -2.020   -1.931   -1.900   -1.953   -2.114   -2.381   -2.716   -3.052   -3.332   -3.539   -3.709   -3.881   -4.071   -4.266   -4.429   -4.537   -4.583   -4.589   -4.580   -4.580   -4.598   -4.628   -4.657   -4.678   -4.688   -4.688   -4.688   -4.693   -4.696   -4.699   -4.697   -4.692   -4.688   -4.684   -4.677   -4.663   -4.649   -4.637   -4.632   -4.633   -4.639   -4.651   -4.662   -4.671   -4.672   -4.664   -4.652   -4.643   -4.640   -4.643   -4.652   -4.667   -4.692   -4.771
  -8.146   -8.098   -8.079   -8.067   -8.060   -8.057   -8.054   -8.054   -8.052   -8.048   -8.039   -8.025   -8.010   -7.997   -7.988   -7.989   -7.995   -8.008   -8.016   -8.010   -7.973   -7.868   -7.650   -7.276   -6.747   -6.112   -5.464   -4.909   -4.517   -4.291   -4.195   -4.175   -4.180   -4.190   -4.198   -4.200   -4.192   -4.157   -4.081   -3.943   -3.742   -3.496   -3.236   -2.994   -2.793   -2.639   -2.529   -2.463   -2.446   -2.492   -2.617   -2.824   -3.087   -3.358   -3.582   -3.742   -3.858   -3.963   -4.074   -4.183   -4.267   -4.316   -4.324   -4.312   -4.296   -4.292   -4.302   -4.327   -4.356   -4.382   -4.397   -4.402   -4.405   -4.411   -4.416   -4.420   -4.416   -4.415   -4.413   -4.416   -4.414   -4.404   -4.390   -4.375   -4.368   -4.368   -4.376   -4.389   -4.402   -4.408   -4.402   -4.390   -4.373   -4.366   -4.364   -4.369   -4.378   -4.392   -4.414   -4.492
  -8.306   -8.257   -8.236   -8.222   -8.213   -8.209   -8.205   -8.202   -8.198   -8.192   -8.181   -8.165   -8.148   -8.134   -8.124   -8.122   -8.127   -8.138   -8.147   -8.146   -8.108   -8.001   -7.775   -7.389   -6.842   -6.182   -5.512   -4.936   -4.528   -4.295   -4.203   -4.195   -4.212   -4.228   -4.238   -4.236   -4.224   -4.191   -4.129   -4.029   -3.894   -3.733   -3.558   -3.387   -3.233   -3.107   -3.019   -2.976   -2.978   -3.027   -3.126   -3.271   -3.452   -3.641   -3.798   -3.908   -3.985   -4.051   -4.117   -4.180   -4.224   -4.245   -4.240   -4.220   -4.198   -4.181   -4.174   -4.180   -4.196   -4.218   -4.233   -4.240   -4.248   -4.255   -4.260   -4.260   -4.259   -4.260   -4.268   -4.277   -4.279   -4.273   -4.259   -4.243   -4.233   -4.233   -4.246   -4.263   -4.279   -4.282   -4.271   -4.255   -4.238   -4.234   -4.240   -4.251   -4.264   -4.280   -4.299   -4.373
  -8.383   -8.328   -8.308   -8.292   -8.283   -8.276   -8.271   -8.267   -8.263   -8.256   -8.245   -8.229   -8.213   -8.197   -8.184   -8.179   -8.183   -8.192   -8.202   -8.200   -8.165   -8.058   -7.828   -7.438   -6.882   -6.214   -5.533   -4.945   -4.528   -4.295   -4.209   -4.209   -4.238   -4.263   -4.273   -4.266   -4.244   -4.209   -4.159   -4.094   -4.019   -3.933   -3.831   -3.718   -3.600   -3.497   -3.425   -3.399   -3.420   -3.476   -3.556   -3.656   -3.766   -3.874   -3.962   -4.028   -4.075   -4.121   -4.170   -4.216   -4.250   -4.265   -4.262   -4.246   -4.218   -4.185   -4.156   -4.137   -4.133   -4.142   -4.152   -4.160   -4.171   -4.180   -4.185   -4.183   -4.178   -4.180   -4.192   -4.207   -4.214   -4.213   -4.200   -4.182   -4.170   -4.171   -4.190   -4.217   -4.237   -4.243   -4.230   -4.210   -4.192   -4.191   -4.201   -4.221   -4.241   -4.261   -4.280   -4.350
  -8.418   -8.358   -8.336   -8.320   -8.311   -8.305   -8.300   -8.300   -8.297   -8.290   -8.282   -8.269   -8.255   -8.238   -8.224   -8.215   -8.215   -8.222   -8.230   -8.228   -8.193   -8.085   -7.854   -7.461   -6.902   -6.231   -5.543   -4.951   -4.529   -4.293   -4.207   -4.210   -4.244   -4.271   -4.277   -4.262   -4.232   -4.193   -4.151   -4.117   -4.092   -4.064   -4.020   -3.953   -3.867   -3.787   -3.731   -3.716   -3.745   -3.805   -3.878   -3.950   -4.008   -4.051   -4.081   -4.106   -4.131   -4.166   -4.207   -4.249   -4.283   -4.303   -4.309   -4.300   -4.273   -4.232   -4.187   -4.149   -4.127   -4.117   -4.116   -4.121   -4.133   -4.144   -4.149   -4.144   -4.137   -4.136   -4.148   -4.165   -4.178   -4.179   -4.168   -4.152   -4.142   -4.147   -4.171   -4.206   -4.233   -4.240   -4.227   -4.203   -4.184   -4.181   -4.194   -4.219   -4.246   -4.267   -4.288   -4.357
  -8.437   -8.371   -8.346   -8.334   -8.326   -8.322   -8.321   -8.322   -8.322   -8.321   -8.316   -8.309   -8.296   -8.283   -8.268   -8.255   -8.250   -8.252   -8.256   -8.251   -8.214   -8.105   -7.873   -7.479   -6.918   -6.245   -5.556   -4.962   -4.535   -4.292   -4.198   -4.194   -4.219   -4.240   -4.239   -4.218   -4.183   -4.144   -4.114   -4.103   -4.113   -4.127   -4.126   -4.097   -4.045   -3.989   -3.948   -3.941   -3.972   -4.030   -4.100   -4.158   -4.184   -4.185   -4.171   -4.161   -4.163   -4.181   -4.214   -4.249   -4.281   -4.306   -4.322   -4.322   -4.305   -4.270   -4.228   -4.184   -4.147   -4.116   -4.098   -4.093   -4.102   -4.114   -4.121   -4.116   -4.107   -4.107   -4.119   -4.140   -4.159   -4.164   -4.157   -4.143   -4.134   -4.141   -4.167   -4.205   -4.232   -4.240   -4.225   -4.198   -4.174   -4.167   -4.179   -4.201   -4.227   -4.251   -4.273   -4.345
  -8.447   -8.377   -8.354   -8.343   -8.337   -8.335   -8.336   -8.339   -8.343   -8.348   -8.350   -8.349   -8.341   -8.329   -8.314   -8.296   -8.285   -8.277   -8.275   -8.267   -8.229   -8.119   -7.887   -7.490   -6.929   -6.257   -5.570   -4.975   -4.545   -4.295   -4.186   -4.162   -4.171   -4.178   -4.171   -4.149   -4.118   -4.089   -4.072   -4.079   -4.108   -4.144   -4.168   -4.168   -4.146   -4.118   -4.095   -4.095   -4.124   -4.179   -4.242   -4.288   -4.301   -4.278   -4.235   -4.195   -4.172   -4.172   -4.186   -4.206   -4.231   -4.257   -4.280   -4.294   -4.294   -4.279   -4.250   -4.210   -4.165   -4.117   -4.079   -4.058   -4.060   -4.072   -4.080   -4.083   -4.083   -4.093   -4.115   -4.142   -4.162   -4.170   -4.164   -4.152   -4.142   -4.147   -4.165   -4.194   -4.216   -4.219   -4.203   -4.175   -4.148   -4.137   -4.141   -4.158   -4.178   -4.196   -4.218   -4.293
  -8.462   -8.385   -8.362   -8.350   -8.344   -8.344   -8.345   -8.349   -8.355   -8.365   -8.374   -8.377   -8.373   -8.363   -8.344   -8.322   -8.302   -8.289   -8.281   -8.269   -8.229   -8.118   -7.886   -7.489   -6.930   -6.258   -5.574   -4.984   -4.557   -4.300   -4.176   -4.131   -4.120   -4.115   -4.103   -4.090   -4.074   -4.064   -4.060   -4.073   -4.105   -4.144   -4.176   -4.193   -4.194   -4.186   -4.178   -4.186   -4.212   -4.256   -4.310   -4.347   -4.351   -4.316   -4.258   -4.199   -4.159   -4.141   -4.137   -4.144   -4.159   -4.182   -4.210   -4.236   -4.252   -4.256   -4.242   -4.209   -4.163   -4.106   -4.054   -4.024   -4.018   -4.028   -4.042   -4.053   -4.069   -4.100   -4.136   -4.170   -4.189   -4.195   -4.183   -4.165   -4.149   -4.144   -4.153   -4.169   -4.180   -4.178   -4.162   -4.139   -4.116   -4.105   -4.104   -4.112   -4.120   -4.130   -4.144   -4.225
  -8.492   -8.407   -8.379   -8.366   -8.359   -8.356   -8.355   -8.356   -8.359   -8.369   -8.378   -8.385   -8.384   -8.372   -8.351   -8.328   -8.304   -8.287   -8.277   -8.264   -8.222   -8.111   -7.879   -7.482   -6.923   -6.253   -5.574   -4.992   -4.569   -4.309   -4.176   -4.118   -4.092   -4.078   -4.072   -4.071   -4.080   -4.088   -4.096   -4.107   -4.128   -4.156   -4.180   -4.197   -4.205   -4.208   -4.211   -4.221   -4.240   -4.275   -4.312   -4.336   -4.331   -4.292   -4.229   -4.167   -4.124   -4.099   -4.089   -4.090   -4.098   -4.121   -4.152   -4.182   -4.206   -4.218   -4.210   -4.183   -4.138   -4.086   -4.041   -4.012   -4.007   -4.015   -4.028   -4.043   -4.072   -4.115   -4.166   -4.203   -4.219   -4.215   -4.193   -4.167   -4.143   -4.127   -4.126   -4.131   -4.136   -4.136   -4.129   -4.120   -4.109   -4.109   -4.110   -4.111   -4.109   -4.107   -4.116   -4.198
  -8.559   -8.465   -8.432   -8.417   -8.405   -8.397   -8.390   -8.386   -8.383   -8.388   -8.392   -8.397   -8.397   -8.388   -8.369   -8.346   -8.325   -8.310   -8.302   -8.287   -8.245   -8.132   -7.897   -7.499   -6.939   -6.272   -5.598   -5.021   -4.601   -4.338   -4.198   -4.131   -4.100   -4.085   -4.088   -4.108   -4.140   -4.168   -4.186   -4.194   -4.200   -4.207   -4.210   -4.210   -4.209   -4.209   -4.211   -4.218   -4.233   -4.251   -4.267   -4.271   -4.251   -4.210   -4.153   -4.103   -4.071   -4.056   -4.053   -4.055   -4.065   -4.092   -4.123   -4.154   -4.177   -4.181   -4.170   -4.143   -4.112   -4.080   -4.058   -4.048   -4.047   -4.049   -4.047   -4.053   -4.079   -4.125   -4.177   -4.214   -4.226   -4.212   -4.185   -4.153   -4.120   -4.099   -4.090   -4.096   -4.108   -4.126   -4.146   -4.167   -4.187   -4.213   -4.232   -4.239   -4.231   -4.220   -4.227   -4.309
  -8.707   -8.603   -8.566   -8.546   -8.530   -8.517   -8.504   -8.492   -8.481   -8.477   -8.476   -8.476   -8.474   -8.466   -8.452   -8.436   -8.423   -8.417   -8.413   -8.401   -8.358   -8.241   -8.002   -7.601   -7.038   -6.372   -5.697   -5.119   -4.692   -4.419   -4.265   -4.185   -4.146   -4.136   -4.154   -4.197   -4.256   -4.310   -4.344   -4.355   -4.346   -4.324   -4.294   -4.260   -4.231   -4.215   -4.212   -4.218   -4.222   -4.220   -4.208   -4.185   -4.150   -4.105   -4.060   -4.028   -4.018   -4.022   -4.032   -4.041   -4.056   -4.085   -4.119   -4.149   -4.164   -4.161   -4.143   -4.118   -4.104   -4.102   -4.113   -4.126   -4.130   -4.116   -4.090   -4.073   -4.083   -4.121   -4.167   -4.197   -4.203   -4.191   -4.165   -4.134   -4.102   -4.079   -4.072   -4.088   -4.127   -4.183   -4.254   -4.334   -4.421   -4.506   -4.574   -4.610   -4.615   -4.607   -4.608   -4.692
  -8.982   -8.870   -8.831   -8.808   -8.789   -8.773   -8.756   -8.738   -8.721   -8.706   -8.699   -8.695   -8.691   -8.684   -8.673   -8.665   -8.662   -8.664   -8.668   -8.659   -8.614   -8.494   -8.251   -7.846   -7.283   -6.612   -5.928   -5.332   -4.880   -4.577   -4.392   -4.290   -4.240   -4.233   -4.271   -4.348   -4.446   -4.538   -4.601   -4.622   -4.598   -4.536   -4.452   -4.362   -4.290   -4.247   -4.232   -4.234   -4.230   -4.205   -4.163   -4.114   -4.065   -4.020   -3.986   -3.974   -3.986   -4.010   -4.033   -4.048   -4.065   -4.091   -4.124   -4.150   -4.161   -4.157   -4.139   -4.123   -4.129   -4.153   -4.190   -4.219   -4.218   -4.189   -4.138   -4.098   -4.091   -4.113   -4.146   -4.167   -4.167   -4.156   -4.137   -4.115   -4.094   -4.082   -4.091   -4.129   -4.207   -4.322   -4.482   -4.675   -4.888   -5.092   -5.260   -5.361   -5.402   -5.406   -5.408   -5.484
  -9.417   -9.301   -9.263   -9.239   -9.222   -9.204   -9.185   -9.162   -9.140   -9.121   -9.108   -9.100   -9.093   -9.084   -9.078   -9.072   -9.075   -9.084   -9.092   -9.086   -9.042   -8.922   -8.680   -8.274   -7.707   -7.029   -6.326   -5.694   -5.192   -4.833   -4.595   -4.448   -4.377   -4.375   -4.444   -4.572   -4.731   -4.882   -4.986   -5.017   -4.966   -4.845   -4.684   -4.520   -4.388   -4.307   -4.275   -4.270   -4.257   -4.216   -4.153   -4.081   -4.026   -3.984   -3.961   -3.964   -3.994   -4.034   -4.066   -4.081   -4.088   -4.102   -4.124   -4.146   -4.161   -4.162   -4.158   -4.155   -4.174   -4.216   -4.261   -4.293   -4.289   -4.246   -4.184   -4.131   -4.108   -4.114   -4.130   -4.136   -4.129   -4.116   -4.106   -4.100   -4.100   -4.106   -4.137   -4.206   -4.334   -4.540   -4.837   -5.213   -5.632   -6.035   -6.359   -6.571   -6.671   -6.700   -6.704   -6.763
 -10.015   -9.897   -9.860   -9.839   -9.823   -9.805   -9.781   -9.756   -9.730   -9.708   -9.692   -9.680   -9.670   -9.660   -9.651   -9.645   -9.647   -9.656   -9.665   -9.661   -9.621   -9.505   -9.266   -8.863   -8.294   -7.603   -6.869   -6.184   -5.611   -5.171   -4.858   -4.655   -4.554   -4.559   -4.670   -4.872   -5.114   -5.340   -5.489   -5.523   -5.427   -5.222   -4.959   -4.701   -4.499   -4.374   -4.322   -4.308   -4.292   -4.242   -4.164   -4.086   -4.028   -3.996   -3.988   -4.002   -4.041   -4.084   -4.115   -4.124   -4.115   -4.111   -4.119   -4.136   -4.159   -4.174   -4.182   -4.193   -4.215   -4.256   -4.298   -4.325   -4.316   -4.275   -4.218   -4.168   -4.138   -4.130   -4.127   -4.114   -4.096   -4.080   -4.080   -4.089   -4.108   -4.135   -4.189   -4.292   -4.482   -4.803   -5.286   -5.917   -6.619   -7.289   -7.824   -8.179   -8.362   -8.423   -8.432   -8.462
 -10.742  -10.626  -10.590  -10.572  -10.554  -10.529  -10.496  -10.459  -10.421  -10.393  -10.375  -10.361  -10.349  -10.337  -10.323  -10.313  -10.312  -10.315  -10.321  -10.318  -10.280  -10.169   -9.935   -9.536   -8.963   -8.255   -7.483   -6.736   -6.081   -5.550   -5.150   -4.883   -4.750   -4.765   -4.931   -5.220   -5.559   -5.863   -6.056   -6.081   -5.922   -5.615   -5.234   -4.870   -4.589   -4.419   -4.344   -4.322   -4.305   -4.254   -4.175   -4.098   -4.050   -4.035   -4.044   -4.068   -4.103   -4.139   -4.160   -4.156   -4.133   -4.113   -4.109   -4.126   -4.153   -4.178   -4.196   -4.208   -4.227   -4.253   -4.283   -4.301   -4.293   -4.265   -4.227   -4.194   -4.167   -4.149   -4.132   -4.107   -4.083   -4.068   -4.074   -4.097   -4.127   -4.165   -4.230   -4.357   -4.611   -5.065   -5.771   -6.698   -7.726   -8.695   -9.465   -9.976  -10.249  -10.353  -10.371  -10.366
 -11.600  -11.485  -11.454  -11.432  -11.401  -11.350  -11.278  -11.199  -11.129  -11.079  -11.050  -11.035  -11.022  -11.008  -10.992  -10.976  -10.969  -10.967  -10.968  -10.962  -10.923  -10.814  -10.583  -10.184   -9.606   -8.878   -8.067   -7.258   -6.522   -5.903   -5.424   -5.095   -4.934   -4.966   -5.191   -5.566   -5.998   -6.373   -6.598   -6.606   -6.382   -5.970   -5.472   -4.998   -4.634   -4.413   -4.312   -4.287   -4.272   -4.229   -4.161   -4.099   -4.073   -4.084   -4.111   -4.139   -4.161   -4.177   -4.181   -4.167   -4.137   -4.111   -4.102   -4.116   -4.143   -4.170   -4.186   -4.191   -4.198   -4.209   -4.225   -4.234   -4.231   -4.220   -4.207   -4.194   -4.183   -4.167   -4.147   -4.122   -4.104   -4.099   -4.116   -4.139   -4.165   -4.195   -4.251   -4.388   -4.696   -5.284   -6.215   -7.438   -8.787  -10.042  -11.031  -11.689  -12.050  -12.201  -12.232  -12.192
 -12.714  -12.604  -12.577  -12.544  -12.466  -12.332  -12.152  -11.962  -11.800  -11.690  -11.631  -11.603  -11.589  -11.575  -11.558  -11.540  -11.528  -11.521  -11.518  -11.507  -11.466  -11.354  -11.121  -10.717  -10.128   -9.380   -8.533   -7.668   -6.864   -6.173   -5.631   -5.260   -5.088   -5.144   -5.426   -5.876   -6.376   -6.801   -7.041   -7.026   -6.744   -6.246   -5.645   -5.071   -4.629   -4.356   -4.233   -4.206   -4.204   -4.178   -4.131   -4.092   -4.093   -4.128   -4.168   -4.191   -4.196   -4.191   -4.179   -4.163   -4.139   -4.115   -4.103   -4.111   -4.132   -4.151   -4.160   -4.158   -4.152   -4.151   -4.155   -4.161   -4.162   -4.166   -4.172   -4.181   -4.187   -4.181   -4.169   -4.155   -4.151   -4.164   -4.190   -4.212   -4.222   -4.225   -4.254   -4.387   -4.738   -5.440   -6.570   -8.049   -9.665  -11.156  -12.324  -13.105  -13.538  -13.728  -13.773  -13.701
 -14.389  -14.297  -14.278  -14.202  -14.007  -13.677  -13.252  -12.815  -12.450  -12.206  -12.075  -12.018  -11.996  -11.980  -11.965  -11.949  -11.936  -11.929  -11.923  -11.909  -11.862  -11.745  -11.503  -11.090  -10.485   -9.713   -8.833   -7.923   -7.070   -6.331   -5.757   -5.373   -5.216   -5.309   -5.641   -6.138   -6.675   -7.116   -7.350   -7.310   -6.983   -6.424   -5.749   -5.101   -4.596   -4.282   -4.148   -4.128   -4.146   -4.142   -4.116   -4.098   -4.115   -4.158   -4.196   -4.208   -4.197   -4.180   -4.168   -4.160   -4.145   -4.126   -4.111   -4.109   -4.123   -4.136   -4.142   -4.135   -4.122   -4.115   -4.115   -4.121   -4.129   -4.141   -4.157   -4.175   -4.185   -4.186   -4.182   -4.186   -4.207   -4.241   -4.274   -4.288   -4.274   -4.247   -4.249   -4.372   -4.753   -5.545   -6.824   -8.494  -10.303  -11.959  -13.254  -14.120  -14.603  -14.818  -14.870  -14.777
 -17.057  -17.010  -16.981  -16.793  -16.350  -15.642  -14.762  -13.875  -13.146  -12.659  -12.396  -12.284  -12.244  -12.226  -12.213  -12.203  -12.193  -12.188  -12.182  -12.166  -12.115  -11.989  -11.735  -11.306  -10.680   -9.881   -8.969   -8.025   -7.140   -6.385   -5.814   -5.460   -5.351   -5.494   -5.864   -6.379   -6.913   -7.334   -7.538   -7.464   -7.103   -6.508   -5.795   -5.105   -4.563   -4.229   -4.095   -4.092   -4.131   -4.148   -4.136   -4.124   -4.138   -4.170   -4.192   -4.191   -4.176   -4.160   -4.157   -4.156   -4.148   -4.131   -4.112   -4.108   -4.120   -4.140   -4.150   -4.142   -4.125   -4.116   -4.120   -4.134   -4.150   -4.163   -4.174   -4.179   -4.175   -4.169   -4.174   -4.201   -4.247   -4.301   -4.339   -4.342   -4.308   -4.260   -4.247   -4.366   -4.770   -5.621   -6.993   -8.776  -10.699  -12.451  -13.819  -14.730  -15.237  -15.461  -15.512  -15.406
 -21.003  -21.018  -20.914  -20.491  -19.627  -18.331  -16.770  -15.216  -13.944  -13.096  -12.639  -12.443  -12.376  -12.355  -12.346  -12.339  -12.334  -12.332  -12.327  -12.311  -12.255  -12.120  -11.851  -11.401  -10.750   -9.921   -8.977   -8.008   -7.110   -6.369   -5.843   -5.560   -5.530   -5.738   -6.136   -6.638   -7.132   -7.500   -7.653   -7.537   -7.146   -6.535   -5.809   -5.111   -4.558   -4.221   -4.093   -4.101   -4.155   -4.182   -4.171   -4.154   -4.155   -4.170   -4.176   -4.168   -4.155   -4.144   -4.142   -4.142   -4.132   -4.111   -4.093   -4.097   -4.121   -4.156   -4.176   -4.172   -4.153   -4.145   -4.156   -4.180   -4.201   -4.209   -4.203   -4.180   -4.148   -4.130   -4.141   -4.188   -4.258   -4.326   -4.365   -4.362   -4.319   -4.264   -4.250   -4.378   -4.798   -5.678   -7.091   -8.919  -10.881  -12.666  -14.056  -14.977  -15.485  -15.702  -15.747  -15.638
 -25.991  -26.056  -25.766  -24.958  -23.519  -21.491  -19.104  -16.746  -14.817  -13.533  -12.844  -12.549  -12.449  -12.421  -12.414  -12.409  -12.405  -12.402  -12.398  -12.382  -12.324  -12.182  -11.901  -11.428  -10.744   -9.881   -8.909   -7.926   -7.039   -6.342   -5.894   -5.713   -5.781   -6.054   -6.466   -6.931   -7.360   -7.656   -7.747   -7.589   -7.178   -6.562   -5.843   -5.151   -4.601   -4.262   -4.128   -4.131   -4.177   -4.202   -4.192   -4.171   -4.167   -4.174   -4.178   -4.170   -4.155   -4.140   -4.126   -4.112   -4.092   -4.066   -4.051   -4.065   -4.109   -4.162   -4.194   -4.194   -4.176   -4.167   -4.179   -4.207   -4.232   -4.237   -4.216   -4.169   -4.115   -4.083   -4.094   -4.151   -4.232   -4.302   -4.338   -4.334   -4.294   -4.250   -4.251   -4.393   -4.825   -5.710   -7.111   -8.920  -10.863  -12.627  -13.996  -14.899  -15.390  -15.594  -15.632  -15.523
 -31.253  -31.318  -30.739  -29.433  -27.337  -24.541  -21.335  -18.192  -15.629  -13.927  -13.019  -12.632  -12.501  -12.467  -12.457  -12.451  -12.442  -12.435  -12.426  -12.409  -12.356  -12.214  -11.922  -11.427  -10.714   -9.816   -8.822   -7.843   -6.993   -6.365   -6.015   -5.944   -6.105   -6.424   -6.824   -7.236   -7.587   -7.810   -7.847   -7.660   -7.243   -6.636   -5.930   -5.247   -4.697   -4.345   -4.185   -4.153   -4.172   -4.183   -4.174   -4.168   -4.178   -4.200   -4.215   -4.210   -4.181   -4.143   -4.108   -4.077   -4.047   -4.016   -4.002   -4.021   -4.076   -4.139   -4.181   -4.182   -4.162   -4.147   -4.154   -4.182   -4.212   -4.226   -4.207   -4.157   -4.093   -4.050   -4.052   -4.101   -4.170   -4.230   -4.261   -4.257   -4.233   -4.210   -4.236   -4.396   -4.828   -5.685   -7.032   -8.768  -10.632  -12.326  -13.638  -14.498  -14.962  -15.151  -15.184  -15.084
 -36.013  -35.993  -35.058  -33.177  -30.384  -26.861  -22.956  -19.204  -16.180  -14.194  -13.143  -12.698  -12.549  -12.511  -12.500  -12.487  -12.470  -12.453  -12.442  -12.429  -12.387  -12.253  -11.957  -11.441  -10.698   -9.772   -8.768   -7.812   -7.020   -6.484   -6.236   -6.260   -6.482   -6.814   -7.178   -7.516   -7.784   -7.937   -7.931   -7.730   -7.324   -6.737   -6.052   -5.378   -4.826   -4.450   -4.246   -4.161   -4.135   -4.129   -4.132   -4.153   -4.196   -4.244   -4.269   -4.253   -4.203   -4.144   -4.094   -4.059   -4.028   -3.995   -3.979   -3.994   -4.042   -4.102   -4.140   -4.138   -4.111   -4.087   -4.088   -4.118   -4.162   -4.198   -4.204   -4.169   -4.109   -4.057   -4.038   -4.057   -4.097   -4.135   -4.154   -4.155   -4.147   -4.151   -4.201   -4.372   -4.785   -5.581   -6.825   -8.431  -10.160  -11.733  -12.950  -13.748  -14.176  -14.348  -14.377  -14.293
 -39.885  -39.639  -38.228  -35.677  -32.176  -28.012  -23.594  -19.501  -16.306  -14.253  -13.183  -12.736  -12.591  -12.559  -12.553  -12.542  -12.524  -12.508  -12.505  -12.510  -12.490  -12.370  -12.068  -11.524  -10.738   -9.784   -8.780   -7.866   -7.153   -6.712   -6.556   -6.646   -6.893   -7.205   -7.510   -7.763   -7.940   -8.017   -7.965   -7.751   -7.358   -6.799   -6.140   -5.483   -4.929   -4.533   -4.288   -4.156   -4.093   -4.075   -4.093   -4.144   -4.219   -4.281   -4.302   -4.267   -4.201   -4.139   -4.106   -4.094   -4.078   -4.048   -4.020   -4.018   -4.046   -4.086   -4.108   -4.094   -4.057   -4.028   -4.029   -4.066   -4.132   -4.200   -4.236   -4.220   -4.164   -4.099   -4.056   -4.043   -4.051   -4.063   -4.067   -4.070   -4.072   -4.093   -4.155   -4.319   -4.688   -5.383   -6.473   -7.886   -9.417  -10.816  -11.901  -12.612  -12.992  -13.143  -13.171  -13.111
 -42.541  -41.895  -39.856  -36.607  -32.482  -27.819  -23.115  -19.002  -15.958  -14.078  -13.121  -12.733  -12.623  -12.624  -12.657  -12.686  -12.704  -12.726  -12.766  -12.819  -12.836  -12.725  -12.388  -11.770  -10.902   -9.887   -8.872   -8.001   -7.375   -7.028   -6.947   -7.072   -7.316   -7.590   -7.828   -7.995   -8.078   -8.067   -7.950   -7.706   -7.314   -6.777   -6.147   -5.514   -4.968   -4.564   -4.302   -4.147   -4.069   -4.052   -4.090   -4.167   -4.253   -4.309   -4.305   -4.248   -4.182   -4.152   -4.170   -4.205   -4.218   -4.196   -4.159   -4.134   -4.134   -4.144   -4.139   -4.109   -4.066   -4.037   -4.045   -4.091   -4.168   -4.253   -4.302   -4.292   -4.234   -4.159   -4.102   -4.071   -4.058   -4.053   -4.047   -4.040   -4.040   -4.059   -4.111   -4.247   -4.545   -5.109   -5.995   -7.155   -8.421   -9.588  -10.498  -11.094  -11.410  -11.531  -11.553  -11.527
 -43.355  -42.299  -39.688  -35.921  -31.351  -26.373  -21.655  -17.851  -15.240  -13.712  -12.967  -12.693  -12.672  -12.777  -12.936  -13.102  -13.260  -13.413  -13.573  -13.720  -13.780  -13.631  -13.167  -12.360  -11.292  -10.129   -9.054   -8.204   -7.646   -7.378   -7.353   -7.493   -7.716   -7.949   -8.131   -8.227   -8.225   -8.125   -7.932   -7.638   -7.230   -6.707   -6.102   -5.496   -4.966   -4.569   -4.310   -4.165   -4.103   -4.111   -4.168   -4.251   -4.324   -4.349   -4.312   -4.242   -4.197   -4.224   -4.313   -4.408   -4.457   -4.446   -4.400   -4.355   -4.326   -4.306   -4.276   -4.233   -4.191   -4.169   -4.180   -4.219   -4.279   -4.341   -4.373   -4.355   -4.295   -4.226   -4.172   -4.143   -4.129   -4.117   -4.103   -4.086   -4.076   -4.075   -4.102   -4.192   -4.400   -4.809   -5.459   -6.317   -7.261   -8.140   -8.829   -9.277   -9.506   -9.583   -9.589   -9.600
 -41.938  -40.693  -37.851  -33.850  -29.036  -23.999  -19.596  -16.373  -14.349  -13.242  -12.747  -12.643  -12.805  -13.161  -13.636  -14.155  -14.661  -15.128  -15.532  -15.821  -15.878  -15.558  -14.768  -13.541  -12.058  -10.580   -9.338   -8.451   -7.928   -7.712   -7.717   -7.853   -8.049   -8.241   -8.379   -8.428   -8.371   -8.208   -7.953   -7.616   -7.192   -6.677   -6.098   -5.517   -5.006   -4.623   -4.386   -4.272   -4.251   -4.292   -4.364   -4.434   -4.472   -4.455   -4.388   -4.314   -4.304   -4.393   -4.552   -4.704   -4.784   -4.785   -4.736   -4.679   -4.630   -4.589   -4.547   -4.506   -4.471   -4.452   -4.447   -4.451   -4.462   -4.474   -4.470   -4.442   -4.393   -4.344   -4.310   -4.297   -4.290   -4.280   -4.264   -4.237   -4.212   -4.192   -4.189   -4.229   -4.351   -4.598   -4.996   -5.525   -6.113   -6.656   -7.079   -7.343   -7.462   -7.479   -7.460   -7.498
 -38.775  -37.539  -34.744  -30.721  -25.935  -21.222  -17.446  -14.929  -13.473  -12.736  -12.478  -12.607  -13.109  -13.971  -15.093  -16.316  -17.489  -18.503  -19.276  -19.699  -19.624  -18.905  -17.495  -15.526  -13.324  -11.293   -9.730   -8.721   -8.187   -7.991   -8.001   -8.118   -8.273   -8.421   -8.522   -8.545   -8.470   -8.294   -8.029   -7.685   -7.263   -6.765   -6.215   -5.664   -5.179   -4.824   -4.619   -4.549   -4.572   -4.638   -4.707   -4.746   -4.739   -4.683   -4.594   -4.530   -4.554   -4.692   -4.900   -5.086   -5.192   -5.209   -5.171   -5.116   -5.065   -5.022   -4.984   -4.956   -4.931   -4.905   -4.872   -4.825   -4.778   -4.740   -4.708   -4.683   -4.658   -4.636   -4.624   -4.620   -4.620   -4.613   -4.597   -4.568   -4.531   -4.495   -4.473   -4.479   -4.524   -4.623   -4.782   -4.985   -5.203   -5.391   -5.518   -5.569   -5.548   -5.483   -5.422   -5.476
 -34.752  -33.506  -30.841  -27.029  -22.681  -18.673  -15.671  -13.777  -12.721  -12.216  -12.149  -12.586  -13.651  -15.367  -17.542  -19.843  -21.948  -23.643  -24.785  -25.240  -24.862  -23.531  -21.254  -18.266  -15.060  -12.235  -10.193   -8.981   -8.397   -8.197   -8.196   -8.279   -8.385   -8.478   -8.541   -8.553   -8.495   -8.361   -8.144   -7.841   -7.456   -6.994   -6.483   -5.974   -5.537   -5.227   -5.064   -5.034   -5.085   -5.154   -5.200   -5.198   -5.148   -5.062   -4.970   -4.921   -4.971   -5.133   -5.364   -5.573   -5.704   -5.748   -5.736   -5.704   -5.672   -5.645   -5.627   -5.618   -5.607   -5.574   -5.514   -5.434   -5.354   -5.293   -5.261   -5.249   -5.245   -5.242   -5.238   -5.233   -5.233   -5.228   -5.213   -5.183   -5.140   -5.099   -5.071   -5.058   -5.048   -5.024   -4.970   -4.878   -4.748   -4.590   -4.414   -4.229   -4.041   -3.871   -3.752   -3.803
 -30.627  -29.377  -27.012  -23.757  -20.188  -16.994  -14.610  -13.058  -12.129  -11.671  -11.731  -12.557  -14.422  -17.326  -20.852  -24.379  -27.402  -29.649  -30.995  -31.346  -30.578  -28.590  -25.408  -21.329  -16.994  -13.243  -10.638   -9.184   -8.537   -8.329   -8.313   -8.363   -8.417   -8.456   -8.480   -8.486   -8.464   -8.396   -8.263   -8.038   -7.718   -7.314   -6.864   -6.423   -6.054   -5.802   -5.685   -5.682   -5.736   -5.789   -5.799   -5.759   -5.679   -5.581   -5.498   -5.469   -5.536   -5.715   -5.961   -6.197   -6.365   -6.453   -6.488   -6.494   -6.494   -6.496   -6.505   -6.518   -6.518   -6.487   -6.426   -6.346   -6.274   -6.226   -6.211   -6.217   -6.224   -6.223   -6.213   -6.202   -6.198   -6.199   -6.188   -6.157   -6.110   -6.067   -6.041   -6.018   -5.967   -5.845   -5.621   -5.286   -4.866   -4.404   -3.940   -3.513   -3.139   -2.846   -2.657   -2.689
 -27.779  -26.693  -24.836  -22.284  -19.421  -16.717  -14.503  -12.865  -11.738  -11.116  -11.219  -12.487  -15.313  -19.561  -24.435  -28.995  -32.666  -35.240  -36.658  -36.855  -35.696  -33.088  -29.111  -24.073  -18.698  -14.065  -10.934   -9.277   -8.595   -8.395   -8.377   -8.403   -8.418   -8.415   -8.406   -8.403   -8.408   -8.401   -8.345   -8.204   -7.962   -7.639   -7.271   -6.915   -6.625   -6.435   -6.353   -6.357   -6.397   -6.424   -6.405   -6.341   -6.253   -6.163   -6.102   -6.098   -6.192   -6.397   -6.677   -6.962   -7.190   -7.344   -7.436   -7.490   -7.525   -7.553   -7.581   -7.609   -7.622   -7.605   -7.563   -7.514   -7.477   -7.463   -7.470   -7.487   -7.497   -7.489   -7.472   -7.461   -7.465   -7.479   -7.475   -7.444   -7.392   -7.346   -7.316   -7.284   -7.199   -7.006   -6.662   -6.158   -5.529   -4.834   -4.137   -3.490   -2.938   -2.514   -2.249   -2.254
 -27.750  -26.953  -25.513  -23.380  -20.751  -17.970  -15.388  -13.230  -11.596  -10.619  -10.666  -12.347  -16.119  -21.588  -27.510  -32.763  -36.896  -39.779  -41.312  -41.334  -39.678  -36.389  -31.718  -25.948  -19.773  -14.472  -10.982   -9.234   -8.575   -8.411   -8.408   -8.426   -8.421   -8.394   -8.363   -8.351   -8.362   -8.381   -8.367   -8.286   -8.120   -7.880   -7.605   -7.338   -7.122   -6.981   -6.918   -6.915   -6.932   -6.935   -6.901   -6.836   -6.758   -6.693   -6.664   -6.701   -6.841   -7.101   -7.446   -7.811   -8.124   -8.352   -8.504   -8.596   -8.654   -8.697   -8.733   -8.762   -8.780   -8.779   -8.765   -8.752   -8.752   -8.772   -8.799   -8.825   -8.838   -8.832   -8.820   -8.822   -8.848   -8.881   -8.888   -8.858   -8.803   -8.752   -8.716   -8.671   -8.562   -8.326   -7.917   -7.328   -6.592   -5.765   -4.917   -4.120   -3.429   -2.904   -2.578   -2.557
 -30.171  -29.641  -28.347  -26.243  -23.428  -20.185  -16.916  -13.996  -11.687  -10.248  -10.152  -12.119  -16.592  -22.896  -29.442  -35.111  -39.657  -42.916  -44.568  -44.305  -42.027  -38.067  -32.870  -26.629  -19.978  -14.348  -10.765   -9.073   -8.505   -8.404   -8.428   -8.449   -8.438   -8.404   -8.364   -8.342   -8.342   -8.355   -8.348   -8.294   -8.181   -8.014   -7.820   -7.632   -7.475   -7.367   -7.309   -7.291   -7.285   -7.272   -7.235   -7.182   -7.127   -7.093   -7.102   -7.189   -7.394   -7.733   -8.168   -8.629   -9.034   -9.338   -9.537   -9.655   -9.723   -9.764   -9.795   -9.817   -9.832   -9.838   -9.842   -9.854   -9.879   -9.918   -9.959   -9.993  -10.014  -10.021  -10.029  -10.054  -10.104  -10.156  -10.178  -10.154  -10.101  -10.051  -10.011   -9.960   -9.839   -9.593   -9.179   -8.590   -7.848   -7.009   -6.130   -5.282   -4.536   -3.963   -3.605   -3.560
 -33.213  -32.838  -31.503  -29.218  -26.075  -22.330  -18.406  -14.789  -11.876  -10.020   -9.740  -11.771  -16.502  -23.105  -29.851  -35.655  -40.351  -43.711  -45.279  -44.717  -42.059  -37.814  -32.417  -25.987  -19.246  -13.711  -10.339   -8.851   -8.421   -8.391   -8.443   -8.472   -8.464   -8.431   -8.393   -8.366   -8.353   -8.345   -8.326   -8.278   -8.194   -8.079   -7.946   -7.816   -7.702   -7.617   -7.562   -7.529   -7.508   -7.483   -7.448   -7.410   -7.377   -7.369   -7.416   -7.553   -7.822   -8.241   -8.768   -9.321   -9.808  -10.171  -10.406  -10.537  -10.603  -10.635  -10.655  -10.667  -10.674  -10.680  -10.689  -10.708  -10.739  -10.781  -10.824  -10.864  -10.895  -10.917  -10.943  -10.988  -11.054  -11.118  -11.150  -11.136  -11.095  -11.053  -11.021  -10.972  -10.860  -10.638  -10.274   -9.760   -9.116   -8.377   -7.591   -6.812   -6.110   -5.557   -5.204   -5.140
 -35.468  -35.111  -33.630  -31.098  -27.652  -23.549  -19.220  -15.202  -11.962   -9.879   -9.436  -11.280  -15.736  -22.046  -28.581  -34.188  -38.579  -41.572  -42.850  -42.194  -39.675  -35.647  -30.362  -24.048  -17.663  -12.671   -9.790   -8.615   -8.345   -8.379   -8.453   -8.487   -8.483   -8.456   -8.425   -8.398   -8.376   -8.355   -8.325   -8.278   -8.211   -8.130   -8.042   -7.953   -7.874   -7.807   -7.756   -7.719   -7.688   -7.659   -7.628   -7.598   -7.580   -7.593   -7.664   -7.839   -8.157   -8.636   -9.229   -9.846  -10.390  -10.796  -11.054  -11.191  -11.252  -11.277  -11.285  -11.288  -11.289  -11.289  -11.295  -11.307  -11.330  -11.362  -11.399  -11.436  -11.469  -11.498  -11.533  -11.582  -11.648  -11.708  -11.741  -11.738  -11.711  -11.685  -11.664  -11.630  -11.547  -11.380  -11.111  -10.739  -10.283   -9.757   -9.180   -8.578   -8.000   -7.517   -7.193   -7.112
 -36.149  -35.723  -34.095  -31.382  -27.759  -23.506  -19.080  -15.034  -11.814   -9.746   -9.196  -10.647  -14.360  -19.807  -25.693  -30.848  -34.761  -37.272  -38.274  -37.683  -35.501  -31.829  -26.836  -21.009  -15.459  -11.389   -9.188   -8.383   -8.267   -8.353   -8.437   -8.472   -8.470   -8.451   -8.428   -8.404   -8.383   -8.361   -8.332   -8.292   -8.242   -8.188   -8.134   -8.079   -8.029   -7.985   -7.946   -7.912   -7.882   -7.853   -7.825   -7.802   -7.792   -7.812   -7.896   -8.089   -8.431   -8.936   -9.560  -10.209  -10.783  -11.213  -11.485  -11.629  -11.692  -11.712  -11.715  -11.713  -11.708  -11.704  -11.703  -11.705  -11.715  -11.733  -11.757  -11.785  -11.812  -11.837  -11.865  -11.901  -11.949  -11.992  -12.016  -12.014  -11.999  -11.985  -11.978  -11.966  -11.926  -11.841  -11.713  -11.555  -11.381  -11.182  -10.923  -10.582  -10.180   -9.790   -9.499   -9.399
 -35.193  -34.678  -32.973  -30.204  -26.561  -22.373  -18.140  -14.375  -11.439   -9.552   -8.938   -9.891  -12.596  -16.764  -21.539  -25.957  -29.390  -31.577  -32.431  -31.900  -29.949  -26.623  -22.185  -17.301  -12.984  -10.039   -8.573   -8.126   -8.143   -8.264   -8.351   -8.385   -8.387   -8.376   -8.361   -8.348   -8.334   -8.321   -8.304   -8.280   -8.251   -8.224   -8.200   -8.177   -8.155   -8.134   -8.112   -8.093   -8.070   -8.047   -8.026   -8.006   -8.001   -8.024   -8.108   -8.299   -8.641   -9.143   -9.765  -10.419  -11.002  -11.446  -11.734  -11.889  -11.960  -11.985  -11.988  -11.985  -11.979  -11.972  -11.964  -11.960  -11.957  -11.963  -11.975  -11.992  -12.009  -12.024  -12.038  -12.055  -12.076  -12.092  -12.099  -12.092  -12.082  -12.077  -12.080  -12.092  -12.107  -12.135  -12.206  -12.354  -12.586  -12.846  -13.024  -13.023  -12.833  -12.541  -12.271  -12.136
 -33.181  -32.578  -30.856  -28.132  -24.621  -20.695  -16.846  -13.506  -10.931   -9.248   -8.563   -9.019  -10.708  -13.480  -16.847  -20.164  -22.890  -24.701  -25.428  -24.979  -23.328  -20.586  -17.110  -13.535  -10.598   -8.747   -7.936   -7.787   -7.901   -8.040   -8.128   -8.163   -8.171   -8.169   -8.169   -8.171   -8.178   -8.185   -8.189   -8.190   -8.189   -8.191   -8.195   -8.201   -8.206   -8.206   -8.206   -8.204   -8.199   -8.191   -8.181   -8.169   -8.163   -8.183   -8.258   -8.432   -8.750   -9.225   -9.826  -10.465  -11.051  -11.509  -11.818  -11.998  -12.090  -12.130  -12.141  -12.139  -12.132  -12.125  -12.115  -12.106  -12.098  -12.097  -12.101  -12.110  -12.118  -12.125  -12.129  -12.129  -12.129  -12.123  -12.114  -12.100  -12.088  -12.085  -12.098  -12.138  -12.224  -12.407  -12.753  -13.324  -14.107  -14.973  -15.704  -16.121  -16.186  -16.012  -15.767  -15.566
 -30.754  -30.091  -28.426  -25.865  -22.631  -19.090  -15.667  -12.705  -10.394   -8.817   -8.018   -8.044   -8.901  -10.481  -12.507  -14.595  -16.390  -17.633  -18.148  -17.830  -16.659  -14.767  -12.471  -10.242   -8.533   -7.562   -7.240   -7.293   -7.464   -7.610   -7.696   -7.735   -7.753   -7.766   -7.783   -7.808   -7.844   -7.884   -7.924   -7.961   -7.997   -8.035   -8.073   -8.106   -8.134   -8.157   -8.178   -8.202   -8.224   -8.241   -8.249   -8.247   -8.241   -8.250   -8.302   -8.445   -8.719   -9.149   -9.712  -10.331  -10.916  -11.396  -11.741  -11.962  -12.089  -12.154  -12.179  -12.184  -12.179  -12.171  -12.162  -12.154  -12.147  -12.145  -12.149  -12.154  -12.161  -12.167  -12.170  -12.166  -12.156  -12.142  -12.126  -12.111  -12.101  -12.101  -12.124  -12.197  -12.375  -12.749  -13.438  -14.524  -15.956  -17.505  -18.842  -19.723  -20.101  -20.109  -19.930  -19.642
 -28.424  -27.767  -26.240  -23.938  -21.063  -17.919  -14.845  -12.120   -9.917   -8.319   -7.360   -7.042   -7.319   -8.071   -9.112  -10.212  -11.163  -11.820  -12.077  -11.864  -11.172  -10.092   -8.831   -7.669   -6.847   -6.466   -6.442   -6.602   -6.793   -6.936   -7.021   -7.067   -7.096   -7.121   -7.154   -7.206   -7.279   -7.366   -7.457   -7.544   -7.630   -7.713   -7.790   -7.853   -7.905   -7.948   -7.997   -8.051   -8.107   -8.158   -8.192   -8.201   -8.193   -8.183   -8.203   -8.296   -8.514   -8.885   -9.397   -9.988  -10.575  -11.084  -11.477  -11.751  -11.927  -12.026  -12.072  -12.086  -12.086  -12.080  -12.074  -12.074  -12.076  -12.082  -12.093  -12.108  -12.126  -12.145  -12.161  -12.169  -12.168  -12.162  -12.152  -12.145  -12.143  -12.151  -12.186  -12.295  -12.565  -13.134  -14.162  -15.745  -17.782  -19.946  -21.828  -23.155  -23.886  -24.152  -24.113  -23.752
 -26.472  -25.867  -24.515  -22.497  -19.974  -17.178  -14.369  -11.783   -9.592   -7.908   -6.780   -6.201   -6.101   -6.357   -6.805   -7.284   -7.674   -7.907   -7.945   -7.771   -7.393   -6.864   -6.286   -5.794   -5.499   -5.439   -5.557   -5.748   -5.931   -6.065   -6.154   -6.209   -6.242   -6.267   -6.303   -6.374   -6.483   -6.620   -6.769   -6.918   -7.064   -7.201   -7.321   -7.416   -7.489   -7.554   -7.627   -7.714   -7.809   -7.895   -7.956   -7.981   -7.970   -7.938   -7.916   -7.953   -8.105   -8.408   -8.862   -9.416   -9.998  -10.532  -10.974  -11.305  -11.531  -11.666  -11.735  -11.760  -11.765  -11.766  -11.773  -11.787  -11.810  -11.837  -11.874  -11.919  -11.970  -12.025  -12.075  -12.116  -12.145  -12.161  -12.173  -12.181  -12.191  -12.207  -12.255  -12.391  -12.724  -13.423  -14.678  -16.590  -19.027  -21.603  -23.881  -25.586  -26.675  -27.252  -27.416  -27.043
 -24.885  -24.341  -23.151  -21.385  -19.171  -16.683  -14.121  -11.676   -9.518   -7.774   -6.518   -5.753   -5.414   -5.373   -5.483   -5.615   -5.689   -5.671   -5.562   -5.378   -5.143   -4.884   -4.648   -4.482   -4.432   -4.503   -4.654   -4.832   -4.998   -5.135   -5.237   -5.302   -5.326   -5.327   -5.341   -5.403   -5.530   -5.706   -5.906   -6.112   -6.315   -6.502   -6.661   -6.783   -6.873   -6.950   -7.040   -7.151   -7.276   -7.393   -7.482   -7.523   -7.514   -7.461   -7.402   -7.383   -7.469   -7.703   -8.093   -8.601   -9.160   -9.701  -10.171  -10.541  -10.801  -10.963  -11.048  -11.086  -11.100  -11.115  -11.143  -11.186  -11.242  -11.312  -11.400  -11.501  -11.618  -11.740  -11.859  -11.963  -12.047  -12.107  -12.150  -12.180  -12.204  -12.229  -12.281  -12.420  -12.759  -13.471  -14.754  -16.723  -19.255  -21.977  -24.459  -26.433  -27.844  -28.752  -29.169  -28.879
 -23.525  -23.025  -21.962  -20.403  -18.463  -16.276  -13.993  -11.769   -9.744   -8.042   -6.746   -5.874   -5.368   -5.124   -5.013   -4.933   -4.818   -4.651   -4.441   -4.209   -3.983   -3.791   -3.655   -3.591   -3.607   -3.694   -3.830   -3.990   -4.157   -4.320   -4.454   -4.530   -4.533   -4.481   -4.435   -4.452   -4.559   -4.742   -4.967   -5.204   -5.439   -5.654   -5.835   -5.968   -6.061   -6.138   -6.228   -6.344   -6.479   -6.614   -6.721   -6.779   -6.777   -6.714   -6.627   -6.567   -6.600   -6.773   -7.096   -7.544   -8.058   -8.572   -9.029   -9.398   -9.663   -9.830   -9.921   -9.965   -9.995  -10.033  -10.089  -10.172  -10.280  -10.415  -10.580  -10.774  -10.993  -11.223  -11.450  -11.653  -11.819  -11.944  -12.031  -12.089  -12.126  -12.156  -12.203  -12.318  -12.601  -13.205  -14.312  -16.051  -18.361  -20.937  -23.401  -25.492  -27.138  -28.341  -29.027  -28.905
 -22.300  -21.824  -20.857  -19.471  -17.776  -15.892  -13.931  -12.004  -10.219   -8.673   -7.437   -6.529   -5.913   -5.509   -5.224   -4.979   -4.728   -4.446   -4.141   -3.825   -3.529   -3.281   -3.107   -3.014   -3.004   -3.059   -3.165   -3.318   -3.512   -3.725   -3.912   -4.012   -3.989   -3.872   -3.742   -3.682   -3.736   -3.884   -4.092   -4.319   -4.545   -4.752   -4.921   -5.038   -5.114   -5.175   -5.247   -5.343   -5.465   -5.595   -5.706   -5.774   -5.776   -5.714   -5.615   -5.531   -5.525   -5.646   -5.905   -6.279   -6.718   -7.164   -7.567   -7.895   -8.128   -8.274   -8.356   -8.405   -8.451   -8.514   -8.607   -8.738   -8.907   -9.122   -9.385   -9.699  -10.049  -10.422  -10.791  -11.124  -11.395  -11.599  -11.738  -11.824  -11.875  -11.906  -11.938  -12.012  -12.202  -12.626  -13.430  -14.745  -16.574  -18.734  -20.936  -22.959  -24.705  -26.114  -27.027  -27.114
 -21.200  -20.740  -19.844  -18.598  -17.120  -15.521  -13.885  -12.286  -10.792   -9.468   -8.359   -7.477   -6.799   -6.275   -5.844   -5.458   -5.081   -4.693   -4.288   -3.873   -3.472   -3.122   -2.857   -2.687   -2.613   -2.622   -2.702   -2.858   -3.083   -3.353   -3.597   -3.730   -3.702   -3.540   -3.342   -3.207   -3.191   -3.280   -3.435   -3.612   -3.785   -3.937   -4.055   -4.129   -4.170   -4.198   -4.237   -4.299   -4.386   -4.486   -4.578   -4.637   -4.638   -4.576   -4.474   -4.380   -4.348   -4.423   -4.614   -4.902   -5.243   -5.594   -5.911   -6.164   -6.342   -6.450   -6.515   -6.563   -6.621   -6.708   -6.835   -7.009   -7.239   -7.533   -7.894   -8.326   -8.814   -9.336   -9.853  -10.321  -10.705  -10.986  -11.173  -11.284  -11.342  -11.369  -11.382  -11.411  -11.505  -11.744  -12.232  -13.075  -14.316  -15.880  -17.604  -19.341  -21.002  -22.468  -23.516  -23.809
 -20.207  -19.761  -18.921  -17.788  -16.489  -15.132  -13.783  -12.485  -11.271  -10.172   -9.209   -8.385   -7.683   -7.076   -6.529   -6.018   -5.526   -5.041   -4.550   -4.053   -3.573   -3.142   -2.800   -2.570   -2.446   -2.414   -2.469   -2.616   -2.855   -3.154   -3.434   -3.598   -3.590   -3.434   -3.221   -3.052   -2.985   -3.014   -3.100   -3.204   -3.301   -3.374   -3.416   -3.427   -3.422   -3.415   -3.415   -3.435   -3.472   -3.526   -3.579   -3.610   -3.597   -3.531   -3.430   -3.325   -3.268   -3.293   -3.411   -3.607   -3.850   -4.101   -4.324   -4.496   -4.610   -4.676   -4.717   -4.761   -4.822   -4.920   -5.063   -5.263   -5.530   -5.878   -6.307   -6.817   -7.398   -8.027   -8.656   -9.225   -9.690  -10.025  -10.241  -10.364  -10.422  -10.438  -10.428  -10.414  -10.433  -10.527  -10.767  -11.219  -11.933  -12.894  -14.046  -15.327  -16.688  -18.005  -19.030  -19.462
 -19.209  -18.782  -17.993  -16.955  -15.804  -14.643  -13.524  -12.467  -11.481  -10.572   -9.740   -8.980   -8.280   -7.620   -6.988   -6.377   -5.792   -5.232   -4.692   -4.171   -3.678   -3.245   -2.903   -2.668   -2.534   -2.489   -2.528   -2.655   -2.870   -3.148   -3.413   -3.584   -3.607   -3.492   -3.317   -3.165   -3.086   -3.079   -3.114   -3.155   -3.180   -3.179   -3.146   -3.100   -3.049   -3.009   -2.978   -2.958   -2.951   -2.953   -2.958   -2.955   -2.923   -2.851   -2.744   -2.629   -2.540   -2.509   -2.558   -2.678   -2.841   -3.018   -3.170   -3.279   -3.340   -3.369   -3.384   -3.408   -3.456   -3.539   -3.671   -3.863   -4.131   -4.478   -4.908   -5.419   -6.004   -6.643   -7.287   -7.874   -8.347   -8.682   -8.892   -9.010   -9.059   -9.059   -9.025   -8.977   -8.942   -8.950   -9.036   -9.232   -9.572  -10.066  -10.712  -11.513  -12.460  -13.458  -14.293  -14.751
 -18.028  -17.616  -16.886  -15.947  -14.930  -13.932  -12.995  -12.124  -11.311  -10.550   -9.828   -9.134   -8.455   -7.778   -7.103   -6.443   -5.813   -5.234   -4.713   -4.248   -3.840   -3.504   -3.252   -3.093   -3.017   -3.009   -3.062   -3.172   -3.341   -3.546   -3.742   -3.868   -3.885   -3.800   -3.667   -3.546   -3.475   -3.457   -3.464   -3.468   -3.448   -3.394   -3.310   -3.213   -3.127   -3.056   -2.998   -2.945   -2.898   -2.858   -2.831   -2.805   -2.763   -2.693   -2.592   -2.470   -2.352   -2.278   -2.275   -2.351   -2.482   -2.630   -2.750   -2.826   -2.855   -2.852   -2.839   -2.833   -2.844   -2.885   -2.973   -3.127   -3.352   -3.646   -4.000   -4.414   -4.887   -5.405   -5.930   -6.401   -6.773   -7.030   -7.188   -7.274   -7.304   -7.290   -7.240   -7.172   -7.112   -7.078   -7.089   -7.153   -7.281   -7.486   -7.792   -8.233   -8.818   -9.485  -10.075  -10.483
 -16.527  -16.128  -15.477  -14.656  -13.783  -12.939  -12.158  -11.439  -10.763  -10.119   -9.495   -8.877   -8.252   -7.619   -6.981   -6.361   -5.786   -5.292   -4.893   -4.590   -4.373   -4.234   -4.169   -4.173   -4.236   -4.337   -4.463   -4.600   -4.732   -4.848   -4.920   -4.926   -4.850   -4.712   -4.547   -4.402   -4.307   -4.261   -4.242   -4.220   -4.174   -4.087   -3.962   -3.817   -3.676   -3.549   -3.436   -3.332   -3.235   -3.155   -3.098   -3.064   -3.033   -2.987   -2.910   -2.801   -2.679   -2.587   -2.571   -2.645   -2.788   -2.949   -3.077   -3.145   -3.159   -3.138   -3.098   -3.055   -3.024   -3.015   -3.049   -3.147   -3.310   -3.520   -3.758   -4.014   -4.286   -4.569   -4.837   -5.058   -5.206   -5.294   -5.341   -5.366   -5.371   -5.345   -5.290   -5.221   -5.160   -5.127   -5.122   -5.142   -5.181   -5.258   -5.404   -5.663   -6.050   -6.514   -6.940   -7.290
 -14.755  -14.373  -13.829  -13.156  -12.448  -11.766  -11.137  -10.554  -10.006   -9.479   -8.967   -8.462   -7.962   -7.470   -6.993   -6.558   -6.199   -5.941   -5.807   -5.785   -5.859   -6.008   -6.216   -6.473   -6.762   -7.067   -7.354   -7.590   -7.739   -7.782   -7.704   -7.508   -7.219   -6.872   -6.527   -6.227   -6.005   -5.862   -5.773   -5.704   -5.618   -5.489   -5.300   -5.069   -4.815   -4.559   -4.310   -4.079   -3.871   -3.707   -3.593   -3.529   -3.497   -3.472   -3.426   -3.345   -3.245   -3.168   -3.169   -3.268   -3.441   -3.628   -3.770   -3.845   -3.857   -3.828   -3.774   -3.710   -3.649   -3.607   -3.610   -3.674   -3.791   -3.935   -4.070   -4.176   -4.245   -4.264   -4.223   -4.115   -3.964   -3.813   -3.701   -3.638   -3.600   -3.560   -3.510   -3.455   -3.416   -3.410   -3.432   -3.467   -3.508   -3.568   -3.689   -3.925   -4.279   -4.700   -5.078   -5.403
 -12.996  -12.646  -12.235  -11.735  -11.210  -10.707  -10.243   -9.815   -9.420   -9.050   -8.706   -8.397   -8.130   -7.917   -7.771   -7.709   -7.748   -7.901   -8.168   -8.535   -8.978   -9.476  -10.015  -10.588  -11.183  -11.773  -12.307  -12.723  -12.959  -12.973  -12.750  -12.306  -11.694  -10.990  -10.284   -9.657   -9.156   -8.797   -8.552   -8.372   -8.198   -7.976   -7.674   -7.287   -6.839   -6.352   -5.855   -5.377   -4.947   -4.593   -4.326   -4.148   -4.041   -3.973   -3.912   -3.831   -3.741   -3.675   -3.686   -3.794   -3.968   -4.154   -4.292   -4.360   -4.369   -4.336   -4.281   -4.219   -4.158   -4.121   -4.132   -4.203   -4.317   -4.440   -4.531   -4.562   -4.513   -4.359   -4.084   -3.705   -3.277   -2.893   -2.611   -2.438   -2.340   -2.275   -2.218   -2.176   -2.166   -2.199   -2.277   -2.373   -2.472   -2.584   -2.750   -3.032   -3.434   -3.893   -4.291   -4.608
 -11.630  -11.336  -11.065  -10.750  -10.423  -10.119   -9.857   -9.638   -9.461   -9.328   -9.254   -9.255   -9.358   -9.580   -9.934  -10.408  -10.989  -11.654  -12.387  -13.168  -13.982  -14.824  -15.693  -16.595  -17.519  -18.425  -19.241  -19.877  -20.247  -20.289  -19.976  -19.322  -18.388  -17.278  -16.124  -15.049  -14.147  -13.456  -12.953  -12.575  -12.237  -11.861  -11.390  -10.802  -10.104   -9.325   -8.503   -7.689   -6.926   -6.251   -5.690   -5.249   -4.913   -4.658   -4.452   -4.265   -4.093   -3.967   -3.920   -3.964   -4.072   -4.196   -4.283   -4.320   -4.311   -4.272   -4.222   -4.172   -4.133   -4.125   -4.168   -4.270   -4.411   -4.555   -4.665   -4.714   -4.673   -4.500   -4.167   -3.686   -3.130   -2.608   -2.205   -1.939   -1.769   -1.657   -1.575   -1.526   -1.532   -1.611   -1.760   -1.949   -2.138   -2.321   -2.536   -2.843   -3.261   -3.727   -4.124   -4.420
 -10.892  -10.666  -10.531  -10.402  -10.291  -10.224  -10.218  -10.278  -10.402  -10.598  -10.884  -11.293  -11.862  -12.613  -13.537  -14.592  -15.717  -16.855  -17.977  -19.075  -20.161  -21.255  -22.381  -23.553  -24.757  -25.936  -26.996  -27.831  -28.343  -28.467  -28.166  -27.444  -26.354  -24.994  -23.509  -22.057  -20.772  -19.726  -18.918  -18.283  -17.725  -17.151  -16.487  -15.697  -14.772  -13.736  -12.627  -11.489  -10.371   -9.311   -8.343   -7.486   -6.740   -6.101   -5.544   -5.052   -4.620   -4.273   -4.028   -3.886   -3.825   -3.802   -3.782   -3.747   -3.698   -3.644   -3.589   -3.543   -3.518   -3.534   -3.603   -3.730   -3.892   -4.061   -4.217   -4.338   -4.395   -4.342   -4.128   -3.745   -3.250   -2.749   -2.328   -2.017   -1.794   -1.624   -1.498   -1.425   -1.436   -1.558   -1.787   -2.078   -2.359   -2.596   -2.812   -3.070   -3.406   -3.780   -4.104   -4.346
 -10.845  -10.687  -10.684  -10.739  -10.859  -11.060  -11.351  -11.733  -12.197  -12.747  -13.407  -14.221  -15.233  -16.459  -17.866  -19.371  -20.880  -22.318  -23.661  -24.922  -26.147  -27.384  -28.673  -30.034  -31.441  -32.818  -34.059  -35.049  -35.696  -35.935  -35.736  -35.100  -34.069  -32.725  -31.193  -29.623  -28.159  -26.899  -25.863  -25.005  -24.239  -23.473  -22.638  -21.692  -20.623  -19.439  -18.164  -16.825  -15.451  -14.064  -12.691  -11.357  -10.086   -8.893   -7.785   -6.767   -5.857   -5.078   -4.446   -3.958   -3.598   -3.334   -3.139   -2.992   -2.874   -2.781   -2.703   -2.642   -2.610   -2.619   -2.678   -2.789   -2.938   -3.107   -3.289   -3.476   -3.647   -3.761   -3.754   -3.595   -3.303   -2.958   -2.627   -2.345   -2.103   -1.896   -1.731   -1.637   -1.654   -1.811   -2.103   -2.466   -2.808   -3.055   -3.217   -3.354   -3.523   -3.724   -3.906   -4.076
 -11.631  -11.535  -11.649  -11.872  -12.206  -12.657  -13.221  -13.887  -14.634  -15.462  -16.400  -17.495  -18.794  -20.303  -21.974  -23.702  -25.382  -26.937  -28.353  -29.670  -30.949  -32.260  -33.656  -35.156  -36.724  -38.276  -39.696  -40.861  -41.672  -42.060  -41.997  -41.499  -40.618  -39.439  -38.071  -36.633  -35.243  -33.986  -32.891  -31.930  -31.039  -30.146  -29.197  -28.158  -27.021  -25.788  -24.465  -23.056  -21.561  -19.978  -18.312  -16.580  -14.810  -13.039  -11.305   -9.646   -8.106   -6.727   -5.540   -4.557   -3.773   -3.172   -2.732   -2.424   -2.208   -2.058   -1.944   -1.853   -1.792   -1.766   -1.781   -1.845   -1.946   -2.079   -2.242   -2.443   -2.674   -2.906   -3.079   -3.145   -3.091   -2.954   -2.771   -2.571   -2.363   -2.161   -1.991   -1.895   -1.919   -2.091   -2.402   -2.783   -3.116   -3.325   -3.398   -3.393   -3.384   -3.398   -3.435   -3.535
 -13.555  -13.528  -13.723  -14.055  -14.526  -15.133  -15.859  -16.675  -17.560  -18.509  -19.550  -20.732  -22.098  -23.654  -25.348  -27.080  -28.747  -30.282  -31.679  -32.980  -34.260  -35.595  -37.045  -38.630  -40.321  -42.035  -43.654  -45.048  -46.095  -46.707  -46.850  -46.541  -45.851  -44.881  -43.745  -42.542  -41.360  -40.255  -39.241  -38.296  -37.376  -36.432  -35.427  -34.343  -33.176  -31.927  -30.595  -29.169  -27.627  -25.946  -24.109  -22.118  -19.993  -17.775  -15.518  -13.282  -11.137   -9.144   -7.354   -5.804   -4.515   -3.498   -2.749   -2.231   -1.887   -1.657   -1.493   -1.368   -1.273   -1.212   -1.188   -1.200   -1.249   -1.327   -1.443   -1.606   -1.824   -2.079   -2.329   -2.527   -2.643   -2.674   -2.636   -2.541   -2.400   -2.240   -2.100   -2.026   -2.056   -2.213   -2.486   -2.804   -3.067   -3.194   -3.177   -3.072   -2.951   -2.852   -2.804   -2.867
 -16.699  -16.774  -17.004  -17.360  -17.854  -18.478  -19.210  -20.015  -20.870  -21.770  -22.739  -23.822  -25.057  -26.455  -27.973  -29.531  -31.040  -32.446  -33.741  -34.965  -36.185  -37.472  -38.885  -40.444  -42.128  -43.863  -45.551  -47.075  -48.322  -49.210  -49.689  -49.759  -49.465  -48.881  -48.103  -47.225  -46.322  -45.435  -44.573  -43.711  -42.820  -41.868  -40.836  -39.718  -38.518  -37.239  -35.878  -34.417  -32.828  -31.076  -29.135  -26.993  -24.663  -22.181  -19.603  -16.996  -14.428  -11.968   -9.673   -7.600   -5.803   -4.338   -3.225   -2.441   -1.919   -1.576   -1.345   -1.180   -1.065   -0.990   -0.951   -0.941   -0.959   -0.993   -1.061   -1.170   -1.332   -1.545   -1.781   -2.003   -2.182   -2.299   -2.351   -2.338   -2.272   -2.171   -2.080   -2.031   -2.053   -2.164   -2.344   -2.542   -2.687   -2.719   -2.641   -2.508   -2.371   -2.271   -2.222   -2.292
 -20.503  -20.722  -20.965  -21.294  -21.733  -22.278  -22.908  -23.591  -24.307  -25.052  -25.843  -26.717  -27.708  -28.830  -30.055  -31.330  -32.590  -33.791  -34.926  -36.021  -37.124  -38.288  -39.557  -40.948  -42.442  -43.983  -45.496  -46.906  -48.156  -49.212  -50.049  -50.642  -50.975  -51.042  -50.869  -50.505  -50.009  -49.422  -48.764  -48.026  -47.192  -46.250  -45.195  -44.033  -42.778  -41.437  -40.011  -38.483  -36.824  -35.000  -32.983  -30.760  -28.341  -25.759  -23.066  -20.321  -17.581  -14.889  -12.291   -9.842   -7.621   -5.720   -4.206   -3.090   -2.311   -1.791   -1.455   -1.243   -1.113   -1.050   -1.025   -1.024   -1.029   -1.036   -1.057   -1.112   -1.222   -1.379   -1.575   -1.771   -1.948   -2.084   -2.167   -2.198   -2.176   -2.127   -2.073   -2.038   -2.039   -2.080   -2.144   -2.202   -2.215   -2.158   -2.054   -1.949   -1.885   -1.868   -1.886   -1.992
 -23.997  -24.376  -24.646  -24.953  -25.334  -25.788  -26.300  -26.846  -27.406  -27.978  -28.578  -29.232  -29.969  -30.803  -31.724  -32.701  -33.694  -34.673  -35.629  -36.570  -37.520  -38.506  -39.552  -40.666  -41.836  -43.029  -44.203  -45.333  -46.420  -47.480  -48.526  -49.541  -50.477  -51.264  -51.833  -52.147  -52.207  -52.032  -51.651  -51.082  -50.335  -49.415  -48.339  -47.124  -45.794  -44.367  -42.851  -41.239  -39.508  -37.632  -35.583  -33.354  -30.954  -28.415  -25.785  -23.108  -20.418  -17.730  -15.057  -12.430   -9.930   -7.672   -5.763   -4.257   -3.141   -2.363   -1.853   -1.551   -1.405   -1.360   -1.373   -1.393   -1.392   -1.359   -1.317   -1.309   -1.363   -1.485   -1.656   -1.837   -2.005   -2.138   -2.224   -2.261   -2.255   -2.228   -2.189   -2.152   -2.120   -2.087   -2.042   -1.974   -1.876   -1.757   -1.652   -1.613   -1.658   -1.763   -1.880   -2.037
 -26.411  -26.917  -27.236  -27.553  -27.916  -28.324  -28.762  -29.213  -29.663  -30.110  -30.565  -31.053  -31.596  -32.210  -32.896  -33.640  -34.420  -35.217  -36.016  -36.814  -37.611  -38.409  -39.208  -40.006  -40.795  -41.568  -42.330  -43.106  -43.949  -44.910  -46.021  -47.267  -48.597  -49.919  -51.123  -52.097  -52.760  -53.078  -53.053  -52.715  -52.097  -51.232  -50.151  -48.889  -47.485  -45.969  -44.367  -42.685  -40.912  -39.030  -37.018  -34.870  -32.595  -30.222  -27.786  -25.319  -22.830  -20.307  -17.733  -15.112  -12.506  -10.027   -7.801   -5.920   -4.428   -3.325   -2.581   -2.148   -1.954   -1.920   -1.963   -1.998   -1.969   -1.862   -1.723   -1.614   -1.598   -1.682   -1.838   -2.022   -2.198   -2.332   -2.413   -2.439   -2.426   -2.395   -2.355   -2.305   -2.241   -2.148   -2.027   -1.879   -1.718   -1.581   -1.516   -1.570   -1.743   -1.984   -2.210   -2.418
 -27.389  -27.957  -28.326  -28.684  -29.071  -29.481  -29.902  -30.318  -30.719  -31.105  -31.485  -31.882  -32.316  -32.808  -33.362  -33.976  -34.637  -35.329  -36.034  -36.737  -37.421  -38.071  -38.669  -39.196  -39.641  -40.009  -40.338  -40.708  -41.222  -41.982  -43.040  -44.378  -45.919  -47.553  -49.160  -50.606  -51.769  -52.554  -52.918  -52.866  -52.440  -51.682  -50.639  -49.362  -47.905  -46.327  -44.668  -42.954  -41.189  -39.361  -37.457  -35.466  -33.396  -31.266  -29.095  -26.898  -24.666  -22.371  -19.979  -17.482  -14.917  -12.379   -9.984   -7.840   -6.033   -4.619   -3.622   -3.016   -2.733   -2.671   -2.707   -2.726   -2.642   -2.436   -2.164   -1.925   -1.803   -1.817   -1.940   -2.116   -2.291   -2.425   -2.494   -2.502   -2.472   -2.426   -2.376   -2.316   -2.232   -2.110   -1.960   -1.795   -1.646   -1.560   -1.594   -1.780   -2.101   -2.479   -2.812   -3.063
 -26.974  -27.527  -27.933  -28.342  -28.773  -29.216  -29.657  -30.083  -30.485  -30.864  -31.231  -31.604  -32.009  -32.468  -32.991  -33.580  -34.224  -34.903  -35.595  -36.273  -36.914  -37.492  -37.975  -38.333  -38.542  -38.607  -38.575  -38.552  -38.686  -39.132  -39.988  -41.261  -42.863  -44.654  -46.483  -48.206  -49.691  -50.819  -51.510  -51.742  -51.535  -50.927  -49.969  -48.721  -47.260  -45.660  -43.989  -42.289  -40.580  -38.859  -37.112  -35.328  -33.502  -31.637  -29.739  -27.803  -25.812  -23.735  -21.538  -19.207  -16.771  -14.304  -11.903   -9.663   -7.684   -6.057   -4.845   -4.055   -3.634   -3.473   -3.444   -3.403   -3.246   -2.938   -2.540   -2.169   -1.924   -1.838   -1.887   -2.009   -2.149   -2.259   -2.310   -2.299   -2.253   -2.195   -2.138   -2.073   -1.990   -1.877   -1.752   -1.639   -1.575   -1.614   -1.800   -2.151   -2.623   -3.126   -3.545   -3.824
 -25.589  -26.072  -26.490  -26.935  -27.405  -27.884  -28.356  -28.810  -29.238  -29.639  -30.026  -30.420  -30.850  -31.342  -31.910  -32.554  -33.259  -34.000  -34.748  -35.470  -36.136  -36.713  -37.168  -37.459  -37.555  -37.450  -37.188  -36.877  -36.680  -36.779  -37.321  -38.361  -39.850  -41.650  -43.582  -45.467  -47.145  -48.486  -49.399  -49.842  -49.820  -49.358  -48.504  -47.322  -45.896  -44.319  -42.675  -41.028  -39.409  -37.826  -36.262  -34.694  -33.106  -31.485  -29.821  -28.099  -26.301  -24.400  -22.371  -20.206  -17.930  -15.607  -13.309  -11.115   -9.111   -7.392   -6.038   -5.082   -4.491   -4.180   -4.031   -3.895   -3.658   -3.271   -2.785   -2.315   -1.965   -1.772   -1.715   -1.747   -1.817   -1.878   -1.898   -1.874   -1.820   -1.759   -1.701   -1.645   -1.584   -1.515   -1.458   -1.446   -1.516   -1.714   -2.069   -2.571   -3.164   -3.748   -4.207   -4.497
 -23.926  -24.329  -24.736  -25.190  -25.674  -26.168  -26.658  -27.132  -27.582  -28.009  -28.424  -28.852  -29.325  -29.875  -30.517  -31.245  -32.042  -32.873  -33.704  -34.496  -35.215  -35.831  -36.303  -36.591  -36.657  -36.488  -36.120  -35.652  -35.241  -35.073  -35.312  -36.054  -37.304  -38.966  -40.869  -42.810  -44.590  -46.057  -47.104  -47.683  -47.787  -47.439  -46.679  -45.572  -44.207  -42.683  -41.100  -39.535  -38.030  -36.592  -35.204  -33.833  -32.446  -31.020  -29.534  -27.971  -26.313  -24.544  -22.648  -20.625  -18.500  -16.329  -14.168  -12.081  -10.134   -8.409   -6.986   -5.905   -5.156   -4.687   -4.401   -4.172   -3.871   -3.437   -2.906   -2.386   -1.968   -1.691   -1.536   -1.476   -1.465   -1.468   -1.459   -1.427   -1.374   -1.317   -1.268   -1.228   -1.202   -1.189   -1.210   -1.303   -1.504   -1.839   -2.322   -2.926   -3.584   -4.194   -4.662   -4.951
 -22.617  -22.984  -23.371  -23.807  -24.275  -24.756  -25.237  -25.707  -26.159  -26.592  -27.020  -27.466  -27.967  -28.553  -29.239  -30.018  -30.865  -31.747  -32.623  -33.454  -34.205  -34.844  -35.334  -35.632  -35.702  -35.527  -35.136  -34.622  -34.125  -33.821  -33.868  -34.378  -35.389  -36.844  -38.607  -40.482  -42.264  -43.778  -44.901  -45.564  -45.750  -45.477  -44.785  -43.742  -42.441  -40.989  -39.490  -38.024  -36.637  -35.333  -34.092  -32.872  -31.637  -30.354  -29.000  -27.557  -26.011  -24.352  -22.571  -20.669  -18.673  -16.631  -14.592  -12.605  -10.727   -9.028   -7.584   -6.439   -5.598   -5.029   -4.655   -4.360   -4.020   -3.566   -3.028   -2.493   -2.046   -1.724   -1.517   -1.397   -1.337   -1.305   -1.276   -1.238   -1.189   -1.138   -1.095   -1.069   -1.064   -1.088   -1.158   -1.314   -1.580   -1.987   -2.527   -3.171   -3.843   -4.450   -4.914   -5.232
