DSAA
 100 100
 0.0 400.0
 0.0 400.0
 -139.4259 -1.799478
  -2.682   -2.383   -2.531   -2.814   -3.219   -3.685   -4.168   -4.578   -4.839   -4.894   -4.690   -4.244   -3.652   -3.035   -2.516   -2.175   -2.080   -2.247   -2.725   -3.480   -4.357   -5.074   -5.359   -5.155   -4.676   -4.246   -4.093   -4.174   -4.296   -4.304   -4.155   -3.912   -3.682   -3.480   -3.321   -3.182   -3.089   -3.104   -3.307   -3.731   -4.336   -4.998   -5.623   -6.157   -6.529   -6.661   -6.519   -6.224   -5.985   -5.910   -5.963   -6.045   -6.079   -6.056   -5.971   -5.807   -5.520   -5.137   -4.756   -4.504   -4.494   -4.637   -4.721   -4.543   -4.060   -3.433   -2.908   -2.665   -2.706   -2.922   -3.155   -3.353   -3.555   -3.778   -3.947   -3.929   -3.687   -3.347   -3.052   -2.895   -2.890   -2.993   -3.170   -3.332   -3.448   -3.551   -3.732   -4.075   -4.608   -5.289   -6.005   -6.610   -6.936   -6.840   -6.279   -5.389   -4.383   -3.486   -2.883   -2.956
  -2.854   -2.738   -2.937   -3.260   -3.680   -4.164   -4.636   -5.023   -5.253   -5.254   -4.995   -4.497   -3.844   -3.166   -2.592   -2.199   -2.058   -2.189   -2.617   -3.310   -4.119   -4.779   -5.037   -4.848   -4.398   -3.994   -3.832   -3.899   -4.031   -4.090   -4.024   -3.867   -3.676   -3.478   -3.300   -3.144   -3.051   -3.062   -3.247   -3.620   -4.140   -4.702   -5.226   -5.665   -5.989   -6.143   -6.105   -5.979   -5.931   -6.039   -6.220   -6.368   -6.416   -6.364   -6.227   -5.988   -5.607   -5.115   -4.607   -4.253   -4.141   -4.211   -4.257   -4.099   -3.676   -3.135   -2.698   -2.516   -2.585   -2.814   -3.044   -3.218   -3.389   -3.600   -3.765   -3.766   -3.553   -3.252   -3.007   -2.892   -2.918   -3.055   -3.230   -3.401   -3.539   -3.695   -3.942   -4.358   -4.976   -5.744   -6.567   -7.289   -7.694   -7.614   -6.984   -5.948   -4.771   -3.725   -3.002   -2.877
  -3.917   -3.846   -4.082   -4.446   -4.892   -5.366   -5.806   -6.130   -6.273   -6.177   -5.826   -5.244   -4.510   -3.734   -3.054   -2.554   -2.305   -2.332   -2.648   -3.192   -3.845   -4.371   -4.578   -4.431   -4.069   -3.734   -3.579   -3.614   -3.747   -3.886   -3.964   -3.949   -3.832   -3.658   -3.467   -3.317   -3.240   -3.265   -3.423   -3.712   -4.088   -4.480   -4.835   -5.133   -5.372   -5.523   -5.617   -5.725   -5.951   -6.296   -6.641   -6.866   -6.922   -6.831   -6.614   -6.264   -5.761   -5.147   -4.523   -4.051   -3.815   -3.769   -3.750   -3.613   -3.303   -2.930   -2.643   -2.544   -2.648   -2.850   -3.047   -3.195   -3.330   -3.509   -3.676   -3.721   -3.587   -3.384   -3.245   -3.222   -3.311   -3.458   -3.619   -3.765   -3.916   -4.143   -4.495   -5.023   -5.736   -6.625   -7.607   -8.517   -9.087   -9.070   -8.395   -7.214   -5.843   -4.619   -3.777   -3.568
  -5.381   -5.344   -5.601   -5.978   -6.415   -6.854   -7.215   -7.456   -7.500   -7.308   -6.873   -6.208   -5.386   -4.505   -3.689   -3.041   -2.633   -2.494   -2.619   -2.959   -3.391   -3.751   -3.906   -3.813   -3.576   -3.336   -3.204   -3.206   -3.329   -3.532   -3.726   -3.832   -3.805   -3.673   -3.520   -3.425   -3.412   -3.482   -3.628   -3.842   -4.104   -4.373   -4.608   -4.808   -4.965   -5.099   -5.231   -5.440   -5.777   -6.211   -6.606   -6.843   -6.884   -6.744   -6.477   -6.077   -5.562   -4.961   -4.380   -3.915   -3.643   -3.519   -3.424   -3.279   -3.059   -2.830   -2.668   -2.633   -2.722   -2.880   -3.045   -3.167   -3.291   -3.460   -3.642   -3.744   -3.725   -3.664   -3.662   -3.749   -3.885   -4.013   -4.113   -4.188   -4.313   -4.557   -4.972   -5.564   -6.342   -7.322   -8.447   -9.550  -10.319  -10.454   -9.848   -8.663   -7.249   -5.966   -5.075   -4.831
  -6.958   -6.938   -7.181   -7.526   -7.900   -8.259   -8.541   -8.686   -8.650   -8.393   -7.907   -7.207   -6.335   -5.384   -4.461   -3.664   -3.062   -2.710   -2.606   -2.695   -2.895   -3.082   -3.182   -3.146   -3.021   -2.875   -2.768   -2.739   -2.830   -3.029   -3.258   -3.418   -3.455   -3.394   -3.335   -3.335   -3.411   -3.541   -3.697   -3.889   -4.107   -4.349   -4.576   -4.762   -4.896   -4.991   -5.083   -5.226   -5.461   -5.765   -6.039   -6.196   -6.190   -6.036   -5.787   -5.454   -5.067   -4.663   -4.285   -3.972   -3.747   -3.569   -3.384   -3.176   -2.972   -2.811   -2.729   -2.722   -2.790   -2.909   -3.044   -3.175   -3.320   -3.492   -3.677   -3.829   -3.929   -4.028   -4.177   -4.363   -4.512   -4.583   -4.580   -4.558   -4.620   -4.845   -5.254   -5.846   -6.631   -7.651   -8.890  -10.154  -11.117  -11.445  -11.037  -10.037   -8.784   -7.619   -6.802   -6.573
  -8.410   -8.384   -8.571   -8.835   -9.121   -9.381   -9.560   -9.627   -9.548   -9.280   -8.798   -8.121   -7.267   -6.314   -5.347   -4.451   -3.700   -3.155   -2.815   -2.657   -2.624   -2.647   -2.679   -2.667   -2.617   -2.533   -2.446   -2.385   -2.419   -2.558   -2.754   -2.907   -2.970   -2.986   -3.015   -3.094   -3.219   -3.371   -3.539   -3.732   -3.955   -4.216   -4.491   -4.727   -4.907   -5.016   -5.074   -5.107   -5.144   -5.210   -5.272   -5.303   -5.250   -5.134   -4.969   -4.780   -4.598   -4.439   -4.288   -4.143   -3.960   -3.716   -3.418   -3.119   -2.880   -2.739   -2.698   -2.720   -2.798   -2.924   -3.089   -3.264   -3.439   -3.607   -3.769   -3.929   -4.117   -4.348   -4.622   -4.858   -4.990   -4.999   -4.930   -4.866   -4.891   -5.098   -5.490   -6.069   -6.857   -7.919   -9.247  -10.647  -11.776  -12.311  -12.137  -11.412  -10.415   -9.438   -8.736   -8.522
  -9.566   -9.519   -9.631   -9.804   -9.984  -10.134  -10.227  -10.237  -10.141   -9.894   -9.469   -8.864   -8.092   -7.214   -6.278   -5.380   -4.565   -3.888   -3.369   -3.010   -2.783   -2.667   -2.614   -2.599   -2.578   -2.527   -2.445   -2.372   -2.352   -2.428   -2.563   -2.693   -2.774   -2.828   -2.866   -2.912   -2.989   -3.087   -3.214   -3.387   -3.598   -3.851   -4.135   -4.409   -4.650   -4.829   -4.918   -4.911   -4.834   -4.728   -4.640   -4.564   -4.508   -4.451   -4.401   -4.352   -4.314   -4.298   -4.261   -4.165   -3.957   -3.641   -3.264   -2.904   -2.649   -2.537   -2.542   -2.622   -2.750   -2.935   -3.164   -3.411   -3.616   -3.764   -3.889   -4.044   -4.281   -4.585   -4.890   -5.105   -5.192   -5.174   -5.116   -5.113   -5.228   -5.492   -5.915   -6.519   -7.341   -8.469   -9.900  -11.430  -12.732  -13.467  -13.535  -13.051  -12.244  -11.374  -10.691  -10.461
 -10.381  -10.300  -10.345  -10.432  -10.509  -10.570  -10.597  -10.570  -10.471  -10.263   -9.905   -9.391   -8.728   -7.972   -7.152   -6.322   -5.521   -4.793   -4.174   -3.676   -3.317   -3.088   -2.978   -2.952   -2.945   -2.909   -2.847   -2.797   -2.792   -2.860   -2.978   -3.105   -3.191   -3.214   -3.172   -3.082   -2.996   -2.944   -2.965   -3.050   -3.179   -3.349   -3.563   -3.812   -4.075   -4.309   -4.468   -4.514   -4.444   -4.297   -4.146   -4.050   -4.024   -4.053   -4.094   -4.121   -4.127   -4.097   -4.029   -3.881   -3.627   -3.280   -2.897   -2.581   -2.392   -2.349   -2.402   -2.532   -2.719   -2.962   -3.256   -3.562   -3.797   -3.951   -4.072   -4.241   -4.498   -4.793   -5.045   -5.178   -5.201   -5.184   -5.234   -5.399   -5.697   -6.111   -6.633   -7.289   -8.167   -9.357  -10.881  -12.548  -14.021  -14.992  -15.303  -15.020  -14.320  -13.451  -12.697  -12.405
 -10.885  -10.780  -10.773  -10.789  -10.802  -10.802  -10.781  -10.729  -10.632  -10.459  -10.157   -9.723   -9.161   -8.521   -7.827   -7.092   -6.348   -5.617   -4.954   -4.379   -3.942   -3.659   -3.533   -3.507   -3.524   -3.534   -3.545   -3.592   -3.699   -3.855   -4.035   -4.184   -4.247   -4.191   -3.997   -3.710   -3.400   -3.157   -3.012   -2.957   -2.964   -2.999   -3.088   -3.236   -3.438   -3.668   -3.862   -3.970   -3.947   -3.833   -3.680   -3.592   -3.599   -3.689   -3.805   -3.868   -3.853   -3.769   -3.628   -3.434   -3.173   -2.876   -2.613   -2.435   -2.380   -2.418   -2.502   -2.619   -2.792   -3.036   -3.344   -3.669   -3.941   -4.148   -4.333   -4.561   -4.829   -5.085   -5.245   -5.289   -5.275   -5.314   -5.510   -5.881   -6.377   -6.937   -7.543   -8.246   -9.147  -10.380  -11.953  -13.724  -15.364  -16.558  -17.127  -17.060  -16.495  -15.655  -14.866  -14.518
 -11.157  -11.032  -10.998  -10.974  -10.957  -10.927  -10.886  -10.833  -10.742  -10.588  -10.323   -9.938   -9.441   -8.876   -8.255   -7.586   -6.869   -6.143   -5.452   -4.841   -4.367   -4.073   -3.963   -3.983   -4.061   -4.171   -4.328   -4.563   -4.869   -5.216   -5.514   -5.683   -5.691   -5.507   -5.137   -4.648   -4.151   -3.741   -3.454   -3.269   -3.136   -3.042   -2.995   -3.008   -3.100   -3.248   -3.406   -3.511   -3.500   -3.378   -3.214   -3.102   -3.100   -3.212   -3.358   -3.454   -3.456   -3.379   -3.253   -3.093   -2.914   -2.757   -2.679   -2.700   -2.793   -2.881   -2.929   -2.961   -3.029   -3.198   -3.460   -3.757   -4.043   -4.315   -4.595   -4.904   -5.219   -5.469   -5.598   -5.633   -5.673   -5.821   -6.171   -6.680   -7.278   -7.887   -8.498   -9.184  -10.069  -11.293  -12.878  -14.696  -16.436  -17.801  -18.597  -18.785  -18.453  -17.798  -17.125  -16.797
 -11.274  -11.141  -11.091  -11.061  -11.032  -11.003  -10.977  -10.936  -10.862  -10.727  -10.485  -10.126   -9.660   -9.109   -8.489   -7.813   -7.073   -6.314   -5.580   -4.935   -4.452   -4.180   -4.113   -4.203   -4.407   -4.687   -5.061   -5.544   -6.104   -6.653   -7.057   -7.231   -7.142   -6.805   -6.274   -5.642   -5.036   -4.536   -4.166   -3.884   -3.659   -3.468   -3.312   -3.217   -3.186   -3.225   -3.290   -3.324   -3.262   -3.082   -2.837   -2.646   -2.580   -2.658   -2.811   -2.954   -3.042   -3.072   -3.062   -3.032   -3.004   -3.028   -3.147   -3.344   -3.543   -3.645   -3.607   -3.503   -3.442   -3.505   -3.687   -3.936   -4.203   -4.493   -4.833   -5.220   -5.600   -5.919   -6.136   -6.297   -6.486   -6.783   -7.232   -7.777   -8.338   -8.866   -9.378   -9.978  -10.810  -11.999  -13.563  -15.360  -17.132  -18.579  -19.525  -19.934  -19.889  -19.547  -19.135  -18.912
 -11.318  -11.171  -11.126  -11.089  -11.066  -11.055  -11.043  -11.029  -10.979  -10.874  -10.661  -10.329   -9.868   -9.310   -8.646   -7.896   -7.074   -6.233   -5.432   -4.748   -4.254   -4.003   -3.999   -4.208   -4.574   -5.073   -5.697   -6.434   -7.215   -7.903   -8.352   -8.485   -8.279   -7.804   -7.158   -6.466   -5.846   -5.346   -4.934   -4.588   -4.283   -4.028   -3.827   -3.672   -3.572   -3.529   -3.511   -3.462   -3.306   -3.024   -2.673   -2.369   -2.210   -2.228   -2.367   -2.566   -2.763   -2.939   -3.090   -3.220   -3.362   -3.561   -3.830   -4.138   -4.385   -4.457   -4.337   -4.146   -4.027   -4.063   -4.229   -4.444   -4.673   -4.926   -5.259   -5.676   -6.123   -6.552   -6.937   -7.290   -7.656   -8.074   -8.548   -9.026   -9.455   -9.812  -10.178  -10.662  -11.420  -12.543  -14.038  -15.777  -17.505  -18.956  -19.969  -20.528  -20.719  -20.675  -20.540  -20.445
 -11.313  -11.169  -11.122  -11.087  -11.068  -11.068  -11.076  -11.082  -11.057  -10.979  -10.812  -10.520  -10.088   -9.518   -8.811   -7.969   -7.045   -6.096   -5.211   -4.477   -3.968   -3.735   -3.788   -4.108   -4.641   -5.347   -6.191   -7.112   -8.013   -8.743   -9.178   -9.239   -8.943   -8.384   -7.707   -7.050   -6.493   -6.016   -5.571   -5.143   -4.753   -4.449   -4.250   -4.115   -4.022   -3.966   -3.906   -3.793   -3.561   -3.191   -2.754   -2.361   -2.125   -2.087   -2.209   -2.442   -2.717   -3.009   -3.288   -3.555   -3.839   -4.159   -4.520   -4.874   -5.123   -5.175   -5.058   -4.922   -4.920   -5.085   -5.344   -5.583   -5.785   -5.973   -6.252   -6.639   -7.116   -7.634   -8.143   -8.634   -9.099   -9.553   -9.983  -10.352  -10.617  -10.812  -11.027  -11.401  -12.065  -13.079  -14.452  -16.065  -17.697  -19.106  -20.131  -20.766  -21.098  -21.234  -21.272  -21.275
 -11.297  -11.149  -11.095  -11.064  -11.046  -11.047  -11.060  -11.073  -11.070  -11.019  -10.898  -10.670  -10.289   -9.743   -9.021   -8.127   -7.112   -6.074   -5.112   -4.319   -3.779   -3.542   -3.617   -3.996   -4.627   -5.462   -6.430   -7.432   -8.356   -9.068   -9.459   -9.464   -9.123   -8.557   -7.935   -7.379   -6.908   -6.469   -5.976   -5.458   -4.995   -4.673   -4.507   -4.442   -4.426   -4.410   -4.365   -4.229   -3.951   -3.526   -3.030   -2.587   -2.304   -2.217   -2.320   -2.562   -2.882   -3.244   -3.597   -3.958   -4.351   -4.771   -5.210   -5.607   -5.882   -5.989   -6.004   -6.078   -6.348   -6.768   -7.195   -7.507   -7.697   -7.843   -8.064   -8.404   -8.849   -9.357   -9.879  -10.367  -10.811  -11.199  -11.532  -11.775  -11.918  -11.992  -12.107  -12.389  -12.941  -13.802  -14.985  -16.409  -17.891  -19.218  -20.232  -20.895  -21.279  -21.475  -21.567  -21.618
 -11.275  -11.122  -11.068  -11.031  -11.012  -11.010  -11.017  -11.028  -11.029  -11.001  -10.921  -10.758  -10.453   -9.967   -9.283   -8.394   -7.366   -6.289   -5.288   -4.453   -3.870   -3.575   -3.597   -3.918   -4.514   -5.332   -6.289   -7.284   -8.195   -8.897   -9.268   -9.261   -8.931   -8.416   -7.890   -7.458   -7.085   -6.679   -6.167   -5.612   -5.137   -4.858   -4.775   -4.817   -4.896   -4.940   -4.911   -4.751   -4.424   -3.942   -3.399   -2.915   -2.592   -2.470   -2.545   -2.791   -3.133   -3.535   -3.967   -4.443   -4.970   -5.538   -6.119   -6.642   -7.037   -7.300   -7.546   -7.913   -8.474   -9.123   -9.693  -10.066  -10.255  -10.395  -10.583  -10.871  -11.237  -11.648  -12.055  -12.434  -12.759  -13.023  -13.240  -13.382  -13.444  -13.458  -13.519  -13.725  -14.156  -14.840  -15.800  -16.977  -18.253  -19.440  -20.396  -21.060  -21.456  -21.654  -21.739  -21.795
 -11.245  -11.090  -11.043  -11.010  -10.991  -10.980  -10.980  -10.976  -10.977  -10.954  -10.908  -10.793  -10.568  -10.182   -9.592   -8.795   -7.828   -6.798   -5.805   -4.953   -4.314   -3.915   -3.781   -3.927   -4.335   -4.987   -5.833   -6.772   -7.686   -8.420   -8.836   -8.861   -8.561   -8.091   -7.644   -7.300   -7.014   -6.678   -6.232   -5.762   -5.402   -5.248   -5.303   -5.464   -5.617   -5.693   -5.637   -5.405   -4.985   -4.405   -3.778   -3.217   -2.826   -2.655   -2.714   -2.976   -3.381   -3.885   -4.465   -5.137   -5.904   -6.735   -7.560   -8.313   -8.923   -9.405   -9.879  -10.455  -11.169  -11.904  -12.494  -12.865  -13.062  -13.201  -13.378  -13.623  -13.894  -14.170  -14.431  -14.657  -14.832  -14.969  -15.076  -15.151  -15.171  -15.171  -15.202  -15.353  -15.672  -16.191  -16.928  -17.844  -18.859  -19.842  -20.676  -21.301  -21.698  -21.905  -21.994  -22.053
 -11.230  -11.074  -11.030  -10.999  -10.982  -10.974  -10.961  -10.947  -10.937  -10.916  -10.884  -10.816  -10.665  -10.391   -9.934   -9.287   -8.467   -7.556   -6.632   -5.795   -5.088   -4.560   -4.228   -4.115   -4.239   -4.630   -5.297   -6.164   -7.096   -7.907   -8.403   -8.486   -8.207   -7.747   -7.314   -7.006   -6.797   -6.573   -6.303   -6.039   -5.901   -5.963   -6.180   -6.448   -6.651   -6.704   -6.574   -6.226   -5.659   -4.931   -4.153   -3.464   -2.970   -2.738   -2.802   -3.132   -3.682   -4.396   -5.258   -6.262   -7.379   -8.545   -9.685  -10.699  -11.522  -12.178  -12.763  -13.376  -14.044  -14.687  -15.182  -15.490  -15.669  -15.807  -15.978  -16.183  -16.386  -16.556  -16.694  -16.782  -16.832  -16.863  -16.894  -16.930  -16.947  -16.945  -16.967  -17.067  -17.296  -17.681  -18.225  -18.903  -19.644  -20.382  -21.042  -21.588  -21.985  -22.229  -22.356  -22.431
 -11.231  -11.074  -11.023  -11.002  -10.985  -10.974  -10.958  -10.934  -10.921  -10.899  -10.881  -10.838  -10.755  -10.577  -10.272   -9.805   -9.178   -8.432   -7.627   -6.835   -6.109   -5.488   -4.975   -4.607   -4.437   -4.544   -4.996   -5.761   -6.703   -7.589   -8.161   -8.292   -8.027   -7.547   -7.091   -6.788   -6.638   -6.560   -6.503   -6.503   -6.626   -6.898   -7.259   -7.610   -7.828   -7.851   -7.633   -7.168   -6.461   -5.569   -4.605   -3.745   -3.120   -2.829   -2.930   -3.415   -4.216   -5.275   -6.527   -7.927   -9.416  -10.904  -12.291  -13.471  -14.396  -15.098  -15.647  -16.149  -16.642  -17.093  -17.439  -17.653  -17.794  -17.921  -18.075  -18.249  -18.411  -18.524  -18.577  -18.577  -18.543  -18.506  -18.498  -18.513  -18.536  -18.548  -18.563  -18.624  -18.774  -19.054  -19.456  -19.938  -20.444  -20.934  -21.404  -21.846  -22.236  -22.535  -22.730  -22.836
 -11.237  -11.079  -11.036  -11.009  -10.991  -10.976  -10.961  -10.938  -10.923  -10.901  -10.891  -10.875  -10.834  -10.745  -10.562  -10.263   -9.830   -9.265   -8.618   -7.929   -7.247   -6.590   -5.983   -5.442   -5.041   -4.902   -5.135   -5.767   -6.656   -7.550   -8.173   -8.353   -8.115   -7.639   -7.180   -6.889   -6.790   -6.837   -6.962   -7.172   -7.487   -7.891   -8.323   -8.692   -8.911   -8.913   -8.663   -8.146   -7.353   -6.337   -5.214   -4.169   -3.397   -3.061   -3.252   -3.956   -5.096   -6.553   -8.220   -9.997  -11.774  -13.453  -14.923  -16.115  -16.996  -17.609  -18.029  -18.360  -18.651  -18.915  -19.124  -19.264  -19.362  -19.463  -19.589  -19.735  -19.865  -19.954  -19.971  -19.921  -19.838  -19.766  -19.736  -19.751  -19.785  -19.800  -19.805  -19.830  -19.922  -20.116  -20.413  -20.754  -21.075  -21.362  -21.653  -21.987  -22.358  -22.703  -22.967  -23.109
 -11.246  -11.085  -11.042  -11.019  -11.007  -10.988  -10.973  -10.953  -10.936  -10.922  -10.917  -10.910  -10.899  -10.865  -10.772  -10.602  -10.326   -9.942   -9.466   -8.922   -8.352   -7.759   -7.147   -6.535   -6.004   -5.686   -5.725   -6.189   -6.959   -7.797   -8.414   -8.638   -8.469   -8.074   -7.674   -7.432   -7.380   -7.488   -7.707   -8.009   -8.381   -8.800   -9.212   -9.544   -9.736   -9.735   -9.498   -9.006   -8.222   -7.164   -5.943   -4.751   -3.852   -3.491   -3.797   -4.746   -6.225   -8.053  -10.060  -12.105  -14.040  -15.752  -17.155  -18.220  -18.950  -19.408  -19.678  -19.855  -19.994  -20.132  -20.254  -20.347  -20.415  -20.492  -20.586  -20.707  -20.818  -20.885  -20.877  -20.802  -20.692  -20.611  -20.581  -20.603  -20.632  -20.641  -20.622  -20.614  -20.659  -20.789  -21.008  -21.254  -21.446  -21.588  -21.740  -21.974  -22.310  -22.675  -22.977  -23.156
 -11.268  -11.105  -11.062  -11.037  -11.019  -11.009  -10.992  -10.977  -10.961  -10.950  -10.945  -10.942  -10.943  -10.936  -10.896  -10.805  -10.650  -10.418  -10.108   -9.736   -9.312   -8.834   -8.297   -7.716   -7.153   -6.740   -6.640   -6.926   -7.525   -8.244   -8.821   -9.088   -9.027   -8.762   -8.475   -8.305   -8.292   -8.414   -8.627   -8.906   -9.227   -9.564   -9.880  -10.133  -10.278  -10.283  -10.091   -9.661   -8.943   -7.918   -6.672   -5.399   -4.418   -4.033   -4.434   -5.597   -7.346   -9.450  -11.698  -13.895  -15.876  -17.523  -18.778  -19.645  -20.188  -20.490  -20.640  -20.719  -20.781  -20.853  -20.937  -21.006  -21.065  -21.127  -21.200  -21.293  -21.375  -21.411  -21.384  -21.297  -21.189  -21.115  -21.093  -21.117  -21.133  -21.115  -21.065  -21.020  -21.025  -21.119  -21.285  -21.455  -21.570  -21.625  -21.685  -21.842  -22.120  -22.468  -22.777  -22.969
 -11.288  -11.122  -11.079  -11.058  -11.040  -11.028  -11.015  -11.004  -10.992  -10.978  -10.971  -10.967  -10.969  -10.963  -10.948  -10.905  -10.831  -10.715  -10.545  -10.320  -10.043   -9.693   -9.275   -8.789   -8.282   -7.868   -7.689   -7.826   -8.244   -8.806   -9.307   -9.592   -9.635   -9.515   -9.359   -9.265   -9.271   -9.361   -9.511   -9.702   -9.923  -10.144  -10.346  -10.507  -10.600  -10.590  -10.433  -10.069   -9.432   -8.480   -7.253   -5.951   -4.913   -4.509   -4.956   -6.250   -8.174  -10.460  -12.857  -15.147  -17.140  -18.701  -19.801  -20.492  -20.875  -21.053  -21.128  -21.163  -21.192  -21.243  -21.307  -21.367  -21.423  -21.477  -21.534  -21.598  -21.642  -21.652  -21.612  -21.529  -21.441  -21.385  -21.375  -21.391  -21.381  -21.330  -21.246  -21.169  -21.152  -21.218  -21.345  -21.467  -21.535  -21.551  -21.568  -21.671  -21.889  -22.183  -22.460  -22.647
 -11.313  -11.144  -11.097  -11.069  -11.050  -11.048  -11.038  -11.028  -11.011  -10.998  -10.991  -10.985  -10.979  -10.973  -10.965  -10.951  -10.921  -10.874  -10.800  -10.685  -10.520  -10.293   -9.994   -9.631   -9.239   -8.896   -8.701   -8.733   -8.996   -9.395   -9.795  -10.072  -10.181  -10.166  -10.102  -10.063  -10.067  -10.113  -10.190  -10.291  -10.408  -10.531  -10.635  -10.714  -10.753  -10.716  -10.557  -10.221   -9.627   -8.724   -7.534   -6.226   -5.156   -4.718   -5.167   -6.503   -8.521  -10.928  -13.449  -15.828  -17.855  -19.387  -20.391  -20.959  -21.226  -21.331  -21.365  -21.385  -21.406  -21.446  -21.493  -21.541  -21.583  -21.622  -21.656  -21.686  -21.706  -21.698  -21.660  -21.603  -21.541  -21.505  -21.501  -21.511  -21.483  -21.413  -21.310  -21.226  -21.198  -21.242  -21.324  -21.403  -21.445  -21.455  -21.466  -21.545  -21.701  -21.929  -22.147  -22.309
 -11.339  -11.162  -11.107  -11.077  -11.058  -11.053  -11.044  -11.037  -11.021  -11.004  -10.993  -10.988  -10.986  -10.982  -10.973  -10.962  -10.952  -10.938  -10.917  -10.863  -10.774  -10.640  -10.449  -10.216   -9.956   -9.712   -9.553   -9.535   -9.675   -9.946  -10.238  -10.467  -10.591  -10.622  -10.609  -10.590  -10.581  -10.590  -10.616  -10.650  -10.699  -10.744  -10.785  -10.802  -10.779  -10.685  -10.476  -10.092   -9.476   -8.568   -7.388   -6.089   -5.006   -4.541   -4.957   -6.281   -8.336  -10.841  -13.507  -16.035  -18.163  -19.727  -20.704  -21.213  -21.420  -21.481  -21.497  -21.510  -21.533  -21.562  -21.588  -21.604  -21.612  -21.619  -21.627  -21.634  -21.636  -21.628  -21.610  -21.583  -21.554  -21.536  -21.538  -21.541  -21.516  -21.455  -21.374  -21.307  -21.279  -21.295  -21.332  -21.370  -21.393  -21.401  -21.427  -21.490  -21.605  -21.765  -21.921  -22.058
 -11.335  -11.155  -11.107  -11.078  -11.058  -11.044  -11.034  -11.025  -11.014  -10.998  -10.984  -10.982  -10.982  -10.982  -10.966  -10.952  -10.945  -10.941  -10.934  -10.914  -10.868  -10.788  -10.691  -10.566  -10.426  -10.281  -10.174  -10.148  -10.222  -10.384  -10.584  -10.751  -10.853  -10.889  -10.888  -10.868  -10.851  -10.834  -10.829  -10.825  -10.835  -10.836  -10.826  -10.791  -10.692  -10.498  -10.173   -9.667   -8.942   -7.965   -6.766   -5.501   -4.459   -3.993   -4.362   -5.647   -7.715  -10.316  -13.157  -15.882  -18.180  -19.845  -20.854  -21.347  -21.526  -21.560  -21.567  -21.583  -21.605  -21.623  -21.625  -21.607  -21.581  -21.554  -21.536  -21.530  -21.524  -21.527  -21.530  -21.533  -21.531  -21.519  -21.515  -21.517  -21.514  -21.496  -21.473  -21.448  -21.433  -21.431  -21.424  -21.420  -21.413  -21.420  -21.450  -21.505  -21.590  -21.698  -21.812  -21.920
 -11.316  -11.133  -11.085  -11.056  -11.036  -11.028  -11.025  -11.015  -11.004  -10.985  -10.974  -10.969  -10.967  -10.960  -10.947  -10.925  -10.907  -10.901  -10.902  -10.894  -10.871  -10.836  -10.797  -10.742  -10.685  -10.619  -10.563  -10.545  -10.585  -10.681  -10.801  -10.909  -10.983  -11.002  -10.995  -10.972  -10.947  -10.924  -10.904  -10.889  -10.875  -10.849  -10.792  -10.678  -10.479  -10.140   -9.635   -8.932   -8.036   -6.963   -5.765   -4.575   -3.637   -3.228   -3.586   -4.814   -6.861   -9.543  -12.558  -15.501  -17.996  -19.796  -20.879  -21.384  -21.543  -21.558  -21.556  -21.576  -21.604  -21.620  -21.605  -21.570  -21.524  -21.484  -21.464  -21.454  -21.452  -21.460  -21.473  -21.486  -21.488  -21.477  -21.468  -21.463  -21.480  -21.516  -21.557  -21.589  -21.610  -21.604  -21.578  -21.542  -21.511  -21.501  -21.519  -21.560  -21.615  -21.690  -21.773  -21.865
 -11.301  -11.115  -11.068  -11.044  -11.031  -11.022  -11.016  -11.012  -10.998  -10.980  -10.962  -10.950  -10.943  -10.935  -10.914  -10.889  -10.868  -10.862  -10.859  -10.867  -10.863  -10.858  -10.844  -10.826  -10.805  -10.776  -10.748  -10.742  -10.774  -10.826  -10.892  -10.962  -11.003  -11.008  -10.996  -10.974  -10.951  -10.930  -10.916  -10.897  -10.864  -10.799  -10.680  -10.460  -10.108   -9.578   -8.847   -7.928   -6.858   -5.710   -4.573   -3.536   -2.782   -2.498   -2.870   -4.042   -6.036   -8.758  -11.897  -15.018  -17.687  -19.622  -20.777  -21.308  -21.458  -21.459  -21.451  -21.476  -21.515  -21.530  -21.517  -21.477  -21.443  -21.424  -21.425  -21.429  -21.431  -21.432  -21.430  -21.436  -21.436  -21.420  -21.400  -21.388  -21.415  -21.472  -21.559  -21.645  -21.709  -21.728  -21.713  -21.678  -21.637  -21.611  -21.605  -21.616  -21.642  -21.686  -21.748  -21.824
 -11.330  -11.143  -11.102  -11.083  -11.070  -11.065  -11.062  -11.060  -11.049  -11.024  -10.998  -10.975  -10.963  -10.942  -10.919  -10.896  -10.882  -10.885  -10.894  -10.910  -10.919  -10.922  -10.915  -10.900  -10.873  -10.846  -10.819  -10.808  -10.823  -10.853  -10.893  -10.935  -10.956  -10.957  -10.948  -10.933  -10.920  -10.908  -10.900  -10.873  -10.810  -10.687  -10.464  -10.097   -9.541   -8.786   -7.828   -6.724   -5.558   -4.435   -3.442   -2.644   -2.128   -2.007   -2.423   -3.547   -5.477   -8.167  -11.352  -14.569  -17.340  -19.365  -20.581  -21.138  -21.289  -21.280  -21.265  -21.290  -21.329  -21.348  -21.332  -21.311  -21.305  -21.325  -21.362  -21.389  -21.393  -21.375  -21.353  -21.346  -21.341  -21.323  -21.299  -21.275  -21.285  -21.341  -21.437  -21.542  -21.636  -21.701  -21.726  -21.724  -21.704  -21.681  -21.656  -21.636  -21.624  -21.633  -21.665  -21.724
 -11.525  -11.331  -11.294  -11.271  -11.265  -11.252  -11.250  -11.246  -11.236  -11.209  -11.176  -11.144  -11.123  -11.100  -11.080  -11.065  -11.071  -11.082  -11.111  -11.134  -11.151  -11.148  -11.129  -11.086  -11.020  -10.956  -10.892  -10.846  -10.826  -10.837  -10.863  -10.888  -10.903  -10.906  -10.900  -10.896  -10.893  -10.890  -10.875  -10.825  -10.705  -10.479  -10.104   -9.544   -8.765   -7.778   -6.644   -5.456   -4.321   -3.351   -2.600   -2.089   -1.831   -1.877   -2.353   -3.433   -5.283   -7.900  -11.033  -14.235  -17.018  -19.065  -20.308  -20.882  -21.036  -21.016  -20.987  -20.997  -21.022  -21.033  -21.019  -21.015  -21.033  -21.087  -21.154  -21.201  -21.205  -21.177  -21.140  -21.118  -21.115  -21.108  -21.089  -21.060  -21.049  -21.076  -21.143  -21.233  -21.332  -21.425  -21.499  -21.546  -21.573  -21.574  -21.552  -21.513  -21.472  -21.440  -21.442  -21.491
 -12.031  -11.834  -11.787  -11.759  -11.747  -11.730  -11.719  -11.711  -11.699  -11.674  -11.644  -11.616  -11.585  -11.571  -11.563  -11.563  -11.579  -11.604  -11.638  -11.668  -11.684  -11.669  -11.620  -11.516  -11.374  -11.215  -11.062  -10.944  -10.871  -10.849  -10.849  -10.867  -10.880  -10.888  -10.890  -10.888  -10.891  -10.885  -10.843  -10.731  -10.506  -10.130   -9.565   -8.781   -7.779   -6.628   -5.417   -4.265   -3.298   -2.591   -2.162   -1.967   -1.965   -2.172   -2.700   -3.743   -5.484   -7.963  -10.951  -14.012  -16.693  -18.679  -19.896  -20.467  -20.620  -20.591  -20.541  -20.520  -20.518  -20.509  -20.494  -20.494  -20.526  -20.588  -20.655  -20.700  -20.707  -20.677  -20.645  -20.630  -20.636  -20.649  -20.643  -20.616  -20.587  -20.577  -20.595  -20.648  -20.725  -20.818  -20.919  -21.006  -21.074  -21.115  -21.116  -21.083  -21.030  -20.983  -20.967  -21.004
 -12.982  -12.776  -12.719  -12.682  -12.653  -12.625  -12.611  -12.601  -12.591  -12.569  -12.552  -12.529  -12.513  -12.505  -12.501  -12.513  -12.532  -12.564  -12.596  -12.626  -12.630  -12.596  -12.493  -12.295  -12.027  -11.713  -11.405  -11.158  -10.992  -10.911  -10.889  -10.893  -10.904  -10.913  -10.918  -10.914  -10.913  -10.879  -10.787  -10.578  -10.207   -9.638   -8.851   -7.855   -6.702   -5.481   -4.309   -3.312   -2.599   -2.209   -2.121   -2.253   -2.516   -2.894   -3.482   -4.474   -6.063   -8.307  -11.019  -13.803  -16.250  -18.072  -19.196  -19.721  -19.861  -19.832  -19.773  -19.724  -19.689  -19.663  -19.640  -19.636  -19.662  -19.701  -19.745  -19.775  -19.779  -19.761  -19.739  -19.741  -19.768  -19.793  -19.801  -19.779  -19.738  -19.699  -19.680  -19.688  -19.728  -19.805  -19.900  -19.998  -20.090  -20.159  -20.194  -20.185  -20.146  -20.110  -20.099  -20.146
 -14.396  -14.190  -14.123  -14.072  -14.024  -13.994  -13.974  -13.965  -13.961  -13.954  -13.945  -13.936  -13.929  -13.923  -13.923  -13.936  -13.951  -13.979  -14.007  -14.026  -14.020  -13.947  -13.769  -13.446  -12.991  -12.454  -11.916  -11.477  -11.175  -11.012  -10.946  -10.934  -10.941  -10.948  -10.951  -10.945  -10.930  -10.868  -10.708  -10.386   -9.840   -9.058   -8.067   -6.920   -5.708   -4.539   -3.513   -2.736   -2.283   -2.178   -2.396   -2.832   -3.366   -3.939   -4.613   -5.543   -6.920   -8.822  -11.112  -13.477  -15.557  -17.108  -18.065  -18.512  -18.629  -18.600  -18.546  -18.498  -18.452  -18.412  -18.382  -18.370  -18.374  -18.387  -18.399  -18.411  -18.411  -18.399  -18.398  -18.408  -18.437  -18.467  -18.476  -18.460  -18.419  -18.370  -18.332  -18.318  -18.331  -18.381  -18.449  -18.530  -18.621  -18.697  -18.751  -18.770  -18.766  -18.757  -18.767  -18.848
 -16.110  -15.924  -15.851  -15.793  -15.747  -15.715  -15.698  -15.695  -15.703  -15.711  -15.707  -15.700  -15.692  -15.684  -15.681  -15.687  -15.701  -15.720  -15.741  -15.747  -15.717  -15.601  -15.329  -14.849  -14.162  -13.343  -12.527  -11.847  -11.374  -11.107  -10.993  -10.960  -10.955  -10.958  -10.958  -10.951  -10.930  -10.846  -10.624  -10.191   -9.495   -8.539   -7.399   -6.189   -5.031   -4.003   -3.185   -2.622   -2.360   -2.451   -2.881   -3.554   -4.338   -5.116   -5.877   -6.731   -7.853   -9.341  -11.118  -12.962  -14.586  -15.796  -16.532  -16.864  -16.948  -16.930  -16.899  -16.871  -16.841  -16.802  -16.772  -16.754  -16.742  -16.739  -16.731  -16.732  -16.724  -16.718  -16.719  -16.730  -16.750  -16.765  -16.768  -16.752  -16.718  -16.677  -16.646  -16.634  -16.640  -16.669  -16.712  -16.767  -16.827  -16.886  -16.937  -16.969  -16.987  -17.015  -17.058  -17.179
 -17.874  -17.716  -17.648  -17.594  -17.555  -17.534  -17.523  -17.525  -17.538  -17.549  -17.548  -17.538  -17.522  -17.503  -17.496  -17.502  -17.514  -17.531  -17.543  -17.539  -17.486  -17.316  -16.942  -16.293  -15.366  -14.259  -13.147  -12.207  -11.548  -11.169  -11.002  -10.950  -10.939  -10.937  -10.941  -10.938  -10.910  -10.810  -10.555  -10.061   -9.277   -8.233   -7.054   -5.884   -4.861   -4.026   -3.402   -2.995   -2.842   -3.013   -3.538   -4.342   -5.295   -6.216   -7.039   -7.804   -8.665   -9.732  -10.993  -12.305  -13.459  -14.308  -14.808  -15.012  -15.058  -15.052  -15.052  -15.065  -15.070  -15.057  -15.038  -15.019  -15.006  -14.999  -14.991  -14.991  -14.980  -14.970  -14.964  -14.965  -14.964  -14.961  -14.946  -14.925  -14.902  -14.881  -14.871  -14.872  -14.886  -14.912  -14.936  -14.964  -14.989  -15.013  -15.039  -15.066  -15.098  -15.143  -15.207  -15.374
 -19.427  -19.293  -19.231  -19.190  -19.162  -19.150  -19.143  -19.150  -19.159  -19.166  -19.163  -19.142  -19.116  -19.091  -19.081  -19.085  -19.097  -19.116  -19.132  -19.116  -19.043  -18.822  -18.355  -17.560  -16.423  -15.061  -13.683  -12.513  -11.684  -11.207  -10.992  -10.926  -10.912  -10.913  -10.922  -10.925  -10.901  -10.800  -10.538  -10.033   -9.256   -8.254   -7.160   -6.130   -5.277   -4.622   -4.146   -3.840   -3.736   -3.910   -4.411   -5.217   -6.197   -7.160   -7.975   -8.639   -9.269   -9.979  -10.801  -11.655  -12.397  -12.924  -13.212  -13.309  -13.316  -13.310  -13.346  -13.398  -13.447  -13.472  -13.473  -13.462  -13.458  -13.460  -13.461  -13.461  -13.452  -13.438  -13.426  -13.417  -13.400  -13.373  -13.344  -13.317  -13.301  -13.299  -13.304  -13.324  -13.351  -13.374  -13.390  -13.392  -13.382  -13.375  -13.378  -13.394  -13.425  -13.470  -13.537  -13.735
 -20.601  -20.477  -20.419  -20.387  -20.370  -20.360  -20.359  -20.362  -20.367  -20.361  -20.348  -20.319  -20.286  -20.255  -20.239  -20.244  -20.259  -20.285  -20.303  -20.285  -20.196  -19.940  -19.405  -18.496  -17.208  -15.654  -14.077  -12.736  -11.784  -11.233  -10.985  -10.912  -10.910  -10.925  -10.939  -10.942  -10.920  -10.825  -10.590  -10.137   -9.457   -8.600   -7.690   -6.853   -6.174   -5.664   -5.296   -5.062   -4.981   -5.121   -5.542   -6.243   -7.119   -8.001   -8.735   -9.279   -9.724  -10.176  -10.672  -11.183  -11.612  -11.895  -12.016  -12.030  -12.007  -12.006  -12.054  -12.132  -12.211  -12.264  -12.291  -12.291  -12.291  -12.303  -12.313  -12.319  -12.313  -12.300  -12.289  -12.279  -12.260  -12.225  -12.188  -12.155  -12.145  -12.147  -12.162  -12.194  -12.223  -12.246  -12.249  -12.225  -12.196  -12.172  -12.164  -12.173  -12.195  -12.235  -12.299  -12.509
 -21.357  -21.230  -21.180  -21.149  -21.130  -21.122  -21.115  -21.115  -21.109  -21.098  -21.074  -21.040  -20.999  -20.964  -20.942  -20.946  -20.959  -20.993  -21.013  -21.001  -20.903  -20.628  -20.055  -19.075  -17.689  -16.022  -14.325  -12.870  -11.841  -11.248  -10.998  -10.944  -10.957  -10.985  -11.005  -11.012  -10.989  -10.899  -10.699  -10.338   -9.811   -9.165   -8.483   -7.850   -7.323   -6.917   -6.629   -6.457   -6.413   -6.534   -6.861   -7.404   -8.093   -8.802   -9.391   -9.809  -10.114  -10.388  -10.681  -10.965  -11.186  -11.315  -11.336  -11.305  -11.264  -11.251  -11.278  -11.345  -11.420  -11.488  -11.527  -11.541  -11.547  -11.563  -11.576  -11.587  -11.576  -11.574  -11.571  -11.578  -11.571  -11.544  -11.507  -11.471  -11.451  -11.450  -11.472  -11.508  -11.542  -11.557  -11.541  -11.509  -11.465  -11.445  -11.441  -11.454  -11.478  -11.513  -11.572  -11.776
 -21.776  -21.645  -21.593  -21.555  -21.533  -21.522  -21.511  -21.501  -21.491  -21.476  -21.447  -21.406  -21.360  -21.322  -21.297  -21.293  -21.306  -21.335  -21.359  -21.354  -21.258  -20.975  -20.382  -19.371  -17.938  -16.209  -14.450  -12.941  -11.869  -11.259  -11.020  -10.996  -11.042  -11.086  -11.110  -11.105  -11.074  -10.987  -10.823  -10.562  -10.209   -9.786   -9.329   -8.880   -8.475   -8.145   -7.913   -7.802   -7.806   -7.937   -8.194   -8.576   -9.051   -9.544   -9.957  -10.245  -10.448  -10.621  -10.794  -10.958  -11.073  -11.128  -11.116  -11.064  -11.005  -10.962  -10.942  -10.959  -11.000  -11.057  -11.098  -11.117  -11.136  -11.154  -11.167  -11.168  -11.164  -11.168  -11.189  -11.212  -11.217  -11.202  -11.163  -11.123  -11.097  -11.098  -11.131  -11.178  -11.217  -11.227  -11.197  -11.154  -11.110  -11.100  -11.115  -11.144  -11.179  -11.221  -11.271  -11.464
 -21.976  -21.833  -21.780  -21.738  -21.713  -21.696  -21.683  -21.672  -21.661  -21.645  -21.616  -21.574  -21.532  -21.489  -21.456  -21.444  -21.452  -21.476  -21.503  -21.498  -21.404  -21.124  -20.522  -19.499  -18.043  -16.291  -14.505  -12.963  -11.871  -11.259  -11.034  -11.036  -11.110  -11.174  -11.201  -11.183  -11.126  -11.035  -10.902  -10.734  -10.535  -10.310  -10.044   -9.748   -9.437   -9.167   -8.981   -8.912   -8.966   -9.112   -9.323   -9.585   -9.873  -10.155  -10.386  -10.559  -10.684  -10.804  -10.933  -11.052  -11.141  -11.180  -11.173  -11.130  -11.056  -10.973  -10.895  -10.844  -10.835  -10.858  -10.884  -10.906  -10.934  -10.958  -10.972  -10.967  -10.954  -10.960  -10.991  -11.029  -11.046  -11.045  -11.012  -10.963  -10.932  -10.935  -10.984  -11.055  -11.107  -11.124  -11.090  -11.036  -10.991  -10.987  -11.013  -11.067  -11.121  -11.172  -11.222  -11.404
 -22.070  -21.912  -21.853  -21.813  -21.789  -21.772  -21.760  -21.759  -21.750  -21.734  -21.713  -21.678  -21.640  -21.599  -21.561  -21.536  -21.538  -21.554  -21.575  -21.571  -21.480  -21.196  -20.591  -19.562  -18.096  -16.334  -14.532  -12.980  -11.872  -11.254  -11.029  -11.036  -11.124  -11.196  -11.212  -11.173  -11.094  -10.992  -10.883  -10.793  -10.727  -10.655  -10.539  -10.363  -10.139   -9.928   -9.782   -9.741   -9.817   -9.975  -10.168  -10.356  -10.507  -10.620  -10.698  -10.763  -10.831  -10.922  -11.029  -11.140  -11.228  -11.281  -11.296  -11.274  -11.202  -11.094  -10.977  -10.878  -10.818  -10.794  -10.790  -10.804  -10.835  -10.864  -10.875  -10.864  -10.845  -10.843  -10.876  -10.920  -10.953  -10.957  -10.928  -10.885  -10.858  -10.872  -10.933  -11.027  -11.097  -11.117  -11.083  -11.018  -10.969  -10.960  -10.994  -11.061  -11.130  -11.186  -11.242  -11.422
 -22.118  -21.947  -21.879  -21.849  -21.829  -21.818  -21.813  -21.817  -21.817  -21.813  -21.802  -21.782  -21.751  -21.715  -21.676  -21.641  -21.627  -21.633  -21.645  -21.629  -21.534  -21.248  -20.642  -19.608  -18.137  -16.372  -14.567  -13.007  -11.887  -11.252  -11.006  -10.994  -11.061  -11.117  -11.113  -11.058  -10.967  -10.865  -10.785  -10.756  -10.782  -10.820  -10.818  -10.740  -10.604  -10.457  -10.351  -10.332  -10.413  -10.566  -10.749  -10.901  -10.970  -10.971  -10.936  -10.907  -10.915  -10.962  -11.048  -11.138  -11.223  -11.288  -11.331  -11.331  -11.286  -11.194  -11.083  -10.968  -10.871  -10.792  -10.743  -10.729  -10.754  -10.786  -10.803  -10.791  -10.768  -10.767  -10.799  -10.855  -10.901  -10.916  -10.897  -10.861  -10.838  -10.858  -10.924  -11.023  -11.094  -11.115  -11.077  -11.006  -10.943  -10.925  -10.955  -11.014  -11.081  -11.143  -11.202  -11.389
 -22.147  -21.960  -21.899  -21.872  -21.856  -21.851  -21.853  -21.863  -21.872  -21.884  -21.890  -21.888  -21.867  -21.836  -21.796  -21.749  -21.719  -21.700  -21.695  -21.673  -21.574  -21.285  -20.677  -19.637  -18.166  -16.402  -14.603  -13.042  -11.915  -11.259  -10.974  -10.912  -10.935  -10.954  -10.934  -10.876  -10.796  -10.720  -10.676  -10.692  -10.770  -10.864  -10.927  -10.928  -10.870  -10.796  -10.736  -10.735  -10.811  -10.955  -11.120  -11.241  -11.276  -11.214  -11.102  -10.999  -10.938  -10.937  -10.975  -11.027  -11.092  -11.161  -11.222  -11.258  -11.257  -11.218  -11.142  -11.038  -10.918  -10.794  -10.693  -10.638  -10.645  -10.676  -10.697  -10.705  -10.704  -10.732  -10.787  -10.858  -10.911  -10.934  -10.915  -10.884  -10.859  -10.871  -10.920  -10.995  -11.052  -11.059  -11.018  -10.944  -10.875  -10.846  -10.856  -10.900  -10.954  -11.001  -11.058  -11.255
 -22.185  -21.982  -21.922  -21.890  -21.875  -21.876  -21.877  -21.888  -21.903  -21.930  -21.952  -21.961  -21.950  -21.925  -21.876  -21.818  -21.765  -21.729  -21.708  -21.678  -21.573  -21.283  -20.674  -19.635  -18.167  -16.406  -14.613  -13.067  -11.947  -11.273  -10.947  -10.831  -10.801  -10.789  -10.757  -10.722  -10.679  -10.654  -10.645  -10.678  -10.764  -10.864  -10.948  -10.991  -10.994  -10.974  -10.953  -10.974  -11.042  -11.158  -11.299  -11.396  -11.407  -11.316  -11.162  -11.009  -10.902  -10.857  -10.846  -10.865  -10.903  -10.965  -11.036  -11.104  -11.145  -11.156  -11.122  -11.036  -10.913  -10.765  -10.628  -10.547  -10.533  -10.559  -10.597  -10.626  -10.668  -10.748  -10.844  -10.931  -10.983  -10.998  -10.965  -10.919  -10.877  -10.864  -10.888  -10.929  -10.957  -10.952  -10.912  -10.851  -10.791  -10.763  -10.759  -10.780  -10.801  -10.827  -10.865  -11.077
 -22.263  -22.040  -21.968  -21.931  -21.914  -21.906  -21.902  -21.906  -21.913  -21.941  -21.965  -21.982  -21.979  -21.948  -21.894  -21.833  -21.769  -21.728  -21.701  -21.664  -21.554  -21.263  -20.655  -19.614  -18.149  -16.393  -14.614  -13.087  -11.978  -11.297  -10.949  -10.795  -10.729  -10.693  -10.674  -10.673  -10.696  -10.718  -10.738  -10.767  -10.823  -10.895  -10.958  -11.002  -11.024  -11.031  -11.040  -11.065  -11.117  -11.206  -11.304  -11.366  -11.353  -11.252  -11.086  -10.924  -10.811  -10.746  -10.720  -10.722  -10.743  -10.804  -10.884  -10.964  -11.027  -11.058  -11.038  -10.965  -10.850  -10.713  -10.594  -10.519  -10.505  -10.527  -10.560  -10.601  -10.675  -10.789  -10.922  -11.018  -11.062  -11.050  -10.994  -10.923  -10.861  -10.820  -10.817  -10.832  -10.842  -10.842  -10.826  -10.800  -10.773  -10.773  -10.776  -10.779  -10.772  -10.766  -10.789  -11.005
 -22.439  -22.192  -22.107  -22.065  -22.035  -22.014  -21.996  -21.986  -21.978  -21.989  -22.001  -22.014  -22.013  -21.988  -21.941  -21.881  -21.824  -21.787  -21.765  -21.726  -21.615  -21.318  -20.702  -19.660  -18.191  -16.444  -14.676  -13.164  -12.063  -11.373  -11.006  -10.829  -10.748  -10.708  -10.718  -10.770  -10.854  -10.927  -10.974  -10.996  -11.011  -11.029  -11.038  -11.038  -11.035  -11.035  -11.040  -11.060  -11.097  -11.144  -11.187  -11.195  -11.145  -11.037  -10.888  -10.755  -10.673  -10.633  -10.626  -10.630  -10.657  -10.726  -10.810  -10.891  -10.950  -10.961  -10.931  -10.862  -10.779  -10.698  -10.640  -10.612  -10.609  -10.614  -10.609  -10.626  -10.693  -10.814  -10.951  -11.048  -11.078  -11.043  -10.972  -10.889  -10.802  -10.746  -10.722  -10.737  -10.771  -10.817  -10.869  -10.922  -10.977  -11.043  -11.095  -11.113  -11.092  -11.065  -11.082  -11.296
 -22.825  -22.553  -22.457  -22.403  -22.363  -22.328  -22.293  -22.264  -22.234  -22.222  -22.220  -22.221  -22.215  -22.194  -22.159  -22.117  -22.083  -22.066  -22.056  -22.026  -21.911  -21.605  -20.978  -19.926  -18.452  -16.704  -14.936  -13.420  -12.301  -11.585  -11.180  -10.971  -10.869  -10.843  -10.890  -11.003  -11.157  -11.299  -11.388  -11.418  -11.395  -11.336  -11.256  -11.169  -11.093  -11.049  -11.041  -11.057  -11.069  -11.063  -11.032  -10.970  -10.879  -10.762  -10.644  -10.560  -10.534  -10.545  -10.569  -10.594  -10.634  -10.709  -10.799  -10.876  -10.916  -10.910  -10.860  -10.797  -10.757  -10.754  -10.784  -10.816  -10.826  -10.790  -10.722  -10.678  -10.704  -10.805  -10.924  -11.004  -11.018  -10.986  -10.919  -10.837  -10.754  -10.693  -10.677  -10.718  -10.820  -10.965  -11.151  -11.361  -11.590  -11.813  -11.992  -12.087  -12.098  -12.078  -12.081  -12.301
 -23.547  -23.254  -23.151  -23.091  -23.041  -23.000  -22.954  -22.907  -22.862  -22.823  -22.806  -22.795  -22.784  -22.765  -22.737  -22.716  -22.709  -22.715  -22.723  -22.700  -22.585  -22.269  -21.632  -20.570  -19.092  -17.334  -15.542  -13.979  -12.793  -11.999  -11.515  -11.246  -11.116  -11.097  -11.196  -11.398  -11.655  -11.896  -12.062  -12.118  -12.054  -11.892  -11.672  -11.435  -11.246  -11.133  -11.096  -11.099  -11.088  -11.024  -10.913  -10.786  -10.657  -10.540  -10.451  -10.419  -10.451  -10.515  -10.573  -10.613  -10.656  -10.725  -10.812  -10.880  -10.910  -10.898  -10.850  -10.809  -10.823  -10.889  -10.985  -11.059  -11.058  -10.982  -10.850  -10.744  -10.726  -10.781  -10.868  -10.925  -10.926  -10.895  -10.845  -10.788  -10.734  -10.701  -10.725  -10.825  -11.029  -11.332  -11.751  -12.257  -12.812  -13.350  -13.789  -14.056  -14.163  -14.174  -14.177  -14.377
 -24.688  -24.383  -24.284  -24.222  -24.175  -24.130  -24.078  -24.019  -23.962  -23.912  -23.878  -23.857  -23.838  -23.815  -23.799  -23.784  -23.792  -23.815  -23.836  -23.819  -23.705  -23.390  -22.755  -21.691  -20.205  -18.426  -16.584  -14.929  -13.611  -12.669  -12.045  -11.662  -11.475  -11.469  -11.649  -11.986  -12.402  -12.799  -13.070  -13.153  -13.018  -12.703  -12.281  -11.848  -11.503  -11.292  -11.209  -11.194  -11.161  -11.053  -10.886  -10.700  -10.553  -10.443  -10.386  -10.391  -10.472  -10.576  -10.660  -10.699  -10.718  -10.755  -10.811  -10.870  -10.908  -10.911  -10.900  -10.894  -10.942  -11.052  -11.172  -11.256  -11.243  -11.132  -10.970  -10.831  -10.771  -10.786  -10.826  -10.842  -10.824  -10.791  -10.766  -10.749  -10.747  -10.764  -10.845  -11.025  -11.364  -11.901  -12.680  -13.666  -14.765  -15.821  -16.670  -17.226  -17.490  -17.564  -17.575  -17.730
 -26.256  -25.947  -25.849  -25.793  -25.750  -25.704  -25.641  -25.576  -25.509  -25.451  -25.409  -25.379  -25.351  -25.324  -25.300  -25.285  -25.292  -25.315  -25.337  -25.329  -25.221  -24.918  -24.291  -23.236  -21.743  -19.932  -18.008  -16.212  -14.709  -13.557  -12.737  -12.205  -11.940  -11.953  -12.244  -12.773  -13.409  -13.999  -14.391  -14.479  -14.228  -13.690  -13.001  -12.324  -11.795  -11.467  -11.329  -11.294  -11.252  -11.121  -10.916  -10.711  -10.559  -10.476  -10.455  -10.492  -10.594  -10.708  -10.788  -10.811  -10.789  -10.778  -10.798  -10.843  -10.903  -10.942  -10.965  -10.992  -11.050  -11.156  -11.266  -11.339  -11.315  -11.207  -11.058  -10.928  -10.847  -10.827  -10.819  -10.785  -10.738  -10.695  -10.696  -10.720  -10.770  -10.842  -10.982  -11.251  -11.749  -12.593  -13.859  -15.512  -17.352  -19.110  -20.512  -21.443  -21.923  -22.081  -22.106  -22.184
 -28.160  -27.856  -27.765  -27.716  -27.668  -27.603  -27.514  -27.418  -27.320  -27.248  -27.199  -27.162  -27.132  -27.098  -27.063  -27.037  -27.034  -27.042  -27.058  -27.050  -26.951  -26.659  -26.045  -24.999  -23.499  -21.643  -19.618  -17.658  -15.942  -14.549  -13.503  -12.801  -12.452  -12.491  -12.926  -13.684  -14.574  -15.371  -15.877  -15.942  -15.526  -14.721  -13.722  -12.768  -12.033  -11.585  -11.388  -11.330  -11.285  -11.153  -10.946  -10.743  -10.618  -10.579  -10.603  -10.663  -10.757  -10.851  -10.906  -10.895  -10.835  -10.784  -10.772  -10.817  -10.888  -10.955  -10.999  -11.032  -11.080  -11.150  -11.228  -11.275  -11.256  -11.180  -11.083  -10.993  -10.925  -10.877  -10.833  -10.766  -10.704  -10.666  -10.681  -10.741  -10.819  -10.919  -11.089  -11.424  -12.087  -13.280  -15.130  -17.558  -20.255  -22.796  -24.813  -26.153  -26.869  -27.143  -27.189  -27.175
 -30.413  -30.110  -30.029  -29.970  -29.890  -29.756  -29.565  -29.359  -29.175  -29.046  -28.969  -28.929  -28.897  -28.859  -28.816  -28.775  -28.755  -28.751  -28.754  -28.736  -28.637  -28.350  -27.743  -26.698  -25.182  -23.274  -21.149  -19.028  -17.097  -15.475  -14.219  -13.356  -12.935  -13.019  -13.610  -14.593  -15.724  -16.707  -17.296  -17.319  -16.730  -15.652  -14.345  -13.103  -12.149  -11.568  -11.305  -11.238  -11.199  -11.088  -10.908  -10.747  -10.678  -10.705  -10.778  -10.851  -10.909  -10.950  -10.960  -10.924  -10.847  -10.779  -10.755  -10.790  -10.862  -10.932  -10.974  -10.988  -11.006  -11.036  -11.075  -11.100  -11.092  -11.063  -11.028  -10.996  -10.966  -10.925  -10.872  -10.808  -10.757  -10.747  -10.789  -10.850  -10.919  -10.999  -11.145  -11.502  -12.311  -13.854  -16.292  -19.501  -23.037  -26.328  -28.918  -30.645  -31.592  -31.986  -32.069  -31.963
 -33.332  -33.043  -32.973  -32.885  -32.680  -32.330  -31.859  -31.359  -30.936  -30.648  -30.491  -30.418  -30.383  -30.346  -30.300  -30.253  -30.221  -30.204  -30.194  -30.167  -30.060  -29.767  -29.154  -28.095  -26.552  -24.590  -22.369  -20.104  -17.994  -16.184  -14.763  -13.789  -13.337  -13.485  -14.227  -15.404  -16.715  -17.828  -18.459  -18.420  -17.682  -16.376  -14.799  -13.295  -12.135  -11.420  -11.097  -11.027  -11.021  -10.953  -10.829  -10.728  -10.730  -10.821  -10.928  -10.988  -11.001  -10.986  -10.954  -10.913  -10.852  -10.789  -10.758  -10.778  -10.832  -10.883  -10.907  -10.900  -10.885  -10.883  -10.893  -10.908  -10.912  -10.920  -10.939  -10.961  -10.977  -10.962  -10.930  -10.893  -10.884  -10.918  -10.985  -11.041  -11.067  -11.078  -11.153  -11.501  -12.420  -14.262  -17.223  -21.103  -25.339  -29.246  -32.309  -34.356  -35.493  -35.989  -36.108  -35.919
 -37.721  -37.482  -37.431  -37.233  -36.720  -35.857  -34.743  -33.595  -32.638  -32.000  -31.656  -31.507  -31.448  -31.408  -31.368  -31.325  -31.293  -31.273  -31.258  -31.221  -31.099  -30.790  -30.156  -29.072  -27.489  -25.463  -23.156  -20.773  -18.534  -16.598  -15.093  -14.087  -13.674  -13.920  -14.787  -16.091  -17.499  -18.656  -19.270  -19.165  -18.308  -16.842  -15.072  -13.375  -12.048  -11.226  -10.873  -10.821  -10.868  -10.859  -10.789  -10.744  -10.789  -10.901  -11.001  -11.033  -11.003  -10.958  -10.927  -10.905  -10.867  -10.817  -10.777  -10.772  -10.808  -10.844  -10.858  -10.839  -10.807  -10.787  -10.787  -10.805  -10.825  -10.857  -10.897  -10.946  -10.972  -10.974  -10.963  -10.974  -11.030  -11.117  -11.205  -11.240  -11.204  -11.133  -11.139  -11.463  -12.461  -14.538  -17.890  -22.269  -27.010  -31.352  -34.747  -37.016  -38.285  -38.847  -38.984  -38.740
 -44.719  -44.594  -44.518  -44.025  -42.863  -41.007  -38.701  -36.376  -34.465  -33.189  -32.498  -32.204  -32.100  -32.054  -32.020  -31.990  -31.966  -31.952  -31.937  -31.895  -31.760  -31.430  -30.764  -29.639  -27.999  -25.905  -23.515  -21.039  -18.719  -16.739  -15.242  -14.313  -14.028  -14.402  -15.373  -16.723  -18.124  -19.227  -19.763  -19.569  -18.621  -17.061  -15.193  -13.385  -11.962  -11.088  -10.735  -10.727  -10.829  -10.875  -10.843  -10.811  -10.849  -10.933  -10.991  -10.987  -10.947  -10.908  -10.898  -10.896  -10.874  -10.828  -10.782  -10.768  -10.802  -10.853  -10.879  -10.859  -10.814  -10.791  -10.802  -10.839  -10.881  -10.912  -10.941  -10.955  -10.945  -10.931  -10.942  -11.013  -11.136  -11.277  -11.374  -11.384  -11.295  -11.169  -11.133  -11.445  -12.505  -14.737  -18.333  -23.008  -28.047  -32.643  -36.229  -38.616  -39.946  -40.531  -40.666  -40.391
 -55.062  -55.102  -54.830  -53.720  -51.454  -48.058  -43.965  -39.890  -36.556  -34.333  -33.135  -32.623  -32.447  -32.391  -32.366  -32.348  -32.336  -32.330  -32.318  -32.275  -32.128  -31.776  -31.070  -29.890  -28.183  -26.010  -23.535  -20.993  -18.640  -16.697  -15.318  -14.575  -14.498  -15.042  -16.087  -17.403  -18.698  -19.662  -20.062  -19.759  -18.735  -17.132  -15.229  -13.398  -11.950  -11.066  -10.731  -10.752  -10.894  -10.964  -10.937  -10.890  -10.894  -10.934  -10.948  -10.927  -10.893  -10.862  -10.859  -10.858  -10.834  -10.779  -10.730  -10.740  -10.805  -10.896  -10.948  -10.938  -10.888  -10.866  -10.896  -10.958  -11.013  -11.034  -11.019  -10.957  -10.875  -10.827  -10.855  -10.978  -11.164  -11.342  -11.444  -11.434  -11.322  -11.178  -11.142  -11.476  -12.579  -14.886  -18.589  -23.381  -28.526  -33.207  -36.850  -39.265  -40.596  -41.165  -41.282  -40.996
 -68.138  -68.309  -67.549  -65.430  -61.657  -56.340  -50.083  -43.901  -38.845  -35.478  -33.672  -32.898  -32.637  -32.565  -32.543  -32.530  -32.522  -32.513  -32.504  -32.460  -32.310  -31.938  -31.199  -29.959  -28.168  -25.903  -23.355  -20.778  -18.454  -16.626  -15.453  -14.977  -15.157  -15.872  -16.951  -18.172  -19.295  -20.070  -20.309  -19.896  -18.818  -17.203  -15.318  -13.503  -12.062  -11.174  -10.824  -10.829  -10.950  -11.014  -10.989  -10.935  -10.923  -10.944  -10.953  -10.934  -10.894  -10.854  -10.817  -10.782  -10.728  -10.659  -10.619  -10.658  -10.772  -10.910  -10.994  -10.995  -10.949  -10.925  -10.956  -11.030  -11.095  -11.107  -11.052  -10.929  -10.787  -10.703  -10.734  -10.883  -11.095  -11.277  -11.373  -11.361  -11.256  -11.142  -11.145  -11.519  -12.650  -14.968  -18.643  -23.385  -28.479  -33.103  -36.692  -39.059  -40.347  -40.883  -40.980  -40.695
 -81.934  -82.104  -80.586  -77.163  -71.668  -64.338  -55.931  -47.694  -40.974  -36.511  -34.130  -33.116  -32.774  -32.683  -32.659  -32.641  -32.619  -32.598  -32.576  -32.531  -32.392  -32.020  -31.254  -29.958  -28.086  -25.735  -23.128  -20.560  -18.333  -16.687  -15.769  -15.584  -16.006  -16.841  -17.891  -18.970  -19.890  -20.474  -20.571  -20.080  -18.987  -17.396  -15.547  -13.756  -12.314  -11.391  -10.971  -10.887  -10.937  -10.966  -10.944  -10.928  -10.954  -11.011  -11.050  -11.037  -10.961  -10.863  -10.770  -10.689  -10.609  -10.530  -10.492  -10.542  -10.685  -10.852  -10.961  -10.965  -10.912  -10.873  -10.891  -10.963  -11.043  -11.079  -11.031  -10.896  -10.732  -10.619  -10.624  -10.750  -10.933  -11.090  -11.170  -11.160  -11.096  -11.037  -11.105  -11.524  -12.657  -14.903  -18.436  -22.988  -27.874  -32.313  -35.752  -38.009  -39.226  -39.721  -39.805  -39.542
 -94.413  -94.361  -91.909  -86.977  -79.656  -70.420  -60.183  -50.345  -42.418  -37.211  -34.455  -33.289  -32.899  -32.798  -32.771  -32.736  -32.691  -32.647  -32.617  -32.585  -32.472  -32.122  -31.346  -29.995  -28.044  -25.618  -22.986  -20.479  -18.406  -16.998  -16.348  -16.412  -16.994  -17.864  -18.817  -19.705  -20.406  -20.808  -20.793  -20.266  -19.200  -17.662  -15.865  -14.100  -12.652  -11.667  -11.131  -10.909  -10.841  -10.825  -10.832  -10.887  -11.001  -11.126  -11.191  -11.148  -11.017  -10.865  -10.733  -10.641  -10.560  -10.475  -10.431  -10.471  -10.598  -10.755  -10.853  -10.848  -10.777  -10.715  -10.718  -10.795  -10.910  -11.004  -11.021  -10.928  -10.771  -10.637  -10.586  -10.636  -10.739  -10.839  -10.890  -10.893  -10.872  -10.881  -11.013  -11.462  -12.546  -14.630  -17.892  -22.104  -26.635  -30.759  -33.950  -36.043  -37.164  -37.616  -37.690  -37.472
-104.564 -103.919 -100.220  -93.532  -84.353  -73.437  -61.855  -51.126  -42.746  -37.367  -34.562  -33.390  -33.009  -32.924  -32.908  -32.881  -32.833  -32.792  -32.783  -32.797  -32.744  -32.430  -31.636  -30.210  -28.151  -25.649  -23.018  -20.622  -18.752  -17.596  -17.187  -17.423  -18.070  -18.890  -19.687  -20.350  -20.816  -21.017  -20.881  -20.321  -19.291  -17.825  -16.098  -14.376  -12.923  -11.884  -11.242  -10.895  -10.730  -10.682  -10.730  -10.865  -11.061  -11.224  -11.278  -11.187  -11.012  -10.852  -10.764  -10.733  -10.691  -10.611  -10.540  -10.534  -10.607  -10.713  -10.769  -10.733  -10.637  -10.562  -10.562  -10.661  -10.833  -11.010  -11.105  -11.063  -10.915  -10.746  -10.633  -10.599  -10.619  -10.652  -10.663  -10.669  -10.675  -10.730  -10.893  -11.322  -12.288  -14.113  -16.970  -20.674  -24.689  -28.355  -31.201  -33.065  -34.059  -34.458  -34.528  -34.373
-111.526 -109.834 -104.486  -95.970  -85.155  -72.930  -60.598  -49.817  -41.836  -36.907  -34.399  -33.380  -33.093  -33.097  -33.182  -33.258  -33.306  -33.362  -33.466  -33.607  -33.652  -33.361  -32.476  -30.857  -28.580  -25.919  -23.258  -20.977  -19.334  -18.424  -18.213  -18.541  -19.179  -19.898  -20.521  -20.960  -21.176  -21.148  -20.843  -20.202  -19.175  -17.766  -16.114  -14.454  -13.024  -11.965  -11.279  -10.871  -10.667  -10.624  -10.724  -10.925  -11.148  -11.295  -11.286  -11.137  -10.965  -10.885  -10.934  -11.024  -11.059  -11.000  -10.904  -10.839  -10.837  -10.865  -10.852  -10.771  -10.658  -10.584  -10.604  -10.724  -10.926  -11.148  -11.279  -11.252  -11.100  -10.904  -10.754  -10.672  -10.639  -10.626  -10.609  -10.591  -10.592  -10.641  -10.777  -11.133  -11.914  -13.393  -15.717  -18.758  -22.077  -25.135  -27.521  -29.086  -29.914  -30.232  -30.286  -30.218
-113.662 -110.891 -104.045  -94.170  -82.189  -69.139  -56.772  -46.798  -39.953  -35.949  -33.996  -33.276  -33.221  -33.498  -33.914  -34.350  -34.762  -35.163  -35.585  -35.969  -36.126  -35.736  -34.519  -32.403  -29.603  -26.554  -23.737  -21.508  -20.046  -19.343  -19.275  -19.643  -20.229  -20.838  -21.316  -21.567  -21.563  -21.300  -20.793  -20.023  -18.954  -17.582  -15.999  -14.408  -13.020  -11.978  -11.299  -10.918  -10.757  -10.777  -10.927  -11.147  -11.335  -11.400  -11.304  -11.120  -11.002  -11.072  -11.305  -11.557  -11.685  -11.654  -11.536  -11.417  -11.341  -11.289  -11.210  -11.098  -10.988  -10.930  -10.958  -11.060  -11.218  -11.381  -11.465  -11.417  -11.261  -11.079  -10.936  -10.862  -10.826  -10.795  -10.756  -10.711  -10.685  -10.684  -10.754  -10.990  -11.537  -12.607  -14.312  -16.562  -19.037  -21.339  -23.145  -24.319  -24.920  -25.125  -25.139  -25.166
-109.945 -106.681  -99.230  -88.742  -76.121  -62.919  -51.373  -42.924  -37.616  -34.714  -33.419  -33.145  -33.569  -34.501  -35.747  -37.110  -38.437  -39.659  -40.721  -41.475  -41.625  -40.787  -38.717  -35.500  -31.610  -27.738  -24.481  -22.157  -20.785  -20.219  -20.231  -20.588  -21.102  -21.604  -21.967  -22.095  -21.945  -21.518  -20.850  -19.966  -18.853  -17.505  -15.987  -14.464  -13.123  -12.120  -11.498  -11.201  -11.144  -11.252  -11.440  -11.624  -11.724  -11.681  -11.504  -11.311  -11.283  -11.518  -11.934  -12.332  -12.543  -12.544  -12.416  -12.268  -12.139  -12.032  -11.920  -11.813  -11.721  -11.671  -11.658  -11.668  -11.698  -11.728  -11.719  -11.646  -11.516  -11.389  -11.301  -11.265  -11.247  -11.220  -11.178  -11.108  -11.043  -10.991  -10.982  -11.088  -11.408  -12.054  -13.099  -14.485  -16.024  -17.451  -18.557  -19.251  -19.562  -19.607  -19.555  -19.655
-101.654  -98.413  -91.085  -80.538  -67.992  -55.636  -45.738  -39.138  -35.321  -33.389  -32.713  -33.050  -34.368  -36.628  -39.568  -42.775  -45.849  -48.508  -50.535  -51.643  -51.447  -49.562  -45.865  -40.704  -34.930  -29.605  -25.507  -22.862  -21.464  -20.950  -20.976  -21.282  -21.690  -22.075  -22.340  -22.402  -22.206  -21.745  -21.048  -20.146  -19.040  -17.737  -16.294  -14.848  -13.578  -12.647  -12.110  -11.927  -11.985  -12.158  -12.341  -12.442  -12.426  -12.276  -12.045  -11.876  -11.939  -12.301  -12.844  -13.335  -13.612  -13.656  -13.555  -13.413  -13.279  -13.167  -13.067  -12.993  -12.927  -12.860  -12.773  -12.651  -12.526  -12.426  -12.344  -12.277  -12.211  -12.153  -12.123  -12.113  -12.112  -12.094  -12.051  -11.976  -11.878  -11.785  -11.727  -11.740  -11.859  -12.120  -12.536  -13.071  -13.642  -14.133  -14.466  -14.598  -14.545  -14.374  -14.216  -14.356
 -91.106  -87.839  -80.853  -70.860  -59.461  -48.954  -41.083  -36.118  -33.349  -32.025  -31.851  -32.994  -35.789  -40.285  -45.988  -52.020  -57.540  -61.982  -64.976  -66.169  -65.177  -61.689  -55.719  -47.886  -39.482  -32.075  -26.723  -23.545  -22.013  -21.490  -21.487  -21.703  -21.982  -22.228  -22.390  -22.422  -22.271  -21.919  -21.349  -20.557  -19.547  -18.335  -16.995  -15.663  -14.516  -13.701  -13.277  -13.196  -13.330  -13.513  -13.633  -13.628  -13.498  -13.271  -13.031  -12.902  -13.033  -13.458  -14.062  -14.611  -14.954  -15.069  -15.039  -14.954  -14.870  -14.798  -14.752  -14.728  -14.699  -14.614  -14.455  -14.245  -14.037  -13.875  -13.793  -13.761  -13.751  -13.743  -13.731  -13.719  -13.717  -13.705  -13.666  -13.588  -13.473  -13.367  -13.296  -13.259  -13.234  -13.171  -13.029  -12.789  -12.449  -12.033  -11.573  -11.086  -10.594  -10.148   -9.838   -9.969
 -80.292  -77.014  -70.816  -62.282  -52.924  -44.553  -38.303  -34.234  -31.799  -30.596  -30.754  -32.920  -37.809  -45.421  -54.666  -63.912  -71.838  -77.728  -81.257  -82.175  -80.165  -74.951  -66.610  -55.915  -44.552  -34.719  -27.889  -24.079  -22.381  -21.835  -21.794  -21.923  -22.067  -22.170  -22.231  -22.247  -22.189  -22.012  -21.662  -21.073  -20.233  -19.175  -17.994  -16.837  -15.872  -15.211  -14.903  -14.895  -15.038  -15.178  -15.204  -15.098  -14.889  -14.632  -14.414  -14.337  -14.513  -14.982  -15.628  -16.245  -16.685  -16.916  -17.008  -17.026  -17.025  -17.030  -17.055  -17.088  -17.087  -17.008  -16.848  -16.637  -16.449  -16.321  -16.283  -16.299  -16.317  -16.313  -16.288  -16.260  -16.247  -16.251  -16.224  -16.140  -16.017  -15.905  -15.838  -15.776  -15.642  -15.324  -14.736  -13.857  -12.756  -11.545  -10.330   -9.208   -8.230   -7.463   -6.964   -7.049
 -72.827  -69.979  -65.110  -58.420  -50.914  -43.824  -38.022  -33.728  -30.772  -29.142  -29.411  -32.737  -40.144  -51.281  -64.059  -76.013  -85.639  -92.385  -96.104  -96.620  -93.581  -86.744  -76.316  -63.110  -49.019  -36.875  -28.664  -24.321  -22.534  -22.008  -21.961  -22.030  -22.070  -22.060  -22.035  -22.030  -22.043  -22.024  -21.878  -21.508  -20.875  -20.026  -19.061  -18.128  -17.368  -16.872  -16.656  -16.666  -16.770  -16.841  -16.792  -16.625  -16.394  -16.158  -15.995  -15.987  -16.233  -16.771  -17.506  -18.251  -18.850  -19.253  -19.494  -19.636  -19.728  -19.801  -19.876  -19.947  -19.982  -19.937  -19.829  -19.699  -19.601  -19.565  -19.583  -19.628  -19.654  -19.635  -19.588  -19.559  -19.570  -19.608  -19.596  -19.515  -19.380  -19.259  -19.181  -19.095  -18.873  -18.368  -17.465  -16.144  -14.495  -12.672  -10.844   -9.148   -7.702   -6.591   -5.896   -5.909
 -72.750  -70.660  -66.884  -61.294  -54.402  -47.111  -40.341  -34.684  -30.398  -27.838  -27.963  -32.371  -42.259  -56.596  -72.120  -85.892  -96.727 -104.287 -108.304 -108.362 -104.020  -95.397  -83.153  -68.027  -51.837  -37.939  -28.791  -24.209  -22.480  -22.050  -22.044  -22.091  -22.078  -22.007  -21.924  -21.892  -21.923  -21.970  -21.936  -21.724  -21.286  -20.660  -19.937  -19.238  -18.671  -18.303  -18.137  -18.128  -18.173  -18.182  -18.093  -17.921  -17.717  -17.547  -17.469  -17.566  -17.936  -18.616  -19.519  -20.476  -21.298  -21.897  -22.293  -22.536  -22.688  -22.800  -22.893  -22.972  -23.016  -23.016  -22.979  -22.944  -22.946  -22.997  -23.067  -23.137  -23.170  -23.154  -23.123  -23.128  -23.197  -23.284  -23.302  -23.222  -23.078  -22.943  -22.848  -22.733  -22.446  -21.827  -20.755  -19.212  -17.281  -15.115  -12.893  -10.800   -8.991   -7.614   -6.758   -6.704
 -79.097  -77.706  -74.316  -68.800  -61.420  -52.917  -44.347  -36.693  -30.641  -26.867  -26.614  -31.770  -43.498  -60.026  -77.184  -92.049 -103.966 -112.510 -116.841 -116.152 -110.180  -99.797  -86.175  -69.810  -52.374  -37.614  -28.223  -23.788  -22.297  -22.031  -22.094  -22.151  -22.122  -22.032  -21.927  -21.870  -21.870  -21.902  -21.885  -21.744  -21.447  -21.009  -20.502  -20.008  -19.597  -19.313  -19.161  -19.113  -19.099  -19.064  -18.967  -18.827  -18.683  -18.595  -18.620  -18.846  -19.384  -20.272  -21.415  -22.622  -23.685  -24.480  -25.001  -25.311  -25.489  -25.597  -25.678  -25.738  -25.777  -25.791  -25.803  -25.834  -25.900  -26.001  -26.109  -26.199  -26.254  -26.273  -26.292  -26.358  -26.488  -26.625  -26.681  -26.620  -26.482  -26.349  -26.246  -26.111  -25.796  -25.150  -24.064  -22.519  -20.575  -18.373  -16.071  -13.849  -11.892  -10.391   -9.452   -9.333
 -87.070  -86.089  -82.589  -76.599  -68.360  -58.540  -48.253  -38.770  -31.133  -26.269  -25.534  -30.858  -43.263  -60.574  -78.259  -93.474 -105.784 -114.594 -118.704 -117.230 -110.264  -99.134  -84.985  -68.129  -50.455  -35.945  -27.104  -23.204  -22.078  -21.999  -22.132  -22.211  -22.190  -22.102  -22.003  -21.934  -21.900  -21.877  -21.828  -21.700  -21.480  -21.180  -20.833  -20.491  -20.193  -19.969  -19.823  -19.738  -19.682  -19.617  -19.525  -19.425  -19.340  -19.320  -19.441  -19.800  -20.507  -21.604  -22.986  -24.436  -25.713  -26.666  -27.280  -27.624  -27.798  -27.883  -27.934  -27.964  -27.984  -27.998  -28.024  -28.072  -28.154  -28.264  -28.377  -28.481  -28.562  -28.620  -28.688  -28.806  -28.979  -29.148  -29.230  -29.196  -29.087  -28.978  -28.893  -28.763  -28.471  -27.890  -26.934  -25.586  -23.898  -21.961  -19.902  -17.859  -16.018  -14.567  -13.643  -13.475
 -92.984  -92.048  -88.166  -81.528  -72.493  -61.738  -50.387  -39.853  -31.359  -25.900  -24.737  -29.573  -41.254  -57.796  -74.929  -89.630 -101.139 -108.986 -112.337 -110.615 -104.012  -93.453  -79.598  -63.045  -46.306  -33.219  -25.664  -22.586  -21.876  -21.968  -22.161  -22.252  -22.239  -22.170  -22.088  -22.016  -21.960  -21.904  -21.825  -21.701  -21.526  -21.315  -21.084  -20.850  -20.641  -20.467  -20.335  -20.236  -20.155  -20.078  -19.998  -19.920  -19.872  -19.907  -20.092  -20.551  -21.386  -22.640  -24.194  -25.812  -27.239  -28.302  -28.978  -29.338  -29.500  -29.564  -29.585  -29.593  -29.594  -29.596  -29.611  -29.643  -29.702  -29.788  -29.885  -29.980  -30.067  -30.145  -30.235  -30.365  -30.536  -30.696  -30.782  -30.771  -30.702  -30.633  -30.580  -30.491  -30.274  -29.834  -29.127  -28.154  -26.958  -25.579  -24.067  -22.487  -20.971  -19.706  -18.858  -18.645
 -94.769  -93.652  -89.383  -82.271  -72.773  -61.623  -50.021  -39.414  -30.972  -25.549  -24.109  -27.911  -37.646  -51.927  -67.357  -80.872  -91.130  -97.713 -100.340  -98.791  -93.070  -83.445  -70.354  -55.076  -40.527  -29.857  -24.088  -21.978  -21.672  -21.900  -22.119  -22.212  -22.204  -22.155  -22.094  -22.033  -21.978  -21.919  -21.842  -21.737  -21.607  -21.466  -21.324  -21.181  -21.049  -20.933  -20.832  -20.742  -20.664  -20.589  -20.514  -20.453  -20.426  -20.481  -20.701  -21.207  -22.104  -23.429  -25.062  -26.765  -28.270  -29.396  -30.110  -30.487  -30.650  -30.704  -30.712  -30.706  -30.694  -30.684  -30.681  -30.687  -30.712  -30.760  -30.823  -30.897  -30.965  -31.031  -31.107  -31.202  -31.326  -31.438  -31.500  -31.494  -31.456  -31.422  -31.404  -31.371  -31.265  -31.043  -30.707  -30.294  -29.837  -29.313  -28.635  -27.742  -26.688  -25.665  -24.902  -24.642
 -92.262  -90.915  -86.443  -79.183  -69.632  -58.655  -47.555  -37.686  -29.989  -25.041  -23.430  -25.931  -33.023  -43.947  -56.467  -68.049  -77.049  -82.783  -85.022  -83.631  -78.515  -69.795  -58.160  -45.357  -34.040  -26.318  -22.476  -21.305  -21.348  -21.666  -21.893  -21.982  -21.987  -21.958  -21.921  -21.885  -21.850  -21.815  -21.769  -21.707  -21.633  -21.562  -21.496  -21.438  -21.380  -21.324  -21.267  -21.215  -21.157  -21.096  -21.041  -20.990  -20.975  -21.035  -21.257  -21.756  -22.653  -23.970  -25.601  -27.314  -28.843  -30.006  -30.760  -31.168  -31.355  -31.419  -31.429  -31.420  -31.403  -31.386  -31.367  -31.354  -31.348  -31.363  -31.394  -31.438  -31.484  -31.522  -31.559  -31.604  -31.657  -31.702  -31.719  -31.702  -31.674  -31.660  -31.669  -31.700  -31.740  -31.814  -32.000  -32.387  -32.995  -33.678  -34.144  -34.143  -33.643  -32.877  -32.170  -31.817
 -86.989  -85.408  -80.891  -73.751  -64.545  -54.253  -44.163  -35.408  -28.657  -24.244  -22.448  -23.644  -28.073  -35.338  -44.166  -52.862  -60.009  -64.757  -66.663  -65.486  -61.157  -53.969  -44.855  -35.484  -27.785  -22.932  -20.807  -20.415  -20.713  -21.078  -21.308  -21.400  -21.421  -21.417  -21.415  -21.421  -21.439  -21.458  -21.469  -21.470  -21.468  -21.473  -21.484  -21.500  -21.513  -21.514  -21.514  -21.508  -21.495  -21.473  -21.448  -21.416  -21.402  -21.454  -21.649  -22.106  -22.940  -24.185  -25.759  -27.437  -28.970  -30.171  -30.982  -31.455  -31.695  -31.799  -31.828  -31.824  -31.807  -31.786  -31.761  -31.737  -31.716  -31.714  -31.724  -31.747  -31.770  -31.789  -31.796  -31.798  -31.797  -31.783  -31.759  -31.721  -31.690  -31.682  -31.718  -31.821  -32.048  -32.526  -33.435  -34.931  -36.984  -39.253  -41.170  -42.263  -42.433  -41.976  -41.333  -40.808
 -80.623  -78.889  -74.523  -67.808  -59.330  -50.046  -41.072  -33.309  -27.249  -23.114  -21.020  -21.088  -23.337  -27.478  -32.788  -38.263  -42.968  -46.225  -47.577  -46.742  -43.673  -38.711  -32.694  -26.851  -22.371  -19.824  -18.979  -19.120  -19.566  -19.950  -20.176  -20.279  -20.326  -20.359  -20.403  -20.468  -20.562  -20.670  -20.773  -20.870  -20.964  -21.064  -21.164  -21.252  -21.323  -21.384  -21.441  -21.504  -21.559  -21.604  -21.626  -21.620  -21.605  -21.628  -21.764  -22.138  -22.858  -23.987  -25.461  -27.084  -28.618  -29.876  -30.780  -31.360  -31.693  -31.863  -31.929  -31.941  -31.929  -31.907  -31.883  -31.864  -31.846  -31.840  -31.849  -31.863  -31.881  -31.898  -31.905  -31.894  -31.869  -31.831  -31.789  -31.751  -31.724  -31.724  -31.786  -31.976  -32.442  -33.423  -35.230  -38.075  -41.831  -45.890  -49.397  -51.707  -52.697  -52.716  -52.248  -51.493
 -74.518  -72.794  -68.792  -62.758  -55.219  -46.976  -38.917  -31.775  -25.998  -21.808  -19.296  -18.463  -19.188  -21.159  -23.890  -26.771  -29.264  -30.989  -31.661  -31.103  -29.287  -26.459  -23.151  -20.104  -17.952  -16.951  -16.888  -17.308  -17.810  -18.182  -18.408  -18.529  -18.602  -18.668  -18.757  -18.891  -19.082  -19.310  -19.547  -19.777  -20.003  -20.222  -20.422  -20.588  -20.723  -20.837  -20.964  -21.106  -21.254  -21.387  -21.474  -21.500  -21.480  -21.453  -21.503  -21.748  -22.321  -23.293  -24.636  -26.186  -27.723  -29.057  -30.088  -30.808  -31.269  -31.529  -31.648  -31.685  -31.683  -31.667  -31.655  -31.653  -31.658  -31.675  -31.703  -31.742  -31.791  -31.841  -31.882  -31.902  -31.901  -31.883  -31.859  -31.841  -31.834  -31.853  -31.945  -32.232  -32.942  -34.431  -37.127  -41.278  -46.619  -52.290  -57.223  -60.705  -62.621  -63.318  -63.216  -62.269
 -69.399  -67.814  -64.270  -58.979  -52.363  -45.033  -37.671  -30.892  -25.148  -20.731  -17.774  -16.256  -15.994  -16.666  -17.840  -19.097  -20.119  -20.728  -20.829  -20.372  -19.381  -17.996  -16.478  -15.190  -14.417  -14.261  -14.567  -15.070  -15.548  -15.900  -16.132  -16.277  -16.364  -16.428  -16.525  -16.710  -16.997  -17.355  -17.747  -18.136  -18.521  -18.879  -19.193  -19.442  -19.633  -19.803  -19.995  -20.224  -20.472  -20.699  -20.859  -20.923  -20.896  -20.809  -20.753  -20.851  -21.250  -22.043  -23.232  -24.686  -26.209  -27.612  -28.768  -29.636  -30.229  -30.585  -30.763  -30.830  -30.844  -30.846  -30.864  -30.902  -30.960  -31.034  -31.130  -31.246  -31.381  -31.523  -31.655  -31.762  -31.839  -31.883  -31.912  -31.933  -31.960  -32.003  -32.128  -32.484  -33.358  -35.192  -38.480  -43.494  -49.882  -56.636  -62.607  -67.078  -69.931  -71.444  -71.875  -70.897
 -65.240  -63.814  -60.693  -56.064  -50.258  -43.737  -37.021  -30.611  -24.951  -20.382  -17.088  -15.084  -14.194  -14.085  -14.375  -14.722  -14.914  -14.869  -14.582  -14.099  -13.483  -12.803  -12.184  -11.750  -11.618  -11.804  -12.200  -12.667  -13.103  -13.461  -13.728  -13.900  -13.963  -13.965  -14.002  -14.165  -14.498  -14.958  -15.485  -16.023  -16.555  -17.046  -17.462  -17.782  -18.019  -18.220  -18.455  -18.747  -19.073  -19.381  -19.615  -19.722  -19.699  -19.560  -19.404  -19.356  -19.581  -20.195  -21.217  -22.548  -24.014  -25.434  -26.663  -27.634  -28.316  -28.740  -28.965  -29.062  -29.100  -29.140  -29.214  -29.325  -29.472  -29.656  -29.887  -30.152  -30.458  -30.777  -31.090  -31.363  -31.582  -31.741  -31.853  -31.933  -31.995  -32.060  -32.195  -32.560  -33.450  -35.318  -38.678  -43.840  -50.480  -57.616  -64.122  -69.298  -72.997  -75.376  -76.470  -75.710
 -61.673  -60.362  -57.575  -53.491  -48.402  -42.669  -36.685  -30.853  -25.544  -21.084  -17.684  -15.398  -14.073  -13.432  -13.142  -12.932  -12.631  -12.194  -11.643  -11.034  -10.442   -9.939   -9.583   -9.414   -9.457   -9.684  -10.039  -10.459  -10.899  -11.325  -11.675  -11.877  -11.884  -11.748  -11.626  -11.672  -11.953  -12.432  -13.022  -13.644  -14.259  -14.822  -15.297  -15.646  -15.891  -16.092  -16.328  -16.632  -16.984  -17.338  -17.621  -17.773  -17.766  -17.601  -17.374  -17.218  -17.303  -17.755  -18.603  -19.779  -21.126  -22.471  -23.671  -24.638  -25.334  -25.771  -26.009  -26.125  -26.203  -26.302  -26.451  -26.667  -26.950  -27.305  -27.736  -28.245  -28.819  -29.423  -30.017  -30.551  -30.985  -31.314  -31.541  -31.692  -31.789  -31.869  -31.990  -32.294  -33.035  -34.618  -37.520  -42.080  -48.134  -54.891  -61.347  -66.831  -71.147  -74.300  -76.099  -75.778
 -58.462  -57.215  -54.679  -51.046  -46.601  -41.662  -36.521  -31.470  -26.789  -22.737  -19.495  -17.118  -15.501  -14.443  -13.695  -13.055  -12.396  -11.655  -10.855  -10.028   -9.250   -8.600   -8.145   -7.903   -7.875   -8.019   -8.296   -8.698   -9.208   -9.765  -10.255  -10.518  -10.458  -10.152   -9.810   -9.653   -9.794  -10.183  -10.728  -11.322  -11.914  -12.459  -12.901  -13.207  -13.407  -13.566  -13.754  -14.008  -14.327  -14.668  -14.958  -15.138  -15.143  -14.979  -14.721  -14.501  -14.485  -14.802  -15.481  -16.462  -17.611  -18.780  -19.838  -20.696  -21.308  -21.692  -21.907  -22.036  -22.154  -22.319  -22.565  -22.907  -23.351  -23.915  -24.605  -25.427  -26.346  -27.324  -28.291  -29.162  -29.874  -30.408  -30.773  -30.998  -31.131  -31.213  -31.296  -31.490  -31.991  -33.100  -35.209  -38.657  -43.452  -49.113  -54.888  -60.189  -64.768  -68.460  -70.855  -71.082
 -55.580  -54.371  -52.025  -48.757  -44.883  -40.689  -36.401  -32.210  -28.294  -24.823  -21.913  -19.603  -17.825  -16.449  -15.321  -14.309  -13.320  -12.303  -11.240  -10.153   -9.102   -8.186   -7.490   -7.044   -6.850   -6.875   -7.084   -7.491   -8.084   -8.792   -9.429   -9.778   -9.706   -9.282   -8.761   -8.409   -8.365   -8.600   -9.004   -9.468   -9.922  -10.320  -10.630  -10.824  -10.932  -11.006  -11.108  -11.270  -11.498  -11.761  -12.002  -12.158  -12.159  -11.995  -11.728  -11.483  -11.399  -11.596  -12.097  -12.851  -13.745  -14.665  -15.495  -16.159  -16.625  -16.908  -17.080  -17.207  -17.359  -17.585  -17.918  -18.373  -18.978  -19.749  -20.697  -21.829  -23.108  -24.474  -25.831  -27.057  -28.063  -28.802  -29.292  -29.581  -29.737  -29.805  -29.838  -29.914  -30.162  -30.788  -32.066  -34.277  -37.530  -41.630  -46.151  -50.706  -55.057  -58.902  -61.651  -62.418
 -52.974  -51.806  -49.606  -46.635  -43.230  -39.672  -36.135  -32.731  -29.549  -26.666  -24.142  -21.982  -20.141  -18.551  -17.117  -15.777  -14.488  -13.214  -11.928  -10.627   -9.367   -8.238   -7.340   -6.736   -6.413   -6.329   -6.473   -6.859   -7.485   -8.269   -9.002   -9.433   -9.412   -9.002   -8.443   -8.001   -7.825   -7.901   -8.127   -8.401   -8.654   -8.845   -8.954   -8.986   -8.972   -8.954   -8.953   -9.005   -9.103   -9.244   -9.382   -9.465   -9.430   -9.257   -8.991   -8.718   -8.567   -8.633   -8.943   -9.457  -10.093  -10.751  -11.336  -11.787  -12.085  -12.260  -12.368  -12.479  -12.641  -12.897  -13.274  -13.796  -14.499  -15.410  -16.534  -17.872  -19.395  -21.044  -22.691  -24.186  -25.402  -26.281  -26.847  -27.171  -27.324  -27.364  -27.338  -27.303  -27.350  -27.599  -28.227  -29.413  -31.282  -33.803  -36.823  -40.182  -43.750  -47.203  -49.888  -51.022
 -50.359  -49.238  -47.170  -44.450  -41.433  -38.389  -35.456  -32.684  -30.098  -27.714  -25.536  -23.544  -21.707  -19.976  -18.320  -16.718  -15.184  -13.715  -12.301  -10.935   -9.642   -8.506   -7.610   -6.994   -6.644   -6.525   -6.628   -6.960   -7.525   -8.252   -8.948   -9.396   -9.458   -9.155   -8.695   -8.297   -8.090   -8.072   -8.165   -8.273   -8.338   -8.334   -8.249   -8.127   -7.993   -7.888   -7.809   -7.755   -7.736   -7.741   -7.755   -7.747   -7.664   -7.473   -7.195   -6.893   -6.659   -6.578   -6.706   -7.020   -7.449   -7.911   -8.311   -8.596   -8.758   -8.832   -8.872   -8.934   -9.060   -9.279   -9.624  -10.128  -10.828  -11.741  -12.867  -14.206  -15.740  -17.415  -19.103  -20.643  -21.883  -22.761  -23.312  -23.619  -23.749  -23.750  -23.661  -23.535  -23.444  -23.463  -23.688  -24.204  -25.093  -26.389  -28.084  -30.183  -32.666  -35.282  -37.472  -38.673
 -47.262  -46.183  -44.270  -41.805  -39.142  -36.525  -34.068  -31.785  -29.655  -27.657  -25.765  -23.944  -22.164  -20.391  -18.620  -16.890  -15.239  -13.721  -12.357  -11.136  -10.067   -9.187   -8.526   -8.108   -7.909   -7.889   -8.026   -8.317   -8.760   -9.297   -9.809  -10.139  -10.184   -9.962   -9.612   -9.298   -9.109   -9.063   -9.081   -9.092   -9.038   -8.897   -8.678   -8.424   -8.198   -8.012   -7.859   -7.719   -7.597   -7.494   -7.421   -7.354   -7.244   -7.060   -6.795   -6.475   -6.167   -5.973   -5.963   -6.164   -6.506   -6.894   -7.211   -7.407   -7.485   -7.478   -7.443   -7.427   -7.456   -7.565   -7.795   -8.197   -8.787   -9.559  -10.486  -11.572  -12.812  -14.170  -15.546  -16.782  -17.756  -18.429  -18.844  -19.069  -19.148  -19.113  -18.981  -18.802  -18.643  -18.555  -18.585  -18.753  -19.087  -19.624  -20.429  -21.584  -23.117  -24.866  -26.414  -27.482
 -43.327  -42.282  -40.575  -38.421  -36.134  -33.921  -31.874  -29.989  -28.217  -26.530  -24.892  -23.271  -21.633  -19.975  -18.301  -16.675  -15.167  -13.872  -12.826  -12.032  -11.464  -11.101  -10.930  -10.942  -11.105  -11.370  -11.701  -12.059  -12.406  -12.711  -12.899  -12.913  -12.716  -12.353  -11.920  -11.540  -11.290  -11.171  -11.122  -11.063  -10.943  -10.715  -10.387  -10.009   -9.637   -9.305   -9.008   -8.734   -8.482   -8.272   -8.122   -8.033   -7.952   -7.831   -7.630   -7.345   -7.023   -6.784   -6.741   -6.935   -7.310   -7.730   -8.065   -8.245   -8.283   -8.228   -8.123   -8.010   -7.929   -7.906   -7.993   -8.252   -8.678   -9.229   -9.852  -10.523  -11.236  -11.978  -12.681  -13.259  -13.650  -13.879  -14.003  -14.069  -14.080  -14.014  -13.869  -13.688  -13.528  -13.441  -13.428  -13.480  -13.583  -13.783  -14.166  -14.846  -15.861  -17.077  -18.194  -19.112
 -38.680  -37.679  -36.255  -34.490  -32.633  -30.846  -29.195  -27.669  -26.232  -24.850  -23.508  -22.185  -20.874  -19.582  -18.333  -17.193  -16.250  -15.575  -15.223  -15.166  -15.361  -15.752  -16.296  -16.969  -17.726  -18.526  -19.280  -19.898  -20.290  -20.402  -20.196  -19.683  -18.925  -18.017  -17.110  -16.326  -15.744  -15.368  -15.136  -14.953  -14.728  -14.389  -13.895  -13.288  -12.623  -11.951  -11.298  -10.694  -10.149   -9.719   -9.420   -9.251   -9.168   -9.104   -8.980   -8.769   -8.505   -8.306   -8.309   -8.568   -9.020   -9.511   -9.883  -10.079  -10.112  -10.036   -9.893   -9.726   -9.566   -9.456   -9.464   -9.633   -9.939  -10.316  -10.671  -10.947  -11.127  -11.179  -11.071  -10.787  -10.392   -9.996   -9.703   -9.538   -9.437   -9.334   -9.202   -9.058   -8.954   -8.940   -8.998   -9.089   -9.196   -9.354   -9.672  -10.289  -11.217  -12.323  -13.311  -14.165
 -34.069  -33.154  -32.074  -30.765  -29.388  -28.069  -26.851  -25.731  -24.696  -23.724  -22.825  -22.014  -21.315  -20.757  -20.372  -20.210  -20.312  -20.713  -21.413  -22.376  -23.537  -24.843  -26.255  -27.758  -29.316  -30.864  -32.264  -33.356  -33.973  -34.010  -33.426  -32.262  -30.657  -28.812  -26.961  -25.315  -24.005  -23.063  -22.421  -21.947  -21.492  -20.911  -20.117  -19.105  -17.929  -16.653  -15.350  -14.096  -12.970  -12.041  -11.340  -10.874  -10.593  -10.416  -10.256  -10.044   -9.808   -9.635   -9.665   -9.946  -10.404  -10.889  -11.253  -11.430  -11.454  -11.368  -11.224  -11.060  -10.903  -10.804  -10.834  -11.019  -11.319  -11.641  -11.879  -11.960  -11.831  -11.427  -10.708   -9.712   -8.591   -7.583   -6.845   -6.393   -6.136   -5.965   -5.815   -5.705   -5.678   -5.764   -5.968   -6.220   -6.481   -6.773   -7.211   -7.949   -9.003  -10.205  -11.250  -12.082
 -30.490  -29.721  -29.008  -28.181  -27.325  -26.529  -25.840  -25.266  -24.803  -24.455  -24.259  -24.263  -24.533  -25.115  -26.043  -27.286  -28.808  -30.553  -32.473  -34.521  -36.657  -38.863  -41.142  -43.507  -45.928  -48.302  -50.443  -52.110  -53.080  -53.190  -52.369  -50.656  -48.206  -45.298  -42.270  -39.453  -37.089  -35.277  -33.959  -32.966  -32.082  -31.094  -29.860  -28.318  -26.489  -24.446  -22.291  -20.157  -18.156  -16.388  -14.918  -13.760  -12.879  -12.213  -11.672  -11.182  -10.730  -10.400  -10.277  -10.391  -10.676  -10.999  -11.228  -11.325  -11.302  -11.199  -11.068  -10.938  -10.835  -10.815  -10.927  -11.194  -11.564  -11.941  -12.232  -12.359  -12.250  -11.797  -10.925   -9.664   -8.205   -6.837   -5.780   -5.082   -4.639   -4.343   -4.131   -4.000   -4.016   -4.222   -4.613   -5.110   -5.604   -6.086   -6.650   -7.453   -8.550   -9.769  -10.811  -11.588
 -28.555  -27.962  -27.609  -27.270  -26.980  -26.802  -26.787  -26.944  -27.271  -27.784  -28.535  -29.605  -31.096  -33.067  -35.488  -38.256  -41.204  -44.188  -47.128  -50.008  -52.855  -55.723  -58.675  -61.748  -64.905  -67.993  -70.774  -72.961  -74.306  -74.629  -73.840  -71.949  -69.089  -65.524  -61.631  -57.825  -54.456  -51.715  -49.596  -47.930  -46.469  -44.963  -43.223  -41.151  -38.728  -36.012  -33.103  -30.121  -27.190  -24.411  -21.873  -19.625  -17.671  -15.993  -14.535  -13.243  -12.113  -11.203  -10.559  -10.188  -10.027   -9.968   -9.914   -9.824   -9.696   -9.553   -9.408   -9.289   -9.223   -9.264   -9.448   -9.778  -10.203  -10.646  -11.054  -11.374  -11.523  -11.383  -10.821   -9.818   -8.521   -7.208   -6.102   -5.288   -4.703   -4.259   -3.928   -3.734   -3.764   -4.084   -4.687   -5.448   -6.184   -6.805   -7.372   -8.049   -8.928   -9.910  -10.759  -11.393
 -28.432  -28.015  -28.009  -28.153  -28.469  -28.995  -29.759  -30.758  -31.977  -33.418  -35.150  -37.284  -39.937  -43.149  -46.835  -50.783  -54.738  -58.511  -62.028  -65.337  -68.548  -71.789  -75.170  -78.738  -82.426  -86.037  -89.290  -91.887  -93.582  -94.209  -93.686  -92.019  -89.316  -85.794  -81.776  -77.661  -73.823  -70.518  -67.803  -65.554  -63.545  -61.539  -59.349  -56.869  -54.066  -50.963  -47.619  -44.110  -40.505  -36.871  -33.272  -29.775  -26.443  -23.315  -20.410  -17.740  -15.355  -13.312  -11.655  -10.375   -9.431   -8.742   -8.230   -7.843   -7.534   -7.290   -7.087   -6.927   -6.842   -6.867   -7.022   -7.311   -7.702   -8.145   -8.622   -9.111   -9.560   -9.859   -9.841   -9.424   -8.661   -7.754   -6.889   -6.148   -5.514   -4.969   -4.539   -4.291   -4.334   -4.749   -5.513   -6.466   -7.359   -8.009   -8.433   -8.793   -9.236   -9.762  -10.239  -10.685
 -30.492  -30.240  -30.539  -31.123  -32.000  -33.182  -34.663  -36.405  -38.365  -40.537  -42.995  -45.866  -49.271  -53.229  -57.606  -62.140  -66.540  -70.618  -74.332  -77.782  -81.136  -84.575  -88.235  -92.165  -96.277 -100.347 -104.068 -107.123 -109.247 -110.265 -110.101 -108.793 -106.485 -103.395  -99.808  -96.038  -92.393  -89.097  -86.228  -83.708  -81.370  -79.031  -76.542  -73.820  -70.839  -67.605  -64.136  -60.444  -56.525  -52.374  -48.006  -43.467  -38.827  -34.184  -29.637  -25.287  -21.251  -17.634  -14.523  -11.946   -9.893   -8.315   -7.164   -6.355   -5.789   -5.396   -5.094   -4.858   -4.698   -4.628   -4.670   -4.837   -5.102   -5.451   -5.878   -6.406   -7.009   -7.617   -8.072   -8.244   -8.104   -7.744   -7.263   -6.742   -6.196   -5.666   -5.219   -4.969   -5.032   -5.482   -6.297   -7.295   -8.170   -8.715   -8.906   -8.895   -8.871   -8.911   -9.005   -9.267
 -35.535  -35.466  -35.977  -36.847  -38.082  -39.673  -41.577  -43.716  -46.037  -48.524  -51.252  -54.350  -57.931  -62.012  -66.453  -70.994  -75.363  -79.388  -83.049  -86.460  -89.816  -93.317  -97.117 -101.274 -105.707 -110.200 -114.444 -118.099 -120.844 -122.449 -122.821 -122.011 -120.202 -117.662 -114.681 -111.530 -108.431 -105.532 -102.875 -100.398  -97.986  -95.511  -92.877  -90.035  -86.974  -83.700  -80.209  -76.470  -72.427  -68.020  -63.206  -57.986  -52.416  -46.600  -40.682  -34.821  -29.196  -23.971  -19.279  -15.214  -11.837   -9.171   -7.207   -5.849   -4.947   -4.345   -3.915   -3.586   -3.338   -3.178   -3.114   -3.146   -3.276   -3.478   -3.781   -4.212   -4.783   -5.449   -6.107   -6.624   -6.929   -7.010   -6.911   -6.662   -6.293   -5.873   -5.506   -5.311   -5.391   -5.804   -6.518   -7.351   -8.040   -8.373   -8.328   -8.054   -7.735   -7.478   -7.349   -7.515
 -43.778  -43.975  -44.577  -45.511  -46.805  -48.444  -50.361  -52.473  -54.714  -57.073  -59.613  -62.451  -65.690  -69.355  -73.336  -77.419  -81.376  -85.062  -88.456  -91.664  -94.862  -98.239 -101.943 -106.031 -110.443 -114.993 -119.418 -123.413 -126.683 -129.009 -130.266 -130.449 -129.679 -128.147 -126.107 -123.805 -121.439 -119.115 -116.853 -114.594 -112.259 -109.762 -107.057 -104.127 -100.979  -97.626  -94.059  -90.230  -86.063  -81.471  -76.381  -70.766  -64.657  -58.151  -51.392  -44.557  -37.826  -31.375  -25.359  -19.924  -15.213  -11.373   -8.456   -6.400   -5.030   -4.131   -3.525   -3.095   -2.791   -2.595   -2.492   -2.466   -2.513   -2.604   -2.782   -3.068   -3.492   -4.051   -4.669   -5.250   -5.719   -6.025   -6.163   -6.130   -5.956   -5.691   -5.452   -5.322   -5.383   -5.672   -6.145   -6.666   -7.044   -7.129   -6.925   -6.575   -6.215   -5.955   -5.826   -6.008
 -53.751  -54.324  -54.963  -55.825  -56.976  -58.405  -60.054  -61.847  -63.725  -65.676  -67.749  -70.041  -72.641  -75.580  -78.793  -82.134  -85.437  -88.587  -91.562  -94.434  -97.325 -100.377 -103.705 -107.351 -111.268 -115.308 -119.274 -122.969 -126.247 -129.014 -131.209 -132.764 -133.636 -133.814 -133.359 -132.406 -131.105 -129.567 -127.841 -125.907 -123.719 -121.250 -118.484 -115.439 -112.147 -108.632 -104.893 -100.887  -96.538  -91.756  -86.469  -80.642  -74.299  -67.530  -60.471  -53.275  -46.089  -39.034  -32.222  -25.801  -19.980  -14.995  -11.028   -8.099   -6.059   -4.697   -3.816   -3.257   -2.918   -2.751   -2.687   -2.684   -2.698   -2.716   -2.771   -2.916   -3.202   -3.616   -4.128   -4.643   -5.106   -5.463   -5.681   -5.762   -5.706   -5.578   -5.434   -5.343   -5.346   -5.452   -5.619   -5.772   -5.807   -5.660   -5.386   -5.111   -4.942   -4.895   -4.943   -5.222
 -62.912  -63.903  -64.615  -65.419  -66.416  -67.608  -68.950  -70.379  -71.848  -73.349  -74.921  -76.636  -78.568  -80.754  -83.168  -85.729  -88.332  -90.900  -93.405  -95.872  -98.364 -100.950 -103.690 -106.612 -109.679 -112.806 -115.883 -118.846 -121.695 -124.477 -127.217 -129.878 -132.332 -134.396 -135.885 -136.711 -136.866 -136.409 -135.410 -133.917 -131.958 -129.548 -126.727 -123.540 -120.053 -116.314 -112.341 -108.113 -103.575  -98.656  -93.286  -87.441  -81.149  -74.494  -67.598  -60.581  -53.529  -46.482  -39.473  -32.587  -26.034  -20.113  -15.110  -11.160   -8.234   -6.195   -4.856   -4.066   -3.683   -3.567   -3.599   -3.652   -3.650   -3.563   -3.453   -3.432   -3.573   -3.895   -4.340   -4.817   -5.255   -5.605   -5.832   -5.927   -5.912   -5.843   -5.739   -5.640   -5.558   -5.470   -5.354   -5.176   -4.917   -4.605   -4.331   -4.228   -4.347   -4.622   -4.928   -5.338
 -69.238  -70.566  -71.401  -72.235  -73.184  -74.253  -75.402  -76.585  -77.765  -78.936  -80.131  -81.410  -82.834  -84.443  -86.240  -88.191  -90.236  -92.325  -94.422  -96.513  -98.602 -100.693 -102.789 -104.881 -106.950 -108.976 -110.972 -113.007 -115.217 -117.738 -120.650 -123.917 -127.403 -130.868 -134.024 -136.578 -138.317 -139.152 -139.084 -138.198 -136.578 -134.310 -131.477 -128.170 -124.487 -120.512 -116.313 -111.904 -107.257 -102.322  -97.049  -91.417  -85.452  -79.230  -72.846  -66.378  -59.852  -53.237  -46.487  -39.618  -32.787  -26.287  -20.452  -15.520  -11.609   -8.716   -6.766   -5.630   -5.121   -5.036   -5.148   -5.240   -5.161   -4.881   -4.517   -4.231   -4.190   -4.410   -4.818   -5.301   -5.763   -6.114   -6.325   -6.394   -6.361   -6.279   -6.174   -6.043   -5.875   -5.630   -5.313   -4.926   -4.504   -4.143   -3.972   -4.117   -4.569   -5.199   -5.794   -6.341
 -71.805  -73.293  -74.259  -75.201  -76.212  -77.289  -78.390  -79.481  -80.533  -81.544  -82.543  -83.583  -84.722  -86.009  -87.462  -89.071  -90.805  -92.619  -94.468  -96.308  -98.103  -99.808 -101.374 -102.756 -103.924 -104.889 -105.753 -106.720 -108.069 -110.061 -112.834 -116.342 -120.382 -124.666 -128.878 -132.671 -135.720 -137.778 -138.731 -138.595 -137.479 -135.492 -132.757 -129.408 -125.589 -121.451 -117.103 -112.610 -107.981 -103.190  -98.197  -92.979  -87.553  -81.966  -76.277  -70.517  -64.664  -58.648  -52.379  -45.831  -39.107  -32.453  -26.174  -20.554  -15.816  -12.110   -9.496   -7.906   -7.164   -7.002   -7.097   -7.147   -6.925   -6.387   -5.673   -5.047   -4.726   -4.764   -5.085   -5.547   -6.006   -6.357   -6.539   -6.559   -6.482   -6.360   -6.230   -6.071   -5.849   -5.533   -5.140   -4.706   -4.316   -4.090   -4.177   -4.667   -5.508   -6.499   -7.373   -8.030
 -70.717  -72.166  -73.230  -74.303  -75.432  -76.594  -77.749  -78.866  -79.921  -80.915  -81.874  -82.853  -83.915  -85.118  -86.490  -88.035  -89.722  -91.502  -93.315  -95.093  -96.775  -98.288  -99.556 -100.493 -101.043 -101.212 -101.129 -101.069 -101.422 -102.589 -104.833 -108.170 -112.371 -117.067 -121.861 -126.380 -130.271 -133.226 -135.041 -135.649 -135.105 -133.511 -130.999 -127.729 -123.898 -119.704 -115.323 -110.866 -106.384 -101.872  -97.294  -92.616  -87.828  -82.940  -77.963  -72.889  -67.670  -62.224  -56.464  -50.354  -43.968  -37.500  -31.204  -25.331  -20.144  -15.879  -12.702  -10.631   -9.526   -9.106   -9.029   -8.923   -8.509   -7.700   -6.659   -5.685   -5.044   -4.819   -4.945   -5.267   -5.635   -5.924   -6.056   -6.029   -5.908   -5.755   -5.603   -5.435   -5.215   -4.921   -4.594   -4.296   -4.131   -4.230   -4.718   -5.638   -6.877   -8.196   -9.294  -10.026
 -67.084  -68.349  -69.447  -70.614  -71.847  -73.103  -74.340  -75.529  -76.650  -77.704  -78.717  -79.749  -80.876  -82.166  -83.655  -85.344  -87.192  -89.136  -91.096  -92.990  -94.734  -96.249  -97.440  -98.205  -98.456  -98.181  -97.494  -96.678  -96.161  -96.422  -97.841 -100.569 -104.471 -109.190 -114.256 -119.197 -123.595 -127.113 -129.505 -130.667 -130.608 -129.397 -127.159 -124.061 -120.321 -116.188 -111.877 -107.559 -103.317  -99.166  -95.063  -90.955  -86.792  -82.542  -78.179  -73.665  -68.950  -63.967  -58.648  -52.971  -47.007  -40.914  -34.889  -29.139  -23.886  -19.377  -15.830  -13.324  -11.773  -10.959  -10.568  -10.212   -9.590   -8.575   -7.301   -6.070   -5.154   -4.646   -4.498   -4.580   -4.764   -4.924   -4.977   -4.913   -4.771   -4.611   -4.459   -4.312   -4.151   -3.972   -3.823   -3.789   -3.974   -4.493   -5.425   -6.741   -8.292   -9.825  -11.029  -11.789
 -62.727  -63.780  -64.849  -66.038  -67.307  -68.603  -69.888  -71.129  -72.310  -73.428  -74.517  -75.638  -76.881  -78.322  -80.003  -81.914  -84.000  -86.181  -88.358  -90.435  -92.321  -93.933  -95.173  -95.928  -96.101  -95.657  -94.693  -93.465  -92.389  -91.948  -92.574  -94.521  -97.797 -102.154 -107.144 -112.230 -116.899 -120.745 -123.489 -125.007 -125.279 -124.367 -122.375 -119.473 -115.893 -111.900 -107.750 -103.646  -99.699  -95.931  -92.291  -88.696  -85.062  -81.323  -77.427  -73.329  -68.982  -64.345  -59.376  -54.070  -48.501  -42.807  -37.144  -31.671  -26.567  -22.046  -18.315  -15.481  -13.517  -12.288  -11.537  -10.938  -10.147   -9.010   -7.620   -6.255   -5.158   -4.432   -4.028   -3.869   -3.841   -3.849   -3.825   -3.739   -3.602   -3.453   -3.325   -3.221   -3.152   -3.116   -3.174   -3.415   -3.942   -4.821   -6.087   -7.671   -9.395  -10.996  -12.221  -12.979
 -59.294  -60.256  -61.271  -62.412  -63.638  -64.901  -66.163  -67.395  -68.579  -69.715  -70.835  -72.005  -73.319  -74.856  -76.653  -78.694  -80.917  -83.229  -85.525  -87.703  -89.672  -91.347  -92.632  -93.415  -93.598  -93.137  -92.114  -90.765  -89.464  -88.664  -88.788  -90.126  -92.775  -96.591 -101.213 -106.128 -110.800 -114.770 -117.713 -119.451 -119.939 -119.223 -117.408 -114.674 -111.263 -107.459 -103.528  -99.686  -96.048  -92.631  -89.375  -86.179  -82.941  -79.578  -76.028  -72.245  -68.192  -63.843  -59.172  -54.187  -48.955  -43.601  -38.255  -33.047  -28.121  -23.667  -19.884  -16.880  -14.677  -13.183  -12.203  -11.430  -10.538   -9.351   -7.939   -6.535   -5.364   -4.518   -3.976   -3.661   -3.506   -3.420   -3.346   -3.245   -3.117   -2.982   -2.872   -2.804   -2.788   -2.851   -3.035   -3.444   -4.143   -5.208   -6.625   -8.313  -10.074  -11.668  -12.883  -13.717
