DSAA
 100 100
 0.0 400.0
 0.0 400.0
 -199.1881 -0.3575153
 -21.579  -21.801  -22.131  -22.625  -23.289  -24.083  -24.926  -25.719  -26.322  -26.606  -26.427  -25.607  -24.003  -21.611  -18.663  -15.626  -13.086  -11.456  -10.826  -11.002  -11.726  -12.788  -14.096  -15.590  -17.149  -18.535  -19.454  -19.685  -19.174  -17.994  -16.258  -14.151  -11.943  -10.012   -8.707   -8.130   -8.136   -8.434   -8.754   -8.927   -8.906   -8.726   -8.469   -8.240   -8.101   -8.097   -8.224   -8.436   -8.680   -8.946   -9.236   -9.565   -9.898  -10.108   -9.999   -9.380   -8.154   -6.470   -4.639   -3.032   -1.875   -1.167   -0.787   -0.613   -0.549   -0.510   -0.499   -0.487   -0.479   -0.467   -0.461   -0.461   -0.462   -0.464   -0.467   -0.471   -0.462   -0.461   -0.466   -0.485   -0.498   -0.507   -0.520   -0.547   -0.584   -0.647   -0.746   -0.908   -1.159   -1.537   -2.089   -2.801   -3.672   -4.674   -5.839   -7.223   -8.813  -10.442  -11.792  -12.670
 -21.362  -21.553  -21.839  -22.265  -22.836  -23.528  -24.282  -24.988  -25.530  -25.783  -25.606  -24.841  -23.328  -21.058  -18.230  -15.304  -12.816  -11.180  -10.494  -10.595  -11.221  -12.194  -13.418  -14.839  -16.339  -17.701  -18.669  -19.036  -18.745  -17.825  -16.357  -14.456  -12.389  -10.511   -9.136   -8.385   -8.161   -8.248   -8.436   -8.554   -8.534   -8.390   -8.182   -7.995   -7.901   -7.927   -8.068   -8.283   -8.516   -8.765   -9.042   -9.361   -9.697   -9.942   -9.905   -9.395   -8.313   -6.762   -5.024   -3.438   -2.228   -1.440   -0.992   -0.764   -0.655   -0.605   -0.573   -0.550   -0.523   -0.502   -0.483   -0.467   -0.465   -0.463   -0.455   -0.457   -0.458   -0.464   -0.470   -0.479   -0.490   -0.514   -0.534   -0.585   -0.662   -0.793   -1.000   -1.318   -1.770   -2.408   -3.262   -4.322   -5.528   -6.833   -8.252   -9.812  -11.522  -13.212  -14.561  -15.362
 -20.756  -20.903  -21.099  -21.391  -21.782  -22.272  -22.824  -23.349  -23.743  -23.907  -23.725  -23.063  -21.775  -19.819  -17.349  -14.731  -12.432  -10.839  -10.068  -10.013  -10.449  -11.219  -12.243  -13.462  -14.773  -16.015  -16.998  -17.574  -17.666  -17.236  -16.280  -14.864  -13.170  -11.479  -10.058   -9.022   -8.365   -8.023   -7.903   -7.891   -7.890   -7.851   -7.793   -7.758   -7.803   -7.927   -8.098   -8.273   -8.427   -8.593   -8.791   -9.059   -9.366   -9.638   -9.709   -9.409   -8.628   -7.395   -5.903   -4.423   -3.175   -2.257   -1.668   -1.324   -1.144   -1.047   -0.979   -0.918   -0.844   -0.765   -0.712   -0.672   -0.648   -0.637   -0.633   -0.624   -0.617   -0.620   -0.629   -0.645   -0.673   -0.710   -0.768   -0.882   -1.075   -1.411   -1.904   -2.592   -3.502   -4.674   -6.120   -7.787   -9.551  -11.298  -13.008  -14.729  -16.468  -18.084  -19.332  -19.961
 -19.630  -19.712  -19.796  -19.911  -20.072  -20.310  -20.618  -20.928  -21.144  -21.191  -20.994  -20.453  -19.453  -17.936  -15.978  -13.829  -11.863  -10.403   -9.595   -9.381   -9.590  -10.099  -10.837  -11.758  -12.773  -13.784  -14.698  -15.423  -15.884  -15.992  -15.667  -14.902  -13.786  -12.477  -11.116   -9.811   -8.662   -7.793   -7.266   -7.067   -7.083   -7.233   -7.479   -7.803   -8.181   -8.533   -8.777   -8.863   -8.814   -8.730   -8.706   -8.799   -9.005   -9.253   -9.431   -9.377   -8.953   -8.150   -7.041   -5.804   -4.634   -3.661   -2.950   -2.492   -2.222   -2.076   -1.957   -1.829   -1.662   -1.486   -1.338   -1.248   -1.200   -1.179   -1.158   -1.129   -1.103   -1.092   -1.105   -1.150   -1.208   -1.293   -1.435   -1.681   -2.119   -2.825   -3.825   -5.120   -6.683   -8.521  -10.603  -12.820  -15.000  -16.995  -18.771  -20.405  -21.937  -23.304  -24.310  -24.692
 -17.896  -17.885  -17.840  -17.761  -17.688  -17.681  -17.753  -17.851  -17.902  -17.843  -17.635  -17.232  -16.554  -15.538  -14.186  -12.635  -11.131   -9.941   -9.195   -8.891   -8.915   -9.166   -9.581  -10.134  -10.766  -11.434  -12.138  -12.849  -13.527  -14.082  -14.409  -14.429  -14.083  -13.332  -12.157  -10.667   -9.079   -7.693   -6.745   -6.325   -6.358   -6.775   -7.485   -8.403   -9.363  -10.156  -10.580  -10.564  -10.187   -9.661   -9.213   -8.960   -8.918   -9.027   -9.211   -9.334   -9.260   -8.902   -8.260   -7.413   -6.483   -5.619   -4.907   -4.406   -4.107   -3.935   -3.793   -3.591   -3.307   -2.990   -2.730   -2.569   -2.496   -2.462   -2.419   -2.355   -2.296   -2.275   -2.303   -2.396   -2.527   -2.701   -2.966   -3.440   -4.243   -5.477   -7.123   -9.098  -11.310  -13.691  -16.169  -18.620  -20.837  -22.696  -24.201  -25.472  -26.597  -27.570  -28.257  -28.389
 -15.637  -15.527  -15.340  -15.072  -14.776  -14.547  -14.418  -14.355  -14.281  -14.147  -13.956  -13.696  -13.350  -12.851  -12.147  -11.265  -10.332   -9.535   -8.989   -8.708   -8.629   -8.676   -8.806   -8.987   -9.191   -9.440   -9.782  -10.284  -10.973  -11.833  -12.790  -13.694  -14.270  -14.204  -13.326  -11.735   -9.806   -7.989   -6.647   -5.955   -5.945   -6.602   -7.846   -9.489  -11.228  -12.654  -13.429  -13.418  -12.747  -11.750  -10.765   -9.995   -9.502   -9.285   -9.306   -9.469   -9.635   -9.665   -9.480   -9.071   -8.521   -7.920   -7.367   -6.951   -6.713   -6.586   -6.472   -6.253   -5.899   -5.490   -5.147   -4.943   -4.864   -4.837   -4.789   -4.705   -4.624   -4.595   -4.654   -4.809   -5.037   -5.346   -5.794   -6.539   -7.746   -9.492  -11.697  -14.175  -16.777  -19.399  -21.955  -24.287  -26.204  -27.600  -28.560  -29.269  -29.893  -30.448  -30.834  -30.772
 -13.206  -12.985  -12.650  -12.202  -11.715  -11.307  -11.036  -10.863  -10.725  -10.566  -10.400  -10.277  -10.237  -10.238  -10.181   -9.993   -9.685   -9.361   -9.116   -8.975   -8.892   -8.833   -8.754   -8.633   -8.452   -8.260   -8.162   -8.292   -8.788   -9.777  -11.276  -13.045  -14.555  -15.213  -14.709  -13.166  -11.064   -8.972   -7.297   -6.260   -6.018   -6.705   -8.320  -10.628  -13.144  -15.280  -16.563  -16.782  -16.081  -14.833  -13.431  -12.119  -11.036  -10.292   -9.966  -10.020  -10.288  -10.564  -10.707  -10.679  -10.500  -10.221   -9.920   -9.686   -9.589   -9.587   -9.580   -9.446   -9.141   -8.761   -8.440   -8.275   -8.245   -8.259   -8.242   -8.174   -8.103   -8.095   -8.197   -8.424   -8.765   -9.217   -9.855  -10.846  -12.339  -14.391  -16.852  -19.495  -22.155  -24.747  -27.166  -29.216  -30.658  -31.427  -31.688  -31.760  -31.870  -32.064  -32.211  -32.009
 -11.093  -10.762  -10.277   -9.650   -9.008   -8.486   -8.141   -7.935   -7.791   -7.638   -7.506   -7.502   -7.724   -8.166   -8.703   -9.169   -9.477   -9.647   -9.742   -9.792   -9.793   -9.713   -9.535   -9.219   -8.769   -8.220   -7.690   -7.368   -7.518   -8.416  -10.192  -12.555  -14.779  -16.079  -16.028  -14.781  -12.856  -10.793   -8.931   -7.481   -6.736   -7.076   -8.688  -11.334  -14.410  -17.170  -19.024  -19.694  -19.296  -18.173  -16.671  -15.013  -13.391  -12.068  -11.304  -11.148  -11.398  -11.761  -12.058  -12.224  -12.279  -12.244  -12.172  -12.126  -12.187  -12.348  -12.507  -12.552  -12.426  -12.197  -12.021  -11.979  -12.047  -12.138  -12.173  -12.157  -12.130  -12.165  -12.320  -12.618  -13.057  -13.633  -14.418  -15.545  -17.147  -19.227  -21.622  -24.115  -26.593  -29.008  -31.240  -32.996  -33.971  -34.093  -33.639  -33.068  -32.708  -32.597  -32.565  -32.270
  -9.742   -9.308   -8.656   -7.848   -7.084   -6.495   -6.151   -5.985   -5.884   -5.778   -5.697   -5.793   -6.238   -7.048   -8.076   -9.094   -9.933  -10.533  -10.941  -11.180  -11.274  -11.229  -11.022  -10.631  -10.036   -9.262   -8.399   -7.637   -7.322   -7.863   -9.496  -11.959  -14.478  -16.200  -16.683  -16.065  -14.781  -13.207  -11.450   -9.635   -8.179   -7.752   -8.861  -11.402  -14.700  -17.882  -20.233  -21.432  -21.539  -20.823  -19.527  -17.812  -15.905  -14.198  -13.119  -12.791  -12.971  -13.303  -13.562  -13.710  -13.793  -13.839  -13.877  -13.964  -14.163  -14.483  -14.834  -15.094  -15.203  -15.201  -15.218  -15.322  -15.487  -15.627  -15.687  -15.694  -15.713  -15.803  -16.018  -16.380  -16.896  -17.559  -18.417  -19.565  -21.098  -23.008  -25.129  -27.303  -29.479  -31.666  -33.711  -35.215  -35.788  -35.352  -34.276  -33.149  -32.383  -32.011  -31.829  -31.461
  -9.334   -8.791   -7.961   -6.967   -6.074   -5.464   -5.159   -5.075   -5.070   -5.050   -5.061   -5.302   -5.946   -7.047   -8.440   -9.857  -11.069  -11.979  -12.590  -12.956  -13.108  -13.084  -12.876  -12.473  -11.827  -10.932   -9.838   -8.709   -7.892   -7.843   -8.907  -10.928  -13.261  -15.153  -16.198  -16.479  -16.250  -15.577  -14.280  -12.302  -10.139   -8.745   -8.981  -11.004  -14.174  -17.507  -20.172  -21.778  -22.337  -22.067  -21.128  -19.619  -17.777  -16.061  -14.963  -14.619  -14.755  -14.976  -15.074  -15.051  -14.994  -14.961  -14.999  -15.147  -15.456  -15.922  -16.462  -16.941  -17.267  -17.465  -17.627  -17.822  -18.010  -18.104  -18.092  -18.035  -18.041  -18.179  -18.466  -18.909  -19.483  -20.179  -21.005  -22.044  -23.380  -25.004  -26.775  -28.567  -30.394  -32.316  -34.149  -35.427  -35.683  -34.836  -33.310  -31.781  -30.695  -30.082  -29.732  -29.310
  -9.769   -9.139   -8.129   -6.955   -5.944   -5.310   -5.055   -5.053   -5.141   -5.223   -5.391   -5.820   -6.693   -8.014   -9.620  -11.240  -12.645  -13.699  -14.390  -14.766  -14.906  -14.857  -14.634  -14.216  -13.557  -12.600  -11.346   -9.918   -8.629   -7.924   -8.179   -9.410  -11.210  -13.035  -14.571  -15.812  -16.770  -17.169  -16.545  -14.697  -12.095   -9.858   -9.166  -10.461  -13.232  -16.442  -19.149  -20.897  -21.685  -21.714  -21.133  -20.026  -18.592  -17.259  -16.447  -16.245  -16.365  -16.455  -16.359  -16.136  -15.891  -15.720  -15.689  -15.846  -16.233  -16.825  -17.528  -18.189  -18.686  -18.994  -19.192  -19.350  -19.429  -19.349  -19.129  -18.893  -18.812  -18.970  -19.349  -19.874  -20.476  -21.110  -21.779  -22.576  -23.602  -24.870  -26.264  -27.670  -29.140  -30.754  -32.337  -33.383  -33.409  -32.329  -30.587  -28.850  -27.549  -26.705  -26.159  -25.716
 -10.800  -10.115   -8.982   -7.677   -6.578   -5.901   -5.654   -5.675   -5.794   -5.982   -6.334   -7.016   -8.120   -9.598  -11.272  -12.908  -14.303  -15.326  -15.951  -16.231  -16.267  -16.126  -15.839  -15.386  -14.702  -13.693  -12.331  -10.691   -9.029   -7.751   -7.251   -7.661   -8.829  -10.431  -12.273  -14.259  -16.183  -17.502  -17.577  -16.080  -13.438  -10.779   -9.412  -10.001  -12.210  -15.047  -17.532  -19.166  -19.951  -20.121  -19.863  -19.278  -18.496  -17.817  -17.481  -17.489  -17.598  -17.563  -17.332  -16.977  -16.615  -16.342  -16.238  -16.378  -16.787  -17.445  -18.240  -18.998  -19.555  -19.854  -19.959  -19.935  -19.772  -19.405  -18.878  -18.386  -18.161  -18.311  -18.748  -19.313  -19.867  -20.329  -20.724  -21.159  -21.794  -22.671  -23.695  -24.751  -25.887  -27.176  -28.466  -29.286  -29.177  -28.075  -26.378  -24.656  -23.264  -22.228  -21.485  -21.032
 -12.102  -11.434  -10.282   -8.948   -7.806   -7.072   -6.747   -6.690   -6.784   -7.041   -7.591   -8.542   -9.871  -11.442  -13.057  -14.552  -15.763  -16.596  -17.019  -17.095  -16.935  -16.637  -16.236  -15.708  -14.973  -13.933  -12.516  -10.764   -8.899   -7.281   -6.279   -6.123   -6.787   -8.125  -10.001  -12.296  -14.687  -16.540  -17.145  -16.136  -13.834  -11.244   -9.611   -9.674  -11.288  -13.605  -15.711  -17.109  -17.797  -18.036  -18.074  -18.025  -17.964  -17.991  -18.140  -18.333  -18.413  -18.304  -18.043  -17.719  -17.390  -17.107  -16.965  -17.056  -17.407  -17.996  -18.709  -19.381  -19.851  -20.020  -19.915  -19.613  -19.134  -18.449  -17.619  -16.876  -16.494  -16.566  -16.963  -17.464  -17.864  -18.076  -18.128  -18.181  -18.424  -18.956  -19.682  -20.478  -21.344  -22.336  -23.314  -23.913  -23.765  -22.829  -21.405  -19.903  -18.554  -17.404  -16.519  -16.061
 -13.363  -12.762  -11.712  -10.460   -9.331   -8.529   -8.057   -7.850   -7.858   -8.166   -8.897  -10.101  -11.616  -13.228  -14.727  -15.981  -16.902  -17.431  -17.551  -17.342  -16.921  -16.407  -15.847  -15.205  -14.412  -13.360  -11.958  -10.235   -8.370   -6.704   -5.587   -5.231   -5.654   -6.739   -8.378  -10.461  -12.732  -14.638  -15.533  -15.040  -13.344  -11.212   -9.687   -9.474  -10.580  -12.382  -14.119  -15.312  -15.946  -16.254  -16.512  -16.869  -17.355  -17.913  -18.405  -18.690  -18.720  -18.589  -18.435  -18.310  -18.168  -17.990  -17.858  -17.873  -18.074  -18.425  -18.851  -19.236  -19.442  -19.361  -18.987  -18.393  -17.639  -16.733  -15.735  -14.856  -14.342  -14.276  -14.524  -14.828  -14.989  -14.920  -14.673  -14.426  -14.402  -14.713  -15.276  -15.947  -16.659  -17.401  -18.076  -18.441  -18.283  -17.580  -16.524  -15.329  -14.121  -12.975  -12.051  -11.613
 -14.254  -13.773  -12.892  -11.810  -10.746   -9.866   -9.242   -8.871   -8.804   -9.167  -10.073  -11.465  -13.107  -14.711  -16.074  -17.089  -17.719  -17.930  -17.728  -17.204  -16.496  -15.743  -14.997  -14.246  -13.404  -12.372  -11.075   -9.530   -7.889   -6.457   -5.548   -5.328   -5.740   -6.589   -7.763   -9.223  -10.876  -12.402  -13.320  -13.262  -12.250  -10.763   -9.574   -9.312  -10.111  -11.574  -13.083  -14.208  -14.860  -15.202  -15.518  -16.008  -16.706  -17.473  -18.077  -18.338  -18.295  -18.172  -18.195  -18.351  -18.477  -18.468  -18.372  -18.309  -18.321  -18.361  -18.389  -18.364  -18.210  -17.834  -17.201  -16.391  -15.506  -14.577  -13.652  -12.844  -12.319  -12.142  -12.185  -12.247  -12.147  -11.842  -11.405  -11.016  -10.877  -11.091  -11.595  -12.229  -12.847  -13.373  -13.744  -13.844  -13.596  -13.036  -12.253  -11.320  -10.301   -9.274   -8.426   -8.059
 -14.515  -14.153  -13.471  -12.578  -11.623  -10.731  -10.004   -9.552   -9.484   -9.937  -10.969  -12.461  -14.137  -15.694  -16.939  -17.792  -18.220  -18.205  -17.768  -17.006  -16.073  -15.118  -14.219  -13.367  -12.517  -11.572  -10.474   -9.233   -7.977   -6.961   -6.456   -6.556   -7.066   -7.693   -8.278   -8.883   -9.626  -10.465  -11.136  -11.306  -10.833   -9.943   -9.161   -9.033   -9.768  -11.125  -12.602  -13.772  -14.462  -14.772  -14.965  -15.307  -15.888  -16.563  -17.057  -17.183  -17.019  -16.874  -17.008  -17.374  -17.711  -17.829  -17.763  -17.644  -17.515  -17.322  -17.037  -16.679  -16.236  -15.634  -14.839  -13.962  -13.131  -12.426  -11.830  -11.356  -11.050  -10.909  -10.826  -10.670  -10.344   -9.861   -9.325   -8.887   -8.694   -8.821   -9.222   -9.744  -10.204  -10.493  -10.545  -10.342   -9.911   -9.339   -8.668   -7.927   -7.118   -6.300   -5.641   -5.389
 -13.997  -13.714  -13.199  -12.491  -11.674  -10.857  -10.172   -9.760   -9.792  -10.367  -11.481  -12.979  -14.584  -16.058  -17.232  -18.027  -18.401  -18.335  -17.834  -17.003  -15.982  -14.934  -13.961  -13.089  -12.276  -11.483  -10.645   -9.764   -8.939   -8.385   -8.308   -8.712   -9.313   -9.711   -9.716   -9.460   -9.246   -9.273   -9.455   -9.542   -9.308   -8.810   -8.392   -8.502   -9.363  -10.805  -12.377  -13.633  -14.338  -14.536  -14.498  -14.544  -14.832  -15.246  -15.514  -15.444  -15.129  -14.874  -14.948  -15.301  -15.649  -15.767  -15.682  -15.547  -15.400  -15.190  -14.859  -14.428  -13.913  -13.265  -12.476  -11.689  -11.083  -10.768  -10.701  -10.771  -10.894  -10.964  -10.870  -10.524   -9.960   -9.294   -8.658   -8.167   -7.887   -7.835   -7.974   -8.204   -8.368   -8.353   -8.093   -7.617   -7.004   -6.365   -5.761   -5.172   -4.589   -4.042   -3.626   -3.505
 -12.742  -12.495  -12.079  -11.519  -10.862  -10.212   -9.697   -9.472   -9.679  -10.389  -11.527  -12.943  -14.418  -15.785  -16.929  -17.780  -18.264  -18.327  -17.970  -17.272  -16.352  -15.369  -14.436  -13.610  -12.903  -12.284  -11.698  -11.128  -10.654  -10.446  -10.655  -11.228  -11.817  -11.994  -11.548  -10.646   -9.673   -8.942   -8.527   -8.271   -7.985   -7.660   -7.530   -7.928   -9.005  -10.601  -12.272  -13.555  -14.180  -14.186  -13.865  -13.582  -13.541  -13.670  -13.718  -13.493  -13.046  -12.629  -12.484  -12.588  -12.716  -12.690  -12.543  -12.445  -12.440  -12.463  -12.409  -12.239  -11.925  -11.434  -10.808  -10.229   -9.913  -10.006  -10.464  -11.095  -11.668  -11.952  -11.799  -11.204  -10.335   -9.426   -8.675   -8.132   -7.747   -7.456   -7.242   -7.064   -6.868   -6.543   -6.047   -5.409   -4.724   -4.103   -3.599   -3.181   -2.837   -2.548   -2.345   -2.336
 -11.052  -10.782  -10.400   -9.919   -9.425   -9.001   -8.746   -8.786   -9.209  -10.019  -11.119  -12.380  -13.676  -14.923  -16.067  -17.045  -17.754  -18.109  -18.077  -17.688  -17.045  -16.275  -15.498  -14.793  -14.211  -13.734  -13.315  -12.926  -12.623  -12.551  -12.824  -13.361  -13.824  -13.811  -13.118  -11.900  -10.521   -9.314   -8.413   -7.777   -7.332   -7.095   -7.237   -7.937   -9.249  -10.954  -12.608  -13.744  -14.119  -13.789  -13.083  -12.416  -12.040  -11.908  -11.786  -11.484  -10.986  -10.454  -10.062   -9.846   -9.670   -9.455   -9.272   -9.291   -9.572  -10.035  -10.493  -10.802  -10.861  -10.655  -10.276   -9.918   -9.825  -10.163  -10.906  -11.829  -12.596  -12.891  -12.534  -11.600  -10.387   -9.258   -8.419   -7.865   -7.429   -6.977   -6.479   -5.980   -5.488   -4.962   -4.363   -3.719   -3.105   -2.611   -2.265   -2.028   -1.862   -1.766   -1.719   -1.792
  -9.462   -9.131   -8.692   -8.220   -7.838   -7.634   -7.666   -7.967   -8.565   -9.399  -10.372  -11.409  -12.471  -13.567  -14.698  -15.822  -16.811  -17.553  -17.955  -18.014  -17.776  -17.333  -16.798  -16.266  -15.799  -15.390  -15.005  -14.616  -14.281  -14.130  -14.244  -14.555  -14.792  -14.619  -13.876  -12.671  -11.290  -10.002   -8.942   -8.169   -7.712   -7.676   -8.160   -9.215  -10.751  -12.470  -13.923  -14.686  -14.570  -13.691  -12.439  -11.273  -10.475  -10.030   -9.737   -9.388   -8.916   -8.363   -7.858   -7.436   -7.076   -6.779   -6.650   -6.882   -7.545   -8.518   -9.539  -10.348  -10.803  -10.896  -10.745  -10.547  -10.529  -10.849  -11.514  -12.325  -12.918  -12.948  -12.248  -10.977   -9.519   -8.285   -7.463   -6.962   -6.545   -6.048   -5.437   -4.799   -4.194   -3.629   -3.087   -2.577   -2.150   -1.848   -1.670   -1.578   -1.546   -1.558   -1.597   -1.709
  -8.588   -8.164   -7.603   -7.049   -6.702   -6.657   -6.899   -7.385   -8.038   -8.776   -9.518  -10.235  -10.986  -11.856  -12.906  -14.121  -15.376  -16.512  -17.403  -17.984  -18.235  -18.210  -17.984  -17.652  -17.275  -16.862  -16.382  -15.845  -15.312  -14.897  -14.686  -14.643  -14.586  -14.282  -13.613  -12.649  -11.580  -10.575   -9.741   -9.184   -9.022   -9.387  -10.323  -11.777  -13.523  -15.186  -16.312  -16.544  -15.779  -14.209  -12.289  -10.502   -9.172   -8.323   -7.776   -7.338   -6.884   -6.385   -5.892   -5.443   -5.086   -4.862   -4.921   -5.432   -6.469   -7.871   -9.330  -10.520  -11.277  -11.600  -11.631  -11.540  -11.490  -11.604  -11.908  -12.278  -12.407  -11.996  -10.938   -9.447   -7.920   -6.731   -5.997   -5.577   -5.214   -4.756   -4.178   -3.584   -3.044   -2.588   -2.204   -1.899   -1.700   -1.608   -1.578   -1.588   -1.631   -1.696   -1.771   -1.895
  -8.831   -8.315   -7.590   -6.898   -6.507   -6.508   -6.840   -7.352   -7.916   -8.418   -8.805   -9.101   -9.439   -9.988  -10.853  -12.043  -13.453  -14.924  -16.295  -17.417  -18.207  -18.659  -18.805  -18.707  -18.417  -17.946  -17.309  -16.535  -15.707  -14.940  -14.329  -13.875  -13.503  -13.072  -12.518  -11.880  -11.259  -10.746  -10.409  -10.341  -10.677  -11.542  -12.941  -14.740  -16.632  -18.203  -19.007  -18.750  -17.401  -15.234  -12.730  -10.383   -8.522   -7.222   -6.360   -5.750   -5.245   -4.778   -4.337   -3.968   -3.713   -3.668   -3.957   -4.745   -6.052   -7.705   -9.377  -10.742  -11.645  -12.122  -12.309  -12.329  -12.253  -12.145  -12.030  -11.847  -11.419  -10.556   -9.239   -7.682   -6.239   -5.174   -4.526   -4.137   -3.800   -3.409   -2.948   -2.501   -2.132   -1.849   -1.660   -1.574   -1.579   -1.647   -1.729   -1.796   -1.864   -1.952   -2.042   -2.162
 -10.095   -9.523   -8.674   -7.850   -7.372   -7.344   -7.644   -8.052   -8.389   -8.527   -8.461   -8.255   -8.122   -8.254   -8.820   -9.856  -11.279  -12.951  -14.689  -16.304  -17.632  -18.580  -19.131  -19.297  -19.113  -18.603  -17.803  -16.786  -15.656  -14.536  -13.537  -12.713  -12.049  -11.497  -11.033  -10.684  -10.508  -10.527  -10.752  -11.229  -12.047  -13.292  -14.953  -16.881  -18.764  -20.195  -20.751  -20.191  -18.553  -16.140  -13.417  -10.826   -8.669   -7.037   -5.873   -5.050   -4.420   -3.912   -3.496   -3.198   -3.072   -3.202   -3.703   -4.661   -6.065   -7.730   -9.356  -10.663  -11.549  -12.081  -12.401  -12.568  -12.558  -12.333  -11.903  -11.262  -10.374   -9.186   -7.750   -6.256   -4.950   -3.988   -3.368   -2.967   -2.650   -2.331   -2.022   -1.754   -1.564   -1.463   -1.440   -1.511   -1.645   -1.793   -1.915   -1.981   -2.040   -2.120   -2.198   -2.314
 -11.815  -11.265  -10.394   -9.529   -9.015   -8.951   -9.173   -9.409   -9.449   -9.176   -8.620   -7.922   -7.309   -7.033   -7.249   -8.019   -9.294  -10.982  -12.912  -14.868  -16.618  -17.993  -18.906  -19.334  -19.289  -18.797  -17.908  -16.718  -15.351  -13.956  -12.663  -11.564  -10.697  -10.049   -9.638   -9.497   -9.668  -10.134  -10.826  -11.714  -12.795  -14.133  -15.720  -17.460  -19.095  -20.263  -20.614  -19.968  -18.400  -16.206  -13.768  -11.417   -9.344   -7.643   -6.317   -5.304   -4.533   -3.953   -3.528   -3.285   -3.262   -3.523   -4.127   -5.108   -6.403   -7.842   -9.173  -10.203  -10.894  -11.370  -11.759  -12.079  -12.186  -11.950  -11.355  -10.445   -9.290   -7.956   -6.542   -5.198   -4.043   -3.172   -2.577   -2.178   -1.896   -1.682   -1.517   -1.408   -1.374   -1.406   -1.509   -1.659   -1.836   -1.984   -2.061   -2.075   -2.077   -2.114   -2.168   -2.269
 -13.409  -12.944  -12.192  -11.435  -10.990  -10.931  -11.085  -11.160  -10.923  -10.290   -9.340   -8.249   -7.272   -6.658   -6.566   -7.036   -8.069   -9.589  -11.479  -13.517  -15.442  -17.038  -18.169  -18.794  -18.885  -18.467  -17.582  -16.329  -14.848  -13.294  -11.835  -10.591   -9.619   -8.938   -8.569   -8.566   -8.970   -9.726  -10.713  -11.795  -12.903  -14.050  -15.271  -16.530  -17.669  -18.429  -18.577  -17.995  -16.783  -15.181  -13.440  -11.724  -10.103   -8.616   -7.305   -6.213   -5.352   -4.715   -4.295   -4.096   -4.138   -4.433   -5.010   -5.840   -6.843   -7.855   -8.717   -9.312   -9.684   -9.993  -10.366  -10.757  -10.952  -10.751  -10.107   -9.114   -7.910   -6.634   -5.399   -4.285   -3.348   -2.608   -2.080   -1.730   -1.526   -1.423   -1.379   -1.398   -1.471   -1.599   -1.766   -1.948   -2.104   -2.186   -2.168   -2.081   -1.995   -1.965   -1.981   -2.079
 -14.549  -14.227  -13.703  -13.195  -12.911  -12.913  -13.037  -13.007  -12.600  -11.752  -10.573   -9.273   -8.108   -7.310   -7.016   -7.252   -8.008   -9.239  -10.853  -12.661  -14.431  -15.943  -17.058  -17.720  -17.899  -17.575  -16.770  -15.564  -14.083  -12.498  -10.992   -9.707   -8.725   -8.067   -7.762   -7.860   -8.390   -9.286  -10.377  -11.471  -12.452  -13.291  -14.036  -14.716  -15.265  -15.571  -15.516  -15.086  -14.368  -13.512  -12.617  -11.681  -10.660   -9.548   -8.406   -7.338   -6.451   -5.801   -5.393   -5.217   -5.241   -5.462   -5.862   -6.387   -6.954   -7.454   -7.789   -7.928   -7.957   -8.058   -8.334   -8.704   -8.908   -8.735   -8.143   -7.239   -6.200   -5.171   -4.247   -3.455   -2.787   -2.251   -1.854   -1.603   -1.491   -1.472   -1.511   -1.602   -1.740   -1.915   -2.107   -2.282   -2.390   -2.385   -2.263   -2.062   -1.880   -1.783   -1.768   -1.853
 -15.241  -15.082  -14.858  -14.654  -14.595  -14.699  -14.828  -14.760  -14.298  -13.410  -12.191  -10.874   -9.691   -8.862   -8.486   -8.578   -9.091   -9.983  -11.158  -12.481  -13.785  -14.913  -15.765  -16.294  -16.458  -16.207  -15.523  -14.434  -13.047  -11.534  -10.076   -8.826   -7.884   -7.277   -7.032   -7.187   -7.748   -8.643   -9.688  -10.693  -11.508  -12.099  -12.486  -12.722  -12.826  -12.804  -12.666  -12.461  -12.237  -12.043  -11.839  -11.547  -11.047  -10.294   -9.351   -8.357   -7.466   -6.784   -6.334   -6.076   -5.981   -6.013   -6.134   -6.279   -6.398   -6.432   -6.337   -6.144   -5.943   -5.885   -6.054   -6.333   -6.504   -6.370   -5.915   -5.248   -4.532   -3.886   -3.348   -2.906   -2.518   -2.189   -1.938   -1.798   -1.755   -1.788   -1.868   -1.979   -2.119   -2.289   -2.454   -2.567   -2.600   -2.514   -2.316   -2.055   -1.820   -1.689   -1.642   -1.724
 -15.617  -15.630  -15.697  -15.817  -15.989  -16.203  -16.365  -16.307  -15.889  -15.080  -13.968  -12.750  -11.655  -10.869  -10.480  -10.475  -10.805  -11.364  -12.046  -12.771  -13.445  -14.014  -14.454  -14.738  -14.804  -14.587  -14.018  -13.087  -11.869  -10.512   -9.175   -8.008   -7.112   -6.521   -6.275   -6.399   -6.888   -7.664   -8.566   -9.431  -10.124  -10.592  -10.834  -10.900  -10.854  -10.786  -10.776  -10.872  -11.071  -11.331  -11.550  -11.609  -11.404  -10.869  -10.043   -9.077   -8.140   -7.356   -6.764   -6.327   -6.009   -5.786   -5.605   -5.429   -5.218   -4.961   -4.661   -4.356   -4.115   -4.030   -4.140   -4.343   -4.479   -4.428   -4.175   -3.822   -3.474   -3.203   -3.012   -2.845   -2.679   -2.517   -2.399   -2.356   -2.381   -2.450   -2.536   -2.626   -2.707   -2.766   -2.799   -2.788   -2.718   -2.569   -2.350   -2.100   -1.885   -1.766   -1.723   -1.795
 -15.799  -15.951  -16.268  -16.662  -17.040  -17.350  -17.532  -17.491  -17.147  -16.469  -15.526  -14.472  -13.500  -12.760  -12.345  -12.252  -12.396  -12.651  -12.892  -13.050  -13.123  -13.153  -13.179  -13.210  -13.181  -12.994  -12.549  -11.809  -10.824   -9.701   -8.561   -7.501   -6.617   -5.970   -5.615   -5.581   -5.869   -6.421   -7.104   -7.788   -8.380   -8.813   -9.071   -9.196   -9.267   -9.410   -9.711  -10.174  -10.728  -11.261  -11.665  -11.845  -11.720  -11.232  -10.417   -9.405   -8.372   -7.443   -6.646   -5.978   -5.421   -4.967   -4.570   -4.212   -3.871   -3.565   -3.292   -3.074   -2.946   -2.958   -3.092   -3.293   -3.448   -3.507   -3.464   -3.374   -3.300   -3.285   -3.300   -3.298   -3.264   -3.237   -3.265   -3.341   -3.458   -3.577   -3.667   -3.702   -3.649   -3.504   -3.310   -3.076   -2.846   -2.630   -2.433   -2.255   -2.120   -2.058   -2.045   -2.131
 -15.830  -16.072  -16.559  -17.138  -17.641  -17.987  -18.144  -18.080  -17.774  -17.215  -16.441  -15.562  -14.710  -14.015  -13.551  -13.333  -13.279  -13.257  -13.138  -12.874  -12.518  -12.166  -11.915  -11.789  -11.731  -11.622  -11.351  -10.870  -10.202   -9.406   -8.530   -7.627   -6.753   -5.974   -5.382   -5.050   -5.014   -5.234   -5.611   -6.059   -6.510   -6.902   -7.214   -7.480   -7.787   -8.248   -8.915   -9.726  -10.553  -11.255  -11.729  -11.918  -11.765  -11.240  -10.371   -9.296   -8.175   -7.129   -6.191   -5.365   -4.658   -4.071   -3.598   -3.226   -2.942   -2.753   -2.649   -2.617   -2.671   -2.808   -3.027   -3.271   -3.495   -3.677   -3.796   -3.860   -3.910   -3.982   -4.053   -4.101   -4.152   -4.260   -4.465   -4.731   -5.003   -5.214   -5.324   -5.283   -5.050   -4.644   -4.131   -3.618   -3.182   -2.862   -2.665   -2.548   -2.504   -2.517   -2.563   -2.673
 -15.712  -16.002  -16.575  -17.227  -17.749  -18.039  -18.075  -17.896  -17.543  -17.030  -16.390  -15.672  -14.960  -14.325  -13.826  -13.477  -13.217  -12.951  -12.577  -12.064  -11.494  -10.978  -10.621  -10.470  -10.470  -10.525  -10.518  -10.393  -10.146   -9.783   -9.272   -8.604   -7.766   -6.828   -5.923   -5.191   -4.722   -4.514   -4.510   -4.643   -4.877   -5.167   -5.485   -5.856   -6.358   -7.070   -7.994   -9.028  -10.011  -10.796  -11.303  -11.482  -11.288  -10.720   -9.822   -8.731   -7.607   -6.572   -5.653   -4.837   -4.139   -3.575   -3.158   -2.895   -2.775   -2.780   -2.871   -3.013   -3.204   -3.448   -3.726   -4.020   -4.319   -4.594   -4.788   -4.887   -4.922   -4.948   -4.980   -5.027   -5.148   -5.425   -5.863   -6.388   -6.872   -7.216   -7.363   -7.251   -6.847   -6.188   -5.366   -4.551   -3.858   -3.356   -3.074   -2.951   -2.941   -2.996   -3.083   -3.216
 -15.497  -15.797  -16.381  -17.010  -17.449  -17.566  -17.366  -16.954  -16.438  -15.879  -15.306  -14.732  -14.175  -13.644  -13.160  -12.720  -12.300  -11.853  -11.336  -10.740  -10.132   -9.619   -9.299   -9.213   -9.344   -9.614   -9.949  -10.274  -10.549  -10.710  -10.663  -10.304   -9.574   -8.530   -7.343   -6.211   -5.293   -4.625   -4.194   -3.962   -3.916   -4.042   -4.300   -4.692   -5.264   -6.043   -7.002   -8.031   -8.990   -9.754  -10.239  -10.409  -10.215   -9.656   -8.797   -7.783   -6.781   -5.905   -5.180   -4.564   -4.044   -3.651   -3.413   -3.341   -3.434   -3.624   -3.868   -4.114   -4.371   -4.636   -4.917   -5.217   -5.540   -5.830   -6.006   -6.043   -5.963   -5.877   -5.835   -5.885   -6.105   -6.584   -7.295   -8.110   -8.826   -9.318   -9.509   -9.354   -8.837   -7.985   -6.924   -5.824   -4.850   -4.107   -3.632   -3.379   -3.313   -3.353   -3.449   -3.591
 -15.299  -15.583  -16.137  -16.683  -16.961  -16.816  -16.285  -15.530  -14.736  -14.033  -13.451  -12.981  -12.580  -12.188  -11.775  -11.318  -10.821  -10.296   -9.743   -9.179   -8.645   -8.223   -7.986   -7.991   -8.250   -8.746   -9.432  -10.240  -11.076  -11.808  -12.258  -12.269  -11.741  -10.720   -9.385   -7.979   -6.711   -5.663   -4.845   -4.271   -3.959   -3.905   -4.068   -4.402   -4.900   -5.544   -6.291   -7.057   -7.756   -8.327   -8.702   -8.836   -8.663   -8.178   -7.448   -6.613   -5.842   -5.246   -4.835   -4.553   -4.364   -4.257   -4.285   -4.464   -4.760   -5.108   -5.439   -5.717   -5.950   -6.162   -6.384   -6.631   -6.887   -7.106   -7.176   -7.068   -6.851   -6.652   -6.562   -6.654   -7.003   -7.688   -8.652   -9.714  -10.628  -11.239  -11.470  -11.292  -10.707   -9.741   -8.514   -7.183   -5.942   -4.937   -4.232   -3.804   -3.603   -3.582   -3.655   -3.802
 -15.217  -15.485  -15.994  -16.441  -16.529  -16.098  -15.197  -14.036  -12.891  -11.950  -11.286  -10.866  -10.591  -10.343  -10.038   -9.644   -9.168   -8.662   -8.165   -7.696   -7.275   -6.956   -6.786   -6.853   -7.197   -7.855   -8.830  -10.060  -11.407  -12.653  -13.571  -13.960  -13.715  -12.861  -11.573  -10.105   -8.678   -7.407   -6.345   -5.542   -5.045   -4.858   -4.920   -5.144   -5.461   -5.807   -6.135   -6.423   -6.655   -6.850   -6.992   -7.019   -6.864   -6.504   -5.979   -5.417   -4.960   -4.717   -4.695   -4.819   -5.014   -5.261   -5.596   -6.032   -6.512   -6.958   -7.301   -7.537   -7.705   -7.837   -7.961   -8.106   -8.254   -8.349   -8.281   -8.035   -7.702   -7.433   -7.349   -7.513   -7.992   -8.821   -9.922  -11.092  -12.084  -12.713  -12.919  -12.704  -12.075  -11.047   -9.717   -8.232   -6.814   -5.628   -4.744   -4.164   -3.853   -3.759   -3.818   -3.967
 -15.251  -15.516  -15.994  -16.361  -16.291  -15.611  -14.372  -12.819  -11.296  -10.080   -9.280   -8.855   -8.660   -8.529   -8.339   -8.048   -7.673   -7.267   -6.880   -6.524   -6.210   -5.963   -5.845   -5.928   -6.292   -7.026   -8.171   -9.682  -11.395  -13.036  -14.335  -15.071  -15.135  -14.558  -13.490  -12.150  -10.759   -9.465   -8.342   -7.466   -6.898   -6.635   -6.606   -6.684   -6.746   -6.701   -6.519   -6.214   -5.874   -5.588   -5.405   -5.269   -5.116   -4.886   -4.606   -4.367   -4.274   -4.417   -4.797   -5.332   -5.922   -6.525   -7.147   -7.787   -8.381   -8.850   -9.156   -9.329   -9.414   -9.469   -9.522   -9.585   -9.643   -9.626   -9.465   -9.147   -8.780   -8.523   -8.485   -8.711   -9.230  -10.049  -11.077  -12.136  -12.990  -13.476  -13.554  -13.242  -12.554  -11.494  -10.131   -8.612   -7.165   -5.953   -5.041   -4.424   -4.072   -3.973   -4.031   -4.195
 -15.226  -15.493  -15.968  -16.308  -16.149  -15.305  -13.817  -11.956  -10.109   -8.624   -7.667   -7.207   -7.056   -7.017   -6.935   -6.769   -6.530   -6.266   -6.005   -5.760   -5.528   -5.331   -5.241   -5.320   -5.657   -6.362   -7.536   -9.171  -11.085  -12.979  -14.541  -15.555  -15.919  -15.654  -14.880  -13.788  -12.576  -11.410  -10.386   -9.578   -9.033   -8.731   -8.594   -8.489   -8.262   -7.815   -7.125   -6.264   -5.391   -4.660   -4.163   -3.873   -3.708   -3.595   -3.541   -3.604   -3.873   -4.393   -5.140   -6.036   -6.972   -7.873   -8.719   -9.479  -10.105  -10.541  -10.785  -10.891  -10.922  -10.946  -10.977  -11.009  -11.031  -10.987  -10.827  -10.553  -10.257  -10.067  -10.071  -10.288  -10.706  -11.301  -12.008  -12.688  -13.181  -13.361  -13.197  -12.724  -11.957  -10.901   -9.607   -8.213   -6.914   -5.857   -5.075   -4.550   -4.265   -4.202   -4.288   -4.480
 -14.795  -15.076  -15.575  -15.924  -15.761  -14.868  -13.262  -11.221   -9.168   -7.489   -6.416   -5.921   -5.796   -5.820   -5.831   -5.779   -5.690   -5.586   -5.452   -5.300   -5.129   -4.978   -4.911   -4.973   -5.247   -5.862   -6.961   -8.574  -10.545  -12.548  -14.268  -15.480  -16.083  -16.096  -15.608  -14.787  -13.822  -12.872  -12.044  -11.387  -10.909  -10.582  -10.324  -10.016   -9.507   -8.687   -7.576   -6.294   -5.053   -4.057   -3.401   -3.043   -2.888   -2.868   -2.973   -3.262   -3.809   -4.619   -5.660   -6.829   -8.017   -9.132  -10.110  -10.911  -11.498  -11.870  -12.057  -12.126  -12.147  -12.172  -12.222  -12.279  -12.321  -12.311  -12.230  -12.071  -11.901  -11.800  -11.820  -11.946  -12.139  -12.359  -12.556  -12.685  -12.663  -12.424  -11.954  -11.297  -10.460   -9.462   -8.350   -7.227   -6.235   -5.467   -4.927   -4.578   -4.402   -4.414   -4.538   -4.750
 -13.648  -13.925  -14.448  -14.859  -14.762  -13.924  -12.345  -10.294   -8.200   -6.475   -5.365   -4.857   -4.746   -4.798   -4.867   -4.911   -4.949   -4.966   -4.948   -4.878   -4.774   -4.679   -4.630   -4.675   -4.881   -5.390   -6.367   -7.866   -9.762  -11.751  -13.520  -14.839  -15.600  -15.814  -15.562  -14.987  -14.279  -13.583  -12.990  -12.508  -12.110  -11.757  -11.380  -10.882  -10.122   -9.022   -7.627   -6.115   -4.735   -3.702   -3.079   -2.791   -2.712   -2.764   -2.968   -3.388   -4.082   -5.054   -6.244   -7.554   -8.871  -10.092  -11.118  -11.894  -12.408  -12.711  -12.857  -12.912  -12.937  -12.982  -13.062  -13.158  -13.236  -13.288  -13.299  -13.266  -13.216  -13.174  -13.174  -13.175  -13.113  -12.933  -12.613  -12.175  -11.622  -10.961  -10.210   -9.398   -8.548   -7.680   -6.825   -6.043   -5.417   -4.975   -4.701   -4.559   -4.525   -4.608   -4.780   -5.005
 -11.738  -11.978  -12.510  -12.982  -13.004  -12.326  -10.919   -9.029   -7.076   -5.466   -4.428   -3.948   -3.833   -3.874   -3.958   -4.042   -4.135   -4.229   -4.287   -4.298   -4.262   -4.237   -4.227   -4.273   -4.443   -4.869   -5.710   -7.041   -8.749  -10.597  -12.299  -13.623  -14.458  -14.790  -14.698  -14.336  -13.870  -13.436  -13.072  -12.757  -12.440  -12.058  -11.575  -10.915   -9.986   -8.728   -7.219   -5.677   -4.373   -3.489   -3.045   -2.927   -2.983   -3.131   -3.392   -3.853   -4.576   -5.552   -6.734   -8.027   -9.334  -10.542  -11.529  -12.233  -12.661  -12.895  -13.001  -13.041  -13.062  -13.120  -13.215  -13.331  -13.439  -13.537  -13.612  -13.661  -13.678  -13.665  -13.627  -13.516  -13.261  -12.785  -12.087  -11.229  -10.297   -9.346   -8.420   -7.553   -6.761   -6.070   -5.491   -5.039   -4.738   -4.572   -4.529   -4.565   -4.670   -4.846   -5.054   -5.310
  -9.374   -9.553  -10.063  -10.569  -10.729  -10.269   -9.145   -7.562   -5.906   -4.550   -3.672   -3.247   -3.113   -3.112   -3.150   -3.216   -3.311   -3.414   -3.510   -3.587   -3.643   -3.702   -3.766   -3.862   -4.045   -4.427   -5.143   -6.251   -7.685   -9.271  -10.780  -12.006  -12.816  -13.185  -13.189  -12.988  -12.735  -12.535  -12.374  -12.201  -11.939  -11.538  -10.983  -10.231   -9.224   -7.950   -6.504   -5.109   -4.011   -3.368   -3.156   -3.232   -3.436   -3.683   -3.996   -4.441   -5.080   -5.926   -6.945   -8.079   -9.236  -10.309  -11.182  -11.777  -12.111  -12.271  -12.333  -12.344  -12.349  -12.389  -12.476  -12.595  -12.710  -12.823  -12.922  -12.999  -13.032  -13.015  -12.941  -12.769  -12.421  -11.818  -10.961   -9.932   -8.851   -7.804   -6.866   -6.066   -5.421   -4.930   -4.600   -4.402   -4.328   -4.350   -4.457   -4.629   -4.866   -5.134   -5.399   -5.681
  -7.167   -7.268   -7.714   -8.219   -8.479   -8.243   -7.431   -6.220   -4.948   -3.909   -3.233   -2.874   -2.716   -2.655   -2.629   -2.642   -2.698   -2.783   -2.899   -3.031   -3.181   -3.341   -3.505   -3.683   -3.906   -4.275   -4.881   -5.770   -6.893   -8.143   -9.362  -10.387  -11.083  -11.418  -11.465  -11.375  -11.287  -11.263  -11.244  -11.151  -10.917  -10.518   -9.946   -9.192   -8.226   -7.076   -5.843   -4.716   -3.889   -3.479   -3.437   -3.633   -3.936   -4.256   -4.599   -5.007   -5.503   -6.113   -6.848   -7.686   -8.565   -9.401  -10.088  -10.546  -10.784  -10.870  -10.884  -10.857  -10.835  -10.845  -10.911  -11.018  -11.130  -11.231  -11.323  -11.386  -11.393  -11.355  -11.267  -11.092  -10.748  -10.177   -9.356   -8.390   -7.375   -6.434   -5.637   -5.012   -4.567   -4.289   -4.154   -4.129   -4.177   -4.291   -4.478   -4.728   -5.051   -5.399   -5.709   -6.004
  -5.753   -5.761   -6.096   -6.529   -6.812   -6.721   -6.181   -5.327   -4.424   -3.686   -3.197   -2.903   -2.717   -2.587   -2.506   -2.465   -2.486   -2.565   -2.695   -2.879   -3.107   -3.356   -3.617   -3.869   -4.146   -4.530   -5.073   -5.804   -6.673   -7.607   -8.516   -9.277   -9.804  -10.056  -10.103  -10.092  -10.122  -10.196  -10.229  -10.136   -9.908   -9.543   -9.033   -8.381   -7.579   -6.669   -5.741   -4.934   -4.373   -4.125   -4.149   -4.354   -4.660   -4.995   -5.335   -5.668   -5.985   -6.308   -6.667   -7.102   -7.595   -8.100   -8.529   -8.815   -8.945   -8.965   -8.933   -8.876   -8.835   -8.824   -8.877   -8.971   -9.068   -9.157   -9.220   -9.240   -9.210   -9.151   -9.071   -8.935   -8.674   -8.216   -7.569   -6.801   -6.012   -5.306   -4.743   -4.348   -4.114   -4.030   -4.056   -4.137   -4.252   -4.392   -4.581   -4.844   -5.183   -5.551   -5.873   -6.185
  -5.482   -5.408   -5.599   -5.869   -6.070   -6.007   -5.614   -5.009   -4.390   -3.880   -3.513   -3.240   -3.020   -2.844   -2.719   -2.656   -2.668   -2.752   -2.914   -3.136   -3.413   -3.717   -4.026   -4.322   -4.650   -5.063   -5.624   -6.323   -7.093   -7.854   -8.530   -9.065   -9.424   -9.595   -9.656   -9.719   -9.829   -9.926   -9.919   -9.773   -9.530   -9.226   -8.855   -8.394   -7.840   -7.232   -6.640   -6.144   -5.814   -5.664   -5.672   -5.801   -6.016   -6.297   -6.582   -6.806   -6.922   -6.915   -6.846   -6.798   -6.807   -6.886   -6.983   -7.049   -7.056   -7.010   -6.936   -6.865   -6.823   -6.812   -6.863   -6.953   -7.042   -7.122   -7.159   -7.140   -7.077   -7.008   -6.955   -6.875   -6.717   -6.418   -5.984   -5.462   -4.949   -4.514   -4.205   -4.045   -4.017   -4.084   -4.224   -4.374   -4.523   -4.659   -4.809   -5.014   -5.302   -5.625   -5.919   -6.231
  -6.372   -6.220   -6.256   -6.326   -6.332   -6.143   -5.734   -5.215   -4.719   -4.315   -3.994   -3.712   -3.458   -3.255   -3.117   -3.057   -3.083   -3.189   -3.369   -3.611   -3.897   -4.201   -4.506   -4.804   -5.161   -5.648   -6.328   -7.149   -8.009   -8.788   -9.411   -9.850  -10.121  -10.282  -10.404  -10.556  -10.710  -10.781  -10.695  -10.470  -10.211   -9.984   -9.779   -9.537   -9.247   -8.936   -8.658   -8.447   -8.312   -8.227   -8.185   -8.199   -8.303   -8.485   -8.674   -8.773   -8.675   -8.337   -7.823   -7.232   -6.684   -6.250   -5.944   -5.743   -5.596   -5.478   -5.379   -5.294   -5.253   -5.252   -5.304   -5.396   -5.485   -5.562   -5.587   -5.555   -5.490   -5.434   -5.408   -5.393   -5.330   -5.178   -4.935   -4.641   -4.368   -4.167   -4.072   -4.091   -4.212   -4.400   -4.621   -4.826   -4.996   -5.117   -5.222   -5.352   -5.568   -5.830   -6.087   -6.408
  -8.225   -8.023   -7.936   -7.803   -7.541   -7.075   -6.456   -5.819   -5.268   -4.831   -4.477   -4.175   -3.919   -3.730   -3.611   -3.576   -3.621   -3.731   -3.896   -4.114   -4.354   -4.607   -4.850   -5.121   -5.498   -6.091   -6.958   -8.029   -9.150  -10.142  -10.897  -11.391  -11.702  -11.929  -12.156  -12.395  -12.574  -12.604  -12.447  -12.171  -11.916  -11.755  -11.672  -11.605  -11.525  -11.459  -11.434  -11.451  -11.466  -11.446  -11.372  -11.313  -11.332  -11.424  -11.521  -11.491  -11.202  -10.588   -9.677   -8.578   -7.458   -6.476   -5.737   -5.241   -4.933   -4.734   -4.607   -4.513   -4.459   -4.453   -4.495   -4.580   -4.673   -4.752   -4.801   -4.799   -4.765   -4.737   -4.744   -4.769   -4.777   -4.739   -4.634   -4.500   -4.393   -4.347   -4.386   -4.511   -4.718   -4.972   -5.259   -5.523   -5.742   -5.884   -5.981   -6.078   -6.241   -6.474   -6.707   -7.046
 -10.734  -10.533  -10.380  -10.072   -9.522   -8.697   -7.715   -6.764   -5.983   -5.397   -4.962   -4.644   -4.419   -4.285   -4.207   -4.188   -4.230   -4.301   -4.408   -4.537   -4.683   -4.827   -4.986   -5.203   -5.592   -6.289   -7.361   -8.728  -10.184  -11.499  -12.521  -13.205  -13.646  -13.986  -14.311  -14.603  -14.786  -14.785  -14.607  -14.339  -14.108  -13.989  -13.960  -13.983  -14.032  -14.122  -14.259  -14.415  -14.542  -14.577  -14.521  -14.452  -14.440  -14.485  -14.513  -14.393  -13.990  -13.203  -12.024  -10.542   -8.951   -7.506   -6.395   -5.663   -5.231   -4.981   -4.826   -4.714   -4.648   -4.626   -4.655   -4.713   -4.805   -4.904   -4.984   -5.041   -5.070   -5.091   -5.137   -5.199   -5.258   -5.289   -5.268   -5.221   -5.178   -5.174   -5.240   -5.382   -5.608   -5.908   -6.260   -6.630   -6.952   -7.186   -7.324   -7.417   -7.553   -7.766   -7.989   -8.348
 -13.578  -13.391  -13.207  -12.782  -11.971  -10.778   -9.371   -8.015   -6.904   -6.091   -5.540   -5.200   -5.011   -4.921   -4.870   -4.842   -4.840   -4.839   -4.845   -4.858   -4.863   -4.882   -4.934   -5.076   -5.446   -6.205   -7.425   -9.034  -10.810  -12.478  -13.819  -14.750  -15.367  -15.817  -16.200  -16.502  -16.669  -16.655  -16.504  -16.291  -16.109  -16.005  -15.994  -16.044  -16.146  -16.296  -16.487  -16.699  -16.868  -16.942  -16.933  -16.901  -16.913  -16.964  -16.967  -16.813  -16.376  -15.542  -14.256  -12.582  -10.745   -9.059   -7.769   -6.953   -6.502   -6.260   -6.115   -6.013   -5.941   -5.913   -5.934   -5.994   -6.083   -6.205   -6.335   -6.468   -6.594   -6.701   -6.799   -6.898   -6.995   -7.066   -7.073   -7.027   -6.948   -6.871   -6.840   -6.908   -7.105   -7.450   -7.917   -8.457   -8.960   -9.340   -9.541   -9.622   -9.696   -9.837  -10.013  -10.365
 -16.477  -16.291  -16.070  -15.538  -14.525  -13.029  -11.245   -9.491   -8.014   -6.932   -6.229   -5.824   -5.632   -5.538   -5.478   -5.415   -5.346   -5.262   -5.160   -5.054   -4.940   -4.836   -4.776   -4.836   -5.162   -5.922   -7.209   -8.967  -10.977  -12.936  -14.572  -15.759  -16.550  -17.091  -17.486  -17.762  -17.893  -17.889  -17.797  -17.672  -17.558  -17.494  -17.492  -17.549  -17.654  -17.792  -17.955  -18.126  -18.276  -18.361  -18.394  -18.421  -18.486  -18.572  -18.589  -18.443  -18.031  -17.238  -15.998  -14.368  -12.568  -10.944   -9.757   -9.062   -8.731   -8.594   -8.528   -8.473   -8.432   -8.425   -8.478   -8.568   -8.686   -8.843   -9.028   -9.256   -9.509   -9.756   -9.961  -10.124  -10.263  -10.356  -10.366  -10.261  -10.042   -9.759   -9.506   -9.399   -9.531   -9.936  -10.586  -11.372  -12.127  -12.685  -12.955  -12.990  -12.945  -12.953  -13.029  -13.382
 -19.542  -19.313  -18.996  -18.319  -17.109  -15.364  -13.267  -11.145   -9.296   -7.905   -6.990   -6.469   -6.209   -6.078   -5.985   -5.881   -5.755   -5.607   -5.437   -5.252   -5.057   -4.880   -4.752   -4.754   -5.031   -5.756   -7.032   -8.837  -10.975  -13.127  -14.980  -16.377  -17.322  -17.928  -18.316  -18.541  -18.642  -18.663  -18.653  -18.639  -18.635  -18.651  -18.700  -18.782  -18.875  -18.972  -19.060  -19.144  -19.219  -19.274  -19.322  -19.393  -19.506  -19.627  -19.677  -19.573  -19.233  -18.564  -17.511  -16.142  -14.668  -13.401  -12.570  -12.190  -12.115  -12.162  -12.213  -12.234  -12.247  -12.294  -12.394  -12.537  -12.696  -12.881  -13.122  -13.460  -13.885  -14.331  -14.714  -15.008  -15.234  -15.384  -15.412  -15.236  -14.832  -14.251  -13.666  -13.300  -13.334  -13.836  -14.732  -15.854  -16.956  -17.779  -18.192  -18.250  -18.177  -18.176  -18.264  -18.720
 -23.565  -23.228  -22.713  -21.773  -20.286  -18.252  -15.817  -13.289  -11.005   -9.222   -8.006   -7.288   -6.911   -6.727   -6.607   -6.482   -6.331   -6.153   -5.960   -5.757   -5.554   -5.363   -5.233   -5.232   -5.493   -6.175   -7.404   -9.176  -11.335  -13.558  -15.538  -17.076  -18.132  -18.785  -19.154  -19.337  -19.421  -19.485  -19.578  -19.714  -19.879  -20.056  -20.236  -20.399  -20.525  -20.596  -20.615  -20.598  -20.572  -20.562  -20.580  -20.647  -20.769  -20.912  -21.016  -21.008  -20.819  -20.382  -19.677  -18.770  -17.841  -17.138  -16.825  -16.875  -17.125  -17.382  -17.551  -17.637  -17.690  -17.770  -17.886  -18.028  -18.175  -18.349  -18.621  -19.077  -19.724  -20.439  -21.091  -21.614  -22.027  -22.353  -22.505  -22.365  -21.837  -21.004  -20.109  -19.515  -19.505  -20.192  -21.469  -23.102  -24.749  -26.101  -26.981  -27.496  -27.913  -28.427  -28.958  -29.762
 -29.755  -29.303  -28.466  -27.105  -25.179  -22.707  -19.799  -16.717  -13.831  -11.485   -9.831   -8.814   -8.259   -7.985   -7.834   -7.706   -7.555   -7.385   -7.207   -7.034   -6.876   -6.754   -6.691   -6.738   -7.016   -7.662   -8.819  -10.511  -12.588  -14.788  -16.789  -18.392  -19.509  -20.184  -20.534  -20.684  -20.771  -20.887  -21.109  -21.450  -21.885  -22.358  -22.802  -23.161  -23.397  -23.500  -23.481  -23.377  -23.242  -23.126  -23.060  -23.061  -23.142  -23.298  -23.499  -23.682  -23.780  -23.740  -23.554  -23.275  -23.035  -23.001  -23.267  -23.777  -24.352  -24.811  -25.079  -25.200  -25.258  -25.309  -25.358  -25.398  -25.436  -25.540  -25.830  -26.425  -27.330  -28.389  -29.410  -30.309  -31.107  -31.817  -32.323  -32.446  -32.071  -31.293  -30.437  -29.965  -30.258  -31.447  -33.410  -35.862  -38.427  -40.767  -42.731  -44.449  -46.166  -47.911  -49.335  -50.506
 -38.800  -38.316  -37.116  -35.232  -32.737  -29.671  -26.115  -22.282  -18.584  -15.467  -13.198  -11.740  -10.907  -10.478  -10.256  -10.107   -9.951   -9.787   -9.629   -9.511   -9.434   -9.418   -9.478   -9.639   -9.968  -10.582  -11.637  -13.171  -15.099  -17.179  -19.123  -20.714  -21.843  -22.518  -22.841  -22.962  -23.049  -23.234  -23.617  -24.234  -25.054  -25.977  -26.853  -27.555  -28.010  -28.203  -28.179  -27.999  -27.747  -27.501  -27.299  -27.182  -27.182  -27.360  -27.723  -28.222  -28.770  -29.297  -29.774  -30.223  -30.716  -31.355  -32.187  -33.137  -34.023  -34.680  -35.070  -35.261  -35.349  -35.374  -35.342  -35.260  -35.194  -35.272  -35.655  -36.472  -37.708  -39.177  -40.672  -42.104  -43.487  -44.811  -45.936  -46.673  -46.932  -46.846  -46.785  -47.228  -48.525  -50.771  -53.806  -57.330  -61.001  -64.542  -67.856  -71.032  -74.143  -76.947  -78.870  -79.655
 -49.878  -49.544  -48.065  -45.718  -42.677  -39.009  -34.762  -30.122  -25.526  -21.533  -18.518  -16.501  -15.287  -14.613  -14.255  -14.036  -13.834  -13.636  -13.473  -13.382  -13.397  -13.517  -13.745  -14.054  -14.456  -15.041  -15.953  -17.278  -18.978  -20.865  -22.691  -24.232  -25.344  -26.001  -26.283  -26.359  -26.431  -26.681  -27.244  -28.189  -29.480  -30.963  -32.390  -33.540  -34.285  -34.611  -34.592  -34.343  -33.987  -33.613  -33.278  -33.032  -32.963  -33.193  -33.782  -34.690  -35.789  -36.960  -38.132  -39.288  -40.459  -41.699  -43.028  -44.370  -45.566  -46.482  -47.105  -47.510  -47.785  -47.963  -48.052  -48.091  -48.187  -48.500  -49.210  -50.414  -52.068  -53.987  -55.989  -57.997  -60.014  -62.020  -63.899  -65.516  -66.853  -68.077  -69.520  -71.537  -74.324  -77.847  -81.906  -86.237  -90.604  -94.841  -98.896 -102.773 -106.356 -109.235 -110.730 -110.238
 -60.953  -60.930  -59.347  -56.727  -53.324  -49.225  -44.460  -39.194  -33.878  -29.145  -25.463  -22.912  -21.295  -20.337  -19.781  -19.429  -19.122  -18.832  -18.590  -18.479  -18.553  -18.817  -19.238  -19.728  -20.231  -20.798  -21.567  -22.664  -24.105  -25.774  -27.468  -28.955  -30.056  -30.691  -30.919  -30.930  -30.968  -31.261  -31.983  -33.235  -34.973  -36.984  -38.936  -40.511  -41.533  -41.989  -41.991  -41.705  -41.292  -40.856  -40.457  -40.160  -40.096  -40.440  -41.299  -42.629  -44.259  -46.014  -47.775  -49.497  -51.189  -52.890  -54.610  -56.285  -57.800  -59.064  -60.079  -60.916  -61.649  -62.313  -62.923  -63.526  -64.225  -65.167  -66.486  -68.229  -70.332  -72.644  -75.036  -77.462  -79.929  -82.437  -84.933  -87.372  -89.795  -92.357  -95.271  -98.705 -102.681 -107.073 -111.684 -116.323 -120.845 -125.164 -129.230 -132.948 -136.053 -138.034 -138.169 -136.039
 -70.007  -70.335  -68.804  -66.114  -62.580  -58.309  -53.323  -47.788  -42.149  -37.055  -33.010  -30.126  -28.214  -27.005  -26.253  -25.739  -25.282  -24.833  -24.448  -24.237  -24.309  -24.690  -25.307  -26.006  -26.658  -27.261  -27.936  -28.850  -30.084  -31.594  -33.214  -34.705  -35.839  -36.481  -36.672  -36.621  -36.612  -36.913  -37.723  -39.161  -41.175  -43.513  -45.785  -47.624  -48.824  -49.380  -49.428  -49.173  -48.800  -48.420  -48.092  -47.888  -47.959  -48.510  -49.661  -51.355  -53.394  -55.565  -57.717  -59.794  -61.807  -63.792  -65.772  -67.711  -69.543  -71.222  -72.764  -74.233  -75.688  -77.151  -78.632  -80.152  -81.769  -83.565  -85.603  -87.887  -90.355  -92.914  -95.490  -98.075 -100.701 -103.408 -106.213 -109.144 -112.265 -115.680 -119.477 -123.668 -128.153 -132.757 -137.295 -141.629 -145.676 -149.379 -152.659 -155.342 -157.144 -157.646 -156.099 -154.334
 -75.754  -76.348  -74.940  -72.321  -68.847  -64.642  -59.745  -54.325  -48.817  -43.833  -39.833  -36.917  -34.908  -33.568  -32.679  -32.016  -31.401  -30.765  -30.181  -29.809  -29.815  -30.263  -31.061  -31.990  -32.847  -33.569  -34.261  -35.121  -36.293  -37.794  -39.478  -41.092  -42.347  -43.073  -43.294  -43.236  -43.206  -43.489  -44.294  -45.734  -47.755  -50.105  -52.393  -54.258  -55.497  -56.108  -56.239  -56.099  -55.875  -55.680  -55.569  -55.616  -55.966  -56.809  -58.251  -60.219  -62.504  -64.885  -67.211  -69.430  -71.563  -73.662  -75.769  -77.892  -80.016  -82.130  -84.265  -86.468  -88.771  -91.168  -93.629  -96.129  -98.661 -101.240 -103.874 -106.550 -109.226 -111.854 -114.416 -116.936 -119.476 -122.110 -124.906 -127.931 -131.245 -134.892 -138.860 -143.058 -147.344 -151.567 -155.618 -159.439 -162.999 -166.253 -169.134 -171.527 -173.250 -173.873 -172.025 -175.274
 -77.646  -78.349  -77.055  -74.578  -71.287  -67.328  -62.768  -57.788  -52.793  -48.312  -44.717  -42.054  -40.157  -38.834  -37.900  -37.152  -36.416  -35.621  -34.848  -34.306  -34.212  -34.687  -35.638  -36.804  -37.916  -38.862  -39.736  -40.744  -42.076  -43.784  -45.727  -47.621  -49.138  -50.079  -50.465  -50.515  -50.539  -50.817  -51.541  -52.817  -54.597  -56.663  -58.682  -60.348  -61.492  -62.112  -62.342  -62.370  -62.361  -62.420  -62.607  -62.991  -63.693  -64.860  -66.554  -68.686  -71.058  -73.466  -75.778  -77.960  -80.051  -82.125  -84.254  -86.486  -88.848  -91.365  -94.067  -96.975 -100.075 -103.311 -106.603 -109.873 -113.068 -116.160 -119.134 -121.975 -124.667 -127.204 -129.601 -131.913 -134.220 -136.620 -139.207 -142.067 -145.262 -148.816 -152.701 -156.852 -161.173 -165.563 -169.908 -174.090 -178.002 -181.534 -184.640 -187.197 -188.977 -189.368 -186.585 -194.743
 -75.718  -76.348  -75.115  -72.790  -69.741  -66.137  -62.080  -57.758  -53.522  -49.792  -46.817  -44.591  -42.964  -41.790  -40.917  -40.175  -39.402  -38.536  -37.665  -37.018  -36.865  -37.372  -38.472  -39.889  -41.324  -42.630  -43.886  -45.299  -47.067  -49.244  -51.672  -54.035  -55.985  -57.314  -58.036  -58.353  -58.544  -58.863  -59.489  -60.514  -61.912  -63.523  -65.103  -66.428  -67.375  -67.945  -68.238  -68.400  -68.565  -68.829  -69.259  -69.922  -70.913  -72.323  -74.162  -76.328  -78.641  -80.929  -83.092  -85.116  -87.064  -89.032  -91.120  -93.404  -95.943  -98.779 -101.933 -105.383 -109.064 -112.868 -116.671 -120.367 -123.882 -127.178 -130.239 -133.060 -135.647 -138.014 -140.199 -142.267 -144.306 -146.430 -148.747 -151.355 -154.329 -157.697 -161.446 -165.508 -169.778 -174.120 -178.365 -182.386 -186.060 -189.303 -192.011 -194.008 -195.001 -194.350 -190.280 -198.324
 -70.484  -70.880  -69.637  -67.437  -64.636  -61.432  -57.955  -54.386  -51.004  -48.101  -45.814  -44.100  -42.831  -41.896  -41.180  -40.544  -39.853  -39.060  -38.254  -37.670  -37.597  -38.236  -39.555  -41.305  -43.189  -45.054  -46.954  -49.073  -51.579  -54.489  -57.612  -60.610  -63.141  -65.006  -66.210  -66.921  -67.375  -67.795  -68.346  -69.124  -70.129  -71.262  -72.367  -73.302  -73.988  -74.423  -74.670  -74.827  -75.003  -75.288  -75.762  -76.498  -77.570  -79.020  -80.821  -82.858  -84.975  -87.032  -88.960  -90.770  -92.543  -94.389  -96.418  -98.720 -101.362 -104.386 -107.789 -111.516 -115.454 -119.462 -123.402 -127.165 -130.683 -133.923 -136.874 -139.537 -141.922 -144.053 -145.973 -147.750 -149.474 -151.257 -153.215 -155.443 -158.010 -160.933 -164.183 -167.672 -171.289 -174.912 -178.443 -181.826 -184.984 -187.882 -190.355 -192.216 -193.113 -192.423 -188.574 -193.086
 -62.905  -62.962  -61.654  -59.536  -56.955  -54.137  -51.230  -48.391  -45.816  -43.677  -42.029  -40.814  -39.930  -39.289  -38.809  -38.386  -37.929  -37.401  -36.902  -36.647  -36.923  -37.934  -39.685  -41.974  -44.544  -47.238  -50.076  -53.177  -56.642  -60.432  -64.325  -67.991  -71.121  -73.544  -75.255  -76.384  -77.121  -77.662  -78.165  -78.738  -79.410  -80.132  -80.815  -81.375  -81.759  -81.959  -82.009  -81.974  -81.944  -82.014  -82.274  -82.809  -83.684  -84.916  -86.456  -88.192  -89.988  -91.737  -93.392  -94.985  -96.598  -98.339 -100.310 -102.590 -105.233 -108.263 -111.658 -115.334 -119.163 -122.999 -126.714 -130.211 -133.436 -136.366 -138.997 -141.333 -143.392 -145.202 -146.808 -148.274 -149.688 -151.149 -152.762 -154.618 -156.778 -159.263 -162.052 -165.087 -168.276 -171.535 -174.791 -177.984 -181.055 -183.907 -186.417 -188.369 -189.470 -189.131 -186.059 -186.907
 -54.326  -54.032  -52.642  -50.581  -48.188  -45.706  -43.293  -41.071  -39.157  -37.637  -36.514  -35.735  -35.222  -34.912  -34.746  -34.666  -34.622  -34.611  -34.725  -35.158  -36.159  -37.916  -40.443  -43.588  -47.123  -50.877  -54.801  -58.937  -63.308  -67.833  -72.300  -76.428  -79.967  -82.782  -84.863  -86.303  -87.252  -87.875  -88.328  -88.727  -89.128  -89.520  -89.853  -90.071  -90.136  -90.030  -89.771  -89.412  -89.029  -88.721  -88.587  -88.719  -89.183  -89.990  -91.092  -92.393  -93.783  -95.181  -96.560  -97.950  -99.425 -101.071 -102.959 -105.140 -107.643 -110.469 -113.580 -116.889 -120.275 -123.615 -126.803 -129.770 -132.481 -134.927 -137.113 -139.048 -140.751 -142.250 -143.585 -144.809 -145.993 -147.224 -148.594 -150.183 -152.053 -154.233 -156.719 -159.476 -162.446 -165.560 -168.751 -171.943 -175.055 -177.976 -180.570 -182.611 -183.834 -183.724 -181.304 -179.663
 -46.310  -45.750  -44.329  -42.353  -40.150  -37.970  -35.960  -34.213  -32.790  -31.726  -31.014  -30.607  -30.452  -30.512  -30.756  -31.170  -31.748  -32.509  -33.538  -34.984  -37.043  -39.857  -43.429  -47.614  -52.182  -56.921  -61.722  -66.561  -71.427  -76.248  -80.867  -85.080  -88.705  -91.638  -93.864  -95.442  -96.481  -97.120  -97.500  -97.742  -97.915  -98.036  -98.074  -97.992  -97.749  -97.328  -96.743  -96.040  -95.292  -94.593  -94.043  -93.732  -93.727  -94.046  -94.654  -95.480  -96.444  -97.489  -98.598  -99.792 -101.121 -102.636 -104.370 -106.340 -108.547 -110.975 -113.580 -116.287 -119.003 -121.637 -124.123 -126.421 -128.521 -130.423 -132.138 -133.674 -135.045 -136.273 -137.387 -138.428 -139.452 -140.529 -141.734 -143.136 -144.789 -146.724 -148.946 -151.435 -154.157 -157.063 -160.103 -163.212 -166.310 -169.285 -171.977 -174.157 -175.532 -175.666 -173.810 -170.903
 -40.356  -39.687  -38.353  -36.570  -34.635  -32.777  -31.130  -29.757  -28.703  -27.985  -27.602  -27.528  -27.736  -28.202  -28.932  -29.947  -31.267  -32.911  -34.930  -37.422  -40.518  -44.310  -48.786  -53.778  -59.035  -64.317  -69.481  -74.483  -79.319  -83.961  -88.322  -92.276  -95.698  -98.508 -100.680 -102.244 -103.273 -103.873 -104.169 -104.272 -104.259 -104.158 -103.956 -103.622 -103.122 -102.440 -101.592 -100.623  -99.607  -98.626  -97.770  -97.123  -96.744  -96.656  -96.840  -97.251  -97.838  -98.564  -99.415 -100.402 -101.544 -102.860 -104.349 -105.999 -107.793 -109.703 -111.689 -113.693 -115.658 -117.529 -119.278 -120.894 -122.383 -123.756 -125.019 -126.182 -127.252 -128.246 -129.184 -130.097 -131.025 -132.017 -133.133 -134.427 -135.941 -137.699 -139.709 -141.960 -144.431 -147.093 -149.911 -152.837 -155.806 -158.716 -161.414 -163.684 -165.225 -165.632 -164.300 -161.110
 -37.542  -36.956  -35.877  -34.453  -32.930  -31.492  -30.235  -29.213  -28.454  -27.993  -27.851  -28.040  -28.540  -29.355  -30.504  -32.025  -33.938  -36.236  -38.913  -42.024  -45.659  -49.896  -54.714  -59.947  -65.332  -70.618  -75.649  -80.377  -84.819  -88.987  -92.855  -96.357  -99.414 -101.962 -103.967 -105.434 -106.402 -106.949 -107.175 -107.182 -107.040 -106.785 -106.415 -105.907 -105.235 -104.390 -103.393 -102.292 -101.153 -100.052  -99.062  -98.249  -97.663  -97.324  -97.226  -97.342  -97.643  -98.107  -98.723  -99.489 -100.405 -101.463 -102.643 -103.917 -105.256 -106.633 -108.010 -109.353 -110.628 -111.816 -112.918 -113.944 -114.913 -115.836 -116.721 -117.572 -118.395 -119.201 -120.009 -120.836 -121.711 -122.669 -123.748 -124.989 -126.425 -128.071 -129.931 -131.996 -134.253 -136.681 -139.256 -141.943 -144.690 -147.413 -149.983 -152.207 -153.809 -154.419 -153.515 -150.591
 -38.202  -37.880  -37.202  -36.293  -35.326  -34.410  -33.593  -32.888  -32.329  -31.968  -31.869  -32.089  -32.632  -33.521  -34.776  -36.432  -38.490  -40.907  -43.642  -46.716  -50.218  -54.239  -58.780  -63.694  -68.724  -73.616  -78.201  -82.427  -86.314  -89.904  -93.209  -96.207  -98.853 -101.098 -102.905 -104.258 -105.173 -105.700 -105.916 -105.902 -105.725 -105.418 -104.989 -104.421 -103.700 -102.825 -101.822 -100.740  -99.640  -98.581  -97.621  -96.807  -96.176  -95.743  -95.507  -95.453  -95.566  -95.836  -96.253  -96.809  -97.493  -98.281  -99.145 -100.057 -100.984 -101.900 -102.778 -103.597 -104.341 -105.014 -105.635 -106.229 -106.819 -107.416 -108.023 -108.641 -109.275 -109.937 -110.639 -111.398 -112.231 -113.160 -114.215 -115.422 -116.805 -118.373 -120.126 -122.052 -124.135 -126.358 -128.701 -131.140 -133.635 -136.119 -138.485 -140.570 -142.134 -142.849 -142.252 -139.762
 -41.647  -41.708  -41.463  -41.087  -40.682  -40.274  -39.846  -39.357  -38.814  -38.297  -37.926  -37.813  -38.014  -38.562  -39.485  -40.805  -42.499  -44.506  -46.760  -49.268  -52.126  -55.448  -59.273  -63.485  -67.851  -72.116  -76.101  -79.740  -83.048  -86.072  -88.849  -91.382  -93.653  -95.628  -97.274  -98.564  -99.493 -100.086 -100.397 -100.488 -100.412 -100.198  -99.856  -99.379  -98.759  -98.004  -97.144  -96.226  -95.299  -94.410  -93.599  -92.899  -92.333  -91.917  -91.648  -91.523  -91.535  -91.679  -91.952  -92.342  -92.830  -93.390  -93.994  -94.616  -95.229  -95.813  -96.346  -96.813  -97.214  -97.560  -97.880  -98.202  -98.550  -98.933  -99.352  -99.806 -100.299 -100.842 -101.449 -102.135 -102.913 -103.800 -104.818 -105.986 -107.323 -108.835 -110.514 -112.338 -114.290 -116.347 -118.494 -120.714 -122.979 -125.239 -127.410 -129.354 -130.864 -131.647 -131.292 -129.235
 -46.246  -46.678  -46.742  -46.716  -46.671  -46.579  -46.352  -45.889  -45.164  -44.263  -43.355  -42.613  -42.156  -42.041  -42.299  -42.938  -43.933  -45.206  -46.680  -48.352  -50.317  -52.706  -55.590  -58.896  -62.430  -65.950  -69.274  -72.324  -75.099  -77.639  -79.982  -82.147  -84.137  -85.936  -87.517  -88.849  -89.911  -90.708  -91.268  -91.628  -91.822  -91.872  -91.784  -91.555  -91.184  -90.684  -90.087  -89.431  -88.756  -88.096  -87.481  -86.935  -86.480  -86.130  -85.888  -85.755  -85.733  -85.822  -86.021  -86.316  -86.686  -87.102  -87.540  -87.977  -88.397  -88.784  -89.120  -89.394  -89.609  -89.780  -89.936  -90.107  -90.310  -90.557  -90.848  -91.181  -91.562  -92.002  -92.516  -93.120  -93.829  -94.659  -95.630  -96.763  -98.072  -99.557 -101.200 -102.969 -104.833 -106.768 -108.762 -110.807 -112.892 -114.984 -117.016 -118.873 -120.369 -121.238 -121.106 -119.441
 -50.037  -50.685  -50.801  -50.804  -50.786  -50.709  -50.436  -49.812  -48.773  -47.391  -45.859  -44.407  -43.202  -42.325  -41.812  -41.665  -41.853  -42.302  -42.937  -43.745  -44.803  -46.246  -48.158  -50.511  -53.164  -55.909  -58.583  -61.097  -63.436  -65.618  -67.671  -69.614  -71.463  -73.222  -74.874  -76.389  -77.734  -78.891  -79.860  -80.649  -81.269  -81.726  -82.017  -82.141  -82.104  -81.923  -81.625  -81.245  -80.812  -80.355  -79.903  -79.484  -79.124  -78.841  -78.648  -78.547  -78.546  -78.649  -78.853  -79.143  -79.490  -79.864  -80.238  -80.597  -80.932  -81.229  -81.478  -81.667  -81.801  -81.892  -81.969  -82.056  -82.172  -82.326  -82.522  -82.760  -83.045  -83.389  -83.807  -84.319  -84.950  -85.721  -86.659  -87.784  -89.110  -90.623  -92.288  -94.057  -95.880  -97.733  -99.610 -101.520 -103.469 -105.448 -107.403 -109.232 -110.763 -111.745 -111.829 -110.516
 -51.454  -52.061  -51.932  -51.612  -51.270  -50.900  -50.355  -49.444  -48.054  -46.236  -44.187  -42.164  -40.360  -38.869  -37.720  -36.906  -36.404  -36.155  -36.093  -36.200  -36.530  -37.201  -38.292  -39.805  -41.655  -43.698  -45.811  -47.916  -49.978  -51.981  -53.932  -55.840  -57.722  -59.593  -61.449  -63.261  -64.991  -66.596  -68.050  -69.330  -70.418  -71.303  -71.976  -72.438  -72.701  -72.784  -72.719  -72.531  -72.248  -71.902  -71.530  -71.171  -70.862  -70.629  -70.489  -70.450  -70.519  -70.699  -70.985  -71.351  -71.760  -72.173  -72.564  -72.918  -73.231  -73.499  -73.715  -73.874  -73.977  -74.036  -74.076  -74.116  -74.175  -74.262  -74.382  -74.539  -74.736  -74.984  -75.301  -75.716  -76.264  -76.986  -77.920  -79.089  -80.498  -82.115  -83.879  -85.708  -87.540  -89.344  -91.130  -92.927  -94.770  -96.668  -98.586 -100.426 -102.021 -103.126 -103.411 -102.410
 -49.690  -49.982  -49.353  -48.418  -47.456  -46.546  -45.566  -44.309  -42.629  -40.543  -38.236  -35.957  -33.899  -32.140  -30.688  -29.526  -28.633  -27.974  -27.506  -27.208  -27.121  -27.320  -27.870  -28.792  -30.055  -31.592  -33.338  -35.231  -37.226  -39.266  -41.325  -43.384  -45.455  -47.545  -49.655  -51.765  -53.835  -55.813  -57.649  -59.297  -60.716  -61.884  -62.793  -63.450  -63.873  -64.088  -64.123  -64.003  -63.755  -63.419  -63.050  -62.697  -62.411  -62.223  -62.150  -62.201  -62.376  -62.677  -63.085  -63.566  -64.069  -64.550  -64.978  -65.341  -65.640  -65.881  -66.067  -66.199  -66.281  -66.323  -66.343  -66.356  -66.380  -66.422  -66.489  -66.580  -66.698  -66.851  -67.061  -67.370  -67.834  -68.518  -69.478  -70.743  -72.304  -74.103  -76.035  -77.987  -79.872  -81.662  -83.378  -85.078  -86.825  -88.654  -90.544  -92.406  -94.068  -95.289  -95.751  -95.024
 -44.756  -44.549  -43.292  -41.596  -39.863  -38.287  -36.808  -35.237  -33.413  -31.321  -29.121  -27.004  -25.129  -23.526  -22.181  -21.063  -20.151  -19.436  -18.889  -18.510  -18.313  -18.347  -18.658  -19.272  -20.215  -21.490  -23.094  -24.989  -27.113  -29.373  -31.690  -34.020  -36.345  -38.660  -40.962  -43.241  -45.468  -47.595  -49.567  -51.326  -52.828  -54.051  -54.995  -55.673  -56.112  -56.335  -56.367  -56.231  -55.958  -55.596  -55.215  -54.875  -54.631  -54.515  -54.536  -54.696  -54.989  -55.400  -55.906  -56.457  -57.006  -57.501  -57.914  -58.237  -58.474  -58.640  -58.753  -58.826  -58.867  -58.884  -58.888  -58.892  -58.904  -58.931  -58.971  -59.021  -59.075  -59.138  -59.239  -59.436  -59.814  -60.467  -61.470  -62.864  -64.625  -66.655  -68.807  -70.926  -72.906  -74.711  -76.376  -77.989  -79.641  -81.395  -83.251  -85.123  -86.840  -88.158  -88.770  -88.277
 -37.480  -36.769  -34.978  -32.648  -30.269  -28.128  -26.261  -24.516  -22.754  -20.936  -19.169  -17.557  -16.188  -15.036  -14.079  -13.275  -12.605  -12.078  -11.684  -11.422  -11.305  -11.358  -11.618  -12.123  -12.930  -14.110  -15.705  -17.708  -20.043  -22.581  -25.193  -27.796  -30.341  -32.802  -35.173  -37.450  -39.628  -41.673  -43.543  -45.184  -46.568  -47.681  -48.534  -49.150  -49.550  -49.754  -49.780  -49.647  -49.389  -49.061  -48.737  -48.484  -48.349  -48.352  -48.492  -48.753  -49.119  -49.567  -50.064  -50.565  -51.030  -51.420  -51.712  -51.901  -51.996  -52.021  -52.004  -51.972  -51.939  -51.914  -51.899  -51.901  -51.926  -51.968  -52.014  -52.053  -52.067  -52.057  -52.058  -52.150  -52.444  -53.069  -54.128  -55.664  -57.639  -59.921  -62.311  -64.618  -66.708  -68.539  -70.160  -71.679  -73.219  -74.874  -76.668  -78.528  -80.280  -81.675  -82.413  -82.117
 -29.426  -28.407  -26.424  -23.884  -21.289  -18.957  -16.967  -15.253  -13.709  -12.304  -11.066  -10.019   -9.168   -8.483   -7.920   -7.449   -7.067   -6.782   -6.584   -6.478   -6.475   -6.589   -6.848   -7.296   -8.026   -9.134  -10.714  -12.781  -15.258  -17.991  -20.815  -23.600  -26.263  -28.758  -31.080  -33.233  -35.231  -37.062  -38.705  -40.131  -41.329  -42.299  -43.067  -43.652  -44.072  -44.338  -44.455  -44.439  -44.319  -44.151  -44.006  -43.941  -43.983  -44.137  -44.386  -44.696  -45.044  -45.405  -45.748  -46.047  -46.279  -46.430  -46.489  -46.458  -46.350  -46.189  -46.009  -45.843  -45.713  -45.629  -45.592  -45.598  -45.649  -45.723  -45.801  -45.853  -45.855  -45.800  -45.731  -45.745  -45.986  -46.611  -47.747  -49.447  -51.644  -54.172  -56.786  -59.256  -61.426  -63.251  -64.790  -66.176  -67.562  -69.075  -70.765  -72.576  -74.334  -75.785  -76.626  -76.495
 -22.487  -21.440  -19.636  -17.334  -14.952  -12.770  -10.887   -9.318   -8.017   -6.966   -6.133   -5.486   -4.968   -4.551   -4.201   -3.934   -3.732   -3.592   -3.523   -3.512   -3.572   -3.706   -3.932   -4.314   -4.927   -5.909   -7.363   -9.341  -11.782  -14.532  -17.399  -20.216  -22.868  -25.291  -27.480  -29.449  -31.229  -32.825  -34.237  -35.465  -36.520  -37.421  -38.192  -38.848  -39.403  -39.856  -40.201  -40.442  -40.598  -40.718  -40.857  -41.046  -41.294  -41.589  -41.892  -42.171  -42.398  -42.553  -42.621  -42.597  -42.493  -42.317  -42.085  -41.801  -41.481  -41.142  -40.816  -40.531  -40.313  -40.173  -40.116  -40.131  -40.201  -40.309  -40.419  -40.497  -40.510  -40.452  -40.369  -40.376  -40.641  -41.343  -42.628  -44.536  -46.971  -49.716  -52.490  -55.035  -57.190  -58.916  -60.291  -61.471  -62.640  -63.957  -65.497  -67.216  -68.945  -70.422  -71.339  -71.344
 -17.992  -17.077  -15.565  -13.608  -11.502   -9.489   -7.720   -6.273   -5.169   -4.378   -3.828   -3.421   -3.070   -2.741   -2.452   -2.228   -2.080   -1.991   -1.962   -1.980   -2.043   -2.155   -2.323   -2.602   -3.074   -3.845   -5.057   -6.765   -8.956  -11.495  -14.199  -16.871  -19.382  -21.650  -23.665  -25.443  -27.023  -28.429  -29.677  -30.784  -31.782  -32.701  -33.563  -34.383  -35.165  -35.900  -36.567  -37.157  -37.678  -38.153  -38.611  -39.063  -39.495  -39.880  -40.176  -40.353  -40.388  -40.270  -40.004  -39.622  -39.160  -38.662  -38.155  -37.656  -37.177  -36.722  -36.312  -35.966  -35.704  -35.537  -35.472  -35.493  -35.578  -35.707  -35.845  -35.960  -36.013  -36.003  -35.987  -36.092  -36.504  -37.415  -38.957  -41.135  -43.802  -46.691  -49.497  -51.965  -53.951  -55.443  -56.546  -57.447  -58.350  -59.432  -60.787  -62.380  -64.046  -65.516  -66.477  -66.588
 -15.893  -15.109  -13.763  -11.947   -9.911   -7.904   -6.137   -4.749   -3.796   -3.223   -2.897   -2.662   -2.408   -2.107   -1.815   -1.578   -1.412   -1.313   -1.278   -1.288   -1.335   -1.405   -1.516   -1.702   -2.010   -2.551   -3.434   -4.749   -6.505   -8.639  -10.979  -13.339  -15.584  -17.631  -19.450  -21.053  -22.483  -23.763  -24.917  -25.978  -26.983  -27.965  -28.953  -29.958  -30.978  -32.000  -32.995  -33.937  -34.815  -35.623  -36.367  -37.035  -37.601  -38.030  -38.284  -38.337  -38.170  -37.791  -37.230  -36.546  -35.803  -35.067  -34.381  -33.764  -33.221  -32.746  -32.339  -32.010  -31.764  -31.618  -31.572  -31.614  -31.720  -31.874  -32.048  -32.211  -32.340  -32.440  -32.581  -32.899  -33.587  -34.831  -36.720  -39.189  -42.021  -44.915  -47.572  -49.776  -51.429  -52.564  -53.321  -53.905  -54.533  -55.386  -56.557  -58.014  -59.590  -61.020  -61.992  -62.183
 -14.922  -14.223  -12.924  -11.118   -9.038   -6.959   -5.154   -3.816   -2.984   -2.581   -2.428   -2.324   -2.147   -1.887   -1.603   -1.355   -1.165   -1.048   -1.002   -0.996   -1.021   -1.059   -1.135   -1.238   -1.427   -1.760   -2.325   -3.213   -4.473   -6.069   -7.898   -9.817  -11.703  -13.456  -15.053  -16.500  -17.810  -19.006  -20.113  -21.163  -22.186  -23.222  -24.303  -25.435  -26.616  -27.834  -29.058  -30.254  -31.385  -32.429  -33.369  -34.181  -34.834  -35.287  -35.508  -35.474  -35.173  -34.629  -33.897  -33.050  -32.180  -31.363  -30.643  -30.038  -29.543  -29.147  -28.829  -28.589  -28.427  -28.355  -28.373  -28.470  -28.625  -28.829  -29.062  -29.298  -29.536  -29.791  -30.146  -30.756  -31.806  -33.435  -35.676  -38.367  -41.231  -43.952  -46.280  -48.064  -49.271  -49.990  -50.388  -50.678  -51.075  -51.746  -52.769  -54.102  -55.578  -56.940  -57.890  -58.130
 -13.634  -13.010  -11.799  -10.090   -8.095   -6.095   -4.363   -3.120   -2.388   -2.094   -2.029   -1.999   -1.885   -1.688   -1.452   -1.231   -1.053   -0.934   -0.872   -0.861   -0.873   -0.899   -0.948   -1.009   -1.106   -1.288   -1.615   -2.142   -2.943   -4.008   -5.302   -6.718   -8.164   -9.580  -10.921  -12.184  -13.370  -14.486  -15.549  -16.587  -17.615  -18.665  -19.762  -20.912  -22.121  -23.379  -24.665  -25.935  -27.155  -28.287  -29.307  -30.179  -30.875  -31.356  -31.590  -31.555  -31.245  -30.696  -29.973  -29.164  -28.364  -27.645  -27.047  -26.579  -26.233  -25.991  -25.827  -25.735  -25.711  -25.766  -25.896  -26.090  -26.337  -26.623  -26.936  -27.266  -27.619  -28.041  -28.630  -29.541  -30.939  -32.910  -35.396  -38.162  -40.891  -43.293  -45.176  -46.471  -47.213  -47.541  -47.636  -47.708  -47.950  -48.503  -49.422  -50.650  -52.021  -53.295  -54.194  -54.452
 -11.316  -10.788   -9.808   -8.404   -6.752   -5.074   -3.615   -2.544   -1.915   -1.660   -1.612   -1.604   -1.540   -1.408   -1.242   -1.081   -0.945   -0.850   -0.799   -0.794   -0.806   -0.828   -0.858   -0.885   -0.930   -1.022   -1.189   -1.480   -1.933   -2.578   -3.394   -4.342   -5.357   -6.401   -7.455   -8.493   -9.522  -10.531  -11.528  -12.527  -13.542  -14.571  -15.621  -16.688  -17.788  -18.918  -20.074  -21.229  -22.351  -23.415  -24.385  -25.242  -25.945  -26.468  -26.776  -26.840  -26.667  -26.290  -25.769  -25.192  -24.639  -24.166  -23.808  -23.563  -23.424  -23.369  -23.386  -23.470  -23.619  -23.839  -24.118  -24.445  -24.806  -25.192  -25.593  -26.004  -26.458  -27.018  -27.801  -28.952  -30.603  -32.777  -35.343  -38.019  -40.485  -42.489  -43.910  -44.749  -45.103  -45.131  -45.026  -44.979  -45.151  -45.643  -46.488  -47.619  -48.882  -50.053  -50.888  -51.142
  -8.232   -7.824   -7.169   -6.224   -5.086   -3.902   -2.832   -2.019   -1.514   -1.285   -1.226   -1.208   -1.176   -1.103   -1.015   -0.919   -0.832   -0.774   -0.755   -0.768   -0.786   -0.804   -0.823   -0.829   -0.851   -0.886   -0.959   -1.104   -1.343   -1.692   -2.170   -2.748   -3.392   -4.100   -4.851   -5.644   -6.463   -7.327   -8.234   -9.182  -10.167  -11.156  -12.120  -13.042  -13.938  -14.822  -15.710  -16.600  -17.484  -18.344  -19.172  -19.940  -20.626  -21.200  -21.630  -21.887  -21.967  -21.897  -21.725  -21.513  -21.311  -21.167  -21.097  -21.098  -21.169  -21.300  -21.493  -21.747  -22.071  -22.455  -22.884  -23.341  -23.810  -24.280  -24.737  -25.199  -25.708  -26.351  -27.249  -28.530  -30.293  -32.504  -34.994  -37.458  -39.602  -41.223  -42.252  -42.742  -42.826  -42.680  -42.487  -42.413  -42.578  -43.054  -43.845  -44.891  -46.052  -47.124  -47.896  -48.142
  -5.208   -4.939   -4.589   -4.076   -3.433   -2.734   -2.067   -1.527   -1.174   -0.987   -0.927   -0.906   -0.898   -0.869   -0.825   -0.782   -0.745   -0.729   -0.744   -0.775   -0.808   -0.826   -0.835   -0.820   -0.805   -0.813   -0.837   -0.902   -1.015   -1.198   -1.458   -1.775   -2.154   -2.586   -3.074   -3.612   -4.223   -4.910   -5.703   -6.580   -7.516   -8.440   -9.292  -10.050  -10.707  -11.306  -11.875  -12.441  -13.025  -13.627  -14.255  -14.901  -15.554  -16.183  -16.756  -17.248  -17.646  -17.947  -18.175  -18.364  -18.539  -18.731  -18.943  -19.175  -19.437  -19.731  -20.067  -20.460  -20.916  -21.419  -21.949  -22.484  -23.006  -23.502  -23.966  -24.427  -24.933  -25.586  -26.505  -27.803  -29.543  -31.658  -33.969  -36.181  -38.028  -39.347  -40.102  -40.376  -40.321  -40.110  -39.915  -39.874  -40.076  -40.566  -41.334  -42.321  -43.404  -44.409  -45.135  -45.385
  -2.974   -2.807   -2.656   -2.429   -2.128   -1.773   -1.418   -1.110   -0.889   -0.773   -0.737   -0.730   -0.743   -0.740   -0.724   -0.713   -0.703   -0.726   -0.775   -0.835   -0.881   -0.891   -0.871   -0.837   -0.792   -0.765   -0.763   -0.786   -0.837   -0.933   -1.058   -1.224   -1.427   -1.665   -1.949   -2.291   -2.693   -3.212   -3.855   -4.617   -5.455   -6.265   -6.982   -7.559   -7.999   -8.347   -8.639   -8.916   -9.222   -9.578  -10.015  -10.537  -11.149  -11.819  -12.531  -13.251  -13.951  -14.604  -15.204  -15.758  -16.282  -16.785  -17.259  -17.711  -18.144  -18.575  -19.019  -19.498  -20.015  -20.557  -21.100  -21.623  -22.108  -22.552  -22.960  -23.355  -23.809  -24.418  -25.284  -26.511  -28.133  -30.088  -32.188  -34.176  -35.805  -36.935  -37.546  -37.730  -37.636  -37.438  -37.293  -37.310  -37.572  -38.099  -38.876  -39.848  -40.903  -41.881  -42.601  -42.871
  -1.682   -1.567   -1.520   -1.426   -1.294   -1.135   -0.970   -0.815   -0.701   -0.651   -0.637   -0.646   -0.670   -0.685   -0.686   -0.687   -0.708   -0.773   -0.855   -0.926   -0.968   -0.958   -0.908   -0.839   -0.774   -0.736   -0.714   -0.716   -0.737   -0.775   -0.837   -0.920   -1.026   -1.144   -1.293   -1.484   -1.741   -2.091   -2.568   -3.161   -3.827   -4.471   -5.012   -5.423   -5.690   -5.854   -5.953   -6.043   -6.155   -6.338   -6.618   -7.034   -7.589   -8.277   -9.080   -9.966  -10.885  -11.798  -12.679  -13.536  -14.362  -15.150  -15.880  -16.544  -17.142  -17.695  -18.217  -18.731  -19.240  -19.736  -20.194  -20.606  -20.971  -21.297  -21.593  -21.893  -22.267  -22.800  -23.591  -24.713  -26.196  -27.981  -29.897  -31.715  -33.220  -34.271  -34.854  -35.051  -35.003  -34.869  -34.797  -34.887  -35.212  -35.788  -36.599  -37.593  -38.664  -39.658  -40.392  -40.688
  -1.071   -0.980   -0.950   -0.918   -0.856   -0.780   -0.711   -0.638   -0.598   -0.574   -0.575   -0.604   -0.642   -0.662   -0.678   -0.691   -0.738   -0.832   -0.952   -1.044   -1.067   -1.013   -0.922   -0.825   -0.740   -0.694   -0.668   -0.659   -0.665   -0.685   -0.714   -0.757   -0.803   -0.863   -0.939   -1.039   -1.183   -1.402   -1.708   -2.112   -2.570   -3.013   -3.378   -3.635   -3.781   -3.842   -3.854   -3.848   -3.859   -3.944   -4.121   -4.438   -4.917   -5.563   -6.368   -7.300   -8.300   -9.347  -10.403  -11.471  -12.542  -13.587  -14.570  -15.452  -16.226  -16.902  -17.490  -18.008  -18.466  -18.853  -19.172  -19.423  -19.628  -19.808  -19.980  -20.190  -20.496  -20.978  -21.709  -22.752  -24.122  -25.766  -27.540  -29.244  -30.687  -31.736  -32.368  -32.655  -32.714  -32.691  -32.714  -32.885  -33.272  -33.897  -34.749  -35.779  -36.879  -37.895  -38.644  -38.953
  -0.820   -0.734   -0.710   -0.686   -0.650   -0.619   -0.582   -0.550   -0.538   -0.529   -0.544   -0.568   -0.602   -0.631   -0.651   -0.677   -0.750   -0.881   -1.028   -1.125   -1.121   -1.026   -0.895   -0.771   -0.688   -0.643   -0.618   -0.609   -0.620   -0.622   -0.641   -0.667   -0.691   -0.723   -0.756   -0.814   -0.887   -1.005   -1.181   -1.412   -1.672   -1.936   -2.140   -2.282   -2.357   -2.381   -2.364   -2.336   -2.327   -2.369   -2.480   -2.704   -3.078   -3.613   -4.315   -5.156   -6.102   -7.121   -8.218   -9.390  -10.626  -11.886  -13.100  -14.204  -15.167  -15.974  -16.632  -17.160  -17.569  -17.853  -18.034  -18.139  -18.207  -18.271  -18.365  -18.529  -18.815  -19.293  -20.011  -21.014  -22.311  -23.837  -25.485  -27.092  -28.481  -29.548  -30.259  -30.672  -30.878  -31.002  -31.146  -31.414  -31.864  -32.540  -33.429  -34.477  -35.591  -36.608  -37.351  -37.641
  -0.704   -0.623   -0.611   -0.583   -0.560   -0.542   -0.523   -0.504   -0.497   -0.502   -0.509   -0.526   -0.556   -0.577   -0.600   -0.644   -0.729   -0.871   -1.031   -1.129   -1.115   -0.996   -0.837   -0.709   -0.630   -0.588   -0.572   -0.570   -0.568   -0.575   -0.589   -0.603   -0.621   -0.637   -0.664   -0.689   -0.729   -0.789   -0.878   -0.987   -1.118   -1.241   -1.345   -1.416   -1.451   -1.464   -1.454   -1.443   -1.433   -1.458   -1.529   -1.676   -1.925   -2.309   -2.824   -3.471   -4.236   -5.116   -6.122   -7.276   -8.569   -9.956  -11.342  -12.642  -13.784  -14.739  -15.496  -16.065  -16.458  -16.695  -16.804  -16.832  -16.835  -16.862  -16.947  -17.128  -17.450  -17.962  -18.700  -19.680  -20.894  -22.288  -23.781  -25.241  -26.535  -27.581  -28.348  -28.872  -29.232  -29.512  -29.798  -30.174  -30.711  -31.441  -32.361  -33.419  -34.518  -35.510  -36.228  -36.478
  -0.648   -0.572   -0.551   -0.532   -0.517   -0.500   -0.489   -0.480   -0.473   -0.468   -0.478   -0.486   -0.505   -0.517   -0.539   -0.581   -0.666   -0.801   -0.956   -1.046   -1.021   -0.902   -0.761   -0.641   -0.571   -0.537   -0.530   -0.525   -0.530   -0.542   -0.553   -0.564   -0.576   -0.589   -0.602   -0.619   -0.645   -0.673   -0.710   -0.765   -0.822   -0.873   -0.920   -0.951   -0.977   -0.982   -0.986   -0.985   -0.993   -1.008   -1.051   -1.129   -1.274   -1.502   -1.829   -2.254   -2.780   -3.431   -4.242   -5.254   -6.473   -7.847   -9.294  -10.706  -11.993  -13.087  -13.957  -14.602  -15.044  -15.306  -15.429  -15.481  -15.508  -15.576  -15.723  -15.982  -16.374  -16.935  -17.678  -18.596  -19.673  -20.880  -22.151  -23.388  -24.513  -25.461  -26.219  -26.805  -27.272  -27.684  -28.102  -28.594  -29.220  -30.016  -30.970  -32.035  -33.114  -34.073  -34.760  -34.978
  -0.618   -0.545   -0.526   -0.508   -0.493   -0.481   -0.472   -0.464   -0.457   -0.451   -0.447   -0.459   -0.465   -0.467   -0.484   -0.523   -0.586   -0.695   -0.808   -0.879   -0.869   -0.775   -0.668   -0.576   -0.523   -0.498   -0.490   -0.494   -0.503   -0.512   -0.521   -0.531   -0.542   -0.552   -0.563   -0.574   -0.585   -0.601   -0.626   -0.647   -0.674   -0.692   -0.717   -0.736   -0.750   -0.760   -0.766   -0.777   -0.778   -0.795   -0.819   -0.865   -0.937   -1.053   -1.223   -1.459   -1.770   -2.187   -2.760   -3.527   -4.534   -5.750   -7.105   -8.502   -9.828  -10.997  -11.952  -12.686  -13.211  -13.560  -13.776  -13.920  -14.051  -14.231  -14.497  -14.864  -15.350  -15.946  -16.646  -17.443  -18.326  -19.270  -20.247  -21.201  -22.085  -22.861  -23.524  -24.096  -24.600  -25.083  -25.588  -26.162  -26.861  -27.699  -28.679  -29.739  -30.797  -31.731  -32.405  -32.630
  -0.596   -0.526   -0.508   -0.491   -0.477   -0.466   -0.456   -0.448   -0.442   -0.437   -0.432   -0.430   -0.431   -0.440   -0.444   -0.468   -0.511   -0.578   -0.651   -0.699   -0.696   -0.637   -0.571   -0.506   -0.477   -0.469   -0.463   -0.471   -0.478   -0.487   -0.495   -0.503   -0.512   -0.521   -0.530   -0.540   -0.550   -0.559   -0.569   -0.583   -0.595   -0.615   -0.627   -0.639   -0.652   -0.660   -0.667   -0.678   -0.688   -0.699   -0.712   -0.732   -0.770   -0.823   -0.897   -1.009   -1.164   -1.397   -1.746   -2.253   -2.977   -3.912   -5.023   -6.234   -7.449   -8.568   -9.524  -10.300  -10.902  -11.355  -11.694  -11.968  -12.248  -12.583  -13.019  -13.534  -14.118  -14.740  -15.369  -15.998  -16.642  -17.284  -17.926  -18.559  -19.154  -19.699  -20.202  -20.677  -21.139  -21.612  -22.124  -22.715  -23.419  -24.251  -25.199  -26.222  -27.235  -28.138  -28.805  -29.070
  -0.578   -0.510   -0.492   -0.475   -0.462   -0.451   -0.442   -0.435   -0.429   -0.423   -0.419   -0.416   -0.413   -0.412   -0.418   -0.430   -0.452   -0.482   -0.525   -0.549   -0.549   -0.523   -0.488   -0.464   -0.448   -0.440   -0.445   -0.451   -0.458   -0.464   -0.471   -0.478   -0.487   -0.494   -0.502   -0.511   -0.519   -0.527   -0.536   -0.545   -0.553   -0.562   -0.571   -0.580   -0.589   -0.598   -0.607   -0.616   -0.626   -0.635   -0.644   -0.659   -0.680   -0.702   -0.739   -0.780   -0.852   -0.963   -1.141   -1.435   -1.881   -2.497   -3.279   -4.186   -5.146   -6.073   -6.918   -7.641   -8.255   -8.761   -9.197   -9.606  -10.042  -10.569  -11.190  -11.887  -12.588  -13.238  -13.794  -14.255  -14.646  -14.983  -15.296  -15.587  -15.873  -16.162  -16.455  -16.772  -17.127  -17.516  -17.959  -18.484  -19.112  -19.847  -20.686  -21.585  -22.496  -23.325  -23.955  -24.273
  -0.561   -0.495   -0.478   -0.462   -0.449   -0.439   -0.430   -0.423   -0.417   -0.413   -0.408   -0.405   -0.403   -0.401   -0.400   -0.401   -0.417   -0.430   -0.444   -0.463   -0.462   -0.449   -0.438   -0.428   -0.419   -0.423   -0.429   -0.434   -0.440   -0.445   -0.451   -0.458   -0.464   -0.471   -0.478   -0.486   -0.493   -0.500   -0.508   -0.516   -0.523   -0.531   -0.539   -0.547   -0.555   -0.562   -0.570   -0.579   -0.587   -0.595   -0.604   -0.612   -0.621   -0.634   -0.650   -0.673   -0.703   -0.750   -0.837   -0.983   -1.214   -1.564   -2.025   -2.595   -3.234   -3.891   -4.515   -5.096   -5.620   -6.103   -6.572   -7.066   -7.636   -8.329   -9.133   -9.992  -10.811  -11.489  -11.981  -12.296  -12.461  -12.533  -12.538  -12.523  -12.510  -12.537  -12.623  -12.769  -12.981  -13.249  -13.576  -13.972  -14.454  -15.023  -15.676  -16.373  -17.095  -17.775  -18.309  -18.658
  -0.547   -0.482   -0.466   -0.451   -0.438   -0.429   -0.420   -0.414   -0.408   -0.403   -0.399   -0.396   -0.394   -0.392   -0.391   -0.390   -0.391   -0.399   -0.408   -0.413   -0.414   -0.413   -0.405   -0.403   -0.406   -0.410   -0.414   -0.419   -0.423   -0.429   -0.434   -0.440   -0.446   -0.452   -0.458   -0.464   -0.470   -0.477   -0.483   -0.491   -0.497   -0.504   -0.511   -0.518   -0.525   -0.533   -0.540   -0.547   -0.554   -0.561   -0.569   -0.576   -0.584   -0.593   -0.600   -0.611   -0.629   -0.651   -0.691   -0.751   -0.858   -1.024   -1.258   -1.560   -1.912   -2.298   -2.687   -3.064   -3.451   -3.838   -4.257   -4.756   -5.375   -6.148   -7.050   -7.991   -8.853   -9.535   -9.968  -10.169  -10.173  -10.044   -9.819   -9.561   -9.307   -9.128   -9.034   -9.043   -9.133   -9.285   -9.495   -9.762  -10.085  -10.471  -10.910  -11.380  -11.878  -12.353  -12.744  -13.080
  -0.534   -0.471   -0.456   -0.441   -0.429   -0.420   -0.412   -0.405   -0.400   -0.395   -0.391   -0.388   -0.386   -0.384   -0.383   -0.382   -0.381   -0.381   -0.383   -0.383   -0.385   -0.387   -0.390   -0.392   -0.395   -0.399   -0.402   -0.406   -0.410   -0.415   -0.419   -0.424   -0.429   -0.435   -0.440   -0.446   -0.451   -0.457   -0.463   -0.469   -0.475   -0.481   -0.487   -0.494   -0.500   -0.506   -0.513   -0.519   -0.526   -0.532   -0.540   -0.546   -0.553   -0.560   -0.568   -0.575   -0.583   -0.594   -0.612   -0.642   -0.680   -0.753   -0.853   -0.992   -1.151   -1.337   -1.537   -1.753   -1.980   -2.241   -2.566   -2.991   -3.560   -4.279   -5.134   -6.009   -6.803   -7.411   -7.761   -7.882   -7.798   -7.559   -7.222   -6.832   -6.462   -6.172   -5.988   -5.913   -5.928   -6.005   -6.131   -6.302   -6.523   -6.773   -7.066   -7.381   -7.700   -8.005   -8.266   -8.553
  -0.525   -0.463   -0.448   -0.433   -0.422   -0.412   -0.405   -0.398   -0.393   -0.389   -0.385   -0.382   -0.379   -0.377   -0.376   -0.375   -0.375   -0.375   -0.375   -0.376   -0.377   -0.379   -0.381   -0.383   -0.386   -0.389   -0.392   -0.396   -0.399   -0.403   -0.407   -0.411   -0.416   -0.420   -0.425   -0.430   -0.435   -0.441   -0.446   -0.451   -0.457   -0.462   -0.468   -0.473   -0.479   -0.485   -0.490   -0.496   -0.502   -0.508   -0.514   -0.520   -0.527   -0.533   -0.540   -0.547   -0.554   -0.561   -0.569   -0.582   -0.604   -0.633   -0.670   -0.719   -0.788   -0.865   -0.950   -1.053   -1.168   -1.322   -1.532   -1.838   -2.276   -2.835   -3.499   -4.184   -4.798   -5.258   -5.514   -5.568   -5.462   -5.225   -4.881   -4.500   -4.149   -3.862   -3.679   -3.587   -3.567   -3.611   -3.691   -3.823   -3.988   -4.208   -4.459   -4.725   -4.993   -5.239   -5.436   -5.683
  -0.517   -0.456   -0.441   -0.427   -0.416   -0.407   -0.399   -0.393   -0.388   -0.384   -0.380   -0.377   -0.374   -0.372   -0.371   -0.370   -0.370   -0.369   -0.370   -0.370   -0.371   -0.372   -0.374   -0.376   -0.378   -0.381   -0.384   -0.387   -0.390   -0.394   -0.397   -0.401   -0.405   -0.409   -0.413   -0.417   -0.422   -0.426   -0.431   -0.436   -0.441   -0.446   -0.451   -0.456   -0.461   -0.466   -0.471   -0.477   -0.482   -0.488   -0.493   -0.499   -0.505   -0.510   -0.516   -0.523   -0.529   -0.536   -0.543   -0.549   -0.557   -0.570   -0.591   -0.609   -0.634   -0.664   -0.696   -0.741   -0.795   -0.877   -0.992   -1.177   -1.450   -1.819   -2.237   -2.676   -3.068   -3.355   -3.507   -3.534   -3.449   -3.269   -3.022   -2.747   -2.489   -2.285   -2.152   -2.078   -2.065   -2.091   -2.161   -2.277   -2.450   -2.693   -2.980   -3.299   -3.614   -3.892   -4.103   -4.327
  -0.512   -0.451   -0.437   -0.423   -0.412   -0.403   -0.396   -0.390   -0.385   -0.380   -0.377   -0.374   -0.371   -0.369   -0.368   -0.367   -0.366   -0.366   -0.366   -0.366   -0.367   -0.368   -0.369   -0.371   -0.373   -0.375   -0.377   -0.380   -0.383   -0.386   -0.389   -0.393   -0.396   -0.400   -0.404   -0.407   -0.411   -0.416   -0.420   -0.424   -0.428   -0.433   -0.437   -0.442   -0.447   -0.451   -0.456   -0.461   -0.466   -0.471   -0.476   -0.481   -0.486   -0.492   -0.497   -0.503   -0.509   -0.514   -0.521   -0.527   -0.534   -0.540   -0.548   -0.559   -0.567   -0.588   -0.598   -0.621   -0.642   -0.682   -0.744   -0.836   -0.982   -1.166   -1.387   -1.616   -1.818   -1.970   -2.046   -2.063   -2.012   -1.908   -1.772   -1.616   -1.476   -1.362   -1.298   -1.261   -1.256   -1.281   -1.342   -1.452   -1.627   -1.890   -2.226   -2.609   -2.999   -3.344   -3.605   -3.844
  -0.509   -0.450   -0.435   -0.421   -0.410   -0.402   -0.394   -0.388   -0.383   -0.379   -0.376   -0.373   -0.370   -0.368   -0.367   -0.366   -0.365   -0.364   -0.364   -0.364   -0.365   -0.366   -0.367   -0.368   -0.370   -0.372   -0.374   -0.376   -0.378   -0.381   -0.384   -0.387   -0.390   -0.393   -0.397   -0.400   -0.404   -0.408   -0.411   -0.415   -0.419   -0.423   -0.427   -0.431   -0.436   -0.440   -0.444   -0.449   -0.453   -0.458   -0.462   -0.467   -0.472   -0.477   -0.482   -0.487   -0.492   -0.498   -0.503   -0.509   -0.515   -0.521   -0.527   -0.534   -0.540   -0.546   -0.554   -0.564   -0.580   -0.600   -0.627   -0.669   -0.732   -0.809   -0.912   -1.012   -1.092   -1.163   -1.195   -1.201   -1.178   -1.140   -1.085   -1.019   -0.962   -0.919   -0.890   -0.875   -0.881   -0.906   -0.950   -1.042   -1.206   -1.463   -1.798   -2.192   -2.621   -3.032   -3.342   -3.594
  -0.511   -0.451   -0.437   -0.423   -0.412   -0.403   -0.396   -0.390   -0.385   -0.381   -0.377   -0.374   -0.372   -0.370   -0.368   -0.367   -0.366   -0.366   -0.365   -0.365   -0.366   -0.366   -0.367   -0.368   -0.370   -0.371   -0.373   -0.375   -0.377   -0.379   -0.382   -0.385   -0.387   -0.390   -0.393   -0.396   -0.400   -0.403   -0.406   -0.410   -0.414   -0.417   -0.421   -0.425   -0.429   -0.433   -0.436   -0.440   -0.445   -0.449   -0.453   -0.457   -0.462   -0.466   -0.471   -0.476   -0.480   -0.485   -0.490   -0.496   -0.501   -0.506   -0.512   -0.518   -0.524   -0.530   -0.536   -0.542   -0.548   -0.558   -0.574   -0.593   -0.619   -0.649   -0.686   -0.721   -0.755   -0.781   -0.789   -0.796   -0.799   -0.788   -0.773   -0.757   -0.743   -0.727   -0.718   -0.724   -0.729   -0.748   -0.779   -0.847   -0.976   -1.177   -1.467   -1.835   -2.253   -2.671   -3.013   -3.281
  -0.518   -0.452   -0.439   -0.425   -0.414   -0.405   -0.398   -0.392   -0.387   -0.383   -0.379   -0.376   -0.374   -0.372   -0.370   -0.369   -0.368   -0.367   -0.367   -0.367   -0.367   -0.367   -0.368   -0.369   -0.370   -0.371   -0.373   -0.374   -0.376   -0.378   -0.380   -0.383   -0.385   -0.388   -0.391   -0.393   -0.396   -0.399   -0.402   -0.406   -0.409   -0.412   -0.416   -0.419   -0.423   -0.426   -0.430   -0.434   -0.437   -0.441   -0.445   -0.449   -0.453   -0.457   -0.462   -0.466   -0.470   -0.475   -0.480   -0.484   -0.489   -0.494   -0.499   -0.504   -0.510   -0.515   -0.521   -0.527   -0.532   -0.538   -0.544   -0.552   -0.568   -0.582   -0.592   -0.611   -0.625   -0.631   -0.637   -0.643   -0.650   -0.657   -0.650   -0.649   -0.651   -0.655   -0.649   -0.651   -0.659   -0.676   -0.704   -0.748   -0.832   -0.981   -1.199   -1.519   -1.905   -2.318   -2.661   -2.945
  -0.662   -0.504   -0.485   -0.470   -0.458   -0.449   -0.442   -0.436   -0.430   -0.426   -0.422   -0.419   -0.416   -0.414   -0.412   -0.411   -0.410   -0.409   -0.408   -0.408   -0.408   -0.408   -0.408   -0.409   -0.410   -0.411   -0.412   -0.413   -0.415   -0.417   -0.419   -0.421   -0.423   -0.425   -0.428   -0.430   -0.433   -0.436   -0.438   -0.441   -0.444   -0.448   -0.451   -0.454   -0.457   -0.461   -0.464   -0.468   -0.471   -0.475   -0.479   -0.483   -0.487   -0.491   -0.495   -0.499   -0.503   -0.507   -0.512   -0.517   -0.521   -0.526   -0.531   -0.536   -0.541   -0.546   -0.552   -0.557   -0.563   -0.569   -0.574   -0.580   -0.586   -0.592   -0.601   -0.609   -0.630   -0.637   -0.643   -0.650   -0.655   -0.649   -0.650   -0.657   -0.660   -0.666   -0.672   -0.678   -0.684   -0.692   -0.718   -0.750   -0.814   -0.937   -1.127   -1.404   -1.773   -2.170   -2.522   -2.923
