DSAA
 100 100
 0.0 400.0
 0.0 400.0
 -70.43166 -0.9090126
  -1.355   -1.204   -1.278   -1.422   -1.627   -1.861   -2.106   -2.313   -2.444   -2.472   -2.369   -2.144   -1.845   -1.533   -1.270   -1.098   -1.051   -1.135   -1.376   -1.758   -2.202   -2.563   -2.707   -2.604   -2.362   -2.145   -2.068   -2.109   -2.170   -2.174   -2.099   -1.976   -1.861   -1.758   -1.678   -1.607   -1.560   -1.568   -1.671   -1.885   -2.190   -2.525   -2.841   -3.110   -3.298   -3.365   -3.293   -3.144   -3.023   -2.985   -3.013   -3.054   -3.071   -3.059   -3.016   -2.933   -2.789   -2.595   -2.403   -2.276   -2.270   -2.342   -2.385   -2.295   -2.051   -1.735   -1.469   -1.346   -1.367   -1.476   -1.594   -1.694   -1.796   -1.909   -1.994   -1.985   -1.862   -1.691   -1.541   -1.462   -1.460   -1.512   -1.601   -1.683   -1.742   -1.794   -1.886   -2.059   -2.328   -2.671   -3.034   -3.339   -3.504   -3.456   -3.172   -2.723   -2.215   -1.761   -1.456   -1.493
  -1.441   -1.383   -1.484   -1.647   -1.859   -2.103   -2.342   -2.538   -2.654   -2.654   -2.524   -2.271   -1.942   -1.599   -1.309   -1.111   -1.040   -1.106   -1.322   -1.672   -2.081   -2.415   -2.544   -2.449   -2.221   -2.017   -1.936   -1.970   -2.036   -2.066   -2.032   -1.953   -1.857   -1.757   -1.667   -1.589   -1.541   -1.547   -1.640   -1.829   -2.091   -2.375   -2.640   -2.862   -3.025   -3.103   -3.084   -3.021   -2.996   -3.051   -3.142   -3.217   -3.241   -3.215   -3.146   -3.025   -2.832   -2.584   -2.327   -2.148   -2.092   -2.127   -2.151   -2.070   -1.857   -1.584   -1.363   -1.271   -1.306   -1.421   -1.538   -1.625   -1.712   -1.819   -1.902   -1.902   -1.795   -1.643   -1.519   -1.461   -1.474   -1.543   -1.631   -1.718   -1.788   -1.867   -1.992   -2.201   -2.513   -2.902   -3.318   -3.682   -3.886   -3.846   -3.528   -3.005   -2.410   -1.881   -1.517   -1.453
  -1.979   -1.943   -2.062   -2.246   -2.471   -2.711   -2.933   -3.096   -3.169   -3.120   -2.943   -2.648   -2.278   -1.887   -1.543   -1.290   -1.165   -1.179   -1.337   -1.612   -1.942   -2.208   -2.312   -2.238   -2.055   -1.886   -1.808   -1.825   -1.893   -1.963   -2.003   -1.995   -1.936   -1.847   -1.752   -1.675   -1.637   -1.649   -1.729   -1.875   -2.065   -2.263   -2.443   -2.593   -2.714   -2.790   -2.837   -2.892   -3.007   -3.180   -3.355   -3.468   -3.497   -3.451   -3.341   -3.164   -2.911   -2.600   -2.285   -2.047   -1.927   -1.904   -1.894   -1.825   -1.669   -1.480   -1.335   -1.285   -1.338   -1.440   -1.539   -1.614   -1.682   -1.773   -1.857   -1.880   -1.812   -1.710   -1.639   -1.627   -1.673   -1.746   -1.829   -1.902   -1.978   -2.093   -2.270   -2.537   -2.898   -3.347   -3.842   -4.302   -4.590   -4.582   -4.241   -3.644   -2.951   -2.333   -1.908   -1.803
  -2.718   -2.700   -2.829   -3.020   -3.240   -3.462   -3.645   -3.767   -3.789   -3.691   -3.472   -3.136   -2.721   -2.275   -1.864   -1.536   -1.330   -1.260   -1.323   -1.495   -1.713   -1.895   -1.973   -1.926   -1.806   -1.685   -1.618   -1.620   -1.682   -1.785   -1.882   -1.936   -1.922   -1.855   -1.778   -1.730   -1.724   -1.759   -1.833   -1.941   -2.073   -2.209   -2.328   -2.429   -2.508   -2.575   -2.643   -2.748   -2.918   -3.137   -3.337   -3.457   -3.477   -3.407   -3.272   -3.070   -2.810   -2.507   -2.213   -1.978   -1.840   -1.778   -1.730   -1.656   -1.546   -1.429   -1.348   -1.330   -1.375   -1.456   -1.538   -1.600   -1.663   -1.748   -1.840   -1.891   -1.882   -1.851   -1.850   -1.893   -1.963   -2.027   -2.078   -2.116   -2.179   -2.302   -2.512   -2.811   -3.203   -3.699   -4.267   -4.824   -5.213   -5.280   -4.975   -4.377   -3.662   -3.014   -2.564   -2.440
  -3.515   -3.505   -3.627   -3.802   -3.991   -4.172   -4.315   -4.388   -4.369   -4.240   -3.994   -3.640   -3.200   -2.720   -2.254   -1.851   -1.546   -1.369   -1.316   -1.361   -1.462   -1.557   -1.607   -1.589   -1.526   -1.452   -1.398   -1.383   -1.430   -1.530   -1.646   -1.726   -1.745   -1.714   -1.685   -1.685   -1.724   -1.789   -1.868   -1.965   -2.074   -2.196   -2.312   -2.405   -2.473   -2.521   -2.568   -2.640   -2.759   -2.912   -3.050   -3.129   -3.127   -3.049   -2.923   -2.755   -2.560   -2.356   -2.165   -2.006   -1.893   -1.803   -1.709   -1.604   -1.501   -1.420   -1.379   -1.375   -1.410   -1.469   -1.538   -1.604   -1.677   -1.764   -1.858   -1.935   -1.985   -2.035   -2.110   -2.204   -2.279   -2.315   -2.313   -2.303   -2.334   -2.447   -2.654   -2.953   -3.350   -3.865   -4.491   -5.130   -5.616   -5.782   -5.575   -5.070   -4.437   -3.849   -3.436   -3.320
  -4.249   -4.235   -4.329   -4.463   -4.607   -4.738   -4.829   -4.863   -4.823   -4.687   -4.445   -4.102   -3.671   -3.190   -2.701   -2.249   -1.869   -1.593   -1.422   -1.342   -1.326   -1.337   -1.353   -1.347   -1.322   -1.280   -1.236   -1.205   -1.222   -1.292   -1.391   -1.468   -1.500   -1.508   -1.523   -1.563   -1.626   -1.703   -1.787   -1.885   -1.998   -2.130   -2.268   -2.388   -2.479   -2.534   -2.563   -2.579   -2.598   -2.632   -2.664   -2.679   -2.652   -2.594   -2.510   -2.415   -2.322   -2.242   -2.167   -2.093   -2.000   -1.878   -1.727   -1.576   -1.455   -1.384   -1.363   -1.374   -1.413   -1.477   -1.560   -1.649   -1.737   -1.822   -1.903   -1.985   -2.080   -2.196   -2.334   -2.454   -2.521   -2.525   -2.491   -2.458   -2.470   -2.576   -2.774   -3.066   -3.464   -4.000   -4.671   -5.379   -5.948   -6.219   -6.132   -5.765   -5.261   -4.768   -4.413   -4.305
  -4.833   -4.809   -4.865   -4.952   -5.044   -5.119   -5.166   -5.171   -5.123   -4.998   -4.784   -4.478   -4.088   -3.644   -3.171   -2.718   -2.306   -1.965   -1.702   -1.520   -1.406   -1.347   -1.321   -1.313   -1.302   -1.277   -1.235   -1.198   -1.188   -1.226   -1.295   -1.361   -1.401   -1.428   -1.448   -1.471   -1.510   -1.559   -1.623   -1.711   -1.818   -1.946   -2.089   -2.227   -2.349   -2.439   -2.484   -2.481   -2.442   -2.388   -2.344   -2.306   -2.277   -2.249   -2.224   -2.198   -2.180   -2.172   -2.153   -2.104   -1.998   -1.840   -1.649   -1.467   -1.338   -1.282   -1.284   -1.325   -1.389   -1.483   -1.599   -1.723   -1.827   -1.901   -1.964   -2.043   -2.163   -2.316   -2.470   -2.578   -2.622   -2.614   -2.584   -2.583   -2.641   -2.774   -2.988   -3.293   -3.709   -4.278   -5.001   -5.774   -6.432   -6.803   -6.837   -6.593   -6.184   -5.745   -5.401   -5.284
  -5.243   -5.203   -5.226   -5.270   -5.308   -5.339   -5.353   -5.339   -5.289   -5.184   -5.003   -4.744   -4.409   -4.027   -3.612   -3.194   -2.789   -2.421   -2.109   -1.857   -1.675   -1.560   -1.504   -1.491   -1.488   -1.469   -1.438   -1.413   -1.410   -1.444   -1.505   -1.569   -1.612   -1.623   -1.602   -1.557   -1.513   -1.487   -1.498   -1.541   -1.606   -1.692   -1.800   -1.925   -2.059   -2.177   -2.257   -2.280   -2.245   -2.171   -2.094   -2.045   -2.033   -2.047   -2.068   -2.082   -2.085   -2.069   -2.035   -1.960   -1.832   -1.657   -1.464   -1.303   -1.208   -1.187   -1.213   -1.279   -1.373   -1.496   -1.645   -1.799   -1.918   -1.996   -2.057   -2.142   -2.272   -2.421   -2.548   -2.616   -2.627   -2.619   -2.644   -2.727   -2.878   -3.087   -3.351   -3.682   -4.126   -4.727   -5.497   -6.339   -7.082   -7.574   -7.731   -7.587   -7.234   -6.794   -6.414   -6.266
  -5.499   -5.446   -5.442   -5.450   -5.457   -5.457   -5.446   -5.420   -5.370   -5.284   -5.132   -4.912   -4.627   -4.304   -3.953   -3.582   -3.207   -2.838   -2.502   -2.211   -1.991   -1.848   -1.785   -1.772   -1.780   -1.786   -1.791   -1.814   -1.869   -1.948   -2.038   -2.114   -2.146   -2.117   -2.019   -1.874   -1.718   -1.594   -1.521   -1.494   -1.497   -1.515   -1.560   -1.635   -1.737   -1.853   -1.951   -2.006   -1.994   -1.936   -1.859   -1.815   -1.818   -1.864   -1.922   -1.954   -1.946   -1.904   -1.833   -1.735   -1.603   -1.453   -1.320   -1.230   -1.203   -1.221   -1.264   -1.323   -1.410   -1.534   -1.689   -1.853   -1.990   -2.096   -2.189   -2.304   -2.440   -2.569   -2.650   -2.672   -2.664   -2.684   -2.783   -2.970   -3.221   -3.504   -3.810   -4.165   -4.621   -5.243   -6.038   -6.932   -7.761   -8.364   -8.652   -8.618   -8.332   -7.908   -7.510   -7.334
  -5.636   -5.573   -5.556   -5.543   -5.535   -5.520   -5.499   -5.472   -5.426   -5.349   -5.214   -5.020   -4.769   -4.484   -4.170   -3.832   -3.469   -3.103   -2.754   -2.446   -2.206   -2.058   -2.002   -2.012   -2.051   -2.107   -2.186   -2.305   -2.460   -2.635   -2.785   -2.871   -2.875   -2.781   -2.595   -2.348   -2.097   -1.890   -1.745   -1.651   -1.584   -1.536   -1.513   -1.520   -1.566   -1.641   -1.720   -1.774   -1.768   -1.707   -1.624   -1.567   -1.566   -1.622   -1.696   -1.745   -1.745   -1.707   -1.643   -1.562   -1.472   -1.393   -1.353   -1.364   -1.411   -1.455   -1.479   -1.496   -1.530   -1.616   -1.748   -1.898   -2.043   -2.180   -2.322   -2.477   -2.636   -2.763   -2.828   -2.846   -2.866   -2.940   -3.117   -3.374   -3.676   -3.984   -4.293   -4.639   -5.086   -5.705   -6.505   -7.424   -8.303   -8.992   -9.394   -9.489   -9.321   -8.990   -8.651   -8.485
  -5.695   -5.628   -5.603   -5.588   -5.573   -5.558   -5.545   -5.525   -5.487   -5.418   -5.296   -5.116   -4.880   -4.601   -4.288   -3.947   -3.573   -3.190   -2.819   -2.493   -2.249   -2.112   -2.077   -2.123   -2.226   -2.368   -2.557   -2.800   -3.084   -3.360   -3.565   -3.653   -3.608   -3.437   -3.169   -2.850   -2.544   -2.291   -2.104   -1.962   -1.848   -1.752   -1.673   -1.625   -1.610   -1.629   -1.662   -1.679   -1.648   -1.557   -1.434   -1.337   -1.303   -1.342   -1.420   -1.492   -1.537   -1.552   -1.547   -1.532   -1.518   -1.529   -1.589   -1.690   -1.790   -1.841   -1.822   -1.769   -1.739   -1.771   -1.862   -1.988   -2.123   -2.270   -2.442   -2.637   -2.829   -2.990   -3.100   -3.181   -3.277   -3.426   -3.653   -3.928   -4.213   -4.479   -4.737   -5.040   -5.461   -6.061   -6.852   -7.759   -8.655   -9.385   -9.863  -10.070  -10.047   -9.875   -9.666   -9.553
  -5.717   -5.643   -5.620   -5.602   -5.590   -5.585   -5.578   -5.571   -5.546   -5.493   -5.385   -5.218   -4.985   -4.703   -4.368   -3.989   -3.573   -3.149   -2.744   -2.398   -2.149   -2.022   -2.020   -2.125   -2.310   -2.562   -2.878   -3.250   -3.645   -3.992   -4.219   -4.286   -4.183   -3.942   -3.616   -3.266   -2.953   -2.700   -2.492   -2.318   -2.163   -2.034   -1.933   -1.855   -1.804   -1.783   -1.773   -1.749   -1.670   -1.528   -1.350   -1.196   -1.117   -1.125   -1.196   -1.296   -1.396   -1.484   -1.562   -1.626   -1.698   -1.799   -1.935   -2.090   -2.215   -2.251   -2.191   -2.094   -2.034   -2.053   -2.136   -2.244   -2.361   -2.488   -2.657   -2.867   -3.093   -3.310   -3.504   -3.682   -3.867   -4.079   -4.318   -4.560   -4.777   -4.957   -5.142   -5.386   -5.769   -6.336   -7.092   -7.970   -8.842   -9.576  -10.087  -10.370  -10.467  -10.444  -10.376  -10.328
  -5.715   -5.642   -5.618   -5.600   -5.592   -5.591   -5.595   -5.598   -5.586   -5.546   -5.462   -5.314   -5.096   -4.808   -4.451   -4.026   -3.559   -3.079   -2.632   -2.261   -2.004   -1.887   -1.914   -2.075   -2.344   -2.701   -3.128   -3.593   -4.048   -4.416   -4.637   -4.667   -4.517   -4.235   -3.893   -3.561   -3.280   -3.039   -2.814   -2.598   -2.401   -2.248   -2.147   -2.079   -2.032   -2.003   -1.973   -1.916   -1.799   -1.612   -1.391   -1.193   -1.074   -1.054   -1.116   -1.233   -1.372   -1.520   -1.661   -1.796   -1.939   -2.101   -2.284   -2.462   -2.588   -2.614   -2.555   -2.487   -2.485   -2.569   -2.699   -2.820   -2.922   -3.017   -3.158   -3.354   -3.595   -3.856   -4.113   -4.361   -4.596   -4.826   -5.043   -5.229   -5.363   -5.462   -5.571   -5.759   -6.095   -6.607   -7.301   -8.116   -8.939   -9.652  -10.169  -10.490  -10.657  -10.727  -10.746  -10.748
  -5.706   -5.632   -5.605   -5.589   -5.580   -5.580   -5.587   -5.593   -5.592   -5.567   -5.506   -5.390   -5.198   -4.921   -4.557   -4.106   -3.593   -3.069   -2.582   -2.181   -1.909   -1.789   -1.827   -2.019   -2.337   -2.760   -3.248   -3.754   -4.221   -4.581   -4.778   -4.780   -4.608   -4.323   -4.008   -3.727   -3.490   -3.268   -3.019   -2.757   -2.523   -2.360   -2.277   -2.244   -2.236   -2.228   -2.205   -2.136   -1.996   -1.781   -1.531   -1.307   -1.164   -1.120   -1.172   -1.294   -1.456   -1.638   -1.817   -2.000   -2.198   -2.410   -2.632   -2.833   -2.971   -3.025   -3.033   -3.070   -3.206   -3.419   -3.635   -3.793   -3.889   -3.962   -4.073   -4.246   -4.470   -4.727   -4.990   -5.237   -5.461   -5.657   -5.825   -5.948   -6.021   -6.058   -6.116   -6.258   -6.537   -6.973   -7.570   -8.289   -9.038   -9.708  -10.220  -10.555  -10.750  -10.849  -10.894  -10.920
  -5.695   -5.619   -5.591   -5.572   -5.562   -5.562   -5.566   -5.570   -5.571   -5.557   -5.517   -5.434   -5.281   -5.035   -4.690   -4.240   -3.721   -3.177   -2.671   -2.250   -1.955   -1.806   -1.817   -1.979   -2.280   -2.694   -3.177   -3.679   -4.140   -4.494   -4.682   -4.679   -4.511   -4.251   -3.986   -3.768   -3.579   -3.374   -3.115   -2.835   -2.595   -2.454   -2.412   -2.433   -2.473   -2.495   -2.481   -2.400   -2.235   -1.991   -1.717   -1.473   -1.310   -1.248   -1.286   -1.410   -1.583   -1.786   -2.004   -2.244   -2.511   -2.798   -3.091   -3.355   -3.554   -3.687   -3.812   -3.998   -4.281   -4.608   -4.896   -5.085   -5.180   -5.250   -5.346   -5.492   -5.677   -5.884   -6.090   -6.280   -6.445   -6.578   -6.688   -6.760   -6.791   -6.799   -6.829   -6.933   -7.151   -7.496   -7.982   -8.576   -9.220   -9.820  -10.302  -10.639  -10.838  -10.938  -10.981  -11.010
  -5.680   -5.602   -5.579   -5.561   -5.552   -5.547   -5.547   -5.545   -5.545   -5.533   -5.510   -5.453   -5.338   -5.144   -4.845   -4.442   -3.954   -3.434   -2.932   -2.502   -2.179   -1.977   -1.910   -1.984   -2.190   -2.519   -2.946   -3.421   -3.882   -4.254   -4.463   -4.476   -4.325   -4.087   -3.861   -3.688   -3.544   -3.374   -3.148   -2.911   -2.729   -2.651   -2.679   -2.760   -2.837   -2.876   -2.848   -2.730   -2.518   -2.225   -1.908   -1.625   -1.427   -1.341   -1.371   -1.503   -1.708   -1.962   -2.256   -2.595   -2.982   -3.402   -3.819   -4.199   -4.507   -4.751   -4.990   -5.281   -5.642   -6.013   -6.311   -6.499   -6.598   -6.669   -6.758   -6.882   -7.019   -7.158   -7.290   -7.404   -7.492   -7.562   -7.616   -7.653   -7.664   -7.664   -7.680   -7.755   -7.916   -8.179   -8.551   -9.014   -9.527  -10.023  -10.444  -10.760  -10.961  -11.065  -11.111  -11.140
  -5.673   -5.594   -5.572   -5.556   -5.548   -5.543   -5.537   -5.530   -5.525   -5.515   -5.498   -5.463   -5.388   -5.248   -5.018   -4.691   -4.277   -3.817   -3.350   -2.928   -2.570   -2.304   -2.136   -2.079   -2.141   -2.339   -2.675   -3.114   -3.584   -3.994   -4.245   -4.286   -4.146   -3.914   -3.694   -3.540   -3.433   -3.320   -3.184   -3.051   -2.981   -3.012   -3.122   -3.257   -3.360   -3.386   -3.321   -3.145   -2.859   -2.491   -2.098   -1.750   -1.500   -1.383   -1.416   -1.582   -1.860   -2.221   -2.656   -3.163   -3.728   -4.317   -4.893   -5.405   -5.820   -6.152   -6.447   -6.757   -7.094   -7.419   -7.669   -7.825   -7.915   -7.985   -8.072   -8.175   -8.277   -8.363   -8.433   -8.477   -8.502   -8.518   -8.535   -8.553   -8.561   -8.560   -8.571   -8.622   -8.738   -8.931   -9.207   -9.549   -9.923  -10.296  -10.629  -10.905  -11.106  -11.229  -11.294  -11.331
  -5.673   -5.594   -5.569   -5.557   -5.549   -5.544   -5.536   -5.523   -5.516   -5.506   -5.497   -5.475   -5.433   -5.344   -5.189   -4.953   -4.636   -4.259   -3.853   -3.453   -3.086   -2.772   -2.514   -2.327   -2.241   -2.296   -2.524   -2.910   -3.387   -3.834   -4.123   -4.189   -4.055   -3.812   -3.582   -3.429   -3.353   -3.314   -3.285   -3.285   -3.347   -3.484   -3.667   -3.844   -3.954   -3.966   -3.856   -3.621   -3.264   -2.813   -2.327   -1.892   -1.576   -1.429   -1.480   -1.725   -2.129   -2.665   -3.297   -4.005   -4.757   -5.509   -6.208   -6.805   -7.273   -7.627   -7.904   -8.158   -8.406   -8.635   -8.810   -8.917   -8.989   -9.053   -9.131   -9.218   -9.300   -9.358   -9.384   -9.385   -9.367   -9.348   -9.344   -9.352   -9.364   -9.370   -9.377   -9.408   -9.484   -9.625   -9.828  -10.072  -10.327  -10.575  -10.812  -11.036  -11.233  -11.384  -11.483  -11.535
  -5.676   -5.596   -5.575   -5.561   -5.552   -5.545   -5.537   -5.525   -5.518   -5.507   -5.501   -5.493   -5.472   -5.428   -5.336   -5.184   -4.965   -4.680   -4.353   -4.005   -3.661   -3.329   -3.022   -2.749   -2.547   -2.476   -2.594   -2.914   -3.362   -3.814   -4.129   -4.219   -4.099   -3.859   -3.627   -3.480   -3.430   -3.454   -3.517   -3.623   -3.782   -3.986   -4.204   -4.390   -4.501   -4.503   -4.376   -4.115   -3.714   -3.201   -2.634   -2.106   -1.716   -1.547   -1.643   -1.999   -2.574   -3.310   -4.153   -5.050   -5.947   -6.795   -7.538   -8.141   -8.585   -8.895   -9.107   -9.275   -9.421   -9.555   -9.660   -9.731   -9.781   -9.832   -9.896   -9.969  -10.035  -10.079  -10.089  -10.063  -10.021   -9.985   -9.970   -9.978   -9.995  -10.002  -10.005  -10.017  -10.064  -10.162  -10.311  -10.484  -10.646  -10.791  -10.939  -11.106  -11.295  -11.468  -11.602  -11.673
  -5.681   -5.599   -5.578   -5.566   -5.561   -5.550   -5.543   -5.534   -5.524   -5.517   -5.514   -5.511   -5.506   -5.489   -5.441   -5.355   -5.216   -5.022   -4.782   -4.507   -4.219   -3.920   -3.611   -3.302   -3.033   -2.872   -2.892   -3.126   -3.515   -3.939   -4.251   -4.364   -4.278   -4.079   -3.877   -3.754   -3.728   -3.783   -3.893   -4.046   -4.234   -4.445   -4.654   -4.821   -4.919   -4.918   -4.798   -4.549   -4.153   -3.619   -3.002   -2.400   -1.946   -1.764   -1.918   -2.398   -3.145   -4.068   -5.082   -6.115   -7.092   -7.957   -8.666   -9.204   -9.573   -9.804   -9.940  -10.030  -10.100  -10.170  -10.231  -10.279  -10.313  -10.352  -10.399  -10.460  -10.516  -10.550  -10.546  -10.508  -10.453  -10.412  -10.397  -10.407  -10.422  -10.427  -10.418  -10.413  -10.436  -10.502  -10.613  -10.737  -10.834  -10.905  -10.982  -11.101  -11.270  -11.455  -11.607  -11.698
  -5.692   -5.610   -5.588   -5.576   -5.567   -5.561   -5.553   -5.545   -5.537   -5.532   -5.529   -5.528   -5.528   -5.524   -5.504   -5.459   -5.380   -5.263   -5.106   -4.918   -4.704   -4.462   -4.191   -3.898   -3.613   -3.405   -3.354   -3.499   -3.801   -4.165   -4.456   -4.591   -4.560   -4.426   -4.281   -4.195   -4.189   -4.251   -4.358   -4.499   -4.661   -4.832   -4.991   -5.119   -5.192   -5.195   -5.097   -4.881   -4.518   -4.000   -3.370   -2.727   -2.232   -2.037   -2.240   -2.828   -3.710   -4.774   -5.909   -7.019   -8.020   -8.852   -9.486   -9.924  -10.198  -10.350  -10.426  -10.466  -10.498  -10.534  -10.576  -10.611  -10.642  -10.673  -10.709  -10.756  -10.798  -10.816  -10.803  -10.758  -10.704  -10.666  -10.655  -10.667  -10.676  -10.666  -10.641  -10.619  -10.621  -10.669  -10.752  -10.838  -10.896  -10.925  -10.954  -11.033  -11.174  -11.349  -11.506  -11.602
  -5.703   -5.618   -5.596   -5.586   -5.577   -5.571   -5.564   -5.559   -5.553   -5.545   -5.542   -5.540   -5.541   -5.538   -5.531   -5.509   -5.472   -5.413   -5.327   -5.213   -5.073   -4.896   -4.686   -4.440   -4.183   -3.975   -3.884   -3.953   -4.164   -4.448   -4.701   -4.846   -4.868   -4.807   -4.728   -4.680   -4.684   -4.729   -4.805   -4.901   -5.013   -5.125   -5.227   -5.308   -5.355   -5.350   -5.270   -5.086   -4.765   -4.284   -3.664   -3.006   -2.482   -2.278   -2.504   -3.157   -4.130   -5.285   -6.495   -7.651   -8.658   -9.447  -10.002  -10.352  -10.545  -10.635  -10.673  -10.690  -10.705  -10.731  -10.763  -10.793  -10.822  -10.850  -10.878  -10.910  -10.933  -10.938  -10.918  -10.875  -10.832  -10.803  -10.798  -10.806  -10.801  -10.775  -10.732  -10.693  -10.685  -10.718  -10.782  -10.844  -10.878  -10.886  -10.895  -10.948  -11.057  -11.206  -11.346  -11.440
  -5.715   -5.629   -5.606   -5.591   -5.582   -5.581   -5.576   -5.571   -5.563   -5.555   -5.552   -5.549   -5.546   -5.543   -5.539   -5.532   -5.517   -5.493   -5.456   -5.398   -5.314   -5.200   -5.048   -4.865   -4.667   -4.494   -4.395   -4.412   -4.544   -4.746   -4.948   -5.088   -5.143   -5.135   -5.103   -5.083   -5.086   -5.108   -5.148   -5.199   -5.258   -5.320   -5.372   -5.412   -5.432   -5.413   -5.333   -5.163   -4.863   -4.407   -3.806   -3.145   -2.605   -2.383   -2.610   -3.285   -4.304   -5.520   -6.794   -7.996   -9.020   -9.793  -10.300  -10.588  -10.723  -10.776  -10.793  -10.803  -10.813  -10.834  -10.857  -10.882  -10.903  -10.922  -10.940  -10.955  -10.965  -10.961  -10.941  -10.913  -10.882  -10.863  -10.862  -10.866  -10.852  -10.817  -10.765  -10.722  -10.708  -10.731  -10.772  -10.812  -10.833  -10.838  -10.844  -10.883  -10.962  -11.077  -11.188  -11.269
  -5.728   -5.639   -5.611   -5.595   -5.586   -5.583   -5.579   -5.575   -5.568   -5.559   -5.553   -5.550   -5.550   -5.547   -5.543   -5.538   -5.532   -5.526   -5.515   -5.488   -5.443   -5.375   -5.278   -5.161   -5.029   -4.906   -4.826   -4.817   -4.887   -5.024   -5.172   -5.288   -5.351   -5.366   -5.359   -5.350   -5.345   -5.350   -5.363   -5.380   -5.404   -5.428   -5.448   -5.457   -5.445   -5.398   -5.292   -5.098   -4.787   -4.328   -3.732   -3.076   -2.529   -2.294   -2.504   -3.173   -4.211   -5.477   -6.823   -8.100   -9.175   -9.965  -10.459  -10.716  -10.821  -10.851  -10.859  -10.866  -10.877  -10.892  -10.905  -10.914  -10.917  -10.922  -10.925  -10.929  -10.929  -10.926  -10.917  -10.903  -10.889  -10.879  -10.880  -10.881  -10.869  -10.838  -10.797  -10.763  -10.749  -10.758  -10.776  -10.795  -10.807  -10.810  -10.824  -10.856  -10.914  -10.995  -11.074  -11.143
  -5.726   -5.636   -5.611   -5.596   -5.586   -5.579   -5.574   -5.570   -5.564   -5.556   -5.548   -5.547   -5.548   -5.548   -5.540   -5.532   -5.529   -5.527   -5.523   -5.514   -5.490   -5.449   -5.400   -5.338   -5.267   -5.194   -5.140   -5.126   -5.163   -5.246   -5.346   -5.431   -5.483   -5.500   -5.500   -5.490   -5.481   -5.473   -5.470   -5.468   -5.474   -5.473   -5.469   -5.451   -5.401   -5.303   -5.139   -4.883   -4.517   -4.024   -3.418   -2.778   -2.253   -2.017   -2.204   -2.853   -3.897   -5.211   -6.646   -8.023   -9.184  -10.025  -10.534  -10.784  -10.874  -10.891  -10.895  -10.903  -10.914  -10.923  -10.923  -10.915  -10.902  -10.888  -10.879  -10.876  -10.873  -10.875  -10.876  -10.877  -10.876  -10.871  -10.869  -10.869  -10.868  -10.859  -10.847  -10.834  -10.827  -10.825  -10.822  -10.820  -10.817  -10.821  -10.835  -10.863  -10.906  -10.961  -11.018  -11.073
  -5.716   -5.624   -5.599   -5.585   -5.575   -5.571   -5.569   -5.564   -5.559   -5.549   -5.544   -5.541   -5.540   -5.537   -5.530   -5.519   -5.510   -5.506   -5.507   -5.503   -5.492   -5.474   -5.454   -5.426   -5.398   -5.364   -5.336   -5.327   -5.348   -5.396   -5.456   -5.511   -5.548   -5.558   -5.554   -5.542   -5.530   -5.519   -5.508   -5.501   -5.493   -5.480   -5.452   -5.394   -5.293   -5.123   -4.868   -4.512   -4.059   -3.517   -2.912   -2.311   -1.837   -1.630   -1.812   -2.432   -3.465   -4.820   -6.344   -7.830   -9.091  -10.000  -10.547  -10.802  -10.882  -10.890  -10.890  -10.899  -10.913  -10.922  -10.914  -10.896  -10.873  -10.853  -10.842  -10.838  -10.837  -10.841  -10.847  -10.854  -10.855  -10.849  -10.844  -10.842  -10.851  -10.869  -10.889  -10.906  -10.916  -10.914  -10.901  -10.882  -10.866  -10.861  -10.870  -10.891  -10.918  -10.957  -10.999  -11.045
  -5.709   -5.615   -5.591   -5.579   -5.572   -5.567   -5.565   -5.563   -5.555   -5.546   -5.537   -5.531   -5.528   -5.524   -5.513   -5.501   -5.490   -5.487   -5.486   -5.489   -5.487   -5.485   -5.478   -5.469   -5.458   -5.443   -5.430   -5.426   -5.442   -5.469   -5.502   -5.537   -5.558   -5.561   -5.555   -5.544   -5.532   -5.521   -5.514   -5.505   -5.488   -5.456   -5.395   -5.284   -5.106   -4.838   -4.469   -4.005   -3.464   -2.885   -2.311   -1.786   -1.405   -1.262   -1.450   -2.042   -3.049   -4.424   -6.010   -7.587   -8.935   -9.912  -10.496  -10.764  -10.839  -10.840  -10.836  -10.849  -10.868  -10.876  -10.870  -10.849  -10.832  -10.822  -10.823  -10.825  -10.826  -10.827  -10.825  -10.829  -10.829  -10.821  -10.810  -10.805  -10.818  -10.847  -10.891  -10.933  -10.966  -10.976  -10.969  -10.951  -10.930  -10.917  -10.914  -10.920  -10.933  -10.954  -10.986  -11.025
  -5.723   -5.629   -5.608   -5.599   -5.593   -5.589   -5.589   -5.587   -5.582   -5.569   -5.556   -5.544   -5.538   -5.527   -5.516   -5.505   -5.497   -5.498   -5.503   -5.511   -5.516   -5.517   -5.513   -5.506   -5.492   -5.479   -5.466   -5.460   -5.467   -5.483   -5.502   -5.524   -5.535   -5.535   -5.530   -5.523   -5.516   -5.510   -5.506   -5.493   -5.461   -5.398   -5.286   -5.100   -4.820   -4.438   -3.954   -3.397   -2.808   -2.241   -1.739   -1.335   -1.075   -1.014   -1.224   -1.792   -2.767   -4.126   -5.734   -7.360   -8.759   -9.783  -10.396  -10.678  -10.754  -10.750  -10.742  -10.755  -10.775  -10.784  -10.776  -10.766  -10.762  -10.772  -10.791  -10.805  -10.806  -10.798  -10.787  -10.782  -10.781  -10.771  -10.759  -10.747  -10.752  -10.781  -10.829  -10.882  -10.930  -10.962  -10.975  -10.974  -10.964  -10.953  -10.939  -10.929  -10.923  -10.928  -10.945  -10.974
  -5.822   -5.724   -5.705   -5.693   -5.690   -5.684   -5.683   -5.681   -5.676   -5.662   -5.646   -5.630   -5.619   -5.607   -5.597   -5.589   -5.593   -5.598   -5.612   -5.624   -5.633   -5.631   -5.621   -5.600   -5.567   -5.534   -5.502   -5.479   -5.469   -5.474   -5.487   -5.500   -5.508   -5.509   -5.507   -5.504   -5.503   -5.502   -5.494   -5.468   -5.408   -5.294   -5.104   -4.821   -4.428   -3.929   -3.356   -2.756   -2.183   -1.693   -1.314   -1.055   -0.925   -0.948   -1.188   -1.734   -2.668   -3.991   -5.573   -7.191   -8.596   -9.631  -10.259  -10.549  -10.626  -10.616  -10.602  -10.607  -10.619  -10.625  -10.618  -10.616  -10.625  -10.653  -10.686  -10.710  -10.712  -10.698  -10.679  -10.668  -10.666  -10.663  -10.653  -10.639  -10.633  -10.647  -10.680  -10.726  -10.776  -10.823  -10.861  -10.884  -10.897  -10.898  -10.888  -10.867  -10.847  -10.831  -10.832  -10.856
  -6.077   -5.978   -5.955   -5.940   -5.934   -5.925   -5.920   -5.916   -5.910   -5.897   -5.882   -5.868   -5.852   -5.845   -5.841   -5.842   -5.849   -5.862   -5.879   -5.895   -5.902   -5.895   -5.870   -5.818   -5.745   -5.665   -5.588   -5.528   -5.492   -5.480   -5.480   -5.489   -5.496   -5.500   -5.502   -5.500   -5.501   -5.499   -5.477   -5.421   -5.307   -5.117   -4.832   -4.435   -3.930   -3.348   -2.737   -2.154   -1.667   -1.309   -1.092   -0.994   -0.993   -1.097   -1.364   -1.891   -2.770   -4.023   -5.532   -7.078   -8.433   -9.436  -10.050  -10.339  -10.416  -10.402  -10.376  -10.366  -10.365  -10.360  -10.353  -10.353  -10.369  -10.400  -10.434  -10.457  -10.460  -10.445  -10.429  -10.422  -10.425  -10.431  -10.428  -10.414  -10.400  -10.395  -10.404  -10.430  -10.469  -10.516  -10.567  -10.611  -10.646  -10.666  -10.667  -10.650  -10.623  -10.600  -10.591  -10.610
  -6.558   -6.454   -6.425   -6.406   -6.392   -6.377   -6.371   -6.366   -6.361   -6.350   -6.341   -6.329   -6.321   -6.317   -6.315   -6.321   -6.331   -6.347   -6.363   -6.378   -6.380   -6.363   -6.311   -6.211   -6.075   -5.917   -5.761   -5.637   -5.553   -5.512   -5.501   -5.503   -5.508   -5.513   -5.515   -5.513   -5.512   -5.495   -5.449   -5.344   -5.156   -4.869   -4.471   -3.968   -3.385   -2.769   -2.177   -1.673   -1.313   -1.116   -1.071   -1.138   -1.271   -1.462   -1.759   -2.260   -3.063   -4.196   -5.566   -6.973   -8.209   -9.129   -9.697   -9.962  -10.033  -10.018   -9.988   -9.964   -9.946   -9.933   -9.921   -9.919   -9.932   -9.952   -9.974   -9.989   -9.992   -9.983   -9.971   -9.972   -9.986   -9.998  -10.002   -9.991   -9.971   -9.951   -9.942   -9.945   -9.966  -10.004  -10.052  -10.102  -10.149  -10.183  -10.201  -10.197  -10.177  -10.159  -10.153  -10.177
  -7.272   -7.168   -7.134   -7.108   -7.084   -7.069   -7.059   -7.054   -7.053   -7.049   -7.045   -7.040   -7.036   -7.033   -7.033   -7.039   -7.047   -7.061   -7.076   -7.085   -7.082   -7.046   -6.955   -6.792   -6.563   -6.291   -6.020   -5.798   -5.645   -5.563   -5.529   -5.523   -5.526   -5.531   -5.532   -5.529   -5.521   -5.490   -5.409   -5.246   -4.971   -4.576   -4.075   -3.496   -2.883   -2.293   -1.775   -1.382   -1.153   -1.100   -1.210   -1.430   -1.700   -1.989   -2.330   -2.800   -3.496   -4.456   -5.614   -6.809   -7.859   -8.642   -9.125   -9.351   -9.411   -9.396   -9.369   -9.345   -9.321   -9.301   -9.285   -9.280   -9.282   -9.288   -9.294   -9.300   -9.301   -9.294   -9.293   -9.299   -9.313   -9.329   -9.334   -9.325   -9.304   -9.280   -9.260   -9.253   -9.260   -9.285   -9.320   -9.361   -9.406   -9.445   -9.472   -9.482   -9.479   -9.475   -9.481   -9.521
  -8.138   -8.044   -8.007   -7.978   -7.955   -7.938   -7.930   -7.929   -7.933   -7.936   -7.934   -7.930   -7.927   -7.923   -7.921   -7.925   -7.932   -7.941   -7.952   -7.955   -7.940   -7.881   -7.743   -7.501   -7.154   -6.740   -6.328   -5.985   -5.745   -5.610   -5.553   -5.537   -5.535   -5.536   -5.535   -5.532   -5.521   -5.479   -5.367   -5.148   -4.796   -4.314   -3.738   -3.127   -2.542   -2.022   -1.609   -1.325   -1.192   -1.238   -1.455   -1.795   -2.191   -2.584   -2.969   -3.400   -3.967   -4.719   -5.617   -6.548   -7.368   -7.980   -8.351   -8.519   -8.561   -8.552   -8.536   -8.522   -8.507   -8.488   -8.472   -8.463   -8.457   -8.456   -8.452   -8.452   -8.448   -8.445   -8.446   -8.451   -8.461   -8.469   -8.470   -8.463   -8.446   -8.424   -8.409   -8.403   -8.406   -8.420   -8.442   -8.470   -8.500   -8.530   -8.555   -8.572   -8.581   -8.595   -8.617   -8.678
  -9.028   -8.949   -8.915   -8.887   -8.868   -8.857   -8.852   -8.853   -8.860   -8.865   -8.864   -8.859   -8.851   -8.842   -8.838   -8.841   -8.847   -8.856   -8.862   -8.859   -8.833   -8.747   -8.558   -8.230   -7.762   -7.203   -6.641   -6.166   -5.834   -5.642   -5.558   -5.532   -5.526   -5.525   -5.526   -5.525   -5.511   -5.461   -5.331   -5.082   -4.686   -4.159   -3.564   -2.972   -2.456   -2.034   -1.719   -1.513   -1.436   -1.522   -1.787   -2.193   -2.675   -3.140   -3.555   -3.942   -4.377   -4.916   -5.553   -6.216   -6.799   -7.228   -7.481   -7.584   -7.607   -7.604   -7.604   -7.610   -7.613   -7.606   -7.597   -7.587   -7.580   -7.577   -7.573   -7.573   -7.567   -7.562   -7.559   -7.560   -7.559   -7.557   -7.550   -7.540   -7.527   -7.517   -7.512   -7.513   -7.520   -7.533   -7.545   -7.559   -7.572   -7.584   -7.597   -7.611   -7.627   -7.650   -7.682   -7.766
  -9.814   -9.746   -9.715   -9.694   -9.679   -9.673   -9.670   -9.674   -9.679   -9.682   -9.680   -9.670   -9.656   -9.644   -9.639   -9.641   -9.647   -9.656   -9.664   -9.657   -9.619   -9.509   -9.272   -8.870   -8.296   -7.608   -6.912   -6.321   -5.903   -5.662   -5.553   -5.519   -5.512   -5.513   -5.517   -5.519   -5.507   -5.455   -5.323   -5.068   -4.676   -4.170   -3.617   -3.096   -2.666   -2.335   -2.094   -1.940   -1.888   -1.975   -2.228   -2.635   -3.130   -3.617   -4.029   -4.364   -4.682   -5.041   -5.456   -5.887   -6.263   -6.529   -6.674   -6.723   -6.727   -6.724   -6.742   -6.768   -6.793   -6.806   -6.806   -6.800   -6.799   -6.799   -6.800   -6.800   -6.795   -6.789   -6.782   -6.778   -6.769   -6.755   -6.741   -6.727   -6.719   -6.718   -6.721   -6.731   -6.744   -6.756   -6.764   -6.765   -6.760   -6.757   -6.758   -6.767   -6.781   -6.804   -6.838   -6.938
 -10.406  -10.344  -10.315  -10.299  -10.290  -10.285  -10.284  -10.286  -10.288  -10.286  -10.279  -10.264  -10.247  -10.232  -10.224  -10.226  -10.234  -10.247  -10.256  -10.247  -10.202  -10.073   -9.803   -9.343   -8.693   -7.908   -7.111   -6.434   -5.953   -5.674   -5.549   -5.512   -5.511   -5.519   -5.526   -5.528   -5.516   -5.468   -5.349   -5.121   -4.777   -4.344   -3.885   -3.461   -3.119   -2.861   -2.675   -2.557   -2.516   -2.587   -2.799   -3.154   -3.597   -4.041   -4.413   -4.687   -4.912   -5.141   -5.391   -5.649   -5.866   -6.009   -6.070   -6.077   -6.065   -6.065   -6.089   -6.129   -6.169   -6.196   -6.209   -6.209   -6.209   -6.215   -6.220   -6.223   -6.220   -6.214   -6.208   -6.203   -6.193   -6.176   -6.156   -6.140   -6.134   -6.136   -6.143   -6.160   -6.174   -6.186   -6.188   -6.175   -6.161   -6.149   -6.145   -6.150   -6.161   -6.180   -6.213   -6.319
 -10.788  -10.724  -10.700  -10.684  -10.674  -10.670  -10.666  -10.667  -10.663  -10.658  -10.646  -10.628  -10.608  -10.590  -10.579  -10.581  -10.588  -10.604  -10.615  -10.608  -10.559  -10.420  -10.131   -9.635   -8.936   -8.094   -7.236   -6.501   -5.981   -5.682   -5.556   -5.529   -5.535   -5.549   -5.560   -5.563   -5.551   -5.506   -5.405   -5.222   -4.956   -4.630   -4.285   -3.966   -3.699   -3.494   -3.349   -3.262   -3.240   -3.301   -3.466   -3.740   -4.088   -4.446   -4.744   -4.955   -5.109   -5.248   -5.395   -5.539   -5.651   -5.716   -5.727   -5.711   -5.690   -5.683   -5.697   -5.731   -5.769   -5.804   -5.823   -5.830   -5.833   -5.841   -5.848   -5.853   -5.848   -5.847   -5.845   -5.849   -5.845   -5.832   -5.813   -5.794   -5.784   -5.784   -5.795   -5.813   -5.830   -5.839   -5.829   -5.814   -5.792   -5.781   -5.779   -5.786   -5.798   -5.815   -5.845   -5.949
 -11.000  -10.934  -10.908  -10.889  -10.877  -10.872  -10.867  -10.861  -10.856  -10.848  -10.834  -10.813  -10.790  -10.771  -10.758  -10.756  -10.763  -10.778  -10.789  -10.787  -10.738  -10.595  -10.296   -9.785   -9.061   -8.188   -7.300   -6.537   -5.996   -5.687   -5.567   -5.554   -5.578   -5.600   -5.613   -5.610   -5.594   -5.550   -5.468   -5.335   -5.157   -4.943   -4.713   -4.486   -4.281   -4.115   -3.998   -3.941   -3.943   -4.009   -4.139   -4.332   -4.572   -4.821   -5.030   -5.176   -5.278   -5.365   -5.453   -5.535   -5.594   -5.621   -5.615   -5.589   -5.559   -5.537   -5.528   -5.536   -5.557   -5.586   -5.606   -5.616   -5.626   -5.635   -5.641   -5.642   -5.640   -5.642   -5.652   -5.664   -5.667   -5.659   -5.639   -5.619   -5.606   -5.607   -5.623   -5.647   -5.666   -5.672   -5.657   -5.635   -5.612   -5.607   -5.615   -5.629   -5.647   -5.668   -5.694   -5.791
 -11.102  -11.029  -11.002  -10.981  -10.969  -10.960  -10.953  -10.948  -10.942  -10.934  -10.919  -10.898  -10.877  -10.855  -10.839  -10.832  -10.837  -10.849  -10.862  -10.860  -10.812  -10.671  -10.367   -9.850   -9.114   -8.229   -7.327   -6.549   -5.997   -5.687   -5.574   -5.575   -5.613   -5.645   -5.658   -5.649   -5.621   -5.574   -5.508   -5.422   -5.322   -5.208   -5.074   -4.924   -4.767   -4.631   -4.537   -4.502   -4.529   -4.603   -4.710   -4.842   -4.987   -5.130   -5.247   -5.334   -5.397   -5.458   -5.523   -5.583   -5.628   -5.647   -5.644   -5.623   -5.585   -5.543   -5.504   -5.478   -5.473   -5.485   -5.498   -5.509   -5.523   -5.536   -5.542   -5.540   -5.533   -5.537   -5.552   -5.571   -5.580   -5.579   -5.563   -5.538   -5.522   -5.524   -5.549   -5.585   -5.611   -5.619   -5.602   -5.575   -5.552   -5.550   -5.563   -5.591   -5.618   -5.643   -5.669   -5.761
 -11.149  -11.069  -11.039  -11.019  -11.007  -10.998  -10.993  -10.991  -10.987  -10.978  -10.969  -10.951  -10.932  -10.911  -10.892  -10.879  -10.880  -10.888  -10.899  -10.897  -10.850  -10.707  -10.402   -9.882   -9.141   -8.251   -7.341   -6.557   -5.997   -5.685   -5.571   -5.575   -5.620   -5.656   -5.664   -5.644   -5.604   -5.552   -5.498   -5.452   -5.419   -5.383   -5.324   -5.235   -5.121   -5.015   -4.941   -4.921   -4.959   -5.039   -5.137   -5.231   -5.308   -5.364   -5.404   -5.437   -5.471   -5.517   -5.571   -5.627   -5.672   -5.698   -5.706   -5.695   -5.659   -5.604   -5.545   -5.495   -5.465   -5.453   -5.451   -5.458   -5.473   -5.488   -5.494   -5.488   -5.478   -5.477   -5.494   -5.516   -5.533   -5.534   -5.520   -5.499   -5.485   -5.492   -5.523   -5.571   -5.606   -5.616   -5.599   -5.566   -5.541   -5.537   -5.554   -5.587   -5.622   -5.651   -5.679   -5.769
 -11.173  -11.086  -11.052  -11.037  -11.027  -11.022  -11.020  -11.020  -11.021  -11.019  -11.013  -11.004  -10.987  -10.969  -10.950  -10.932  -10.925  -10.928  -10.933  -10.926  -10.878  -10.734  -10.427   -9.905   -9.162   -8.271   -7.358   -6.570   -6.005   -5.684   -5.560   -5.553   -5.588   -5.615   -5.614   -5.586   -5.540   -5.489   -5.448   -5.433   -5.446   -5.466   -5.464   -5.425   -5.356   -5.282   -5.229   -5.219   -5.260   -5.338   -5.430   -5.507   -5.541   -5.542   -5.524   -5.510   -5.514   -5.538   -5.581   -5.626   -5.669   -5.702   -5.723   -5.724   -5.701   -5.655   -5.599   -5.541   -5.492   -5.452   -5.427   -5.420   -5.432   -5.448   -5.457   -5.451   -5.439   -5.439   -5.455   -5.483   -5.507   -5.514   -5.505   -5.486   -5.475   -5.485   -5.518   -5.568   -5.604   -5.615   -5.596   -5.560   -5.528   -5.519   -5.534   -5.564   -5.598   -5.629   -5.659   -5.754
 -11.187  -11.093  -11.062  -11.049  -11.040  -11.038  -11.039  -11.044  -11.048  -11.055  -11.058  -11.057  -11.046  -11.030  -11.010  -10.987  -10.971  -10.962  -10.959  -10.948  -10.898  -10.753  -10.445   -9.919   -9.177   -8.286   -7.377   -6.588   -6.019   -5.688   -5.544   -5.512   -5.523   -5.534   -5.523   -5.494   -5.454   -5.415   -5.393   -5.401   -5.441   -5.488   -5.520   -5.520   -5.491   -5.454   -5.423   -5.423   -5.461   -5.534   -5.618   -5.679   -5.696   -5.665   -5.608   -5.556   -5.526   -5.525   -5.544   -5.570   -5.603   -5.638   -5.669   -5.687   -5.686   -5.667   -5.628   -5.576   -5.515   -5.452   -5.401   -5.374   -5.377   -5.393   -5.404   -5.408   -5.407   -5.422   -5.449   -5.485   -5.512   -5.523   -5.514   -5.498   -5.486   -5.491   -5.516   -5.554   -5.583   -5.586   -5.566   -5.529   -5.494   -5.479   -5.484   -5.506   -5.534   -5.557   -5.586   -5.686
 -11.207  -11.105  -11.073  -11.058  -11.050  -11.051  -11.051  -11.057  -11.064  -11.078  -11.089  -11.094  -11.088  -11.076  -11.051  -11.021  -10.995  -10.976  -10.966  -10.951  -10.898  -10.751  -10.444   -9.919   -9.177   -8.287   -7.382   -6.601   -6.035   -5.695   -5.530   -5.471   -5.457   -5.450   -5.434   -5.416   -5.394   -5.382   -5.377   -5.394   -5.438   -5.488   -5.530   -5.552   -5.553   -5.544   -5.533   -5.544   -5.578   -5.637   -5.708   -5.757   -5.762   -5.716   -5.639   -5.561   -5.508   -5.484   -5.479   -5.488   -5.508   -5.539   -5.575   -5.609   -5.630   -5.636   -5.618   -5.575   -5.513   -5.438   -5.369   -5.329   -5.321   -5.334   -5.353   -5.368   -5.389   -5.429   -5.478   -5.522   -5.548   -5.556   -5.539   -5.516   -5.495   -5.488   -5.500   -5.521   -5.535   -5.533   -5.513   -5.481   -5.451   -5.437   -5.435   -5.445   -5.456   -5.469   -5.489   -5.596
 -11.246  -11.133  -11.097  -11.079  -11.070  -11.066  -11.064  -11.066  -11.070  -11.084  -11.096  -11.105  -11.103  -11.087  -11.060  -11.029  -10.997  -10.976  -10.962  -10.944  -10.888  -10.741  -10.434   -9.908   -9.168   -8.281   -7.382   -6.611   -6.051   -5.707   -5.531   -5.453   -5.420   -5.402   -5.392   -5.392   -5.403   -5.414   -5.424   -5.439   -5.467   -5.504   -5.536   -5.558   -5.569   -5.572   -5.577   -5.589   -5.616   -5.661   -5.710   -5.742   -5.735   -5.684   -5.600   -5.519   -5.461   -5.428   -5.415   -5.416   -5.427   -5.458   -5.498   -5.539   -5.570   -5.586   -5.576   -5.539   -5.481   -5.412   -5.351   -5.314   -5.307   -5.318   -5.334   -5.355   -5.393   -5.450   -5.518   -5.566   -5.588   -5.582   -5.553   -5.518   -5.486   -5.465   -5.464   -5.472   -5.477   -5.477   -5.469   -5.456   -5.441   -5.442   -5.444   -5.445   -5.441   -5.438   -5.450   -5.559
 -11.335  -11.210  -11.167  -11.146  -11.131  -11.121  -11.112  -11.106  -11.102  -11.108  -11.114  -11.121  -11.120  -11.107  -11.083  -11.053  -11.025  -11.006  -10.995  -10.976  -10.919  -10.769  -10.458   -9.932   -9.189   -8.306   -7.413   -6.650   -6.094   -5.745   -5.560   -5.470   -5.429   -5.409   -5.414   -5.440   -5.483   -5.520   -5.544   -5.554   -5.562   -5.571   -5.576   -5.576   -5.575   -5.574   -5.577   -5.587   -5.606   -5.629   -5.651   -5.655   -5.630   -5.576   -5.500   -5.433   -5.392   -5.371   -5.368   -5.370   -5.383   -5.419   -5.461   -5.502   -5.531   -5.537   -5.522   -5.487   -5.445   -5.404   -5.375   -5.361   -5.359   -5.362   -5.359   -5.368   -5.402   -5.463   -5.532   -5.581   -5.596   -5.578   -5.543   -5.500   -5.457   -5.428   -5.416   -5.424   -5.441   -5.465   -5.491   -5.518   -5.545   -5.579   -5.605   -5.613   -5.603   -5.590   -5.598   -5.707
 -11.530  -11.393  -11.344  -11.317  -11.297  -11.279  -11.261  -11.246  -11.232  -11.226  -11.225  -11.225  -11.222  -11.211  -11.194  -11.172  -11.155  -11.147  -11.141  -11.126  -11.069  -10.914  -10.597  -10.066   -9.321   -8.438   -7.545   -6.779   -6.214   -5.852   -5.647   -5.542   -5.491   -5.477   -5.501   -5.558   -5.636   -5.708   -5.753   -5.768   -5.756   -5.726   -5.686   -5.642   -5.603   -5.581   -5.577   -5.585   -5.592   -5.588   -5.573   -5.542   -5.496   -5.437   -5.377   -5.334   -5.321   -5.327   -5.339   -5.351   -5.372   -5.410   -5.455   -5.494   -5.514   -5.511   -5.486   -5.454   -5.434   -5.432   -5.447   -5.464   -5.469   -5.450   -5.416   -5.394   -5.407   -5.458   -5.518   -5.558   -5.566   -5.550   -5.516   -5.474   -5.432   -5.402   -5.393   -5.414   -5.466   -5.539   -5.633   -5.739   -5.855   -5.967   -6.058   -6.106   -6.111   -6.101   -6.103   -6.214
 -11.894  -11.747  -11.695  -11.665  -11.640  -11.618  -11.595  -11.572  -11.549  -11.530  -11.520  -11.515  -11.509  -11.500  -11.486  -11.475  -11.472  -11.474  -11.479  -11.467  -11.409  -11.249  -10.927  -10.391   -9.644   -8.757   -7.851   -7.062   -6.463   -6.061   -5.817   -5.681   -5.615   -5.606   -5.656   -5.758   -5.888   -6.009   -6.094   -6.121   -6.089   -6.007   -5.896   -5.776   -5.681   -5.624   -5.605   -5.607   -5.601   -5.569   -5.513   -5.449   -5.383   -5.324   -5.279   -5.263   -5.279   -5.311   -5.341   -5.361   -5.383   -5.418   -5.462   -5.496   -5.511   -5.505   -5.481   -5.460   -5.468   -5.501   -5.549   -5.586   -5.586   -5.548   -5.481   -5.428   -5.418   -5.446   -5.490   -5.519   -5.520   -5.503   -5.478   -5.450   -5.422   -5.406   -5.418   -5.469   -5.572   -5.724   -5.936   -6.192   -6.472   -6.744   -6.966   -7.100   -7.154   -7.160   -7.161   -7.263
 -12.471  -12.318  -12.266  -12.235  -12.212  -12.190  -12.163  -12.133  -12.104  -12.079  -12.062  -12.052  -12.042  -12.031  -12.021  -12.015  -12.018  -12.031  -12.041  -12.032  -11.975  -11.815  -11.495  -10.957  -10.207   -9.308   -8.377   -7.541   -6.876   -6.400   -6.084   -5.891   -5.797   -5.794   -5.885   -6.055   -6.265   -6.465   -6.603   -6.644   -6.576   -6.417   -6.204   -5.985   -5.811   -5.704   -5.662   -5.655   -5.638   -5.584   -5.499   -5.405   -5.331   -5.276   -5.246   -5.249   -5.290   -5.343   -5.385   -5.405   -5.414   -5.433   -5.461   -5.491   -5.510   -5.512   -5.506   -5.503   -5.528   -5.583   -5.644   -5.686   -5.679   -5.623   -5.541   -5.471   -5.441   -5.448   -5.469   -5.477   -5.468   -5.451   -5.438   -5.430   -5.429   -5.438   -5.479   -5.569   -5.741   -6.011   -6.406   -6.903   -7.459   -7.992   -8.421   -8.702   -8.835   -8.873   -8.878   -8.957
 -13.263  -13.107  -13.058  -13.029  -13.008  -12.984  -12.952  -12.920  -12.886  -12.857  -12.835  -12.820  -12.806  -12.793  -12.781  -12.773  -12.776  -12.788  -12.799  -12.795  -12.740  -12.588  -12.271  -11.738  -10.984  -10.068   -9.097   -8.189   -7.430   -6.848   -6.434   -6.165   -6.032   -6.038   -6.185   -6.453   -6.773   -7.072   -7.269   -7.314   -7.187   -6.915   -6.568   -6.226   -5.958   -5.793   -5.723   -5.705   -5.684   -5.617   -5.515   -5.411   -5.334   -5.292   -5.281   -5.300   -5.351   -5.409   -5.450   -5.462   -5.450   -5.444   -5.455   -5.478   -5.507   -5.527   -5.539   -5.553   -5.582   -5.636   -5.691   -5.728   -5.716   -5.661   -5.586   -5.520   -5.480   -5.470   -5.465   -5.448   -5.424   -5.403   -5.403   -5.415   -5.440   -5.477   -5.548   -5.683   -5.935   -6.361   -7.001   -7.836   -8.766   -9.653  -10.362  -10.832  -11.074  -11.155  -11.167  -11.206
 -14.225  -14.072  -14.026  -14.001  -13.976  -13.944  -13.899  -13.851  -13.801  -13.764  -13.740  -13.721  -13.706  -13.689  -13.671  -13.658  -13.657  -13.660  -13.669  -13.664  -13.614  -13.467  -13.157  -12.628  -11.870  -10.933   -9.910   -8.920   -8.053   -7.349   -6.821   -6.466   -6.290   -6.310   -6.530   -6.913   -7.362   -7.765   -8.020   -8.053   -7.843   -7.436   -6.932   -6.450   -6.078   -5.852   -5.753   -5.723   -5.701   -5.634   -5.529   -5.427   -5.363   -5.344   -5.356   -5.387   -5.434   -5.481   -5.509   -5.504   -5.474   -5.447   -5.442   -5.465   -5.500   -5.534   -5.556   -5.573   -5.597   -5.633   -5.672   -5.695   -5.686   -5.648   -5.598   -5.553   -5.519   -5.495   -5.472   -5.439   -5.407   -5.388   -5.396   -5.426   -5.465   -5.516   -5.602   -5.771   -6.106   -6.709   -7.643   -8.869  -10.232  -11.516  -12.535  -13.211  -13.573  -13.711  -13.734  -13.728
 -15.363  -15.210  -15.169  -15.140  -15.099  -15.032  -14.935  -14.830  -14.737  -14.672  -14.634  -14.613  -14.597  -14.578  -14.557  -14.536  -14.526  -14.523  -14.525  -14.516  -14.466  -14.321  -14.014  -13.487  -12.721  -11.757  -10.684   -9.612   -8.637   -7.818   -7.183   -6.747   -6.534   -6.577   -6.875   -7.371   -7.943   -8.440   -8.738   -8.749   -8.451   -7.907   -7.246   -6.619   -6.137   -5.843   -5.711   -5.677   -5.657   -5.601   -5.510   -5.429   -5.394   -5.407   -5.444   -5.482   -5.511   -5.531   -5.537   -5.518   -5.479   -5.445   -5.432   -5.451   -5.488   -5.522   -5.544   -5.551   -5.560   -5.574   -5.595   -5.607   -5.603   -5.588   -5.571   -5.554   -5.539   -5.519   -5.492   -5.460   -5.434   -5.429   -5.450   -5.481   -5.516   -5.557   -5.630   -5.811   -6.219   -6.999   -8.230   -9.851  -11.637  -13.299  -14.608  -15.480  -15.959  -16.158  -16.200  -16.146
 -16.838  -16.692  -16.656  -16.612  -16.509  -16.331  -16.094  -15.841  -15.627  -15.482  -15.402  -15.366  -15.348  -15.329  -15.306  -15.282  -15.266  -15.258  -15.253  -15.239  -15.185  -15.037  -14.727  -14.192  -13.413  -12.422  -11.300  -10.156   -9.090   -8.175   -7.457   -6.965   -6.737   -6.812   -7.187   -7.781   -8.444   -9.006   -9.325   -9.305   -8.932   -8.272   -7.476   -6.716   -6.130   -5.769   -5.605   -5.571   -5.568   -5.533   -5.470   -5.419   -5.420   -5.466   -5.520   -5.551   -5.557   -5.550   -5.534   -5.512   -5.482   -5.450   -5.434   -5.444   -5.472   -5.498   -5.510   -5.506   -5.498   -5.497   -5.503   -5.510   -5.512   -5.516   -5.526   -5.537   -5.545   -5.538   -5.521   -5.503   -5.498   -5.515   -5.549   -5.577   -5.591   -5.596   -5.634   -5.810   -6.274   -7.204   -8.700  -10.660  -12.800  -14.774  -16.321  -17.355  -17.929  -18.180  -18.240  -18.145
 -19.056  -18.934  -18.908  -18.808  -18.549  -18.113  -17.550  -16.971  -16.487  -16.165  -15.991  -15.916  -15.886  -15.866  -15.845  -15.824  -15.808  -15.798  -15.790  -15.772  -15.710  -15.554  -15.234  -14.686  -13.886  -12.862  -11.698  -10.494   -9.363   -8.384   -7.624   -7.116   -6.908   -7.032   -7.470   -8.129   -8.840   -9.424   -9.734   -9.681   -9.249   -8.508   -7.614   -6.756   -6.086   -5.671   -5.493   -5.467   -5.490   -5.485   -5.450   -5.427   -5.450   -5.507   -5.557   -5.573   -5.558   -5.535   -5.520   -5.509   -5.489   -5.464   -5.444   -5.442   -5.460   -5.478   -5.485   -5.475   -5.459   -5.449   -5.449   -5.458   -5.469   -5.484   -5.505   -5.530   -5.543   -5.543   -5.538   -5.544   -5.571   -5.616   -5.660   -5.678   -5.660   -5.624   -5.627   -5.790   -6.295   -7.344   -9.037  -11.249  -13.644  -15.837  -17.553  -18.699  -19.339  -19.624  -19.693  -19.569
 -22.590  -22.526  -22.489  -22.240  -21.652  -20.715  -19.550  -18.376  -17.410  -16.766  -16.416  -16.268  -16.215  -16.192  -16.175  -16.160  -16.148  -16.141  -16.133  -16.112  -16.043  -15.877  -15.540  -14.973  -14.144  -13.086  -11.878  -10.628   -9.456   -8.456   -7.699   -7.230   -7.086   -7.275   -7.766   -8.448   -9.155   -9.713   -9.983   -9.885   -9.406   -8.618   -7.675   -6.761   -6.043   -5.601   -5.423   -5.419   -5.471   -5.493   -5.477   -5.461   -5.480   -5.523   -5.552   -5.550   -5.530   -5.510   -5.505   -5.504   -5.493   -5.470   -5.446   -5.440   -5.457   -5.482   -5.496   -5.486   -5.463   -5.451   -5.457   -5.476   -5.496   -5.512   -5.527   -5.534   -5.529   -5.522   -5.527   -5.563   -5.625   -5.696   -5.746   -5.750   -5.706   -5.642   -5.624   -5.782   -6.317   -7.445   -9.261  -11.622  -14.168  -16.489  -18.301  -19.507  -20.179  -20.474  -20.542  -20.403
 -27.815  -27.835  -27.698  -27.137  -25.992  -24.277  -22.209  -20.151  -18.466  -17.344  -16.738  -16.480  -16.391  -16.362  -16.350  -16.341  -16.334  -16.332  -16.326  -16.303  -16.230  -16.051  -15.695  -15.099  -14.237  -13.139  -11.889  -10.605   -9.416   -8.434   -7.738   -7.363   -7.324   -7.599   -8.127   -8.791   -9.445   -9.932  -10.134   -9.981   -9.464   -8.654   -7.693   -6.768   -6.037   -5.590   -5.421   -5.431   -5.503   -5.538   -5.525   -5.501   -5.503   -5.523   -5.531   -5.520   -5.503   -5.487   -5.485   -5.485   -5.473   -5.445   -5.420   -5.426   -5.458   -5.504   -5.530   -5.526   -5.500   -5.489   -5.504   -5.535   -5.563   -5.574   -5.566   -5.535   -5.494   -5.469   -5.484   -5.546   -5.639   -5.730   -5.781   -5.776   -5.719   -5.647   -5.628   -5.797   -6.354   -7.520   -9.390  -11.811  -14.410  -16.775  -18.615  -19.835  -20.508  -20.794  -20.854  -20.709
 -34.421  -34.507  -34.122  -33.052  -31.147  -28.461  -25.300  -22.177  -19.623  -17.922  -17.009  -16.619  -16.487  -16.450  -16.439  -16.433  -16.429  -16.424  -16.420  -16.397  -16.321  -16.134  -15.760  -15.134  -14.229  -13.085  -11.798  -10.496   -9.322   -8.399   -7.806   -7.566   -7.657   -8.018   -8.563   -9.180   -9.747  -10.138  -10.259  -10.050   -9.506   -8.690   -7.738   -6.821   -6.093   -5.645   -5.468   -5.470   -5.532   -5.564   -5.551   -5.524   -5.518   -5.528   -5.533   -5.523   -5.503   -5.483   -5.464   -5.446   -5.419   -5.384   -5.364   -5.384   -5.441   -5.511   -5.553   -5.554   -5.531   -5.519   -5.535   -5.572   -5.605   -5.611   -5.583   -5.521   -5.449   -5.407   -5.422   -5.498   -5.605   -5.697   -5.745   -5.739   -5.686   -5.628   -5.630   -5.819   -6.390   -7.561   -9.418  -11.813  -14.387  -16.722  -18.535  -19.731  -20.381  -20.652  -20.702  -20.557
 -41.389  -41.475  -40.709  -38.979  -36.203  -32.501  -28.254  -24.093  -20.698  -18.444  -17.241  -16.729  -16.556  -16.510  -16.498  -16.489  -16.477  -16.467  -16.456  -16.433  -16.363  -16.175  -15.788  -15.133  -14.188  -13.000  -11.683  -10.386   -9.261   -8.429   -7.966   -7.872   -8.086   -8.508   -9.038   -9.583  -10.047  -10.343  -10.392  -10.144   -9.592   -8.787   -7.853   -6.949   -6.220   -5.754   -5.542   -5.500   -5.525   -5.540   -5.528   -5.520   -5.533   -5.562   -5.582   -5.575   -5.537   -5.488   -5.440   -5.400   -5.359   -5.319   -5.300   -5.326   -5.398   -5.482   -5.537   -5.539   -5.512   -5.492   -5.502   -5.538   -5.579   -5.596   -5.572   -5.505   -5.421   -5.364   -5.367   -5.430   -5.523   -5.602   -5.642   -5.638   -5.606   -5.575   -5.610   -5.822   -6.394   -7.528   -9.312  -11.612  -14.081  -16.324  -18.060  -19.201  -19.815  -20.065  -20.108  -19.975
 -47.693  -47.667  -46.428  -43.937  -40.239  -35.573  -30.402  -25.432  -21.428  -18.797  -17.405  -16.816  -16.619  -16.568  -16.555  -16.537  -16.514  -16.492  -16.477  -16.461  -16.404  -16.227  -15.834  -15.152  -14.167  -12.941  -11.612  -10.345   -9.297   -8.586   -8.258   -8.291   -8.585   -9.024   -9.506   -9.954  -10.308  -10.511  -10.504  -10.237   -9.699   -8.922   -8.014   -7.123   -6.391   -5.893   -5.623   -5.511   -5.476   -5.468   -5.472   -5.500   -5.557   -5.620   -5.653   -5.632   -5.565   -5.489   -5.422   -5.375   -5.335   -5.292   -5.269   -5.289   -5.353   -5.433   -5.482   -5.480   -5.444   -5.413   -5.414   -5.453   -5.511   -5.559   -5.567   -5.521   -5.441   -5.373   -5.348   -5.373   -5.425   -5.475   -5.501   -5.503   -5.492   -5.497   -5.563   -5.790   -6.338   -7.390   -9.038  -11.166  -13.455  -15.538  -17.151  -18.207  -18.774  -19.002  -19.039  -18.929
 -52.821  -52.495  -50.627  -47.248  -42.611  -37.097  -31.246  -25.826  -21.594  -18.876  -17.459  -16.867  -16.675  -16.631  -16.624  -16.610  -16.586  -16.565  -16.560  -16.568  -16.541  -16.382  -15.981  -15.261  -14.221  -12.957  -11.628  -10.417   -9.473   -8.889   -8.682   -8.801   -9.128   -9.542   -9.945  -10.280  -10.515  -10.617  -10.548  -10.265   -9.745   -9.004   -8.132   -7.262   -6.528   -6.004   -5.679   -5.504   -5.420   -5.396   -5.420   -5.489   -5.588   -5.670   -5.697   -5.651   -5.563   -5.482   -5.437   -5.422   -5.401   -5.360   -5.325   -5.321   -5.358   -5.411   -5.440   -5.422   -5.373   -5.335   -5.335   -5.385   -5.472   -5.562   -5.610   -5.589   -5.514   -5.429   -5.372   -5.354   -5.364   -5.381   -5.386   -5.390   -5.393   -5.420   -5.503   -5.720   -6.207   -7.129   -8.572  -10.443  -12.472  -14.323  -15.761  -16.703  -17.205  -17.406  -17.442  -17.364
 -56.338  -55.483  -52.782  -48.480  -43.016  -36.841  -30.611  -25.165  -21.134  -18.643  -17.377  -16.862  -16.717  -16.719  -16.762  -16.801  -16.825  -16.853  -16.906  -16.976  -17.000  -16.852  -16.405  -15.587  -14.438  -13.093  -11.749  -10.597   -9.766   -9.307   -9.200   -9.366   -9.688  -10.051  -10.366  -10.588  -10.698  -10.683  -10.529  -10.205   -9.686   -8.974   -8.140   -7.302   -6.579   -6.044   -5.698   -5.491   -5.388   -5.367   -5.417   -5.519   -5.632   -5.706   -5.702   -5.626   -5.539   -5.499   -5.523   -5.569   -5.587   -5.557   -5.508   -5.476   -5.474   -5.489   -5.482   -5.441   -5.384   -5.347   -5.357   -5.418   -5.519   -5.632   -5.697   -5.684   -5.607   -5.508   -5.432   -5.391   -5.375   -5.368   -5.359   -5.350   -5.351   -5.376   -5.444   -5.624   -6.019   -6.766   -7.939   -9.476  -11.152  -12.697  -13.902  -14.693  -15.111  -15.271  -15.299  -15.265
 -57.416  -56.018  -52.559  -47.570  -41.519  -34.926  -28.679  -23.640  -20.182  -18.160  -17.173  -16.810  -16.782  -16.922  -17.131  -17.352  -17.560  -17.763  -17.976  -18.170  -18.249  -18.052  -17.437  -16.369  -14.954  -13.414  -11.991  -10.865  -10.127   -9.771   -9.737   -9.922  -10.219  -10.527  -10.767  -10.895  -10.892  -10.760  -10.504  -10.115   -9.574   -8.882   -8.082   -7.278   -6.577   -6.051   -5.708   -5.516   -5.434   -5.444   -5.520   -5.630   -5.726   -5.759   -5.710   -5.617   -5.558   -5.593   -5.711   -5.838   -5.903   -5.887   -5.827   -5.767   -5.729   -5.703   -5.663   -5.606   -5.551   -5.521   -5.535   -5.587   -5.667   -5.749   -5.792   -5.767   -5.688   -5.596   -5.525   -5.487   -5.469   -5.453   -5.434   -5.411   -5.398   -5.397   -5.432   -5.551   -5.828   -6.369   -7.229   -8.366   -9.616  -10.779  -11.692  -12.285  -12.589  -12.692  -12.699  -12.713
 -55.540  -53.891  -50.127  -44.828  -38.453  -31.784  -25.951  -21.683  -19.002  -17.536  -16.882  -16.744  -16.958  -17.429  -18.058  -18.746  -19.417  -20.034  -20.570  -20.952  -21.027  -20.603  -19.558  -17.933  -15.968  -14.012  -12.366  -11.193  -10.500  -10.214  -10.220  -10.400  -10.660  -10.913  -11.097  -11.161  -11.085  -10.870  -10.532  -10.086   -9.524   -8.843   -8.076   -7.306   -6.629   -6.122   -5.808   -5.658   -5.630   -5.684   -5.779   -5.872   -5.922   -5.901   -5.812   -5.714   -5.699   -5.819   -6.029   -6.229   -6.336   -6.337   -6.272   -6.197   -6.132   -6.078   -6.021   -5.967   -5.921   -5.896   -5.889   -5.894   -5.910   -5.925   -5.920   -5.883   -5.817   -5.753   -5.709   -5.691   -5.682   -5.668   -5.647   -5.611   -5.578   -5.553   -5.548   -5.601   -5.762   -6.089   -6.617   -7.317   -8.095   -8.815   -9.374   -9.725   -9.882   -9.905   -9.878   -9.929
 -51.351  -49.713  -46.012  -40.684  -34.346  -28.105  -23.104  -19.770  -17.843  -16.866  -16.525  -16.695  -17.361  -18.502  -19.988  -21.608  -23.161  -24.504  -25.528  -26.088  -25.989  -25.037  -23.169  -20.562  -17.645  -14.955  -12.885  -11.548  -10.843  -10.583  -10.596  -10.751  -10.957  -11.151  -11.285  -11.317  -11.218  -10.984  -10.633  -10.177   -9.618   -8.960   -8.231   -7.500   -6.859   -6.389   -6.117   -6.025   -6.054   -6.142   -6.234   -6.285   -6.277   -6.202   -6.084   -5.999   -6.031   -6.214   -6.488   -6.736   -6.876   -6.898   -6.848   -6.776   -6.708   -6.652   -6.601   -6.563   -6.530   -6.496   -6.452   -6.390   -6.328   -6.277   -6.235   -6.202   -6.168   -6.139   -6.123   -6.118   -6.119   -6.109   -6.087   -6.049   -6.000   -5.953   -5.924   -5.931   -5.991   -6.123   -6.332   -6.603   -6.891   -7.140   -7.307   -7.374   -7.348   -7.261   -7.181   -7.252
 -46.023  -44.372  -40.843  -35.795  -30.037  -24.729  -20.753  -18.245  -16.846  -16.177  -16.089  -16.667  -18.079  -20.351  -23.231  -26.278  -29.066  -31.310  -32.823  -33.426  -32.925  -31.162  -28.147  -24.190  -19.944  -16.203  -13.499  -11.894  -11.120  -10.856  -10.854  -10.964  -11.104  -11.228  -11.310  -11.326  -11.250  -11.073  -10.785  -10.385   -9.874   -9.262   -8.585   -7.912   -7.333   -6.921   -6.707   -6.666   -6.734   -6.826   -6.887   -6.884   -6.818   -6.704   -6.583   -6.517   -6.584   -6.798   -7.103   -7.381   -7.554   -7.612   -7.597   -7.554   -7.512   -7.475   -7.452   -7.440   -7.426   -7.382   -7.302   -7.196   -7.091   -7.009   -6.967   -6.951   -6.947   -6.942   -6.936   -6.930   -6.929   -6.923   -6.904   -6.864   -6.806   -6.753   -6.716   -6.698   -6.686   -6.653   -6.581   -6.461   -6.289   -6.078   -5.846   -5.600   -5.352   -5.126   -4.969   -5.036
 -40.560  -38.904  -35.773  -31.462  -26.735  -22.506  -19.349  -17.294  -16.064  -15.456  -15.536  -16.630  -19.099  -22.944  -27.615  -32.286  -36.289  -39.265  -41.048  -41.511  -40.496  -37.862  -33.648  -28.246  -22.505  -17.539  -14.089  -12.163  -11.306  -11.030  -11.009  -11.075  -11.147  -11.199  -11.231  -11.238  -11.209  -11.120  -10.943  -10.645  -10.221   -9.686   -9.090   -8.506   -8.018   -7.684   -7.528   -7.524   -7.597   -7.667   -7.680   -7.627   -7.522   -7.392   -7.281   -7.242   -7.331   -7.568   -7.895   -8.206   -8.428   -8.545   -8.592   -8.601   -8.600   -8.603   -8.615   -8.632   -8.632   -8.592   -8.511   -8.404   -8.310   -8.245   -8.226   -8.233   -8.243   -8.241   -8.228   -8.213   -8.208   -8.210   -8.195   -8.153   -8.091   -8.035   -8.000   -7.969   -7.902   -7.741   -7.444   -7.000   -6.444   -5.832   -5.218   -4.652   -4.158   -3.769   -3.518   -3.561
 -36.789  -35.350  -32.891  -29.511  -25.719  -22.138  -19.207  -17.038  -15.545  -14.721  -14.857  -16.537  -20.279  -25.905  -32.360  -38.398  -43.261  -46.668  -48.547  -48.808  -47.273  -43.819  -38.551  -31.880  -24.762  -18.628  -14.480  -12.286  -11.383  -11.117  -11.093  -11.128  -11.149  -11.144  -11.131  -11.129  -11.135  -11.125  -11.052  -10.864  -10.545  -10.116   -9.629   -9.158   -8.774   -8.523   -8.414   -8.419   -8.471   -8.507   -8.482   -8.398   -8.282   -8.163   -8.080   -8.076   -8.200   -8.472   -8.843   -9.220   -9.522   -9.726   -9.848   -9.919   -9.966  -10.003  -10.040  -10.076  -10.094  -10.071  -10.017   -9.951   -9.902   -9.883   -9.893   -9.915   -9.928   -9.918   -9.895   -9.881   -9.886   -9.905   -9.900   -9.858   -9.790   -9.729   -9.689   -9.646   -9.534   -9.279   -8.822   -8.155   -7.323   -6.401   -5.478   -4.622   -3.891   -3.329   -2.978   -2.985
 -36.750  -35.694  -33.786  -30.963  -27.482  -23.798  -20.379  -17.521  -15.356  -14.062  -14.125  -16.352  -21.347  -28.590  -36.431  -43.389  -48.862  -52.681  -54.710  -54.740  -52.546  -48.190  -42.005  -34.364  -26.186  -19.165  -14.544  -12.229  -11.356  -11.139  -11.135  -11.159  -11.153  -11.117  -11.075  -11.059  -11.074  -11.098  -11.081  -10.974  -10.753  -10.436  -10.071   -9.718   -9.431   -9.246   -9.162   -9.157   -9.180   -9.185   -9.139   -9.053   -8.950   -8.864   -8.825   -8.874   -9.060   -9.404   -9.860  -10.344  -10.759  -11.061  -11.261  -11.384  -11.461  -11.518  -11.565  -11.604  -11.627  -11.627  -11.608  -11.590  -11.591  -11.617  -11.653  -11.688  -11.705  -11.696  -11.681  -11.683  -11.718  -11.762  -11.771  -11.731  -11.658  -11.590  -11.542  -11.483  -11.339  -11.026  -10.484   -9.705   -8.730   -7.636   -6.513   -5.456   -4.542   -3.846   -3.414   -3.386
 -39.956  -39.253  -37.541  -34.754  -31.026  -26.731  -22.402  -18.536  -15.478  -13.572  -13.444  -16.049  -21.973  -30.322  -38.990  -46.499  -52.519  -56.835  -59.023  -58.675  -55.658  -50.413  -43.532  -35.265  -26.457  -19.001  -14.257  -12.016  -11.263  -11.129  -11.161  -11.190  -11.175  -11.130  -11.076  -11.048  -11.048  -11.064  -11.056  -10.984  -10.834  -10.613  -10.357  -10.107   -9.900   -9.756   -9.679   -9.655   -9.648   -9.630   -9.581   -9.510   -9.438   -9.394   -9.406   -9.520   -9.792  -10.240  -10.817  -11.428  -11.965  -12.366  -12.629  -12.786  -12.876  -12.931  -12.971  -13.001  -13.021  -13.028  -13.034  -13.050  -13.083  -13.135  -13.189  -13.234  -13.263  -13.272  -13.281  -13.315  -13.381  -13.450  -13.478  -13.447  -13.378  -13.311  -13.258  -13.190  -13.031  -12.704  -12.156  -11.376  -10.394   -9.281   -8.118   -6.996   -6.007   -5.249   -4.775   -4.714
 -43.984  -43.488  -41.720  -38.694  -34.533  -29.572  -24.375  -19.585  -15.727  -13.270  -12.899  -15.588  -21.854  -30.599  -39.533  -47.218  -53.437  -57.888  -59.964  -59.219  -55.701  -50.078  -42.931  -34.415  -25.487  -18.158  -13.692  -11.721  -11.152  -11.113  -11.180  -11.220  -11.210  -11.165  -11.115  -11.080  -11.063  -11.051  -11.026  -10.962  -10.851  -10.699  -10.524  -10.351  -10.201  -10.087  -10.014   -9.971   -9.943   -9.910   -9.863   -9.812   -9.769   -9.760   -9.821  -10.002  -10.359  -10.913  -11.611  -12.344  -12.989  -13.471  -13.781  -13.954  -14.042  -14.085  -14.111  -14.126  -14.136  -14.143  -14.156  -14.181  -14.222  -14.278  -14.335  -14.387  -14.428  -14.457  -14.492  -14.551  -14.639  -14.724  -14.766  -14.748  -14.694  -14.638  -14.595  -14.530  -14.382  -14.088  -13.606  -12.925  -12.072  -11.094  -10.053   -9.021   -8.092   -7.359   -6.892   -6.807
 -46.972  -46.498  -44.538  -41.184  -36.620  -31.187  -25.454  -20.132  -15.841  -13.083  -12.496  -14.939  -20.840  -29.195  -37.851  -45.277  -51.091  -55.054  -56.747  -55.878  -52.542  -47.208  -40.210  -31.848  -23.392  -16.780  -12.964  -11.409  -11.051  -11.097  -11.195  -11.240  -11.234  -11.199  -11.158  -11.122  -11.093  -11.065  -11.025  -10.962  -10.874  -10.767  -10.650  -10.533  -10.427  -10.339  -10.272  -10.222  -10.182  -10.143  -10.102  -10.062  -10.039  -10.056  -10.150  -10.381  -10.803  -11.437  -12.222  -13.039  -13.760  -14.297  -14.639  -14.820  -14.902  -14.935  -14.945  -14.949  -14.949  -14.951  -14.958  -14.974  -15.004  -15.048  -15.097  -15.145  -15.189  -15.227  -15.274  -15.339  -15.425  -15.506  -15.550  -15.544  -15.509  -15.474  -15.447  -15.403  -15.292  -15.071  -14.714  -14.222  -13.618  -12.922  -12.158  -11.359  -10.594   -9.954   -9.526   -9.419
 -47.873  -47.308  -45.152  -41.559  -36.762  -31.129  -25.268  -19.910  -15.646  -12.906  -12.179  -14.099  -19.017  -26.231  -34.026  -40.852  -46.035  -49.360  -50.688  -49.905  -47.015  -42.152  -35.540  -27.822  -20.472  -15.082  -12.169  -11.102  -10.947  -11.063  -11.174  -11.220  -11.217  -11.192  -11.161  -11.130  -11.102  -11.073  -11.034  -10.981  -10.915  -10.843  -10.772  -10.700  -10.633  -10.574  -10.523  -10.478  -10.439  -10.401  -10.363  -10.332  -10.319  -10.346  -10.458  -10.713  -11.166  -11.835  -12.660  -13.520  -14.281  -14.850  -15.210  -15.401  -15.483  -15.510  -15.514  -15.511  -15.505  -15.500  -15.499  -15.502  -15.514  -15.538  -15.571  -15.607  -15.642  -15.675  -15.713  -15.762  -15.824  -15.881  -15.912  -15.909  -15.890  -15.873  -15.864  -15.847  -15.794  -15.682  -15.511  -15.303  -15.072  -14.807  -14.465  -14.014  -13.481  -12.965  -12.579  -12.448
 -46.607  -45.926  -43.667  -39.999  -35.175  -29.630  -24.022  -19.037  -15.149  -12.649  -11.836  -13.099  -16.681  -22.200  -28.525  -34.375  -38.922  -41.818  -42.949  -42.247  -39.663  -35.257  -29.380  -22.912  -17.195  -13.294  -11.353  -10.763  -10.784  -10.944  -11.059  -11.104  -11.107  -11.092  -11.074  -11.056  -11.037  -11.020  -10.997  -10.965  -10.928  -10.892  -10.859  -10.830  -10.800  -10.772  -10.743  -10.717  -10.688  -10.656  -10.629  -10.603  -10.596  -10.626  -10.738  -10.990  -11.443  -12.109  -12.932  -13.798  -14.570  -15.158  -15.538  -15.745  -15.839  -15.872  -15.877  -15.872  -15.863  -15.855  -15.845  -15.839  -15.835  -15.843  -15.859  -15.881  -15.904  -15.924  -15.943  -15.965  -15.992  -16.014  -16.023  -16.014  -16.000  -15.993  -15.998  -16.013  -16.033  -16.071  -16.165  -16.360  -16.668  -17.013  -17.248  -17.247  -16.995  -16.608  -16.251  -16.072
 -43.943  -43.145  -40.862  -37.256  -32.605  -27.406  -22.309  -17.886  -14.476  -12.247  -11.340  -11.944  -14.181  -17.851  -22.311  -26.704  -30.314  -32.712  -33.675  -33.081  -30.894  -27.263  -22.658  -17.925  -14.036  -11.584  -10.510  -10.313  -10.463  -10.648  -10.764  -10.810  -10.821  -10.819  -10.818  -10.821  -10.830  -10.840  -10.845  -10.846  -10.844  -10.847  -10.853  -10.861  -10.867  -10.868  -10.868  -10.865  -10.858  -10.847  -10.835  -10.819  -10.811  -10.837  -10.936  -11.167  -11.588  -12.217  -13.012  -13.860  -14.634  -15.241  -15.650  -15.890  -16.011  -16.064  -16.078  -16.076  -16.067  -16.057  -16.044  -16.032  -16.021  -16.021  -16.026  -16.037  -16.049  -16.058  -16.062  -16.062  -16.062  -16.055  -16.043  -16.025  -16.008  -16.004  -16.022  -16.074  -16.190  -16.430  -16.890  -17.646  -18.683  -19.829  -20.797  -21.349  -21.435  -21.205  -20.880  -20.614
 -40.727  -39.851  -37.646  -34.253  -29.971  -25.281  -20.748  -16.826  -13.765  -11.676  -10.618  -10.653  -11.789  -13.881  -16.563  -19.329  -21.706  -23.351  -24.034  -23.612  -22.062  -19.555  -16.515  -13.564  -11.301  -10.014   -9.588   -9.658   -9.884  -10.078  -10.192  -10.244  -10.268  -10.285  -10.307  -10.339  -10.387  -10.442  -10.493  -10.543  -10.590  -10.641  -10.691  -10.736  -10.771  -10.802  -10.831  -10.863  -10.890  -10.913  -10.924  -10.921  -10.914  -10.925  -10.994  -11.183  -11.547  -12.117  -12.862  -13.682  -14.457  -15.092  -15.548  -15.842  -16.010  -16.096  -16.129  -16.136  -16.129  -16.117  -16.106  -16.096  -16.087  -16.085  -16.089  -16.096  -16.105  -16.113  -16.117  -16.112  -16.099  -16.079  -16.059  -16.039  -16.025  -16.026  -16.057  -16.153  -16.389  -16.884  -17.796  -19.233  -21.131  -23.181  -24.953  -26.120  -26.620  -26.630  -26.393  -26.011
 -37.643  -36.772  -34.750  -31.702  -27.894  -23.730  -19.659  -16.051  -13.133  -11.016   -9.747   -9.326   -9.693  -10.689  -12.068  -13.523  -14.783  -15.654  -15.993  -15.712  -14.794  -13.366  -11.695  -10.155   -9.068   -8.563   -8.531   -8.743   -8.996   -9.185   -9.299   -9.360   -9.397   -9.430   -9.475   -9.543   -9.640   -9.755   -9.875   -9.990  -10.105  -10.215  -10.316  -10.400  -10.468  -10.526  -10.590  -10.662  -10.737  -10.804  -10.848  -10.861  -10.851  -10.837  -10.862  -10.986  -11.275  -11.767  -12.445  -13.228  -14.004  -14.679  -15.199  -15.563  -15.795  -15.927  -15.987  -16.006  -16.005  -15.997  -15.990  -15.989  -15.992  -16.001  -16.015  -16.035  -16.059  -16.084  -16.105  -16.115  -16.114  -16.106  -16.094  -16.084  -16.081  -16.091  -16.138  -16.282  -16.641  -17.393  -18.755  -20.852  -23.550  -26.415  -28.907  -30.665  -31.633  -31.986  -31.934  -31.455
 -35.057  -34.256  -32.466  -29.794  -26.451  -22.749  -19.030  -15.605  -12.704  -10.472   -8.979   -8.212   -8.079   -8.419   -9.012   -9.647  -10.163  -10.471  -10.522  -10.291   -9.791   -9.091   -8.324   -7.673   -7.283   -7.204   -7.358   -7.613   -7.854   -8.032   -8.149   -8.223   -8.266   -8.299   -8.348   -8.441   -8.586   -8.767   -8.965   -9.162   -9.356   -9.537   -9.695   -9.821   -9.918  -10.004  -10.101  -10.216  -10.342  -10.456  -10.537  -10.570  -10.556  -10.512  -10.484  -10.533  -10.735  -11.135  -11.736  -12.470  -13.240  -13.948  -14.532  -14.971  -15.270  -15.450  -15.540  -15.574  -15.581  -15.582  -15.591  -15.610  -15.640  -15.677  -15.726  -15.784  -15.852  -15.925  -15.991  -16.045  -16.083  -16.106  -16.121  -16.131  -16.145  -16.167  -16.229  -16.410  -16.851  -17.778  -19.438  -21.971  -25.198  -28.610  -31.626  -33.885  -35.326  -36.090  -36.308  -35.814
 -32.956  -32.236  -30.659  -28.321  -25.388  -22.094  -18.701  -15.463  -12.604  -10.296   -8.633   -7.620   -7.170   -7.115   -7.261   -7.437   -7.534   -7.511   -7.366   -7.122   -6.811   -6.468   -6.155   -5.936   -5.869   -5.963   -6.163   -6.399   -6.619   -6.800   -6.935   -7.022   -7.054   -7.055   -7.073   -7.156   -7.323   -7.556   -7.823   -8.094   -8.363   -8.611   -8.821   -8.983   -9.102   -9.204   -9.323   -9.470   -9.635   -9.790   -9.909   -9.963   -9.951   -9.880   -9.802   -9.778   -9.891  -10.201  -10.718  -11.390  -12.131  -12.848  -13.469  -13.959  -14.303  -14.519  -14.632  -14.681  -14.700  -14.721  -14.757  -14.814  -14.888  -14.981  -15.098  -15.231  -15.386  -15.547  -15.705  -15.843  -15.953  -16.034  -16.091  -16.131  -16.162  -16.195  -16.263  -16.448  -16.897  -17.841  -19.538  -22.146  -25.500  -29.105  -32.392  -35.006  -36.875  -38.076  -38.629  -38.246
 -31.155  -30.492  -29.085  -27.021  -24.450  -21.555  -18.532  -15.585  -12.903  -10.650   -8.933   -7.778   -7.109   -6.785   -6.639   -6.533   -6.381   -6.160   -5.881   -5.574   -5.275   -5.021   -4.841   -4.756   -4.777   -4.892   -5.072   -5.283   -5.506   -5.721   -5.898   -6.000   -6.004   -5.935   -5.873   -5.896   -6.038   -6.280   -6.578   -6.892   -7.203   -7.488   -7.727   -7.904   -8.027   -8.129   -8.248   -8.401   -8.579   -8.759   -8.901   -8.978   -8.974   -8.892   -8.776   -8.697   -8.740   -8.969   -9.397   -9.991  -10.672  -11.351  -11.958  -12.446  -12.798  -13.019  -13.138  -13.197  -13.236  -13.286  -13.362  -13.471  -13.614  -13.793  -14.011  -14.268  -14.558  -14.863  -15.163  -15.433  -15.652  -15.818  -15.933  -16.010  -16.059  -16.099  -16.160  -16.314  -16.688  -17.488  -18.953  -21.257  -24.315  -27.728  -30.990  -33.760  -35.940  -37.533  -38.442  -38.280
 -29.532  -28.903  -27.622  -25.786  -23.541  -21.046  -18.449  -15.897  -13.533  -11.486   -9.848   -8.647   -7.831   -7.296   -6.918   -6.594   -6.262   -5.888   -5.483   -5.066   -4.673   -4.345   -4.115   -3.992   -3.978   -4.050   -4.191   -4.394   -4.651   -4.933   -5.180   -5.313   -5.283   -5.128   -4.956   -4.876   -4.947   -5.144   -5.419   -5.719   -6.019   -6.293   -6.517   -6.672   -6.773   -6.853   -6.948   -7.077   -7.238   -7.409   -7.556   -7.647   -7.650   -7.567   -7.436   -7.325   -7.317   -7.478   -7.820   -8.316   -8.897   -9.487  -10.021  -10.455  -10.764  -10.957  -11.067  -11.131  -11.192  -11.275  -11.398  -11.571  -11.796  -12.081  -12.430  -12.844  -13.308  -13.803  -14.291  -14.731  -15.091  -15.360  -15.545  -15.659  -15.726  -15.767  -15.810  -15.908  -16.160  -16.720  -17.786  -19.528  -21.950  -24.810  -27.726  -30.405  -32.718  -34.583  -35.793  -35.907
 -28.076  -27.466  -26.281  -24.630  -22.673  -20.554  -18.388  -16.271  -14.293  -12.539  -11.069   -9.902   -9.004   -8.310   -7.740   -7.228   -6.729   -6.215   -5.678   -5.129   -4.598   -4.135   -3.784   -3.558   -3.460   -3.473   -3.579   -3.784   -4.083   -4.441   -4.763   -4.940   -4.903   -4.689   -4.425   -4.248   -4.226   -4.344   -4.548   -4.783   -5.013   -5.213   -5.369   -5.467   -5.522   -5.560   -5.612   -5.693   -5.808   -5.941   -6.062   -6.142   -6.142   -6.059   -5.924   -5.801   -5.759   -5.858   -6.111   -6.492   -6.943   -7.408   -7.827   -8.163   -8.399   -8.541   -8.628   -8.692   -8.769   -8.883   -9.052   -9.281   -9.587   -9.976  -10.455  -11.027  -11.673  -12.364  -13.049  -13.668  -14.177  -14.549  -14.797  -14.943  -15.022  -15.056  -15.073  -15.111  -15.237  -15.553  -16.199  -17.315  -18.958  -21.029  -23.313  -25.615  -27.812  -29.755  -31.143  -31.531
 -26.760  -26.171  -25.059  -23.558  -21.838  -20.040  -18.254  -16.534  -14.927  -13.471  -12.195  -11.104  -10.174   -9.372   -8.646   -7.970   -7.319   -6.675   -6.025   -5.368   -4.732   -4.161   -3.708   -3.403   -3.239   -3.197   -3.270   -3.465   -3.781   -4.177   -4.547   -4.765   -4.755   -4.548   -4.265   -4.041   -3.953   -3.991   -4.105   -4.243   -4.371   -4.468   -4.524   -4.539   -4.532   -4.523   -4.522   -4.549   -4.599   -4.670   -4.739   -4.781   -4.764   -4.676   -4.542   -4.404   -4.328   -4.361   -4.517   -4.777   -5.099   -5.431   -5.726   -5.954   -6.105   -6.194   -6.248   -6.304   -6.386   -6.515   -6.706   -6.970   -7.324   -7.785   -8.352   -9.028   -9.798  -10.630  -11.463  -12.217  -12.832  -13.276  -13.562  -13.726  -13.803  -13.823  -13.810  -13.792  -13.816  -13.942  -14.259  -14.858  -15.802  -17.076  -18.602  -20.298  -22.100  -23.845  -25.202  -25.774
 -25.439  -24.873  -23.828  -22.454  -20.930  -19.392  -17.911  -16.511  -15.204  -14.000  -12.900  -11.893  -10.966  -10.091   -9.254   -8.445   -7.670   -6.928   -6.214   -5.524   -4.871   -4.297   -3.845   -3.533   -3.356   -3.296   -3.348   -3.516   -3.801   -4.169   -4.520   -4.746   -4.778   -4.625   -4.393   -4.191   -4.087   -4.078   -4.125   -4.179   -4.212   -4.210   -4.167   -4.106   -4.037   -3.984   -3.945   -3.918   -3.907   -3.910   -3.918   -3.914   -3.871   -3.775   -3.634   -3.482   -3.364   -3.323   -3.387   -3.546   -3.763   -3.996   -4.199   -4.342   -4.424   -4.462   -4.482   -4.513   -4.577   -4.687   -4.861   -5.116   -5.470   -5.931   -6.500   -7.176   -7.951   -8.797   -9.650  -10.428  -11.054  -11.498  -11.776  -11.931  -11.997  -11.998  -11.953  -11.888  -11.842  -11.852  -11.966  -12.227  -12.676  -13.331  -14.187  -15.247  -16.501  -17.823  -18.929  -19.536
 -23.874  -23.329  -22.363  -21.118  -19.773  -18.451  -17.210  -16.056  -14.980  -13.971  -13.016  -12.096  -11.196  -10.300   -9.406   -8.532   -7.698   -6.931   -6.242   -5.626   -5.085   -4.641   -4.307   -4.096   -3.996   -3.984   -4.055   -4.202   -4.425   -4.697   -4.955   -5.122   -5.145   -5.032   -4.856   -4.697   -4.601   -4.578   -4.588   -4.593   -4.566   -4.495   -4.384   -4.255   -4.141   -4.048   -3.970   -3.899   -3.837   -3.786   -3.748   -3.715   -3.659   -3.567   -3.433   -3.271   -3.115   -3.017   -3.013   -3.114   -3.286   -3.482   -3.643   -3.742   -3.781   -3.777   -3.760   -3.752   -3.767   -3.821   -3.938   -4.141   -4.439   -4.829   -5.297   -5.845   -6.472   -7.158   -7.853   -8.478   -8.970   -9.309   -9.519   -9.633   -9.673   -9.654   -9.588   -9.498   -9.418   -9.373   -9.388   -9.473   -9.642   -9.914  -10.320  -10.904  -11.678  -12.561  -13.343  -13.883
 -21.887  -21.359  -20.497  -19.408  -18.253  -17.135  -16.101  -15.149  -14.254  -13.401  -12.574  -11.756  -10.928  -10.091   -9.245   -8.423   -7.662   -7.008   -6.479   -6.078   -5.791   -5.607   -5.521   -5.527   -5.610   -5.744   -5.911   -6.092   -6.267   -6.421   -6.516   -6.523   -6.423   -6.240   -6.021   -5.829   -5.703   -5.643   -5.618   -5.589   -5.528   -5.413   -5.247   -5.056   -4.868   -4.700   -4.550   -4.412   -4.284   -4.179   -4.103   -4.058   -4.017   -3.957   -3.854   -3.710   -3.548   -3.427   -3.405   -3.504   -3.692   -3.905   -4.074   -4.165   -4.184   -4.156   -4.103   -4.047   -4.005   -3.993   -4.038   -4.168   -4.384   -4.662   -4.977   -5.315   -5.676   -6.050   -6.406   -6.698   -6.895   -7.011   -7.073   -7.107   -7.113   -7.079   -7.006   -6.915   -6.833   -6.789   -6.784   -6.809   -6.862   -6.962   -7.156   -7.499   -8.012   -8.627   -9.191   -9.654
 -19.539  -19.034  -18.314  -17.423  -16.485  -15.582  -14.748  -13.977  -13.251  -12.553  -11.875  -11.206  -10.545   -9.892   -9.261   -8.686   -8.208   -7.868   -7.690   -7.661   -7.760   -7.957   -8.232   -8.572   -8.955   -9.359   -9.739  -10.052  -10.250  -10.306  -10.202   -9.943   -9.560   -9.102   -8.643   -8.248   -7.953   -7.763   -7.646   -7.554   -7.440   -7.268   -7.019   -6.712   -6.377   -6.038   -5.708   -5.402   -5.127   -4.909   -4.759   -4.673   -4.631   -4.599   -4.536   -4.430   -4.296   -4.196   -4.197   -4.328   -4.557   -4.805   -4.993   -5.092   -5.108   -5.070   -4.998   -4.913   -4.832   -4.777   -4.781   -4.866   -5.021   -5.211   -5.391   -5.530   -5.621   -5.647   -5.592   -5.449   -5.250   -5.050   -4.902   -4.818   -4.767   -4.715   -4.649   -4.575   -4.523   -4.516   -4.546   -4.591   -4.646   -4.725   -4.886   -5.198   -5.666   -6.224   -6.724   -7.155
 -17.210  -16.748  -16.202  -15.541  -14.846  -14.179  -13.564  -12.998  -12.475  -11.984  -11.530  -11.121  -10.767  -10.486  -10.291  -10.209  -10.261  -10.464  -10.817  -11.303  -11.890  -12.549  -13.263  -14.022  -14.809  -15.591  -16.299  -16.850  -17.162  -17.180  -16.885  -16.297  -15.487  -14.555  -13.619  -12.788  -12.126  -11.650  -11.326  -11.087  -10.857  -10.564  -10.162   -9.651   -9.056   -8.412   -7.754   -7.121   -6.552   -6.083   -5.729   -5.493   -5.351   -5.262   -5.181   -5.074   -4.954   -4.867   -4.882   -5.024   -5.256   -5.501   -5.684   -5.774   -5.786   -5.742   -5.670   -5.587   -5.507   -5.457   -5.473   -5.566   -5.718   -5.880   -6.001   -6.041   -5.977   -5.772   -5.409   -4.907   -4.340   -3.831   -3.458   -3.230   -3.099   -3.013   -2.938   -2.882   -2.868   -2.911   -3.014   -3.142   -3.274   -3.421   -3.642   -4.016   -4.547   -5.156   -5.683   -6.103
 -15.402  -15.014  -14.653  -14.236  -13.804  -13.401  -13.053  -12.764  -12.530  -12.354  -12.255  -12.257  -12.393  -12.687  -13.155  -13.784  -14.553  -15.434  -16.403  -17.438  -18.518  -19.632  -20.783  -21.978  -23.201  -24.400  -25.482  -26.324  -26.814  -26.870  -26.455  -25.589  -24.352  -22.883  -21.353  -19.929  -18.736  -17.821  -17.155  -16.653  -16.206  -15.707  -15.084  -14.305  -13.381  -12.349  -11.260  -10.182   -9.172   -8.278   -7.536   -6.951   -6.506   -6.170   -5.896   -5.649   -5.421   -5.254   -5.192   -5.249   -5.393   -5.556   -5.672   -5.721   -5.710   -5.657   -5.591   -5.526   -5.473   -5.463   -5.520   -5.655   -5.841   -6.032   -6.179   -6.243   -6.188   -5.959   -5.519   -4.882   -4.145   -3.454   -2.920   -2.567   -2.343   -2.194   -2.087   -2.021   -2.029   -2.132   -2.330   -2.581   -2.831   -3.074   -3.359   -3.765   -4.319   -4.935   -5.461   -5.853
 -14.425  -14.125  -13.947  -13.776  -13.629  -13.539  -13.532  -13.610  -13.777  -14.035  -14.414  -14.955  -15.708  -16.703  -17.927  -19.325  -20.814  -22.322  -23.807  -25.262  -26.700  -28.148  -29.640  -31.192  -32.787  -34.347  -35.752  -36.857  -37.536  -37.700  -37.300  -36.345  -34.900  -33.099  -31.133  -29.210  -27.509  -26.124  -25.053  -24.212  -23.474  -22.713  -21.834  -20.787  -19.564  -18.192  -16.722  -15.215  -13.735  -12.332  -11.049   -9.914   -8.927   -8.079   -7.342   -6.690   -6.119   -5.659   -5.334   -5.146   -5.065   -5.035   -5.008   -4.962   -4.898   -4.826   -4.753   -4.692   -4.659   -4.680   -4.772   -4.939   -5.154   -5.378   -5.584   -5.746   -5.821   -5.751   -5.466   -4.959   -4.305   -3.641   -3.083   -2.671   -2.375   -2.151   -1.984   -1.886   -1.902   -2.063   -2.367   -2.752   -3.124   -3.437   -3.724   -4.066   -4.510   -5.006   -5.435   -5.755
 -14.362  -14.152  -14.149  -14.222  -14.381  -14.647  -15.033  -15.538  -16.153  -16.882  -17.756  -18.834  -20.174  -21.797  -23.659  -25.653  -27.651  -29.557  -31.334  -33.005  -34.627  -36.264  -37.972  -39.775  -41.638  -43.462  -45.105  -46.417  -47.273  -47.590  -47.326  -46.484  -45.118  -43.339  -41.310  -39.231  -37.292  -35.622  -34.251  -33.115  -32.100  -31.087  -29.980  -28.728  -27.312  -25.744  -24.055  -22.282  -20.461  -18.625  -16.807  -15.041  -13.358  -11.777  -10.310   -8.962   -7.756   -6.725   -5.887   -5.241   -4.764   -4.416   -4.157   -3.962   -3.806   -3.683   -3.580   -3.499   -3.456   -3.469   -3.547   -3.694   -3.891   -4.115   -4.355   -4.603   -4.829   -4.980   -4.971   -4.760   -4.375   -3.917   -3.480   -3.106   -2.785   -2.511   -2.293   -2.168   -2.190   -2.399   -2.785   -3.266   -3.718   -4.046   -4.260   -4.441   -4.666   -4.932   -5.173   -5.397
 -15.403  -15.276  -15.427  -15.722  -16.165  -16.762  -17.510  -18.391  -19.380  -20.477  -21.719  -23.169  -24.890  -26.888  -29.100  -31.390  -33.613  -35.673  -37.550  -39.292  -40.986  -42.723  -44.572  -46.557  -48.635  -50.691  -52.570  -54.114  -55.187  -55.701  -55.618  -54.957  -53.791  -52.231  -50.419  -48.515  -46.673  -45.008  -43.558  -42.286  -41.105  -39.923  -38.666  -37.291  -35.785  -34.151  -32.399  -30.533  -28.554  -26.457  -24.251  -21.957  -19.614  -17.268  -14.971  -12.774  -10.735   -8.908   -7.337   -6.035   -4.998   -4.200   -3.619   -3.210   -2.925   -2.726   -2.573   -2.454   -2.373   -2.338   -2.359   -2.444   -2.577   -2.754   -2.970   -3.236   -3.541   -3.847   -4.077   -4.164   -4.093   -3.912   -3.669   -3.406   -3.130   -2.862   -2.636   -2.510   -2.542   -2.770   -3.181   -3.685   -4.127   -4.402   -4.499   -4.493   -4.482   -4.501   -4.549   -4.682
 -17.951  -17.916  -18.173  -18.613  -19.237  -20.041  -21.003  -22.084  -23.256  -24.512  -25.890  -27.455  -29.264  -31.326  -33.569  -35.863  -38.070  -40.103  -41.953  -43.676  -45.371  -47.139  -49.059  -51.159  -53.399  -55.668  -57.812  -59.658  -61.045  -61.855  -62.044  -61.635  -60.721  -59.437  -57.932  -56.340  -54.774  -53.310  -51.968  -50.716  -49.498  -48.248  -46.917  -45.481  -43.935  -42.282  -40.518  -38.629  -36.587  -34.360  -31.929  -29.292  -26.478  -23.540  -20.550  -17.590  -14.749  -12.109   -9.739   -7.686   -5.979   -4.633   -3.641   -2.954   -2.499   -2.195   -1.978   -1.811   -1.687   -1.606   -1.573   -1.589   -1.655   -1.757   -1.910   -2.128   -2.416   -2.753   -3.085   -3.346   -3.501   -3.541   -3.491   -3.365   -3.179   -2.967   -2.781   -2.683   -2.723   -2.932   -3.293   -3.713   -4.061   -4.230   -4.207   -4.069   -3.908   -3.777   -3.712   -3.796
 -22.115  -22.214  -22.518  -22.991  -23.644  -24.472  -25.440  -26.506  -27.639  -28.831  -30.114  -31.547  -33.184  -35.035  -37.046  -39.109  -41.107  -42.969  -44.684  -46.305  -47.920  -49.626  -51.497  -53.562  -55.790  -58.089  -60.324  -62.342  -63.994  -65.169  -65.804  -65.897  -65.508  -64.735  -63.703  -62.541  -61.345  -60.171  -59.029  -57.887  -56.708  -55.447  -54.080  -52.600  -51.010  -49.317  -47.514  -45.580  -43.475  -41.155  -38.584  -35.748  -32.662  -29.375  -25.960  -22.508  -19.108  -15.849  -12.810  -10.064   -7.685   -5.745   -4.272   -3.233   -2.541   -2.086   -1.781   -1.564   -1.410   -1.311   -1.259   -1.246   -1.269   -1.315   -1.405   -1.550   -1.764   -2.046   -2.359   -2.652   -2.889   -3.044   -3.113   -3.096   -3.008   -2.875   -2.754   -2.688   -2.719   -2.866   -3.105   -3.367   -3.558   -3.601   -3.498   -3.322   -3.140   -3.008   -2.943   -3.035
 -27.152  -27.443  -27.764  -28.200  -28.782  -29.504  -30.337  -31.242  -32.191  -33.176  -34.224  -35.382  -36.695  -38.179  -39.803  -41.490  -43.159  -44.750  -46.253  -47.703  -49.164  -50.706  -52.387  -54.229  -56.208  -58.249  -60.252  -62.118  -63.774  -65.173  -66.281  -67.066  -67.507  -67.597  -67.367  -66.885  -66.228  -65.451  -64.579  -63.603  -62.497  -61.250  -59.853  -58.314  -56.651  -54.876  -52.987  -50.964  -48.766  -46.351  -43.680  -40.737  -37.533  -34.113  -30.547  -26.912  -23.282  -19.718  -16.278  -13.033  -10.093   -7.575   -5.571   -4.091   -3.061   -2.373   -1.927   -1.645   -1.474   -1.390   -1.357   -1.356   -1.363   -1.372   -1.400   -1.473   -1.618   -1.827   -2.086   -2.345   -2.579   -2.760   -2.870   -2.911   -2.882   -2.818   -2.745   -2.699   -2.701   -2.754   -2.839   -2.916   -2.934   -2.859   -2.721   -2.582   -2.497   -2.472   -2.497   -2.637
 -31.780  -32.281  -32.640  -33.046  -33.551  -34.153  -34.830  -35.552  -36.294  -37.053  -37.847  -38.713  -39.689  -40.793  -42.013  -43.307  -44.621  -45.918  -47.183  -48.431  -49.689  -50.995  -52.380  -53.855  -55.405  -56.984  -58.539  -60.036  -61.475  -62.879  -64.264  -65.609  -66.848  -67.891  -68.643  -69.060  -69.139  -68.907  -68.403  -67.649  -66.659  -65.442  -64.017  -62.407  -60.646  -58.757  -56.749  -54.614  -52.322  -49.836  -47.124  -44.171  -40.993  -37.631  -34.147  -30.603  -27.040  -23.480  -19.940  -16.462  -13.151  -10.161   -7.633   -5.638   -4.160   -3.130   -2.453   -2.054   -1.860   -1.802   -1.818   -1.844   -1.844   -1.799   -1.744   -1.734   -1.805   -1.968   -2.192   -2.433   -2.655   -2.831   -2.946   -2.994   -2.987   -2.951   -2.899   -2.849   -2.808   -2.763   -2.705   -2.614   -2.484   -2.326   -2.188   -2.136   -2.196   -2.335   -2.490   -2.697
 -34.976  -35.646  -36.069  -36.490  -36.970  -37.509  -38.090  -38.688  -39.283  -39.875  -40.479  -41.124  -41.844  -42.657  -43.565  -44.550  -45.583  -46.638  -47.697  -48.754  -49.809  -50.865  -51.924  -52.981  -54.027  -55.049  -56.058  -57.086  -58.203  -59.476  -60.947  -62.598  -64.358  -66.108  -67.703  -68.993  -69.872  -70.293  -70.259  -69.811  -68.993  -67.847  -66.416  -64.746  -62.885  -60.877  -58.756  -56.529  -54.182  -51.689  -49.025  -46.179  -43.167  -40.023  -36.798  -33.531  -30.234  -26.893  -23.483  -20.013  -16.562  -13.279  -10.332   -7.840   -5.864   -4.403   -3.419   -2.845   -2.587   -2.544   -2.601   -2.647   -2.607   -2.466   -2.281   -2.137   -2.117   -2.228   -2.434   -2.677   -2.911   -3.089   -3.195   -3.230   -3.213   -3.172   -3.118   -3.053   -2.967   -2.844   -2.684   -2.489   -2.275   -2.093   -2.006   -2.079   -2.308   -2.626   -2.927   -3.203
 -36.273  -37.024  -37.513  -37.988  -38.499  -39.043  -39.599  -40.150  -40.681  -41.192  -41.698  -42.222  -42.798  -43.448  -44.182  -44.995  -45.870  -46.787  -47.721  -48.651  -49.557  -50.418  -51.209  -51.908  -52.497  -52.985  -53.421  -53.910  -54.591  -55.598  -56.999  -58.771  -60.812  -62.975  -65.103  -67.019  -68.560  -69.599  -70.080  -70.012  -69.448  -68.445  -67.063  -65.371  -63.442  -61.352  -59.155  -56.886  -54.547  -52.127  -49.604  -46.969  -44.228  -41.406  -38.531  -35.622  -32.666  -29.626  -26.460  -23.152  -19.755  -16.394  -13.222  -10.383   -7.990   -6.117   -4.797   -3.994   -3.619   -3.537   -3.585   -3.611   -3.498   -3.227   -2.866   -2.550   -2.387   -2.407   -2.568   -2.802   -3.034   -3.211   -3.303   -3.313   -3.275   -3.213   -3.148   -3.067   -2.955   -2.795   -2.596   -2.377   -2.180   -2.066   -2.110   -2.357   -2.783   -3.283   -3.724   -4.056
 -35.723  -36.455  -36.992  -37.535  -38.105  -38.692  -39.275  -39.840  -40.373  -40.874  -41.360  -41.854  -42.391  -42.998  -43.691  -44.472  -45.324  -46.223  -47.138  -48.037  -48.886  -49.651  -50.291  -50.765  -51.042  -51.128  -51.086  -51.056  -51.233  -51.823  -52.957  -54.643  -56.765  -59.137  -61.559  -63.842  -65.807  -67.300  -68.217  -68.524  -68.249  -67.444  -66.175  -64.523  -62.588  -60.469  -58.256  -56.004  -53.740  -51.461  -49.149  -46.786  -44.367  -41.898  -39.383  -36.821  -34.183  -31.433  -28.523  -25.436  -22.211  -18.944  -15.763  -12.796  -10.176   -8.021   -6.416   -5.370   -4.812   -4.600   -4.561   -4.508   -4.298   -3.890   -3.364   -2.872   -2.548   -2.435   -2.498   -2.660   -2.846   -2.993   -3.059   -3.046   -2.984   -2.907   -2.830   -2.746   -2.635   -2.486   -2.321   -2.170   -2.087   -2.138   -2.384   -2.848   -3.473   -4.140   -4.695   -5.065
 -33.888  -34.527  -35.082  -35.671  -36.294  -36.928  -37.553  -38.154  -38.720  -39.252  -39.764  -40.286  -40.855  -41.507  -42.259  -43.112  -44.046  -45.027  -46.018  -46.974  -47.856  -48.621  -49.222  -49.609  -49.735  -49.596  -49.250  -48.838  -48.576  -48.708  -49.425  -50.803  -52.774  -55.158  -57.717  -60.213  -62.435  -64.211  -65.420  -66.007  -65.977  -65.366  -64.235  -62.670  -60.781  -58.693  -56.516  -54.334  -52.191  -50.094  -48.021  -45.946  -43.843  -41.696  -39.493  -37.213  -34.831  -32.313  -29.626  -26.759  -23.746  -20.668  -17.624  -14.719  -12.066   -9.788   -7.997   -6.730   -5.947   -5.536   -5.338   -5.158   -4.845   -4.332   -3.688   -3.067   -2.603   -2.347   -2.272   -2.314   -2.407   -2.487   -2.515   -2.482   -2.410   -2.329   -2.253   -2.178   -2.097   -2.007   -1.932   -1.914   -2.008   -2.270   -2.740   -3.405   -4.189   -4.964   -5.571   -5.956
 -31.687  -32.219  -32.758  -33.359  -34.000  -34.656  -35.304  -35.931  -36.527  -37.093  -37.643  -38.209  -38.837  -39.565  -40.414  -41.380  -42.433  -43.534  -44.634  -45.683  -46.637  -47.451  -48.077  -48.458  -48.546  -48.321  -47.834  -47.215  -46.671  -46.448  -46.764  -47.748  -49.403  -51.604  -54.124  -56.694  -59.053  -60.995  -62.381  -63.148  -63.285  -62.824  -61.818  -60.352  -58.544  -56.527  -54.431  -52.357  -50.363  -48.460  -46.622  -44.805  -42.969  -41.081  -39.113  -37.042  -34.847  -32.505  -29.994  -27.314  -24.500  -21.624  -18.763  -15.998  -13.420  -11.137   -9.252   -7.820   -6.828   -6.207   -5.828   -5.525   -5.126   -4.551   -3.849   -3.160   -2.605   -2.239   -2.035   -1.954   -1.940   -1.944   -1.933   -1.888   -1.820   -1.745   -1.680   -1.627   -1.592   -1.573   -1.603   -1.725   -1.992   -2.435   -3.075   -3.875   -4.746   -5.555   -6.174   -6.556
 -29.952  -30.438  -30.952  -31.528  -32.147  -32.785  -33.423  -34.045  -34.643  -35.217  -35.783  -36.374  -37.037  -37.814  -38.721  -39.753  -40.875  -42.043  -43.203  -44.303  -45.298  -46.145  -46.794  -47.189  -47.281  -47.049  -46.532  -45.850  -45.193  -44.789  -44.851  -45.528  -46.866  -48.794  -51.128  -53.611  -55.971  -57.977  -59.464  -60.341  -60.588  -60.226  -59.310  -57.928  -56.205  -54.284  -52.298  -50.357  -48.519  -46.793  -45.148  -43.534  -41.898  -40.199  -38.406  -36.494  -34.447  -32.250  -29.891  -27.373  -24.730  -22.025  -19.325  -16.694  -14.205  -11.956  -10.044   -8.528   -7.414   -6.660   -6.165   -5.774   -5.324   -4.723   -4.010   -3.302   -2.710   -2.283   -2.009   -1.849   -1.771   -1.728   -1.690   -1.639   -1.575   -1.507   -1.451   -1.417   -1.409   -1.441   -1.534   -1.739   -2.093   -2.630   -3.347   -4.199   -5.089   -5.894   -6.508   -6.929
