DSAA
 100 100
 0.0 400.0
 0.0 400.0
 -172.9216 -0.3103714
 -18.733  -18.927  -19.213  -19.641  -20.218  -20.907  -21.640  -22.327  -22.851  -23.097  -22.942  -22.230  -20.838  -18.761  -16.202  -13.566  -11.360   -9.946   -9.399   -9.550  -10.179  -11.102  -12.237  -13.534  -14.887  -16.091  -16.889  -17.089  -16.645  -15.622  -14.113  -12.285  -10.368   -8.691   -7.559   -7.058   -7.063   -7.322   -7.600   -7.750   -7.732   -7.576   -7.352   -7.153   -7.033   -7.030   -7.139   -7.323   -7.535   -7.766   -8.018   -8.304   -8.593   -8.776   -8.681   -8.144   -7.079   -5.616   -4.027   -2.632   -1.627   -1.013   -0.684   -0.532   -0.476   -0.443   -0.433   -0.423   -0.416   -0.405   -0.400   -0.400   -0.401   -0.403   -0.406   -0.409   -0.402   -0.400   -0.405   -0.421   -0.433   -0.440   -0.452   -0.475   -0.507   -0.562   -0.647   -0.788   -1.007   -1.334   -1.813   -2.431   -3.188   -4.058   -5.069   -6.270   -7.651   -9.065  -10.237  -10.999
 -18.545  -18.711  -18.960  -19.329  -19.825  -20.426  -21.080  -21.692  -22.163  -22.383  -22.229  -21.565  -20.252  -18.281  -15.827  -13.285  -11.126   -9.705   -9.110   -9.197   -9.742  -10.586  -11.648  -12.882  -14.185  -15.367  -16.207  -16.526  -16.273  -15.475  -14.200  -12.550  -10.755   -9.125   -7.931   -7.279   -7.085   -7.160   -7.324   -7.426   -7.409   -7.283   -7.103   -6.941   -6.859   -6.881   -7.004   -7.190   -7.394   -7.609   -7.850   -8.127   -8.418   -8.631   -8.599   -8.156   -7.216   -5.871   -4.362   -2.985   -1.934   -1.250   -0.860   -0.663   -0.568   -0.526   -0.498   -0.477   -0.454   -0.436   -0.418   -0.405   -0.404   -0.402   -0.395   -0.397   -0.398   -0.403   -0.408   -0.416   -0.425   -0.446   -0.465   -0.508   -0.575   -0.689   -0.869   -1.144   -1.536   -2.091   -2.832   -3.752   -4.800   -5.933   -7.164   -8.519  -10.002  -11.470  -12.641  -13.337
 -18.020  -18.147  -18.317  -18.570  -18.910  -19.334  -19.815  -20.270  -20.613  -20.755  -20.596  -20.022  -18.903  -17.205  -15.061  -12.788  -10.793   -9.410   -8.740   -8.693   -9.071   -9.740  -10.629  -11.686  -12.825  -13.903  -14.757  -15.257  -15.337  -14.963  -14.133  -12.904  -11.433   -9.966   -8.732   -7.832   -7.262   -6.965   -6.861   -6.850   -6.850   -6.816   -6.765   -6.735   -6.774   -6.882   -7.030   -7.182   -7.316   -7.460   -7.632   -7.865   -8.131   -8.367   -8.428   -8.169   -7.490   -6.420   -5.125   -3.840   -2.756   -1.959   -1.448   -1.149   -0.993   -0.910   -0.850   -0.797   -0.733   -0.664   -0.618   -0.583   -0.563   -0.553   -0.549   -0.542   -0.536   -0.539   -0.546   -0.560   -0.585   -0.616   -0.666   -0.766   -0.934   -1.225   -1.653   -2.251   -3.039   -4.058   -5.312   -6.759   -8.292   -9.808  -11.293  -12.787  -14.296  -15.700  -16.783  -17.329
 -17.042  -17.114  -17.186  -17.285  -17.425  -17.632  -17.899  -18.168  -18.356  -18.397  -18.225  -17.756  -16.887  -15.571  -13.871  -12.006  -10.299   -9.030   -8.330   -8.143   -8.326   -8.768   -9.408  -10.207  -11.088  -11.966  -12.761  -13.390  -13.789  -13.882  -13.601  -12.938  -11.968  -10.832   -9.650   -8.517   -7.520   -6.765   -6.308   -6.135   -6.149   -6.280   -6.492   -6.774   -7.102   -7.408   -7.619   -7.695   -7.652   -7.579   -7.558   -7.638   -7.818   -8.033   -8.187   -8.140   -7.773   -7.074   -6.112   -5.039   -4.023   -3.179   -2.561   -2.164   -1.929   -1.802   -1.698   -1.588   -1.443   -1.290   -1.162   -1.083   -1.042   -1.023   -1.006   -0.980   -0.957   -0.948   -0.959   -0.998   -1.049   -1.122   -1.246   -1.460   -1.840   -2.453   -3.320   -4.444   -5.802   -7.398   -9.205  -11.129  -13.022  -14.754  -16.296  -17.715  -19.044  -20.231  -21.104  -21.436
 -15.536  -15.526  -15.488  -15.419  -15.356  -15.350  -15.412  -15.498  -15.541  -15.490  -15.309  -14.959  -14.372  -13.489  -12.316  -10.968   -9.663   -8.631   -7.983   -7.719   -7.740   -7.958   -8.318   -8.798   -9.346   -9.927  -10.538  -11.155  -11.743  -12.225  -12.510  -12.526  -12.226  -11.574  -10.553   -9.260   -7.882   -6.679   -5.855   -5.491   -5.520   -5.882   -6.498   -7.295   -8.129   -8.817   -9.185   -9.171   -8.843   -8.387   -7.998   -7.778   -7.742   -7.836   -7.996   -8.103   -8.039   -7.728   -7.171   -6.435   -5.628   -4.878   -4.260   -3.825   -3.566   -3.417   -3.293   -3.118   -2.871   -2.596   -2.370   -2.230   -2.167   -2.137   -2.101   -2.045   -1.993   -1.975   -1.999   -2.080   -2.194   -2.346   -2.575   -2.987   -3.684   -4.755   -6.184   -7.898   -9.818  -11.886  -14.036  -16.164  -18.089  -19.703  -21.010  -22.113  -23.090  -23.935  -24.531  -24.646
 -13.575  -13.480  -13.317  -13.085  -12.827  -12.629  -12.517  -12.462  -12.398  -12.282  -12.115  -11.890  -11.590  -11.156  -10.545   -9.779   -8.970   -8.277   -7.803   -7.560   -7.491   -7.532   -7.645   -7.803   -7.979   -8.195   -8.492   -8.928   -9.526  -10.272  -11.103  -11.888  -12.387  -12.332  -11.568  -10.187   -8.512   -6.936   -5.771   -5.170   -5.161   -5.731   -6.811   -8.238   -9.747  -10.986  -11.658  -11.649  -11.066  -10.200   -9.345   -8.677   -8.249   -8.061   -8.079   -8.220   -8.365   -8.391   -8.230   -7.876   -7.397   -6.876   -6.396   -6.034   -5.827   -5.718   -5.618   -5.428   -5.121   -4.767   -4.468   -4.291   -4.223   -4.199   -4.158   -4.085   -4.014   -3.989   -4.041   -4.176   -4.373   -4.641   -5.030   -5.677   -6.725   -8.240  -10.155  -12.306  -14.565  -16.841  -19.060  -21.085  -22.749  -23.960  -24.793  -25.410  -25.951  -26.433  -26.767  -26.714
 -11.465  -11.272  -10.983  -10.593  -10.170   -9.816   -9.580   -9.431   -9.310   -9.172   -9.029   -8.922   -8.887   -8.888   -8.839   -8.675   -8.408   -8.127   -7.915   -7.791   -7.720   -7.668   -7.600   -7.494   -7.338   -7.171   -7.086   -7.198   -7.629   -8.488   -9.789  -11.325  -12.636  -13.207  -12.769  -11.430   -9.605   -7.789   -6.335   -5.434   -5.225   -5.821   -7.223   -9.226  -11.411  -13.265  -14.379  -14.570  -13.961  -12.877  -11.659  -10.521   -9.580   -8.935   -8.651   -8.698   -8.931   -9.171   -9.295   -9.271   -9.116   -8.873   -8.611   -8.409   -8.324   -8.323   -8.317   -8.200   -7.936   -7.606   -7.326   -7.185   -7.157   -7.170   -7.155   -7.097   -7.035   -7.027   -7.116   -7.313   -7.609   -8.002   -8.556   -9.416  -10.712  -12.494  -14.630  -16.924  -19.233  -21.484  -23.584  -25.363  -26.616  -27.283  -27.510  -27.571  -27.668  -27.836  -27.963  -27.788
  -9.630   -9.343   -8.921   -8.378   -7.820   -7.367   -7.068   -6.889   -6.764   -6.630   -6.517   -6.512   -6.705   -7.090   -7.556   -7.960   -8.228   -8.374   -8.457   -8.501   -8.502   -8.433   -8.278   -8.004   -7.612   -7.136   -6.676   -6.397   -6.527   -7.306   -8.848  -10.899  -12.830  -13.959  -13.914  -12.832  -11.160   -9.370   -7.753   -6.494   -5.848   -6.143   -7.542   -9.839  -12.510  -14.906  -16.515  -17.097  -16.752  -15.777  -14.472  -13.033  -11.624  -10.476   -9.813   -9.678   -9.895  -10.210  -10.468  -10.612  -10.660  -10.629  -10.566  -10.527  -10.579  -10.720  -10.858  -10.897  -10.787  -10.589  -10.435  -10.399  -10.458  -10.537  -10.568  -10.553  -10.531  -10.561  -10.695  -10.954  -11.335  -11.836  -12.517  -13.495  -14.887  -16.691  -18.771  -20.935  -23.086  -25.182  -27.121  -28.645  -29.492  -29.596  -29.204  -28.707  -28.395  -28.299  -28.270  -28.014
  -8.457   -8.081   -7.515   -6.813   -6.150   -5.639   -5.339   -5.196   -5.109   -5.016   -4.945   -5.029   -5.415   -6.119   -7.011   -7.894   -8.623   -9.144   -9.499   -9.706   -9.787   -9.748   -9.568   -9.230   -8.713   -8.041   -7.291   -6.630   -6.357   -6.826   -8.244  -10.382  -12.568  -14.063  -14.483  -13.946  -12.832  -11.465   -9.940   -8.365   -7.101   -6.730   -7.692   -9.898  -12.761  -15.524  -17.565  -18.606  -18.699  -18.077  -16.952  -15.463  -13.808  -12.326  -11.389  -11.105  -11.261  -11.549  -11.774  -11.902  -11.974  -12.015  -12.047  -12.123  -12.295  -12.573  -12.878  -13.104  -13.198  -13.197  -13.212  -13.302  -13.445  -13.566  -13.618  -13.624  -13.641  -13.719  -13.905  -14.220  -14.668  -15.244  -15.988  -16.984  -18.316  -19.974  -21.816  -23.703  -25.591  -27.490  -29.265  -30.571  -31.069  -30.690  -29.756  -28.778  -28.112  -27.790  -27.632  -27.312
  -8.103   -7.631   -6.911   -6.049   -5.273   -4.744   -4.479   -4.406   -4.402   -4.384   -4.393   -4.603   -5.162   -6.118   -7.327   -8.558   -9.609  -10.399  -10.930  -11.248  -11.380  -11.358  -11.178  -10.828  -10.267   -9.491   -8.541   -7.560   -6.851   -6.809   -7.732   -9.487  -11.513  -13.155  -14.062  -14.307  -14.107  -13.522  -12.397  -10.680   -8.802   -7.592   -7.797   -9.553  -12.304  -15.199  -17.512  -18.906  -19.391  -19.157  -18.342  -17.032  -15.433  -13.944  -12.990  -12.691  -12.809  -13.001  -13.086  -13.067  -13.017  -12.988  -13.021  -13.149  -13.418  -13.822  -14.291  -14.707  -14.990  -15.162  -15.303  -15.472  -15.635  -15.717  -15.706  -15.656  -15.662  -15.782  -16.031  -16.415  -16.914  -17.518  -18.235  -19.137  -20.297  -21.706  -23.244  -24.800  -26.386  -28.054  -29.646  -30.756  -30.977  -30.242  -28.917  -27.590  -26.647  -26.115  -25.811  -25.445
  -8.481   -7.934   -7.057   -6.037   -5.160   -4.610   -4.389   -4.386   -4.463   -4.534   -4.680   -5.053   -5.810   -6.957   -8.351   -9.758  -10.977  -11.892  -12.493  -12.819  -12.941  -12.897  -12.704  -12.341  -11.769  -10.938   -9.850   -8.609   -7.490   -6.879   -7.100   -8.169   -9.731  -11.316  -12.650  -13.727  -14.559  -14.905  -14.363  -12.759  -10.500   -8.558   -7.957   -9.082  -11.487  -14.273  -16.624  -18.142  -18.825  -18.850  -18.347  -17.385  -16.140  -14.983  -14.279  -14.103  -14.206  -14.285  -14.202  -14.008  -13.795  -13.647  -13.620  -13.756  -14.092  -14.607  -15.217  -15.791  -16.222  -16.489  -16.661  -16.798  -16.867  -16.797  -16.607  -16.402  -16.332  -16.468  -16.798  -17.253  -17.776  -18.327  -18.907  -19.599  -20.489  -21.591  -22.801  -24.021  -25.297  -26.699  -28.073  -28.981  -29.003  -28.066  -26.553  -25.046  -23.916  -23.183  -22.710  -22.325
  -9.376   -8.782   -7.798   -6.664   -5.711   -5.122   -4.908   -4.927   -5.029   -5.193   -5.499   -6.091   -7.049   -8.332   -9.785  -11.206  -12.417  -13.305  -13.848  -14.091  -14.122  -14.000  -13.750  -13.357  -12.763  -11.887  -10.705   -9.282   -7.838   -6.729   -6.294   -6.650   -7.664   -9.055  -10.655  -12.379  -14.048  -15.194  -15.259  -13.959  -11.666   -9.357   -8.171   -8.682  -10.600  -13.063  -15.220  -16.639  -17.320  -17.468  -17.244  -16.735  -16.057  -15.468  -15.176  -15.183  -15.277  -15.247  -15.047  -14.738  -14.424  -14.187  -14.097  -14.218  -14.574  -15.145  -15.835  -16.492  -16.977  -17.236  -17.327  -17.306  -17.165  -16.847  -16.389  -15.961  -15.766  -15.896  -16.275  -16.766  -17.248  -17.648  -17.990  -18.369  -18.920  -19.681  -20.571  -21.487  -22.473  -23.593  -24.713  -25.424  -25.329  -24.373  -22.899  -21.405  -20.196  -19.298  -18.652  -18.259
 -10.507   -9.925   -8.927   -7.768   -6.777   -6.140   -5.858   -5.809   -5.890   -6.112   -6.590   -7.416   -8.570   -9.933  -11.335  -12.634  -13.685  -14.408  -14.774  -14.841  -14.702  -14.443  -14.095  -13.636  -12.998  -12.096  -10.866   -9.345   -7.726   -6.321   -5.451   -5.316   -5.892   -7.054   -8.683  -10.675  -12.751  -14.359  -14.884  -14.009  -12.010   -9.761   -8.344   -8.398   -9.800  -11.810  -13.639  -14.852  -15.450  -15.658  -15.690  -15.648  -15.595  -15.619  -15.748  -15.915  -15.985  -15.891  -15.664  -15.383  -15.097  -14.852  -14.729  -14.806  -15.111  -15.623  -16.243  -16.825  -17.233  -17.380  -17.289  -17.026  -16.611  -16.016  -15.296  -14.651  -14.319  -14.381  -14.726  -15.162  -15.508  -15.692  -15.738  -15.783  -15.994  -16.456  -17.086  -17.777  -18.530  -19.390  -20.240  -20.760  -20.631  -19.818  -18.582  -17.279  -16.107  -15.109  -14.340  -13.944
 -11.601  -11.079  -10.167   -9.081   -8.101   -7.404   -6.994   -6.815   -6.822   -7.089   -7.723   -8.769  -10.084  -11.483  -12.785  -13.873  -14.673  -15.132  -15.236  -15.055  -14.690  -14.244  -13.757  -13.200  -12.512  -11.598  -10.381   -8.885   -7.266   -5.820   -4.850   -4.542   -4.908   -5.850   -7.273   -9.082  -11.053  -12.708  -13.485  -13.057  -11.584   -9.734   -8.409   -8.225   -9.186  -10.749  -12.257  -13.293  -13.843  -14.111  -14.334  -14.644  -15.067  -15.551  -15.978  -16.225  -16.251  -16.138  -16.004  -15.895  -15.773  -15.617  -15.503  -15.516  -15.691  -15.996  -16.366  -16.699  -16.878  -16.808  -16.483  -15.968  -15.313  -14.526  -13.661  -12.897  -12.450  -12.394  -12.609  -12.873  -13.012  -12.953  -12.738  -12.523  -12.503  -12.774  -13.261  -13.844  -14.462  -15.106  -15.692  -16.009  -15.872  -15.261  -14.345  -13.308  -12.259  -11.264  -10.462  -10.081
 -12.374  -11.957  -11.192  -10.252   -9.329   -8.565   -8.023   -7.701   -7.644   -7.958   -8.745   -9.953  -11.378  -12.771  -13.954  -14.836  -15.382  -15.565  -15.391  -14.935  -14.321  -13.668  -13.019  -12.368  -11.636  -10.740   -9.615   -8.273   -6.848   -5.605   -4.816   -4.625   -4.983   -5.720   -6.739   -8.006   -9.442  -10.767  -11.564  -11.513  -10.635   -9.344   -8.311   -8.084   -8.778  -10.047  -11.358  -12.334  -12.900  -13.197  -13.472  -13.897  -14.503  -15.168  -15.693  -15.921  -15.882  -15.776  -15.796  -15.930  -16.041  -16.033  -15.949  -15.895  -15.905  -15.940  -15.964  -15.943  -15.809  -15.482  -14.933  -14.229  -13.461  -12.655  -11.852  -11.150  -10.695  -10.541  -10.578  -10.632  -10.545  -10.280   -9.901   -9.563   -9.443   -9.629  -10.066  -10.616  -11.152  -11.609  -11.932  -12.018  -11.803  -11.317  -10.636   -9.828   -8.943   -8.051   -7.315   -6.996
 -12.600  -12.286  -11.695  -10.919  -10.091   -9.316   -8.685   -8.293   -8.233   -8.627   -9.523  -10.817  -12.273  -13.624  -14.705  -15.446  -15.818  -15.804  -15.425  -14.764  -13.953  -13.125  -12.343  -11.604  -10.866  -10.045   -9.092   -8.016   -6.925   -6.044   -5.604   -5.692   -6.134   -6.679   -7.187   -7.711   -8.357   -9.084   -9.667   -9.815   -9.404   -8.632   -7.953   -7.842   -8.480   -9.658  -10.940  -11.956  -12.555  -12.824  -12.992  -13.288  -13.792  -14.379  -14.808  -14.917  -14.775  -14.649  -14.765  -15.083  -15.375  -15.478  -15.420  -15.317  -15.205  -15.038  -14.790  -14.480  -14.095  -13.572  -12.882  -12.121  -11.399  -10.788  -10.270   -9.859   -9.593   -9.470   -9.399   -9.262   -8.980   -8.560   -8.096   -7.715   -7.547   -7.658   -8.007   -8.459   -8.858   -9.109   -9.155   -8.978   -8.604   -8.107   -7.525   -6.882   -6.179   -5.470   -4.897   -4.679
 -12.151  -11.905  -11.459  -10.844  -10.135   -9.425   -8.830   -8.473   -8.500   -8.999   -9.967  -11.267  -12.661  -13.940  -14.959  -15.650  -15.975  -15.917  -15.483  -14.760  -13.874  -12.965  -12.120  -11.363  -10.658   -9.969   -9.241   -8.477   -7.761   -7.279   -7.212   -7.563   -8.084   -8.430   -8.435   -8.213   -8.027   -8.050   -8.209   -8.284   -8.081   -7.648   -7.286   -7.381   -8.128   -9.380  -10.745  -11.836  -12.448  -12.619  -12.586  -12.626  -12.876  -13.235  -13.468  -13.407  -13.134  -12.913  -12.976  -13.283  -13.586  -13.687  -13.614  -13.497  -13.369  -13.187  -12.899  -12.526  -12.078  -11.516  -10.831  -10.148   -9.622   -9.348   -9.290   -9.351   -9.458   -9.518   -9.436   -9.137   -8.647   -8.068   -7.517   -7.090   -6.848   -6.801   -6.922   -7.123   -7.265   -7.251   -7.026   -6.612   -6.080   -5.526   -5.001   -4.491   -3.985   -3.509   -3.148   -3.043
 -11.062  -10.847  -10.487  -10.000   -9.431   -8.865   -8.418   -8.223   -8.403   -9.019  -10.007  -11.236  -12.516  -13.704  -14.696  -15.435  -15.855  -15.910  -15.600  -14.995  -14.196  -13.342  -12.532  -11.815  -11.202  -10.663  -10.155   -9.660   -9.250   -9.068   -9.250   -9.748  -10.259  -10.413  -10.026   -9.242   -8.398   -7.763   -7.403   -7.181   -6.933   -6.650   -6.537   -6.883   -7.818   -9.203  -10.654  -11.768  -12.310  -12.315  -12.037  -11.790  -11.756  -11.867  -11.909  -11.713  -11.326  -10.964  -10.838  -10.928  -11.039  -11.017  -10.889  -10.804  -10.799  -10.820  -10.773  -10.625  -10.352   -9.927   -9.383   -8.880   -8.605   -8.687   -9.083   -9.632  -10.129  -10.376  -10.243   -9.727   -8.972   -8.183   -7.531   -7.060   -6.726   -6.473   -6.287   -6.133   -5.962   -5.680   -5.249   -4.696   -4.101   -3.562   -3.124   -2.762   -2.462   -2.212   -2.036   -2.028
  -9.595   -9.361   -9.030   -8.611   -8.182   -7.814   -7.593   -7.628   -7.995   -8.698   -9.653  -10.748  -11.873  -12.955  -13.949  -14.798  -15.413  -15.721  -15.693  -15.356  -14.797  -14.130  -13.454  -12.842  -12.337  -11.923  -11.559  -11.221  -10.958  -10.896  -11.134  -11.599  -12.001  -11.990  -11.388  -10.331   -9.134   -8.085   -7.304   -6.752   -6.365   -6.159   -6.283   -6.890   -8.030   -9.509  -10.945  -11.931  -12.257  -11.970  -11.358  -10.779  -10.452  -10.338  -10.232   -9.970   -9.538   -9.075   -8.735   -8.548   -8.395   -8.209   -8.049   -8.066   -8.309   -8.712   -9.109   -9.377   -9.429   -9.250   -8.921   -8.610   -8.529   -8.823   -9.467  -10.269  -10.935  -11.192  -10.881  -10.071   -9.018   -8.038   -7.309   -6.827   -6.449   -6.057   -5.624   -5.191   -4.764   -4.308   -3.788   -3.229   -2.695   -2.267   -1.966   -1.760   -1.616   -1.533   -1.493   -1.556
  -8.215   -7.927   -7.546   -7.136   -6.804   -6.627   -6.655   -6.916   -7.435   -8.159   -9.005   -9.904  -10.826  -11.778  -12.760  -13.735  -14.594  -15.238  -15.587  -15.639  -15.432  -15.047  -14.583  -14.121  -13.715  -13.360  -13.026  -12.689  -12.398  -12.266  -12.365  -12.635  -12.842  -12.691  -12.046  -11.000   -9.801   -8.683   -7.763   -7.092   -6.695   -6.664   -7.084   -8.000   -9.333  -10.825  -12.087  -12.749  -12.648  -11.886  -10.799   -9.786   -9.093   -8.707   -8.453   -8.150   -7.741   -7.261   -6.821   -6.455   -6.142   -5.885   -5.774   -5.975   -6.550   -7.394   -8.281   -8.983   -9.379   -9.459   -9.328   -9.156   -9.141   -9.418   -9.996  -10.700  -11.214  -11.241  -10.633   -9.530   -8.264   -7.192   -6.479   -6.044   -5.682   -5.251   -4.720   -4.165   -3.641   -3.150   -2.680   -2.237   -1.867   -1.605   -1.449   -1.370   -1.342   -1.353   -1.387   -1.484
  -7.455   -7.088   -6.601   -6.119   -5.818   -5.779   -5.989   -6.411   -6.978   -7.619   -8.263   -8.886   -9.537  -10.292  -11.204  -12.259  -13.349  -14.334  -15.108  -15.612  -15.831  -15.808  -15.612  -15.324  -14.998  -14.639  -14.222  -13.756  -13.294  -12.932  -12.749  -12.712  -12.662  -12.398  -11.819  -10.981  -10.053   -9.181   -8.456   -7.972   -7.832   -8.149   -8.962  -10.224  -11.740  -13.184  -14.162  -14.362  -13.698  -12.336  -10.668   -9.117   -7.963   -7.225   -6.751   -6.370   -5.976   -5.543   -5.115   -4.725   -4.415   -4.221   -4.272   -4.716   -5.616   -6.833   -8.100   -9.133   -9.790  -10.071  -10.098  -10.018   -9.974  -10.073  -10.338  -10.659  -10.770  -10.414   -9.496   -8.202   -6.875   -5.844   -5.207   -4.842   -4.527   -4.129   -3.627   -3.111   -2.642   -2.246   -1.913   -1.648   -1.476   -1.396   -1.370   -1.379   -1.416   -1.473   -1.537   -1.645
  -7.667   -7.219   -6.589   -5.988   -5.649   -5.650   -5.938   -6.382   -6.873   -7.308   -7.643   -7.901   -8.195   -8.670   -9.422  -10.455  -11.679  -12.956  -14.147  -15.120  -15.806  -16.198  -16.326  -16.240  -15.988  -15.580  -15.026  -14.354  -13.635  -12.970  -12.440  -12.045  -11.723  -11.349  -10.867  -10.313   -9.774   -9.329   -9.037   -8.977   -9.269  -10.020  -11.234  -12.796  -14.439  -15.802  -16.501  -16.277  -15.106  -13.225  -11.051   -9.014   -7.397   -6.269   -5.522   -4.992   -4.554   -4.148   -3.765   -3.445   -3.224   -3.184   -3.435   -4.119   -5.254   -6.689   -8.141   -9.325  -10.109  -10.523  -10.686  -10.703  -10.637  -10.544  -10.444  -10.285   -9.913   -9.164   -8.021   -6.669   -5.416   -4.492   -3.929   -3.592   -3.298   -2.959   -2.559   -2.171   -1.850   -1.605   -1.441   -1.366   -1.371   -1.430   -1.501   -1.559   -1.618   -1.695   -1.772   -1.877
  -8.764   -8.267   -7.531   -6.815   -6.400   -6.376   -6.636   -6.990   -7.283   -7.402   -7.345   -7.167   -7.051   -7.166   -7.657   -8.556   -9.792  -11.244  -12.752  -14.154  -15.307  -16.130  -16.607  -16.752  -16.593  -16.150  -15.456  -14.573  -13.591  -12.620  -11.752  -11.037  -10.460   -9.981   -9.578   -9.275   -9.122   -9.139   -9.334   -9.748  -10.459  -11.539  -12.982  -14.655  -16.290  -17.532  -18.014  -17.529  -16.107  -14.011  -11.648   -9.398   -7.525   -6.109   -5.099   -4.384   -3.837   -3.396   -3.035   -2.777   -2.666   -2.779   -3.215   -4.047   -5.265   -6.711   -8.122   -9.256  -10.026  -10.487  -10.766  -10.911  -10.902  -10.707  -10.334   -9.777   -9.006   -7.975   -6.729   -5.431   -4.298   -3.462   -2.923   -2.576   -2.301   -2.024   -1.756   -1.522   -1.357   -1.270   -1.250   -1.311   -1.428   -1.557   -1.663   -1.720   -1.771   -1.841   -1.908   -2.008
 -10.258   -9.780   -9.023   -8.272   -7.826   -7.770   -7.963   -8.168   -8.203   -7.966   -7.483   -6.877   -6.345   -6.105   -6.293   -6.962   -8.069   -9.533  -11.210  -12.907  -14.427  -15.620  -16.413  -16.784  -16.746  -16.318  -15.546  -14.514  -13.326  -12.116  -10.994  -10.040   -9.287   -8.724   -8.367   -8.245   -8.393   -8.798   -9.399  -10.170  -11.108  -12.269  -13.646  -15.157  -16.577  -17.590  -17.896  -17.335  -15.974  -14.069  -11.953   -9.912   -8.112   -6.636   -5.484   -4.605   -3.935   -3.432   -3.063   -2.852   -2.832   -3.058   -3.583   -4.434   -5.559   -6.808   -7.963   -8.858   -9.458   -9.870  -10.209  -10.486  -10.579  -10.374   -9.857   -9.068   -8.065   -6.907   -5.679   -4.513   -3.510   -2.753   -2.237   -1.890   -1.646   -1.460   -1.318   -1.223   -1.193   -1.220   -1.310   -1.440   -1.594   -1.722   -1.789   -1.802   -1.803   -1.835   -1.881   -1.970
 -11.641  -11.237  -10.584   -9.927   -9.541   -9.489   -9.624   -9.689   -9.483   -8.933   -8.108   -7.161   -6.313   -5.780   -5.699   -6.109   -7.005   -8.325   -9.965  -11.734  -13.405  -14.792  -15.773  -16.315  -16.395  -16.032  -15.263  -14.176  -12.889  -11.541  -10.275   -9.194   -8.351   -7.760   -7.440   -7.437   -7.787   -8.444   -9.300  -10.240  -11.201  -12.197  -13.257  -14.351  -15.339  -15.999  -16.128  -15.622  -14.569  -13.179  -11.667  -10.179   -8.771   -7.480   -6.342   -5.393   -4.646   -4.094   -3.729   -3.556   -3.592   -3.849   -4.349   -5.070   -5.941   -6.820   -7.567   -8.084   -8.407   -8.675   -9.000   -9.339   -9.508   -9.333   -8.775   -7.913   -6.866   -5.759   -4.686   -3.720   -2.906   -2.264   -1.805   -1.502   -1.325   -1.236   -1.197   -1.213   -1.277   -1.389   -1.533   -1.691   -1.827   -1.898   -1.882   -1.807   -1.732   -1.706   -1.720   -1.806
 -12.630  -12.351  -11.897  -11.455  -11.208  -11.209  -11.317  -11.291  -10.938  -10.202   -9.178   -8.050   -7.039   -6.346   -6.092   -6.296   -6.952   -8.020   -9.422  -10.991  -12.528  -13.841  -14.809  -15.384  -15.539  -15.257  -14.559  -13.512  -12.226  -10.849   -9.542   -8.427   -7.574   -7.003   -6.739   -6.823   -7.284   -8.061   -9.009   -9.958  -10.810  -11.538  -12.185  -12.775  -13.252  -13.517  -13.470  -13.097  -12.473  -11.731  -10.952  -10.141   -9.254   -8.289   -7.297   -6.371   -5.600   -5.036   -4.682   -4.529   -4.550   -4.741   -5.089   -5.544   -6.037   -6.471   -6.761   -6.883   -6.907   -6.996   -7.236   -7.556   -7.733   -7.583   -7.069   -6.284   -5.382   -4.489   -3.687   -2.999   -2.419   -1.955   -1.610   -1.392   -1.295   -1.277   -1.312   -1.391   -1.510   -1.663   -1.830   -1.982   -2.075   -2.070   -1.964   -1.791   -1.633   -1.548   -1.535   -1.608
 -13.231  -13.094  -12.899  -12.722  -12.671  -12.761  -12.874  -12.814  -12.412  -11.641  -10.583   -9.440   -8.414   -7.694   -7.367   -7.447   -7.892   -8.667   -9.686  -10.835  -11.968  -12.946  -13.686  -14.145  -14.287  -14.070  -13.476  -12.530  -11.326  -10.013   -8.748   -7.662   -6.844   -6.318   -6.105   -6.240   -6.726   -7.503   -8.411   -9.283   -9.990  -10.504  -10.839  -11.045  -11.134  -11.115  -10.996  -10.818  -10.624  -10.455  -10.278  -10.025   -9.590   -8.936   -8.118   -7.255   -6.481   -5.889   -5.499   -5.275   -5.192   -5.220   -5.325   -5.451   -5.555   -5.584   -5.502   -5.334   -5.159   -5.109   -5.256   -5.498   -5.647   -5.529   -5.135   -4.556   -3.935   -3.373   -2.907   -2.523   -2.186   -1.900   -1.682   -1.561   -1.524   -1.552   -1.621   -1.718   -1.839   -1.987   -2.130   -2.228   -2.257   -2.182   -2.011   -1.784   -1.580   -1.465   -1.425   -1.496
 -13.557  -13.569  -13.627  -13.731  -13.881  -14.066  -14.207  -14.156  -13.794  -13.092  -12.126  -11.069  -10.118   -9.435   -9.098   -9.093   -9.380   -9.865  -10.457  -11.087  -11.672  -12.166  -12.548  -12.795  -12.853  -12.664  -12.170  -11.361  -10.304   -9.126   -7.966   -6.953   -6.174   -5.662   -5.448   -5.555   -5.980   -6.653   -7.436   -8.187   -8.789   -9.195   -9.405   -9.464   -9.423   -9.363   -9.354   -9.438   -9.611   -9.837  -10.027  -10.078   -9.901   -9.435   -8.719   -7.880   -7.067   -6.386   -5.872   -5.492   -5.216   -5.022   -4.866   -4.713   -4.530   -4.307   -4.047   -3.782   -3.572   -3.498   -3.594   -3.770   -3.889   -3.845   -3.625   -3.318   -3.016   -2.780   -2.615   -2.470   -2.326   -2.185   -2.083   -2.045   -2.067   -2.127   -2.201   -2.280   -2.350   -2.401   -2.430   -2.421   -2.359   -2.230   -2.040   -1.823   -1.636   -1.533   -1.496   -1.558
 -13.715  -13.847  -14.123  -14.465  -14.793  -15.062  -15.220  -15.185  -14.885  -14.297  -13.478  -12.564  -11.720  -11.078  -10.717  -10.636  -10.761  -10.982  -11.192  -11.329  -11.392  -11.419  -11.442  -11.468  -11.443  -11.281  -10.894  -10.251   -9.397   -8.421   -7.432   -6.511   -5.744   -5.183   -4.875   -4.844   -5.096   -5.574   -6.167   -6.761   -7.275   -7.651   -7.875   -7.983   -8.045   -8.169   -8.430   -8.832   -9.314   -9.776  -10.127  -10.284  -10.175   -9.751   -9.043   -8.165   -7.268   -6.461   -5.769   -5.190   -4.706   -4.312   -3.967   -3.656   -3.361   -3.094   -2.858   -2.668   -2.557   -2.568   -2.685   -2.859   -2.994   -3.044   -3.008   -2.929   -2.865   -2.852   -2.865   -2.864   -2.834   -2.810   -2.834   -2.900   -3.002   -3.105   -3.184   -3.213   -3.167   -3.042   -2.873   -2.670   -2.471   -2.283   -2.112   -1.958   -1.841   -1.786   -1.775   -1.850
 -13.742  -13.952  -14.376  -14.878  -15.314  -15.615  -15.751  -15.696  -15.430  -14.946  -14.273  -13.510  -12.771  -12.167  -11.764  -11.574  -11.528  -11.509  -11.405  -11.176  -10.867  -10.562  -10.344  -10.235  -10.184  -10.089   -9.854   -9.436   -8.857   -8.165   -7.406   -6.622   -5.863   -5.187   -4.672   -4.385   -4.353   -4.543   -4.871   -5.260   -5.652   -5.992   -6.263   -6.494   -6.760   -7.160   -7.740   -8.443   -9.162   -9.771  -10.182  -10.347  -10.214   -9.758   -9.004   -8.070   -7.098   -6.189   -5.375   -4.658   -4.044   -3.534   -3.123   -2.800   -2.554   -2.390   -2.300   -2.272   -2.319   -2.438   -2.628   -2.839   -3.035   -3.192   -3.295   -3.351   -3.395   -3.457   -3.518   -3.560   -3.605   -3.699   -3.876   -4.107   -4.344   -4.526   -4.621   -4.586   -4.384   -4.032   -3.586   -3.141   -2.762   -2.485   -2.313   -2.212   -2.174   -2.186   -2.225   -2.320
 -13.640  -13.892  -14.390  -14.955  -15.409  -15.660  -15.691  -15.536  -15.230  -14.784  -14.228  -13.605  -12.987  -12.436  -12.003  -11.700  -11.474  -11.243  -10.919  -10.473   -9.978   -9.530   -9.220   -9.089   -9.089   -9.137   -9.131   -9.023   -8.808   -8.493   -8.049   -7.469   -6.742   -5.928   -5.142   -4.507   -4.100   -3.919   -3.915   -4.031   -4.234   -4.485   -4.762   -5.084   -5.519   -6.137   -6.940   -7.837   -8.691   -9.372   -9.813   -9.967   -9.800   -9.307   -8.527   -7.579   -6.604   -5.705   -4.907   -4.200   -3.593   -3.104   -2.741   -2.514   -2.409   -2.414   -2.492   -2.615   -2.781   -2.993   -3.235   -3.490   -3.749   -3.989   -4.157   -4.243   -4.273   -4.295   -4.323   -4.364   -4.469   -4.710   -5.090   -5.546   -5.966   -6.264   -6.392   -6.295   -5.944   -5.372   -4.658   -3.951   -3.349   -2.913   -2.669   -2.561   -2.553   -2.601   -2.677   -2.792
 -13.453  -13.714  -14.220  -14.767  -15.148  -15.249  -15.076  -14.719  -14.271  -13.785  -13.288  -12.789  -12.306  -11.845  -11.425  -11.042  -10.678  -10.289   -9.841   -9.324   -8.796   -8.350   -8.072   -7.999   -8.112   -8.346   -8.637   -8.919   -9.158   -9.298   -9.257   -8.945   -8.312   -7.405   -6.375   -5.392   -4.595   -4.015   -3.641   -3.439   -3.399   -3.509   -3.732   -4.073   -4.570   -5.246   -6.079   -6.973   -7.804   -8.468   -8.889   -9.036   -8.868   -8.383   -7.637   -6.756   -5.887   -5.126   -4.497   -3.962   -3.511   -3.169   -2.963   -2.900   -2.981   -3.146   -3.358   -3.571   -3.795   -4.025   -4.269   -4.529   -4.809   -5.061   -5.214   -5.246   -5.177   -5.102   -5.065   -5.109   -5.300   -5.716   -6.333   -7.041   -7.662   -8.090   -8.255   -8.121   -7.672   -6.932   -6.011   -5.056   -4.210   -3.566   -3.153   -2.934   -2.876   -2.911   -2.994   -3.117
 -13.282  -13.528  -14.008  -14.484  -14.725  -14.599  -14.138  -13.482  -12.793  -12.183  -11.678  -11.269  -10.921  -10.581  -10.222   -9.826   -9.394   -8.938   -8.458   -7.969   -7.505   -7.139   -6.933   -6.938   -7.162   -7.592   -8.188   -8.890   -9.615  -10.251  -10.642  -10.651  -10.193   -9.306   -8.147   -6.926   -5.826   -4.916   -4.206   -3.707   -3.437   -3.390   -3.531   -3.822   -4.254   -4.813   -5.461   -6.126   -6.734   -7.230   -7.554   -7.671   -7.521   -7.100   -6.466   -5.740   -5.072   -4.554   -4.197   -3.952   -3.789   -3.696   -3.719   -3.876   -4.133   -4.434   -4.721   -4.963   -5.165   -5.350   -5.542   -5.756   -5.979   -6.169   -6.229   -6.136   -5.948   -5.774   -5.697   -5.776   -6.080   -6.674   -7.511   -8.433   -9.227   -9.757   -9.957   -9.803   -9.295   -8.456   -7.391   -6.236   -5.158   -4.286   -3.674   -3.302   -3.128   -3.110   -3.173   -3.301
 -13.211  -13.443  -13.885  -14.273  -14.350  -13.974  -13.193  -12.185  -11.191  -10.374   -9.798   -9.433   -9.195   -8.979   -8.714   -8.373   -7.959   -7.519   -7.088   -6.680   -6.315   -6.038   -5.891   -5.950   -6.248   -6.819   -7.665   -8.733   -9.902  -10.985  -11.782  -12.119  -11.907  -11.166  -10.047   -8.772   -7.533   -6.430   -5.509   -4.811   -4.380   -4.217   -4.272   -4.466   -4.740   -5.041   -5.326   -5.576   -5.777   -5.947   -6.070   -6.094   -5.959   -5.647   -5.191   -4.703   -4.306   -4.095   -4.076   -4.184   -4.353   -4.567   -4.858   -5.236   -5.653   -6.041   -6.338   -6.543   -6.689   -6.804   -6.911   -7.037   -7.166   -7.248   -7.189   -6.976   -6.686   -6.453   -6.380   -6.523   -6.939   -7.658   -8.614   -9.629  -10.490  -11.036  -11.216  -11.029  -10.483   -9.590   -8.435   -7.147   -5.915   -4.885   -4.119   -3.615   -3.345   -3.263   -3.314   -3.445
 -13.240  -13.470  -13.885  -14.203  -14.143  -13.552  -12.477  -11.128   -9.806   -8.750   -8.056   -7.687   -7.518   -7.404   -7.240   -6.986   -6.661   -6.309   -5.973   -5.664   -5.391   -5.176   -5.074   -5.146   -5.462   -6.100   -7.094   -8.405   -9.892  -11.317  -12.445  -13.084  -13.138  -12.638  -11.711  -10.547   -9.340   -8.217   -7.242   -6.481   -5.989   -5.760   -5.735   -5.802   -5.857   -5.818   -5.660   -5.395   -5.099   -4.851   -4.693   -4.574   -4.442   -4.241   -3.998   -3.791   -3.711   -3.834   -4.165   -4.629   -5.142   -5.665   -6.204   -6.760   -7.276   -7.683   -7.949   -8.099   -8.173   -8.220   -8.266   -8.321   -8.372   -8.357   -8.217   -7.941   -7.622   -7.400   -7.366   -7.562   -8.013   -8.724   -9.616  -10.535  -11.277  -11.699  -11.767  -11.496  -10.898   -9.979   -8.795   -7.477   -6.220   -5.168   -4.376   -3.840   -3.536   -3.449   -3.499   -3.641
 -13.218  -13.449  -13.863  -14.158  -14.019  -13.287  -11.995  -10.379   -8.776   -7.487   -6.656   -6.256   -6.125   -6.092   -6.021   -5.876   -5.669   -5.440   -5.213   -5.001   -4.799   -4.628   -4.550   -4.618   -4.911   -5.523   -6.542   -7.961   -9.624  -11.267  -12.624  -13.504  -13.820  -13.590  -12.918  -11.970  -10.918   -9.905   -9.017   -8.315   -7.842   -7.580   -7.460   -7.370   -7.173   -6.784   -6.186   -5.438   -4.680   -4.045   -3.614   -3.362   -3.219   -3.121   -3.074   -3.129   -3.362   -3.813   -4.462   -5.240   -6.053   -6.835   -7.569   -8.230   -8.772   -9.151   -9.363   -9.455   -9.482   -9.502   -9.529   -9.558   -9.576   -9.538   -9.400   -9.161   -8.904   -8.739   -8.743   -8.931   -9.294   -9.810  -10.425  -11.015  -11.443  -11.599  -11.457  -11.046  -10.380   -9.464   -8.340   -7.130   -6.002   -5.084   -4.406   -3.950   -3.703   -3.647   -3.722   -3.889
 -12.844  -13.088  -13.521  -13.824  -13.683  -12.908  -11.513   -9.742   -7.959   -6.502   -5.570   -5.140   -5.032   -5.052   -5.062   -5.017   -4.940   -4.849   -4.733   -4.601   -4.453   -4.322   -4.263   -4.317   -4.556   -5.089   -6.044   -7.443   -9.155  -10.893  -12.386  -13.439  -13.962  -13.974  -13.550  -12.837  -12.000  -11.175  -10.456   -9.886   -9.470   -9.187   -8.963   -8.696   -8.253   -7.541   -6.577   -5.464   -4.387   -3.522   -2.953   -2.641   -2.508   -2.490   -2.581   -2.832   -3.307   -4.010   -4.913   -5.928   -6.960   -7.928   -8.777   -9.472   -9.981  -10.305  -10.467  -10.527  -10.546  -10.567  -10.610  -10.661  -10.697  -10.688  -10.617  -10.480  -10.332  -10.244  -10.261  -10.371  -10.538  -10.729  -10.901  -11.012  -10.993  -10.786  -10.377   -9.807   -9.080   -8.214   -7.249   -6.274   -5.413   -4.746   -4.277   -3.974   -3.822   -3.831   -3.939   -4.124
 -11.848  -12.088  -12.543  -12.899  -12.815  -12.088  -10.717   -8.937   -7.118   -5.621   -4.657   -4.217   -4.121   -4.166   -4.225   -4.263   -4.297   -4.311   -4.296   -4.234   -4.145   -4.062   -4.020   -4.058   -4.237   -4.680   -5.527   -6.828   -8.475  -10.201  -11.737  -12.882  -13.542  -13.729  -13.510  -13.011  -12.396  -11.791  -11.277  -10.858  -10.513  -10.206   -9.879   -9.447   -8.787   -7.832   -6.621   -5.309   -4.110   -3.214   -2.673   -2.423   -2.355   -2.399   -2.577   -2.941   -3.543   -4.388   -5.421   -6.558   -7.701   -8.761   -9.652  -10.326  -10.772  -11.035  -11.161  -11.210  -11.231  -11.270  -11.340  -11.422  -11.490  -11.536  -11.546  -11.516  -11.473  -11.437  -11.437  -11.438  -11.384  -11.228  -10.949  -10.569  -10.089   -9.516   -8.864   -8.159   -7.421   -6.667   -5.925   -5.247   -4.702   -4.319   -4.081   -3.958   -3.928   -4.001   -4.150   -4.346
 -10.190  -10.399  -10.860  -11.270  -11.289  -10.701   -9.479   -7.839   -6.143   -4.745   -3.844   -3.427   -3.328   -3.363   -3.436   -3.509   -3.590   -3.671   -3.722   -3.731   -3.700   -3.678   -3.670   -3.710   -3.857   -4.228   -4.957   -6.113   -7.595   -9.200  -10.678  -11.827  -12.551  -12.840  -12.760  -12.445  -12.041  -11.664  -11.348  -11.075  -10.799  -10.468  -10.049   -9.475   -8.669   -7.577   -6.267   -4.928   -3.796   -3.029   -2.644   -2.541   -2.590   -2.718   -2.944   -3.344   -3.973   -4.820   -5.846   -6.969   -8.103   -9.152  -10.009  -10.620  -10.991  -11.195  -11.287  -11.321  -11.339  -11.390  -11.473  -11.573  -11.667  -11.753  -11.817  -11.859  -11.874  -11.863  -11.830  -11.733  -11.512  -11.099  -10.493   -9.748   -8.939   -8.113   -7.310   -6.557   -5.869   -5.270   -4.767   -4.375   -4.114   -3.969   -3.932   -3.963   -4.054   -4.207   -4.388   -4.610
  -8.138   -8.294   -8.736   -9.175   -9.314   -8.915   -7.939   -6.565   -5.127   -3.951   -3.188   -2.819   -2.703   -2.701   -2.734   -2.792   -2.874   -2.965   -3.047   -3.114   -3.163   -3.213   -3.270   -3.353   -3.512   -3.843   -4.465   -5.426   -6.671   -8.048   -9.358  -10.423  -11.126  -11.447  -11.450  -11.275  -11.056  -10.882  -10.743  -10.592  -10.365  -10.017   -9.534   -8.883   -8.007   -6.902   -5.647   -4.435   -3.482   -2.925   -2.740   -2.806   -2.983   -3.197   -3.469   -3.855   -4.410   -5.144   -6.030   -7.013   -8.018   -8.950   -9.707  -10.224  -10.514  -10.653  -10.706  -10.716  -10.721  -10.755  -10.831  -10.934  -11.034  -11.132  -11.218  -11.285  -11.314  -11.299  -11.235  -11.084  -10.783  -10.259   -9.515   -8.623   -7.684   -6.775   -5.961   -5.266   -4.706   -4.279   -3.993   -3.821   -3.758   -3.777   -3.869   -4.019   -4.224   -4.458   -4.687   -4.931
  -6.222   -6.309   -6.696   -7.136   -7.361   -7.157   -6.451   -5.400   -4.296   -3.394   -2.806   -2.496   -2.358   -2.305   -2.283   -2.293   -2.343   -2.416   -2.517   -2.631   -2.761   -2.900   -3.043   -3.198   -3.391   -3.712   -4.238   -5.009   -5.984   -7.070   -8.128   -9.017   -9.622   -9.912   -9.954   -9.875   -9.799   -9.777   -9.761   -9.680   -9.478   -9.130   -8.635   -7.980   -7.141   -6.143   -5.072   -4.094   -3.376   -3.020   -2.984   -3.154   -3.417   -3.695   -3.993   -4.346   -4.777   -5.307   -5.945   -6.672   -7.435   -8.162   -8.758   -9.155   -9.362   -9.437   -9.449   -9.426   -9.406   -9.415   -9.472   -9.565   -9.662   -9.751   -9.830   -9.884   -9.891   -9.858   -9.781   -9.630   -9.331   -8.835   -8.122   -7.284   -6.402   -5.586   -4.893   -4.351   -3.965   -3.723   -3.606   -3.585   -3.626   -3.725   -3.887   -4.105   -4.385   -4.687   -4.956   -5.212
  -4.994   -5.002   -5.293   -5.668   -5.914   -5.835   -5.366   -4.625   -3.841   -3.200   -2.775   -2.520   -2.359   -2.246   -2.175   -2.140   -2.158   -2.227   -2.340   -2.499   -2.698   -2.914   -3.141   -3.358   -3.599   -3.932   -4.404   -5.038   -5.794   -6.604   -7.393   -8.053   -8.511   -8.730   -8.771   -8.761   -8.788   -8.851   -8.880   -8.799   -8.602   -8.284   -7.842   -7.276   -6.579   -5.790   -4.984   -4.283   -3.796   -3.581   -3.602   -3.780   -4.045   -4.336   -4.631   -4.920   -5.196   -5.477   -5.788   -6.165   -6.593   -7.032   -7.404   -7.653   -7.765   -7.783   -7.755   -7.705   -7.670   -7.661   -7.707   -7.788   -7.873   -7.949   -8.004   -8.021   -7.996   -7.944   -7.875   -7.757   -7.530   -7.133   -6.571   -5.904   -5.219   -4.606   -4.117   -3.774   -3.572   -3.499   -3.522   -3.592   -3.691   -3.813   -3.977   -4.206   -4.499   -4.819   -5.098   -5.370
  -4.759   -4.695   -4.860   -5.095   -5.270   -5.214   -4.874   -4.349   -3.811   -3.368   -3.050   -2.813   -2.622   -2.469   -2.361   -2.306   -2.316   -2.389   -2.530   -2.723   -2.963   -3.227   -3.495   -3.752   -4.037   -4.396   -4.883   -5.490   -6.158   -6.818   -7.406   -7.870   -8.181   -8.330   -8.383   -8.437   -8.533   -8.617   -8.611   -8.484   -8.273   -8.010   -7.687   -7.287   -6.806   -6.278   -5.764   -5.334   -5.047   -4.917   -4.924   -5.036   -5.223   -5.466   -5.714   -5.908   -6.009   -6.003   -5.943   -5.901   -5.909   -5.978   -6.062   -6.119   -6.125   -6.086   -6.022   -5.960   -5.923   -5.914   -5.958   -6.036   -6.114   -6.183   -6.215   -6.198   -6.144   -6.084   -6.038   -5.968   -5.831   -5.572   -5.195   -4.742   -4.296   -3.919   -3.651   -3.511   -3.487   -3.546   -3.667   -3.797   -3.927   -4.045   -4.175   -4.353   -4.602   -4.883   -5.138   -5.410
  -5.531   -5.400   -5.431   -5.493   -5.497   -5.333   -4.978   -4.527   -4.097   -3.747   -3.467   -3.222   -3.002   -2.825   -2.706   -2.653   -2.676   -2.768   -2.924   -3.135   -3.383   -3.647   -3.911   -4.170   -4.480   -4.903   -5.494   -6.206   -6.953   -7.629   -8.170   -8.551   -8.786   -8.926   -9.032   -9.164   -9.298   -9.360   -9.285   -9.089   -8.864   -8.668   -8.489   -8.279   -8.027   -7.758   -7.516   -7.333   -7.216   -7.142   -7.106   -7.118   -7.208   -7.367   -7.531   -7.616   -7.530   -7.237   -6.791   -6.278   -5.803   -5.426   -5.160   -4.986   -4.858   -4.756   -4.670   -4.596   -4.561   -4.559   -4.605   -4.685   -4.762   -4.829   -4.850   -4.823   -4.765   -4.717   -4.695   -4.682   -4.627   -4.495   -4.284   -4.029   -3.792   -3.617   -3.535   -3.551   -3.656   -3.820   -4.011   -4.190   -4.337   -4.442   -4.533   -4.646   -4.834   -5.062   -5.284   -5.563
  -7.140   -6.964   -6.890   -6.774   -6.546   -6.142   -5.605   -5.051   -4.574   -4.194   -3.887   -3.625   -3.403   -3.238   -3.135   -3.105   -3.144   -3.239   -3.382   -3.572   -3.780   -3.999   -4.210   -4.446   -4.773   -5.288   -6.040   -6.971   -7.943   -8.805   -9.460   -9.889  -10.159  -10.356  -10.553  -10.760  -10.916  -10.942  -10.805  -10.566  -10.345  -10.205  -10.133  -10.075  -10.006   -9.948   -9.926   -9.941   -9.954   -9.936   -9.873   -9.821   -9.837   -9.917  -10.002   -9.975   -9.725   -9.192   -8.401   -7.447   -6.475   -5.622   -4.980   -4.550   -4.282   -4.110   -4.000   -3.918   -3.871   -3.865   -3.902   -3.977   -4.057   -4.125   -4.168   -4.166   -4.137   -4.112   -4.119   -4.140   -4.147   -4.114   -4.023   -3.907   -3.814   -3.774   -3.808   -3.917   -4.096   -4.317   -4.566   -4.795   -4.985   -5.108   -5.192   -5.276   -5.418   -5.620   -5.823   -6.116
  -9.319   -9.144   -9.011   -8.745   -8.266   -7.550   -6.698   -5.872   -5.194   -4.685   -4.307   -4.031   -3.836   -3.720   -3.652   -3.636   -3.672   -3.734   -3.827   -3.938   -4.065   -4.190   -4.328   -4.517   -4.855   -5.460   -6.390   -7.577   -8.841   -9.983  -10.870  -11.464  -11.846  -12.141  -12.424  -12.678  -12.836  -12.835  -12.680  -12.448  -12.248  -12.145  -12.119  -12.139  -12.182  -12.260  -12.379  -12.514  -12.624  -12.655  -12.606  -12.546  -12.536  -12.575  -12.599  -12.495  -12.145  -11.463  -10.439   -9.152   -7.771   -6.516   -5.552   -4.916   -4.541   -4.324   -4.190   -4.093   -4.035   -4.016   -4.041   -4.092   -4.171   -4.257   -4.327   -4.376   -4.402   -4.420   -4.460   -4.513   -4.564   -4.591   -4.573   -4.533   -4.496   -4.492   -4.549   -4.673   -4.868   -5.129   -5.435   -5.755   -6.036   -6.239   -6.358   -6.439   -6.557   -6.742   -6.936   -7.247
 -11.787  -11.625  -11.465  -11.097  -10.392   -9.357   -8.135   -6.958   -5.993   -5.288   -4.809   -4.514   -4.350   -4.272   -4.228   -4.204   -4.202   -4.201   -4.206   -4.217   -4.222   -4.239   -4.284   -4.407   -4.728   -5.387   -6.446   -7.843   -9.385  -10.832  -11.996  -12.804  -13.341  -13.731  -14.064  -14.326  -14.470  -14.459  -14.327  -14.143  -13.984  -13.894  -13.885  -13.929  -14.017  -14.147  -14.313  -14.497  -14.644  -14.708  -14.700  -14.672  -14.682  -14.727  -14.730  -14.596  -14.216  -13.492  -12.376  -10.923   -9.329   -7.865   -6.745   -6.036   -5.644   -5.434   -5.309   -5.220   -5.157   -5.133   -5.151   -5.204   -5.280   -5.387   -5.499   -5.615   -5.724   -5.818   -5.902   -5.989   -6.072   -6.134   -6.140   -6.101   -6.032   -5.965   -5.938   -5.997   -6.168   -6.468   -6.873   -7.342   -7.779   -8.109   -8.283   -8.353   -8.417   -8.539   -8.693   -8.998
 -14.304  -14.143  -13.951  -13.489  -12.609  -11.311   -9.763   -8.239   -6.957   -6.018   -5.407   -5.056   -4.889   -4.808   -4.756   -4.701   -4.641   -4.568   -4.480   -4.388   -4.289   -4.199   -4.146   -4.198   -4.481   -5.141   -6.258   -7.785   -9.530  -11.230  -12.650  -13.681  -14.367  -14.837  -15.181  -15.420  -15.534  -15.530  -15.450  -15.342  -15.243  -15.187  -15.186  -15.235  -15.326  -15.446  -15.587  -15.736  -15.866  -15.940  -15.969  -15.992  -16.049  -16.122  -16.138  -16.011  -15.654  -14.964  -13.888  -12.473  -10.911   -9.500   -8.470   -7.867   -7.580   -7.461   -7.404   -7.355   -7.320   -7.314   -7.360   -7.439   -7.541   -7.676   -7.837   -8.035   -8.255   -8.469   -8.647   -8.789   -8.909   -8.991   -8.999   -8.908   -8.718   -8.472   -8.253   -8.160   -8.274   -8.626   -9.189   -9.873  -10.528  -11.012  -11.247  -11.276  -11.238  -11.245  -11.311  -11.617
 -16.966  -16.767  -16.491  -15.903  -14.853  -13.338  -11.517   -9.676   -8.070   -6.863   -6.068   -5.616   -5.391   -5.276   -5.196   -5.106   -4.996   -4.867   -4.720   -4.560   -4.390   -4.236   -4.125   -4.127   -4.368   -4.998   -6.104   -7.672   -9.528  -11.396  -13.005  -14.217  -15.037  -15.564  -15.900  -16.096  -16.184  -16.203  -16.193  -16.181  -16.178  -16.191  -16.234  -16.305  -16.386  -16.470  -16.547  -16.620  -16.684  -16.732  -16.774  -16.835  -16.934  -17.039  -17.082  -16.992  -16.697  -16.116  -15.202  -14.013  -12.733  -11.633  -10.912  -10.583  -10.517  -10.558  -10.603  -10.621  -10.632  -10.673  -10.759  -10.884  -11.021  -11.182  -11.392  -11.684  -12.055  -12.441  -12.774  -13.030  -13.225  -13.355  -13.380  -13.227  -12.876  -12.371  -11.863  -11.546  -11.576  -12.011  -12.789  -13.763  -14.720  -15.435  -15.793  -15.843  -15.781  -15.779  -15.856  -16.252
 -20.457  -20.165  -19.718  -18.902  -17.611  -15.845  -13.731  -11.536   -9.554   -8.005   -6.950   -6.327   -6.000   -5.840   -5.736   -5.627   -5.496   -5.342   -5.174   -4.998   -4.822   -4.656   -4.543   -4.542   -4.769   -5.361   -6.427   -7.967   -9.840  -11.770  -13.489  -14.824  -15.741  -16.308  -16.628  -16.787  -16.860  -16.916  -16.997  -17.114  -17.258  -17.411  -17.568  -17.710  -17.818  -17.880  -17.896  -17.882  -17.860  -17.850  -17.866  -17.924  -18.030  -18.155  -18.245  -18.238  -18.073  -17.694  -17.082  -16.295  -15.488  -14.878  -14.607  -14.649  -14.867  -15.090  -15.237  -15.311  -15.357  -15.427  -15.527  -15.650  -15.778  -15.929  -16.166  -16.561  -17.123  -17.744  -18.310  -18.764  -19.123  -19.405  -19.537  -19.416  -18.958  -18.234  -17.457  -16.942  -16.933  -17.530  -18.638  -20.056  -21.486  -22.660  -23.423  -23.870  -24.232  -24.679  -25.139  -25.838
 -25.831  -25.439  -24.712  -23.530  -21.858  -19.713  -17.188  -14.513  -12.007   -9.971   -8.535   -7.652   -7.170   -6.931   -6.801   -6.689   -6.559   -6.411   -6.256   -6.106   -5.969   -5.863   -5.808   -5.850   -6.091   -6.652   -7.656   -9.125  -10.928  -12.837  -14.575  -15.967  -16.936  -17.522  -17.826  -17.956  -18.032  -18.133  -18.326  -18.622  -19.000  -19.410  -19.795  -20.107  -20.312  -20.401  -20.385  -20.294  -20.177  -20.077  -20.019  -20.020  -20.091  -20.226  -20.401  -20.559  -20.644  -20.609  -20.448  -20.206  -19.998  -19.968  -20.199  -20.642  -21.141  -21.539  -21.772  -21.877  -21.928  -21.971  -22.014  -22.049  -22.082  -22.172  -22.424  -22.941  -23.726  -24.645  -25.532  -26.312  -27.006  -27.622  -28.061  -28.167  -27.842  -27.166  -26.424  -26.014  -26.268  -27.300  -29.005  -31.134  -33.360  -35.391  -37.096  -38.588  -40.078  -41.593  -42.829  -43.846
 -33.684  -33.264  -32.221  -30.586  -28.421  -25.758  -22.671  -19.344  -16.133  -13.427  -11.457  -10.192   -9.469   -9.096   -8.903   -8.775   -8.639   -8.497   -8.359   -8.257   -8.190   -8.176   -8.228   -8.368   -8.653   -9.186  -10.102  -11.434  -13.108  -14.914  -16.602  -17.983  -18.962  -19.548  -19.829  -19.935  -20.009  -20.170  -20.503  -21.038  -21.750  -22.552  -23.312  -23.921  -24.316  -24.484  -24.463  -24.307  -24.088  -23.875  -23.700  -23.598  -23.597  -23.752  -24.068  -24.501  -24.976  -25.434  -25.848  -26.237  -26.666  -27.220  -27.943  -28.768  -29.537  -30.107  -30.445  -30.612  -30.688  -30.709  -30.681  -30.610  -30.553  -30.620  -30.954  -31.663  -32.736  -34.011  -35.309  -36.552  -37.753  -38.902  -39.878  -40.518  -40.743  -40.668  -40.616  -41.000  -42.126  -44.076  -46.710  -49.770  -52.957  -56.031  -58.907  -61.665  -64.366  -66.801  -68.469  -69.151
 -43.300  -43.011  -41.727  -39.689  -37.049  -33.865  -30.178  -26.149  -22.160  -18.694  -16.076  -14.326  -13.271  -12.686  -12.376  -12.184  -12.010  -11.838  -11.696  -11.618  -11.631  -11.735  -11.932  -12.201  -12.550  -13.057  -13.849  -15.000  -16.475  -18.114  -19.699  -21.036  -22.002  -22.572  -22.817  -22.884  -22.945  -23.163  -23.651  -24.471  -25.592  -26.880  -28.119  -29.117  -29.764  -30.047  -30.030  -29.814  -29.506  -29.181  -28.890  -28.676  -28.616  -28.816  -29.327  -30.115  -31.069  -32.086  -33.103  -34.107  -35.124  -36.200  -37.354  -38.519  -39.557  -40.352  -40.893  -41.245  -41.484  -41.638  -41.715  -41.749  -41.832  -42.104  -42.721  -43.766  -45.202  -46.868  -48.606  -50.348  -52.100  -53.842  -55.472  -56.876  -58.037  -59.100  -60.352  -62.103  -64.523  -67.582  -71.105  -74.865  -78.656  -82.335  -85.855  -89.221  -92.331  -94.831  -96.128  -95.702
 -52.915  -52.895  -51.521  -49.247  -46.292  -42.734  -38.597  -34.026  -29.411  -25.302  -22.105  -19.891  -18.486  -17.655  -17.173  -16.868  -16.601  -16.348  -16.138  -16.042  -16.107  -16.336  -16.701  -17.126  -17.563  -18.055  -18.723  -19.676  -20.926  -22.375  -23.845  -25.136  -26.093  -26.644  -26.842  -26.851  -26.884  -27.139  -27.766  -28.852  -30.361  -32.107  -33.801  -35.168  -36.056  -36.452  -36.453  -36.206  -35.847  -35.469  -35.122  -34.865  -34.808  -35.108  -35.853  -37.007  -38.422  -39.946  -41.475  -42.970  -44.439  -45.915  -47.409  -48.862  -50.178  -51.275  -52.156  -52.883  -53.520  -54.096  -54.625  -55.148  -55.756  -56.574  -57.718  -59.232  -61.057  -63.064  -65.141  -67.247  -69.389  -71.566  -73.733  -75.850  -77.954  -80.178  -82.708  -85.689  -89.141  -92.954  -96.957 -100.983 -104.909 -108.659 -112.188 -115.416 -118.112 -119.832 -119.950 -118.100
 -60.776  -61.060  -59.731  -57.395  -54.328  -50.619  -46.291  -41.486  -36.591  -32.168  -28.657  -26.154  -24.494  -23.444  -22.791  -22.345  -21.948  -21.558  -21.224  -21.041  -21.103  -21.434  -21.970  -22.577  -23.143  -23.666  -24.252  -25.045  -26.117  -27.428  -28.834  -30.129  -31.113  -31.670  -31.836  -31.792  -31.784  -32.046  -32.749  -33.996  -35.745  -37.774  -39.747  -41.344  -42.386  -42.869  -42.910  -42.689  -42.364  -42.035  -41.750  -41.574  -41.635  -42.113  -43.112  -44.583  -46.353  -48.237  -50.106  -51.910  -53.657  -55.380  -57.099  -58.781  -60.372  -61.830  -63.169  -64.444  -65.706  -66.978  -68.263  -69.583  -70.987  -72.545  -74.315  -76.297  -78.440  -80.661  -82.898  -85.142  -87.422  -89.771  -92.207  -94.751  -97.461 -100.425 -103.722 -107.360 -111.254 -115.251 -119.191 -122.953 -126.466 -129.681 -132.529 -134.857 -136.422 -136.858 -135.514 -133.982
 -65.764  -66.280  -65.057  -62.784  -59.768  -56.118  -51.867  -47.161  -42.380  -38.052  -34.580  -32.049  -30.305  -29.141  -28.369  -27.794  -27.260  -26.708  -26.201  -25.878  -25.884  -26.272  -26.965  -27.771  -28.515  -29.142  -29.744  -30.490  -31.508  -32.810  -34.272  -35.673  -36.763  -37.393  -37.585  -37.534  -37.508  -37.754  -38.453  -39.703  -41.458  -43.498  -45.484  -47.103  -48.179  -48.709  -48.823  -48.702  -48.507  -48.337  -48.241  -48.282  -48.586  -49.318  -50.570  -52.278  -54.262  -56.329  -58.349  -60.275  -62.126  -63.948  -65.777  -67.621  -69.464  -71.300  -73.153  -75.066  -77.065  -79.145  -81.283  -83.452  -85.651  -87.889  -90.177  -92.500  -94.822  -97.104  -99.328 -101.516 -103.721 -106.008 -108.435 -111.060 -113.938 -117.104 -120.548 -124.193 -127.914 -131.580 -135.096 -138.414 -141.505 -144.330 -146.831 -148.908 -150.404 -150.945 -149.340 -152.161
 -67.408  -68.017  -66.894  -64.744  -61.887  -58.449  -54.491  -50.167  -45.831  -41.942  -38.821  -36.508  -34.862  -33.713  -32.903  -32.253  -31.614  -30.924  -30.253  -29.782  -29.701  -30.113  -30.939  -31.951  -32.916  -33.737  -34.496  -35.371  -36.528  -38.010  -39.697  -41.341  -42.658  -43.475  -43.810  -43.854  -43.875  -44.116  -44.745  -45.852  -47.397  -49.191  -50.944  -52.390  -53.383  -53.922  -54.122  -54.145  -54.137  -54.189  -54.351  -54.684  -55.294  -56.307  -57.777  -59.628  -61.687  -63.778  -65.786  -67.680  -69.495  -71.295  -73.143  -75.081  -77.132  -79.317  -81.663  -84.187  -86.878  -89.688  -92.546  -95.385  -98.158 -100.842 -103.424 -105.891 -108.228 -110.429 -112.511 -114.518 -116.521 -118.604 -120.850 -123.333 -126.106 -129.192 -132.564 -136.168 -139.919 -143.730 -147.502 -151.134 -154.529 -157.596 -160.291 -162.512 -164.057 -164.396 -161.981 -169.063
 -65.733  -66.280  -65.209  -63.191  -60.544  -57.415  -53.893  -50.141  -46.464  -43.226  -40.644  -38.711  -37.298  -36.279  -35.521  -34.876  -34.207  -33.455  -32.699  -32.136  -32.004  -32.444  -33.399  -34.629  -35.874  -37.009  -38.099  -39.326  -40.860  -42.750  -44.859  -46.909  -48.603  -49.756  -50.383  -50.658  -50.824  -51.101  -51.645  -52.534  -53.748  -55.146  -56.518  -57.668  -58.490  -58.985  -59.240  -59.380  -59.524  -59.753  -60.126  -60.702  -61.562  -62.786  -64.383  -66.263  -68.271  -70.257  -72.134  -73.892  -75.583  -77.292  -79.104  -81.087  -83.292  -85.754  -88.491  -91.487  -94.682  -97.984 -101.286 -104.494 -107.546 -110.407 -113.064 -115.514 -117.759 -119.815 -121.711 -123.506 -125.277 -127.121 -129.132 -131.397 -133.978 -136.902 -140.156 -143.683 -147.389 -151.160 -154.845 -158.335 -161.525 -164.340 -166.691 -168.425 -169.287 -168.721 -165.189 -172.172
 -61.189  -61.533  -60.454  -58.543  -56.113  -53.331  -50.312  -47.214  -44.278  -41.758  -39.772  -38.284  -37.183  -36.371  -35.750  -35.198  -34.598  -33.909  -33.210  -32.702  -32.639  -33.194  -34.340  -35.858  -37.494  -39.113  -40.763  -42.602  -44.777  -47.303  -50.015  -52.618  -54.815  -56.434  -57.479  -58.096  -58.490  -58.854  -59.334  -60.009  -60.881  -61.865  -62.824  -63.636  -64.231  -64.609  -64.823  -64.960  -65.112  -65.360  -65.771  -66.410  -67.341  -68.600  -70.163  -71.932  -73.769  -75.555  -77.229  -78.801  -80.340  -81.942  -83.703  -85.701  -87.996  -90.620  -93.576  -96.811 -100.229 -103.709 -107.129 -110.396 -113.451 -116.263 -118.825 -121.136 -123.207 -125.057 -126.724 -128.266 -129.763 -131.311 -133.011 -134.945 -137.173 -139.711 -142.533 -145.561 -148.701 -151.847 -154.911 -157.848 -160.591 -163.106 -165.253 -166.869 -167.648 -167.048 -163.707 -167.624
 -54.610  -54.660  -53.523  -51.685  -49.445  -46.998  -44.475  -42.010  -39.774  -37.917  -36.487  -35.432  -34.664  -34.108  -33.691  -33.324  -32.927  -32.469  -32.035  -31.814  -32.054  -32.932  -34.452  -36.439  -38.670  -41.009  -43.473  -46.164  -49.173  -52.463  -55.843  -59.025  -61.743  -63.845  -65.331  -66.311  -66.951  -67.421  -67.858  -68.355  -68.938  -69.565  -70.159  -70.644  -70.977  -71.152  -71.194  -71.164  -71.138  -71.198  -71.425  -71.889  -72.649  -73.719  -75.055  -76.562  -78.121  -79.639  -81.077  -82.459  -83.860  -85.372  -87.082  -89.061  -91.356  -93.987  -96.934 -100.125 -103.449 -106.780 -110.004 -113.040 -115.840 -118.383 -120.668 -122.696 -124.483 -126.054 -127.448 -128.722 -129.950 -131.218 -132.617 -134.229 -136.103 -138.261 -140.682 -143.317 -146.085 -148.915 -151.741 -154.513 -157.179 -159.656 -161.835 -163.529 -164.485 -164.190 -161.524 -162.259
 -47.162  -46.907  -45.700  -43.911  -41.833  -39.678  -37.584  -35.655  -33.994  -32.674  -31.699  -31.023  -30.577  -30.308  -30.164  -30.095  -30.057  -30.047  -30.146  -30.521  -31.391  -32.916  -35.109  -37.840  -40.908  -44.167  -47.575  -51.165  -54.959  -58.887  -62.766  -66.349  -69.422  -71.865  -73.672  -74.923  -75.746  -76.287  -76.680  -77.027  -77.374  -77.715  -78.004  -78.194  -78.249  -78.158  -77.934  -77.621  -77.289  -77.021  -76.905  -77.020  -77.422  -78.123  -79.080  -80.209  -81.416  -82.630  -83.827  -85.033  -86.314  -87.743  -89.382  -91.276  -93.449  -95.902  -98.603 -101.475 -104.415 -107.314 -110.082 -112.658 -115.011 -117.135 -119.032 -120.712 -122.191 -123.492 -124.650 -125.712 -126.741 -127.810 -129.000 -130.379 -132.002 -133.894 -136.053 -138.447 -141.025 -143.728 -146.498 -149.269 -151.971 -154.506 -156.759 -158.531 -159.592 -159.497 -157.396 -155.971
 -40.203  -39.717  -38.483  -36.768  -34.856  -32.963  -31.218  -29.701  -28.466  -27.542  -26.924  -26.571  -26.437  -26.488  -26.700  -27.060  -27.561  -28.222  -29.115  -30.371  -32.158  -34.601  -37.702  -41.335  -45.301  -49.415  -53.583  -57.784  -62.008  -66.193  -70.204  -73.861  -77.008  -79.554  -81.486  -82.856  -83.758  -84.313  -84.643  -84.853  -85.003  -85.108  -85.142  -85.069  -84.858  -84.494  -83.986  -83.375  -82.726  -82.120  -81.642  -81.372  -81.368  -81.644  -82.172  -82.889  -83.726  -84.634  -85.596  -86.633  -87.787  -89.102  -90.607  -92.317  -94.233  -96.341  -98.603 -100.952 -103.310 -105.597 -107.755 -109.751 -111.573 -113.225 -114.713 -116.047 -117.237 -118.303 -119.269 -120.173 -121.063 -121.998 -123.044 -124.261 -125.696 -127.376 -129.304 -131.465 -133.828 -136.352 -138.990 -141.689 -144.379 -146.962 -149.299 -151.191 -152.385 -152.502 -150.890 -148.367
 -35.034  -34.454  -33.296  -31.747  -30.068  -28.455  -27.025  -25.834  -24.918  -24.295  -23.963  -23.898  -24.079  -24.483  -25.117  -25.997  -27.144  -28.571  -30.324  -32.487  -35.175  -38.467  -42.352  -46.687  -51.251  -55.836  -60.319  -64.661  -68.859  -72.889  -76.676  -80.108  -83.079  -85.518  -87.404  -88.761  -89.654  -90.176  -90.432  -90.522  -90.511  -90.423  -90.248  -89.958  -89.523  -88.931  -88.195  -87.355  -86.472  -85.620  -84.878  -84.316  -83.986  -83.910  -84.070  -84.426  -84.936  -85.567  -86.306  -87.162  -88.154  -89.296  -90.588  -92.021  -93.578  -95.237  -96.960  -98.701 -100.406 -102.030 -103.549 -104.952 -106.245 -107.436 -108.533 -109.542 -110.471 -111.334 -112.149 -112.942 -113.747 -114.609 -115.577 -116.700 -118.014 -119.541 -121.286 -123.240 -125.386 -127.696 -130.143 -132.683 -135.260 -137.786 -140.128 -142.099 -143.436 -143.790 -142.634 -139.864
 -32.591  -32.082  -31.147  -29.910  -28.588  -27.339  -26.248  -25.361  -24.702  -24.303  -24.178  -24.342  -24.777  -25.485  -26.482  -27.802  -29.463  -31.457  -33.781  -36.483  -39.637  -43.316  -47.499  -52.042  -56.717  -61.306  -65.673  -69.778  -73.634  -77.253  -80.610  -83.651  -86.305  -88.516  -90.257  -91.530  -92.371  -92.846  -93.043  -93.048  -92.925  -92.703  -92.382  -91.941  -91.358  -90.624  -89.758  -88.802  -87.815  -86.859  -85.999  -85.293  -84.784  -84.490  -84.405  -84.506  -84.767  -85.170  -85.705  -86.370  -87.165  -88.084  -89.108  -90.213  -91.377  -92.571  -93.767  -94.933  -96.040  -97.071  -98.027  -98.918  -99.759 -100.561 -101.330 -102.068 -102.782 -103.483 -104.183 -104.902 -105.661 -106.492 -107.430 -108.507 -109.753 -111.182 -112.797 -114.590 -116.549 -118.658 -120.892 -123.225 -125.610 -127.975 -130.206 -132.135 -133.526 -134.057 -133.271 -130.733
 -33.165  -32.885  -32.296  -31.507  -30.668  -29.872  -29.164  -28.551  -28.066  -27.752  -27.666  -27.857  -28.329  -29.101  -30.191  -31.628  -33.414  -35.513  -37.887  -40.556  -43.596  -47.087  -51.029  -55.295  -59.662  -63.909  -67.890  -71.557  -74.933  -78.049  -80.918  -83.521  -85.818  -87.766  -89.335  -90.510  -91.304  -91.762  -91.949  -91.937  -91.783  -91.517  -91.144  -90.651  -90.025  -89.266  -88.395  -87.456  -86.501  -85.582  -84.748  -84.041  -83.493  -83.118  -82.912  -82.866  -82.964  -83.198  -83.560  -84.043  -84.636  -85.321  -86.071  -86.862  -87.667  -88.462  -89.225  -89.935  -90.581  -91.166  -91.705  -92.221  -92.733  -93.251  -93.778  -94.315  -94.866  -95.440  -96.050  -96.708  -97.431  -98.238  -99.154 -100.202 -101.402 -102.764 -104.285 -105.958 -107.765 -109.695 -111.730 -113.847 -116.012 -118.168 -120.223 -122.033 -123.392 -124.011 -123.494 -121.332
 -36.156  -36.208  -35.996  -35.669  -35.317  -34.963  -34.591  -34.167  -33.696  -33.246  -32.924  -32.827  -33.001  -33.477  -34.278  -35.424  -36.895  -38.637  -40.594  -42.771  -45.252  -48.136  -51.456  -55.114  -58.904  -62.606  -66.065  -69.225  -72.097  -74.723  -77.132  -79.332  -81.302  -83.018  -84.447  -85.566  -86.373  -86.888  -87.158  -87.237  -87.170  -86.985  -86.688  -86.274  -85.736  -85.080  -84.334  -83.537  -82.732  -81.961  -81.256  -80.648  -80.158  -79.796  -79.563  -79.454  -79.464  -79.590  -79.826  -80.165  -80.588  -81.075  -81.600  -82.139  -82.671  -83.178  -83.641  -84.046  -84.394  -84.695  -84.973  -85.253  -85.554  -85.887  -86.251  -86.645  -87.073  -87.544  -88.071  -88.667  -89.342  -90.113  -90.996  -92.010  -93.171  -94.484  -95.940  -97.525  -99.218 -101.005 -102.869 -104.795 -106.762 -108.724 -110.609 -112.297 -113.608 -114.287 -113.979 -112.193
 -40.148  -40.523  -40.578  -40.556  -40.517  -40.437  -40.239  -39.838  -39.209  -38.427  -37.638  -36.994  -36.597  -36.497  -36.721  -37.276  -38.140  -39.245  -40.524  -41.976  -43.682  -45.755  -48.259  -51.130  -54.198  -57.253  -60.139  -62.787  -65.196  -67.400  -69.435  -71.315  -73.041  -74.603  -75.976  -77.132  -78.055  -78.747  -79.233  -79.545  -79.714  -79.757  -79.681  -79.481  -79.159  -78.726  -78.207  -77.638  -77.052  -76.479  -75.945  -75.471  -75.076  -74.772  -74.562  -74.447  -74.427  -74.505  -74.678  -74.934  -75.254  -75.616  -75.996  -76.376  -76.740  -77.076  -77.368  -77.606  -77.792  -77.941  -78.077  -78.224  -78.401  -78.616  -78.868  -79.157  -79.488  -79.871  -80.316  -80.840  -81.456  -82.176  -83.019  -84.003  -85.140  -86.429  -87.855  -89.391  -91.009  -92.689  -94.420  -96.195  -98.005  -99.821 -101.585 -103.197 -104.496 -105.250 -105.136 -103.690
 -43.438  -44.002  -44.102  -44.104  -44.089  -44.023  -43.785  -43.244  -42.341  -41.142  -39.812  -38.551  -37.505  -36.744  -36.299  -36.171  -36.333  -36.724  -37.274  -37.976  -38.895  -40.148  -41.807  -43.850  -46.153  -48.536  -50.857  -53.041  -55.071  -56.965  -58.747  -60.434  -62.040  -63.566  -65.001  -66.316  -67.483  -68.488  -69.329  -70.014  -70.553  -70.949  -71.202  -71.310  -71.278  -71.120  -70.861  -70.531  -70.155  -69.759  -69.367  -69.003  -68.690  -68.445  -68.276  -68.189  -68.188  -68.278  -68.455  -68.706  -69.008  -69.332  -69.657  -69.969  -70.259  -70.518  -70.733  -70.898  -71.014  -71.093  -71.160  -71.236  -71.336  -71.470  -71.640  -71.846  -72.094  -72.392  -72.755  -73.200  -73.748  -74.417  -75.231  -76.209  -77.359  -78.672  -80.119  -81.654  -83.237  -84.846  -86.475  -88.132  -89.826  -91.543  -93.240  -94.828  -96.157  -97.010  -97.082  -95.942
 -44.669  -45.196  -45.084  -44.806  -44.509  -44.188  -43.715  -42.924  -41.717  -40.139  -38.360  -36.604  -35.038  -33.743  -32.746  -32.040  -31.603  -31.388  -31.334  -31.426  -31.713  -32.296  -33.242  -34.556  -36.161  -37.936  -39.771  -41.597  -43.387  -45.127  -46.820  -48.476  -50.110  -51.735  -53.346  -54.920  -56.420  -57.814  -59.076  -60.188  -61.133  -61.900  -62.485  -62.885  -63.114  -63.186  -63.129  -62.966  -62.721  -62.421  -62.098  -61.785  -61.517  -61.315  -61.194  -61.160  -61.219  -61.376  -61.624  -61.942  -62.297  -62.656  -62.995  -63.302  -63.574  -63.807  -63.994  -64.132  -64.222  -64.274  -64.308  -64.343  -64.393  -64.469  -64.574  -64.709  -64.881  -65.096  -65.371  -65.732  -66.208  -66.834  -67.644  -68.660  -69.883  -71.287  -72.817  -74.406  -75.996  -77.563  -79.112  -80.673  -82.273  -83.920  -85.585  -87.183  -88.567  -89.527  -89.775  -88.905
 -43.137  -43.391  -42.845  -42.033  -41.198  -40.408  -39.558  -38.465  -37.008  -35.196  -33.194  -31.216  -29.428  -27.902  -26.642  -25.632  -24.858  -24.284  -23.879  -23.620  -23.544  -23.717  -24.195  -24.995  -26.092  -27.426  -28.942  -30.585  -32.317  -34.089  -35.875  -37.663  -39.460  -41.275  -43.107  -44.939  -46.736  -48.453  -50.047  -51.478  -52.710  -53.723  -54.513  -55.083  -55.451  -55.638  -55.668  -55.563  -55.347  -55.056  -54.736  -54.430  -54.181  -54.017  -53.955  -53.999  -54.151  -54.412  -54.767  -55.183  -55.621  -56.038  -56.410  -56.725  -56.985  -57.193  -57.354  -57.470  -57.541  -57.577  -57.595  -57.606  -57.627  -57.663  -57.721  -57.800  -57.902  -58.035  -58.218  -58.487  -58.889  -59.483  -60.316  -61.414  -62.770  -64.331  -66.008  -67.703  -69.340  -70.893  -72.383  -73.859  -75.375  -76.963  -78.605  -80.221  -81.664  -82.723  -83.125  -82.493
 -38.854  -38.674  -37.583  -36.111  -34.607  -33.238  -31.954  -30.591  -29.007  -27.191  -25.280  -23.443  -21.815  -20.423  -19.256  -18.285  -17.494  -16.873  -16.398  -16.069  -15.899  -15.927  -16.198  -16.731  -17.550  -18.657  -20.049  -21.694  -23.538  -25.500  -27.511  -29.533  -31.552  -33.562  -35.561  -37.539  -39.472  -41.319  -43.031  -44.557  -45.861  -46.923  -47.743  -48.332  -48.713  -48.906  -48.934  -48.816  -48.579  -48.265  -47.933  -47.639  -47.427  -47.326  -47.345  -47.483  -47.738  -48.095  -48.533  -49.012  -49.488  -49.918  -50.277  -50.558  -50.763  -50.907  -51.005  -51.069  -51.105  -51.119  -51.123  -51.126  -51.136  -51.160  -51.194  -51.237  -51.285  -51.339  -51.427  -51.598  -51.927  -52.493  -53.365  -54.575  -56.102  -57.865  -59.733  -61.573  -63.292  -64.858  -66.304  -67.705  -69.139  -70.661  -72.272  -73.897  -75.389  -76.532  -77.064  -76.636
 -32.538  -31.920  -30.366  -28.342  -26.277  -24.419  -22.798  -21.284  -19.753  -18.176  -16.641  -15.242  -14.053  -13.053  -12.222  -11.524  -10.943  -10.485  -10.143   -9.916   -9.814   -9.860  -10.086  -10.525  -11.224  -12.250  -13.635  -15.373  -17.400  -19.604  -21.870  -24.131  -26.340  -28.477  -30.534  -32.512  -34.402  -36.178  -37.801  -39.227  -40.427  -41.393  -42.134  -42.668  -43.015  -43.193  -43.215  -43.100  -42.876  -42.592  -42.311  -42.090  -41.973  -41.976  -42.097  -42.324  -42.642  -43.031  -43.462  -43.897  -44.301  -44.639  -44.893  -45.057  -45.140  -45.161  -45.147  -45.118  -45.090  -45.068  -45.055  -45.057  -45.078  -45.115  -45.155  -45.188  -45.201  -45.193  -45.193  -45.273  -45.528  -46.071  -46.990  -48.324  -50.038  -52.019  -54.095  -56.097  -57.912  -59.501  -60.908  -62.227  -63.564  -65.001  -66.558  -68.172  -69.694  -70.904  -71.545  -71.288
 -25.546  -24.661  -22.940  -20.734  -18.482  -16.457  -14.729  -13.242  -11.901  -10.682   -9.607   -8.698   -7.959   -7.364   -6.876   -6.467   -6.135   -5.888   -5.715   -5.624   -5.621   -5.719   -5.945   -6.334   -6.968   -7.931   -9.301  -11.096  -13.246  -15.619  -18.070  -20.488  -22.800  -24.966  -26.981  -28.850  -30.585  -32.175  -33.601  -34.840  -35.879  -36.721  -37.388  -37.896  -38.261  -38.491  -38.593  -38.579  -38.475  -38.329  -38.203  -38.146  -38.183  -38.317  -38.533  -38.802  -39.105  -39.418  -39.716  -39.975  -40.176  -40.307  -40.359  -40.332  -40.238  -40.098  -39.942  -39.798  -39.685  -39.611  -39.579  -39.586  -39.629  -39.694  -39.761  -39.806  -39.808  -39.761  -39.701  -39.713  -39.921  -40.465  -41.451  -42.926  -44.834  -47.028  -49.298  -51.441  -53.326  -54.910  -56.246  -57.449  -58.653  -59.966  -61.434  -63.006  -64.532  -65.792  -66.521  -66.408
 -19.522  -18.613  -17.046  -15.048  -12.981  -11.086   -9.452   -8.089   -6.960   -6.048   -5.324   -4.763   -4.312   -3.951   -3.647   -3.415   -3.240   -3.119   -3.058   -3.049   -3.101   -3.217   -3.413   -3.745   -4.277   -5.130   -6.392   -8.109  -10.228  -12.616  -15.105  -17.550  -19.852  -21.956  -23.856  -25.566  -27.110  -28.496  -29.722  -30.788  -31.704  -32.486  -33.156  -33.725  -34.207  -34.601  -34.900  -35.109  -35.244  -35.349  -35.469  -35.633  -35.849  -36.105  -36.368  -36.610  -36.807  -36.942  -37.000  -36.980  -36.889  -36.737  -36.535  -36.289  -36.011  -35.717  -35.434  -35.186  -34.997  -34.875  -34.825  -34.839  -34.900  -34.993  -35.089  -35.157  -35.168  -35.117  -35.046  -35.052  -35.282  -35.891  -37.006  -38.663  -40.777  -43.160  -45.568  -47.778  -49.649  -51.147  -52.340  -53.365  -54.380  -55.523  -56.859  -58.352  -59.854  -61.136  -61.932  -61.936
 -15.619  -14.825  -13.512  -11.814   -9.986   -8.238   -6.702   -5.446   -4.487   -3.801   -3.323   -2.970   -2.666   -2.380   -2.129   -1.935   -1.806   -1.729   -1.703   -1.718   -1.773   -1.870   -2.016   -2.259   -2.669   -3.338   -4.390   -5.873   -7.775   -9.979  -12.326  -14.646  -16.826  -18.795  -20.544  -22.088  -23.459  -24.680  -25.763  -26.724  -27.591  -28.389  -29.137  -29.849  -30.528  -31.166  -31.745  -32.257  -32.710  -33.122  -33.520  -33.912  -34.287  -34.621  -34.879  -35.032  -35.062  -34.959  -34.729  -34.397  -33.996  -33.564  -33.124  -32.690  -32.274  -31.879  -31.523  -31.224  -30.995  -30.851  -30.794  -30.813  -30.886  -30.998  -31.118  -31.218  -31.264  -31.255  -31.241  -31.333  -31.690  -32.482  -33.820  -35.711  -38.026  -40.534  -42.969  -45.112  -46.837  -48.132  -49.090  -49.872  -50.655  -51.594  -52.771  -54.154  -55.600  -56.876  -57.711  -57.808
 -13.798  -13.116  -11.948  -10.372   -8.604   -6.862   -5.328   -4.123   -3.295   -2.798   -2.515   -2.311   -2.090   -1.829   -1.576   -1.370   -1.226   -1.140   -1.110   -1.118   -1.159   -1.219   -1.317   -1.478   -1.745   -2.215   -2.981   -4.122   -5.648   -7.500   -9.531  -11.580  -13.528  -15.306  -16.886  -18.277  -19.518  -20.630  -21.632  -22.552  -23.424  -24.277  -25.135  -26.007  -26.892  -27.780  -28.644  -29.462  -30.224  -30.926  -31.572  -32.151  -32.642  -33.015  -33.236  -33.282  -33.137  -32.808  -32.321  -31.727  -31.082  -30.443  -29.847  -29.312  -28.840  -28.427  -28.074  -27.788  -27.575  -27.449  -27.409  -27.445  -27.537  -27.671  -27.822  -27.963  -28.075  -28.162  -28.285  -28.560  -29.158  -30.237  -31.878  -34.021  -36.480  -38.992  -41.298  -43.212  -44.647  -45.633  -46.290  -46.797  -47.342  -48.082  -49.099  -50.363  -51.732  -52.973  -53.817  -53.983
 -12.954  -12.347  -11.220   -9.652   -7.845   -6.041   -4.474   -3.313   -2.591   -2.241   -2.108   -2.018   -1.864   -1.638   -1.392   -1.177   -1.012   -0.910   -0.870   -0.864   -0.887   -0.919   -0.985   -1.074   -1.239   -1.528   -2.019   -2.789   -3.884   -5.269   -6.857   -8.522  -10.160  -11.682  -13.068  -14.324  -15.462  -16.500  -17.461  -18.372  -19.260  -20.160  -21.098  -22.081  -23.106  -24.164  -25.227  -26.264  -27.247  -28.153  -28.969  -29.674  -30.240  -30.634  -30.825  -30.796  -30.535  -30.063  -29.427  -28.692  -27.937  -27.228  -26.602  -26.077  -25.647  -25.304  -25.028  -24.819  -24.678  -24.616  -24.632  -24.716  -24.850  -25.028  -25.230  -25.434  -25.641  -25.862  -26.172  -26.701  -27.612  -29.026  -30.972  -33.307  -35.794  -38.157  -40.177  -41.725  -42.774  -43.398  -43.743  -43.995  -44.340  -44.922  -45.810  -46.967  -48.249  -49.432  -50.256  -50.464
 -11.836  -11.294  -10.243   -8.759   -7.028   -5.291   -3.788   -2.708   -2.073   -1.818   -1.762   -1.736   -1.637   -1.466   -1.261   -1.068   -0.915   -0.811   -0.757   -0.748   -0.758   -0.781   -0.823   -0.875   -0.961   -1.119   -1.402   -1.859   -2.555   -3.480   -4.603   -5.832   -7.087   -8.317   -9.481  -10.578  -11.607  -12.576  -13.499  -14.400  -15.292  -16.204  -17.156  -18.155  -19.204  -20.296  -21.413  -22.515  -23.575  -24.557  -25.442  -26.199  -26.803  -27.221  -27.424  -27.394  -27.125  -26.648  -26.020  -25.318  -24.624  -24.000  -23.480  -23.074  -22.774  -22.564  -22.420  -22.341  -22.320  -22.368  -22.481  -22.649  -22.864  -23.112  -23.384  -23.671  -23.977  -24.343  -24.855  -25.646  -26.859  -28.570  -30.728  -33.129  -35.499  -37.584  -39.219  -40.343  -40.987  -41.271  -41.355  -41.417  -41.627  -42.107  -42.905  -43.970  -45.161  -46.267  -47.048  -47.272
  -9.825   -9.365   -8.514   -7.297   -5.862   -4.405   -3.138   -2.208   -1.663   -1.442   -1.400   -1.392   -1.337   -1.222   -1.078   -0.938   -0.820   -0.738   -0.694   -0.689   -0.700   -0.719   -0.745   -0.768   -0.808   -0.887   -1.032   -1.285   -1.678   -2.238   -2.946   -3.770   -4.651   -5.557   -6.472   -7.373   -8.266   -9.142  -10.007  -10.876  -11.757  -12.649  -13.561  -14.488  -15.442  -16.423  -17.427  -18.429  -19.405  -20.327  -21.170  -21.914  -22.524  -22.977  -23.245  -23.300  -23.151  -22.824  -22.371  -21.870  -21.390  -20.979  -20.669  -20.456  -20.336  -20.287  -20.302  -20.374  -20.505  -20.695  -20.937  -21.221  -21.535  -21.870  -22.217  -22.575  -22.969  -23.455  -24.135  -25.134  -26.567  -28.455  -30.683  -33.006  -35.146  -36.886  -38.120  -38.848  -39.155  -39.179  -39.089  -39.048  -39.197  -39.624  -40.357  -41.340  -42.436  -43.453  -44.178  -44.399
  -7.147   -6.793   -6.224   -5.403   -4.416   -3.388   -2.458   -1.753   -1.314   -1.115   -1.065   -1.048   -1.021   -0.957   -0.881   -0.797   -0.722   -0.673   -0.656   -0.667   -0.682   -0.698   -0.715   -0.720   -0.738   -0.769   -0.832   -0.958   -1.166   -1.469   -1.884   -2.386   -2.945   -3.559   -4.211   -4.900   -5.611   -6.361   -7.148   -7.971   -8.826   -9.685  -10.522  -11.322  -12.100  -12.867  -13.639  -14.411  -15.179  -15.925  -16.644  -17.310  -17.906  -18.405  -18.778  -19.000  -19.071  -19.009  -18.860  -18.676  -18.501  -18.375  -18.315  -18.315  -18.377  -18.491  -18.658  -18.879  -19.161  -19.493  -19.867  -20.263  -20.670  -21.078  -21.475  -21.876  -22.318  -22.877  -23.655  -24.768  -26.298  -28.218  -30.379  -32.519  -34.380  -35.786  -36.680  -37.106  -37.179  -37.052  -36.884  -36.820  -36.963  -37.377  -38.063  -38.972  -39.979  -40.910  -41.580  -41.794
  -4.521   -4.288   -3.984   -3.539   -2.980   -2.374   -1.794   -1.325   -1.019   -0.857   -0.805   -0.787   -0.779   -0.754   -0.716   -0.679   -0.647   -0.632   -0.646   -0.672   -0.702   -0.717   -0.724   -0.712   -0.699   -0.705   -0.727   -0.783   -0.881   -1.039   -1.266   -1.541   -1.869   -2.245   -2.668   -3.135   -3.666   -4.262   -4.951   -5.712   -6.525   -7.327   -8.067   -8.725   -9.296   -9.815  -10.309  -10.800  -11.307  -11.830  -12.375  -12.936  -13.503  -14.049  -14.546  -14.974  -15.319  -15.580  -15.778  -15.942  -16.094  -16.261  -16.445  -16.646  -16.874  -17.129  -17.421  -17.763  -18.158  -18.595  -19.055  -19.520  -19.972  -20.403  -20.806  -21.206  -21.645  -22.212  -23.010  -24.137  -25.647  -27.483  -29.489  -31.409  -33.012  -34.158  -34.813  -35.052  -35.004  -34.821  -34.652  -34.616  -34.791  -35.217  -35.883  -36.741  -37.680  -38.553  -39.182  -39.400
  -2.581   -2.437   -2.307   -2.109   -1.847   -1.539   -1.232   -0.963   -0.772   -0.671   -0.641   -0.634   -0.645   -0.643   -0.628   -0.619   -0.610   -0.630   -0.673   -0.725   -0.764   -0.773   -0.756   -0.727   -0.688   -0.664   -0.662   -0.683   -0.727   -0.810   -0.918   -1.063   -1.239   -1.446   -1.692   -1.988   -2.338   -2.788   -3.347   -4.008   -4.736   -5.439   -6.062   -6.562   -6.944   -7.246   -7.500   -7.741   -8.005   -8.315   -8.694   -9.147   -9.679  -10.260  -10.878  -11.504  -12.111  -12.678  -13.199  -13.680  -14.135  -14.572  -14.983  -15.376  -15.751  -16.126  -16.511  -16.927  -17.376  -17.846  -18.317  -18.772  -19.193  -19.579  -19.932  -20.275  -20.670  -21.198  -21.950  -23.015  -24.423  -26.120  -27.943  -29.669  -31.083  -32.065  -32.594  -32.755  -32.674  -32.501  -32.375  -32.390  -32.617  -33.075  -33.749  -34.593  -35.509  -36.358  -36.983  -37.218
  -1.459   -1.360   -1.320   -1.238   -1.123   -0.985   -0.842   -0.708   -0.608   -0.565   -0.553   -0.561   -0.581   -0.595   -0.596   -0.597   -0.615   -0.670   -0.742   -0.804   -0.840   -0.831   -0.788   -0.728   -0.671   -0.639   -0.620   -0.622   -0.639   -0.673   -0.727   -0.799   -0.891   -0.992   -1.122   -1.289   -1.511   -1.816   -2.230   -2.745   -3.322   -3.881   -4.351   -4.707   -4.939   -5.082   -5.168   -5.247   -5.343   -5.502   -5.745   -6.106   -6.588   -7.185   -7.883   -8.651   -9.449  -10.242  -11.007  -11.751  -12.469  -13.152  -13.786  -14.362  -14.882  -15.362  -15.815  -16.261  -16.703  -17.133  -17.531  -17.888  -18.206  -18.489  -18.745  -19.006  -19.331  -19.794  -20.480  -21.454  -22.741  -24.291  -25.955  -27.533  -28.839  -29.752  -30.258  -30.429  -30.387  -30.272  -30.208  -30.287  -30.569  -31.069  -31.773  -32.636  -33.565  -34.428  -35.066  -35.323
  -0.931   -0.851   -0.825   -0.797   -0.744   -0.677   -0.617   -0.554   -0.519   -0.499   -0.499   -0.525   -0.557   -0.575   -0.588   -0.600   -0.641   -0.722   -0.827   -0.907   -0.927   -0.879   -0.801   -0.716   -0.642   -0.602   -0.580   -0.573   -0.577   -0.595   -0.620   -0.658   -0.697   -0.749   -0.815   -0.902   -1.027   -1.217   -1.483   -1.834   -2.232   -2.615   -2.932   -3.156   -3.283   -3.336   -3.345   -3.340   -3.351   -3.424   -3.578   -3.853   -4.269   -4.829   -5.529   -6.338   -7.206   -8.115   -9.031   -9.959  -10.888  -11.795  -12.649  -13.414  -14.086  -14.673  -15.184  -15.633  -16.030  -16.367  -16.644  -16.862  -17.040  -17.196  -17.345  -17.528  -17.793  -18.212  -18.846  -19.752  -20.941  -22.368  -23.909  -25.388  -26.640  -27.551  -28.100  -28.349  -28.400  -28.380  -28.400  -28.549  -28.884  -29.427  -30.167  -31.061  -32.016  -32.898  -33.548  -33.816
  -0.712   -0.638   -0.617   -0.596   -0.565   -0.537   -0.506   -0.478   -0.468   -0.458   -0.472   -0.493   -0.523   -0.548   -0.564   -0.588   -0.651   -0.765   -0.892   -0.977   -0.974   -0.891   -0.776   -0.669   -0.597   -0.558   -0.536   -0.529   -0.538   -0.541   -0.557   -0.579   -0.600   -0.628   -0.657   -0.706   -0.770   -0.872   -1.025   -1.226   -1.452   -1.681   -1.858   -1.981   -2.046   -2.067   -2.053   -2.029   -2.020   -2.057   -2.153   -2.347   -2.672   -3.136   -3.745   -4.476   -5.297   -6.181   -7.135   -8.152   -9.226  -10.319  -11.373  -12.331  -13.166  -13.868  -14.439  -14.897  -15.252  -15.498  -15.656  -15.748  -15.806  -15.861  -15.943  -16.085  -16.334  -16.749  -17.373  -18.243  -19.369  -20.694  -22.124  -23.519  -24.725  -25.652  -26.270  -26.627  -26.806  -26.914  -27.039  -27.271  -27.662  -28.249  -29.021  -29.931  -30.898  -31.781  -32.426  -32.677
  -0.611   -0.541   -0.530   -0.506   -0.487   -0.470   -0.455   -0.438   -0.432   -0.436   -0.441   -0.456   -0.483   -0.501   -0.521   -0.559   -0.633   -0.756   -0.895   -0.980   -0.968   -0.864   -0.727   -0.615   -0.547   -0.511   -0.497   -0.495   -0.493   -0.499   -0.511   -0.523   -0.539   -0.553   -0.576   -0.598   -0.633   -0.685   -0.762   -0.857   -0.971   -1.077   -1.169   -1.230   -1.259   -1.272   -1.263   -1.253   -1.244   -1.266   -1.327   -1.455   -1.671   -2.004   -2.452   -3.014   -3.678   -4.441   -5.315   -6.317   -7.439   -8.643   -9.847  -10.974  -11.967  -12.795  -13.453  -13.947  -14.288  -14.493  -14.588  -14.613  -14.615  -14.638  -14.713  -14.870  -15.149  -15.593  -16.234  -17.085  -18.139  -19.348  -20.645  -21.913  -23.036  -23.944  -24.610  -25.065  -25.377  -25.621  -25.868  -26.196  -26.661  -27.295  -28.094  -29.012  -29.966  -30.827  -31.451  -31.667
  -0.563   -0.497   -0.479   -0.462   -0.449   -0.434   -0.424   -0.417   -0.411   -0.407   -0.415   -0.422   -0.439   -0.449   -0.468   -0.505   -0.578   -0.695   -0.829   -0.909   -0.887   -0.783   -0.661   -0.557   -0.496   -0.466   -0.460   -0.456   -0.460   -0.470   -0.479   -0.490   -0.500   -0.511   -0.522   -0.538   -0.560   -0.584   -0.617   -0.664   -0.713   -0.758   -0.798   -0.826   -0.848   -0.852   -0.856   -0.855   -0.862   -0.875   -0.912   -0.980   -1.106   -1.304   -1.588   -1.957   -2.413   -2.978   -3.683   -4.562   -5.620   -6.812   -8.069   -9.294  -10.411  -11.362  -12.117  -12.677  -13.061  -13.288  -13.395  -13.440  -13.462  -13.521  -13.650  -13.875  -14.216  -14.702  -15.347  -16.144  -17.079  -18.126  -19.230  -20.304  -21.280  -22.103  -22.761  -23.270  -23.676  -24.034  -24.396  -24.824  -25.367  -26.058  -26.887  -27.810  -28.748  -29.580  -30.176  -30.365
  -0.536   -0.473   -0.456   -0.441   -0.428   -0.418   -0.410   -0.403   -0.396   -0.391   -0.389   -0.399   -0.404   -0.405   -0.421   -0.454   -0.509   -0.604   -0.702   -0.763   -0.754   -0.673   -0.580   -0.500   -0.454   -0.433   -0.426   -0.428   -0.436   -0.445   -0.453   -0.461   -0.470   -0.479   -0.489   -0.498   -0.508   -0.522   -0.543   -0.562   -0.586   -0.601   -0.623   -0.639   -0.651   -0.660   -0.665   -0.675   -0.676   -0.691   -0.711   -0.751   -0.813   -0.914   -1.062   -1.266   -1.536   -1.899   -2.396   -3.062   -3.937   -4.992   -6.167   -7.381   -8.532   -9.547  -10.375  -11.013  -11.469  -11.772  -11.960  -12.085  -12.198  -12.354  -12.586  -12.904  -13.326  -13.844  -14.451  -15.142  -15.909  -16.729  -17.577  -18.405  -19.173  -19.846  -20.422  -20.918  -21.357  -21.776  -22.214  -22.713  -23.319  -24.047  -24.896  -25.818  -26.736  -27.547  -28.132  -28.328
  -0.518   -0.457   -0.441   -0.426   -0.414   -0.404   -0.396   -0.389   -0.384   -0.378   -0.375   -0.373   -0.374   -0.381   -0.386   -0.406   -0.443   -0.501   -0.565   -0.607   -0.605   -0.553   -0.496   -0.439   -0.414   -0.407   -0.403   -0.409   -0.415   -0.422   -0.429   -0.437   -0.445   -0.452   -0.460   -0.469   -0.477   -0.485   -0.494   -0.506   -0.516   -0.534   -0.544   -0.555   -0.566   -0.573   -0.580   -0.589   -0.597   -0.607   -0.618   -0.635   -0.668   -0.715   -0.779   -0.876   -1.011   -1.213   -1.516   -1.956   -2.584   -3.396   -4.361   -5.412   -6.467   -7.438   -8.268   -8.942   -9.464   -9.858  -10.152  -10.390  -10.633  -10.924  -11.302  -11.749  -12.257  -12.796  -13.343  -13.888  -14.448  -15.005  -15.562  -16.111  -16.628  -17.102  -17.538  -17.950  -18.352  -18.762  -19.206  -19.719  -20.330  -21.053  -21.876  -22.764  -23.643  -24.427  -25.007  -25.236
  -0.502   -0.443   -0.427   -0.412   -0.401   -0.391   -0.384   -0.377   -0.372   -0.368   -0.364   -0.361   -0.359   -0.358   -0.363   -0.373   -0.393   -0.419   -0.456   -0.477   -0.477   -0.453   -0.424   -0.402   -0.389   -0.382   -0.386   -0.392   -0.397   -0.403   -0.409   -0.415   -0.422   -0.429   -0.436   -0.443   -0.451   -0.458   -0.466   -0.473   -0.481   -0.488   -0.496   -0.504   -0.512   -0.519   -0.527   -0.535   -0.543   -0.551   -0.559   -0.573   -0.591   -0.609   -0.641   -0.677   -0.739   -0.836   -0.991   -1.246   -1.633   -2.168   -2.847   -3.634   -4.467   -5.272   -6.006   -6.634   -7.166   -7.606   -7.984   -8.339   -8.719   -9.175   -9.715  -10.320  -10.927  -11.493  -11.975  -12.375  -12.715  -13.007  -13.278  -13.532  -13.780  -14.030  -14.286  -14.560  -14.869  -15.206  -15.591  -16.047  -16.591  -17.230  -17.958  -18.739  -19.529  -20.249  -20.796  -21.072
  -0.487   -0.429   -0.415   -0.401   -0.390   -0.381   -0.374   -0.368   -0.362   -0.358   -0.355   -0.352   -0.350   -0.348   -0.347   -0.348   -0.362   -0.373   -0.385   -0.402   -0.401   -0.390   -0.380   -0.372   -0.364   -0.368   -0.372   -0.376   -0.381   -0.387   -0.392   -0.397   -0.403   -0.409   -0.415   -0.421   -0.428   -0.434   -0.441   -0.447   -0.454   -0.461   -0.468   -0.475   -0.482   -0.489   -0.495   -0.502   -0.509   -0.517   -0.524   -0.531   -0.539   -0.550   -0.564   -0.584   -0.610   -0.651   -0.726   -0.853   -1.054   -1.358   -1.758   -2.252   -2.807   -3.378   -3.920   -4.424   -4.879   -5.299   -5.705   -6.134   -6.629   -7.231   -7.929   -8.674   -9.386   -9.974  -10.402  -10.675  -10.818  -10.880  -10.884  -10.871  -10.860  -10.883  -10.958  -11.085  -11.270  -11.501  -11.786  -12.129  -12.548  -13.041  -13.609  -14.213  -14.841  -15.430  -15.895  -16.197
  -0.474   -0.418   -0.405   -0.391   -0.381   -0.372   -0.365   -0.359   -0.354   -0.350   -0.347   -0.344   -0.342   -0.340   -0.339   -0.338   -0.339   -0.346   -0.354   -0.359   -0.359   -0.359   -0.352   -0.350   -0.353   -0.356   -0.360   -0.364   -0.368   -0.372   -0.377   -0.382   -0.387   -0.392   -0.397   -0.403   -0.408   -0.414   -0.420   -0.426   -0.432   -0.438   -0.444   -0.450   -0.456   -0.462   -0.468   -0.475   -0.481   -0.488   -0.494   -0.501   -0.507   -0.514   -0.521   -0.530   -0.546   -0.565   -0.600   -0.652   -0.745   -0.889   -1.092   -1.354   -1.659   -1.995   -2.333   -2.659   -2.996   -3.332   -3.696   -4.129   -4.667   -5.338   -6.120   -6.938   -7.686   -8.277   -8.653   -8.828   -8.832   -8.719   -8.525   -8.300   -8.079   -7.924   -7.843   -7.850   -7.929   -8.061   -8.243   -8.475   -8.755   -9.090   -9.471   -9.879  -10.312  -10.725  -11.063  -11.356
  -0.464   -0.409   -0.396   -0.383   -0.373   -0.364   -0.358   -0.352   -0.347   -0.343   -0.340   -0.337   -0.335   -0.333   -0.332   -0.331   -0.331   -0.331   -0.332   -0.333   -0.334   -0.336   -0.338   -0.341   -0.343   -0.346   -0.349   -0.353   -0.356   -0.360   -0.364   -0.368   -0.373   -0.377   -0.382   -0.387   -0.392   -0.397   -0.402   -0.407   -0.412   -0.418   -0.423   -0.429   -0.434   -0.440   -0.445   -0.451   -0.456   -0.462   -0.468   -0.474   -0.480   -0.487   -0.493   -0.500   -0.506   -0.515   -0.531   -0.558   -0.591   -0.654   -0.741   -0.861   -0.999   -1.161   -1.334   -1.522   -1.719   -1.945   -2.227   -2.597   -3.090   -3.715   -4.457   -5.216   -5.907   -6.434   -6.738   -6.843   -6.770   -6.563   -6.270   -5.930   -5.610   -5.358   -5.199   -5.133   -5.147   -5.213   -5.323   -5.471   -5.662   -5.881   -6.134   -6.407   -6.685   -6.950   -7.177   -7.425
  -0.455   -0.402   -0.389   -0.376   -0.366   -0.358   -0.351   -0.346   -0.341   -0.337   -0.334   -0.331   -0.329   -0.328   -0.326   -0.326   -0.325   -0.325   -0.326   -0.326   -0.327   -0.329   -0.330   -0.332   -0.335   -0.337   -0.341   -0.343   -0.347   -0.350   -0.353   -0.357   -0.361   -0.365   -0.369   -0.373   -0.378   -0.382   -0.387   -0.391   -0.396   -0.401   -0.406   -0.411   -0.416   -0.420   -0.426   -0.431   -0.436   -0.441   -0.446   -0.452   -0.457   -0.463   -0.469   -0.474   -0.481   -0.487   -0.494   -0.505   -0.524   -0.550   -0.581   -0.624   -0.684   -0.751   -0.825   -0.914   -1.014   -1.148   -1.330   -1.595   -1.975   -2.461   -3.038   -3.632   -4.166   -4.564   -4.786   -4.834   -4.742   -4.536   -4.237   -3.907   -3.602   -3.353   -3.194   -3.114   -3.096   -3.135   -3.205   -3.319   -3.462   -3.653   -3.871   -4.101   -4.334   -4.548   -4.719   -4.933
  -0.449   -0.396   -0.383   -0.371   -0.361   -0.353   -0.347   -0.341   -0.337   -0.333   -0.330   -0.327   -0.325   -0.323   -0.322   -0.321   -0.321   -0.321   -0.321   -0.321   -0.322   -0.323   -0.325   -0.326   -0.328   -0.330   -0.333   -0.335   -0.338   -0.341   -0.345   -0.348   -0.351   -0.355   -0.359   -0.362   -0.366   -0.370   -0.374   -0.378   -0.383   -0.387   -0.391   -0.396   -0.400   -0.405   -0.409   -0.414   -0.418   -0.423   -0.428   -0.433   -0.438   -0.443   -0.449   -0.454   -0.459   -0.465   -0.471   -0.477   -0.484   -0.495   -0.513   -0.529   -0.551   -0.577   -0.604   -0.643   -0.690   -0.762   -0.861   -1.022   -1.259   -1.579   -1.942   -2.323   -2.663   -2.913   -3.044   -3.067   -2.994   -2.838   -2.624   -2.385   -2.161   -1.984   -1.868   -1.804   -1.793   -1.815   -1.876   -1.976   -2.126   -2.338   -2.587   -2.863   -3.138   -3.379   -3.562   -3.757
  -0.444   -0.392   -0.379   -0.367   -0.358   -0.350   -0.344   -0.338   -0.334   -0.330   -0.327   -0.324   -0.322   -0.321   -0.319   -0.318   -0.318   -0.318   -0.318   -0.318   -0.319   -0.319   -0.321   -0.322   -0.324   -0.325   -0.327   -0.330   -0.332   -0.335   -0.338   -0.341   -0.344   -0.347   -0.350   -0.354   -0.357   -0.361   -0.364   -0.368   -0.372   -0.376   -0.380   -0.384   -0.388   -0.392   -0.396   -0.400   -0.404   -0.409   -0.413   -0.417   -0.422   -0.427   -0.431   -0.436   -0.441   -0.447   -0.452   -0.458   -0.463   -0.469   -0.475   -0.484   -0.492   -0.510   -0.520   -0.539   -0.557   -0.592   -0.646   -0.726   -0.853   -1.012   -1.204   -1.403   -1.579   -1.710   -1.776   -1.791   -1.747   -1.657   -1.539   -1.402   -1.281   -1.182   -1.127   -1.095   -1.090   -1.112   -1.165   -1.260   -1.412   -1.641   -1.932   -2.266   -2.603   -2.902   -3.130   -3.337
  -0.442   -0.390   -0.378   -0.366   -0.356   -0.349   -0.342   -0.337   -0.333   -0.329   -0.326   -0.323   -0.321   -0.320   -0.318   -0.317   -0.317   -0.316   -0.316   -0.316   -0.317   -0.318   -0.318   -0.320   -0.321   -0.323   -0.324   -0.326   -0.328   -0.331   -0.333   -0.336   -0.339   -0.341   -0.344   -0.347   -0.350   -0.354   -0.357   -0.360   -0.364   -0.368   -0.371   -0.375   -0.378   -0.382   -0.386   -0.390   -0.393   -0.397   -0.401   -0.405   -0.410   -0.414   -0.418   -0.423   -0.427   -0.432   -0.437   -0.442   -0.447   -0.452   -0.458   -0.463   -0.469   -0.474   -0.481   -0.490   -0.504   -0.520   -0.544   -0.581   -0.636   -0.702   -0.791   -0.879   -0.948   -1.010   -1.037   -1.043   -1.023   -0.990   -0.942   -0.885   -0.835   -0.798   -0.773   -0.761   -0.764   -0.787   -0.825   -0.905   -1.047   -1.270   -1.561   -1.902   -2.276   -2.633   -2.901   -3.119
  -0.444   -0.392   -0.379   -0.367   -0.357   -0.350   -0.344   -0.339   -0.334   -0.331   -0.327   -0.325   -0.323   -0.321   -0.320   -0.319   -0.318   -0.317   -0.317   -0.317   -0.318   -0.318   -0.319   -0.320   -0.321   -0.322   -0.324   -0.325   -0.327   -0.329   -0.331   -0.334   -0.336   -0.339   -0.341   -0.344   -0.347   -0.350   -0.353   -0.356   -0.359   -0.362   -0.365   -0.369   -0.372   -0.376   -0.379   -0.383   -0.386   -0.390   -0.393   -0.397   -0.401   -0.405   -0.409   -0.413   -0.417   -0.421   -0.426   -0.430   -0.435   -0.440   -0.444   -0.449   -0.455   -0.460   -0.465   -0.471   -0.476   -0.484   -0.498   -0.515   -0.537   -0.563   -0.596   -0.625   -0.656   -0.678   -0.685   -0.691   -0.694   -0.685   -0.672   -0.658   -0.645   -0.631   -0.623   -0.628   -0.633   -0.649   -0.677   -0.736   -0.846   -1.023   -1.274   -1.592   -1.957   -2.319   -2.616   -2.849
  -0.450   -0.393   -0.381   -0.369   -0.359   -0.352   -0.345   -0.340   -0.336   -0.332   -0.329   -0.327   -0.324   -0.323   -0.321   -0.320   -0.319   -0.319   -0.318   -0.318   -0.318   -0.319   -0.319   -0.320   -0.321   -0.322   -0.324   -0.325   -0.327   -0.328   -0.330   -0.332   -0.334   -0.337   -0.339   -0.341   -0.344   -0.347   -0.349   -0.352   -0.355   -0.358   -0.361   -0.364   -0.367   -0.370   -0.373   -0.376   -0.380   -0.383   -0.387   -0.390   -0.394   -0.397   -0.401   -0.404   -0.408   -0.412   -0.416   -0.420   -0.425   -0.429   -0.433   -0.438   -0.442   -0.447   -0.452   -0.457   -0.462   -0.467   -0.473   -0.480   -0.493   -0.505   -0.515   -0.531   -0.542   -0.547   -0.553   -0.558   -0.564   -0.570   -0.564   -0.563   -0.566   -0.568   -0.564   -0.566   -0.572   -0.587   -0.611   -0.649   -0.722   -0.851   -1.041   -1.319   -1.653   -2.012   -2.310   -2.556
  -0.575   -0.438   -0.421   -0.408   -0.398   -0.390   -0.383   -0.378   -0.374   -0.370   -0.366   -0.364   -0.361   -0.359   -0.358   -0.357   -0.356   -0.355   -0.354   -0.354   -0.354   -0.354   -0.355   -0.355   -0.356   -0.357   -0.358   -0.359   -0.360   -0.362   -0.363   -0.365   -0.367   -0.369   -0.371   -0.373   -0.376   -0.378   -0.381   -0.383   -0.386   -0.388   -0.391   -0.394   -0.397   -0.400   -0.403   -0.406   -0.409   -0.412   -0.416   -0.419   -0.423   -0.426   -0.429   -0.433   -0.437   -0.441   -0.444   -0.448   -0.452   -0.457   -0.461   -0.465   -0.470   -0.474   -0.479   -0.484   -0.489   -0.494   -0.499   -0.504   -0.508   -0.514   -0.521   -0.529   -0.547   -0.553   -0.559   -0.564   -0.569   -0.564   -0.564   -0.570   -0.573   -0.578   -0.584   -0.589   -0.594   -0.601   -0.624   -0.651   -0.707   -0.813   -0.978   -1.219   -1.540   -1.884   -2.190   -2.537
