DSAA
 100 100
 0.0 400.0
 0.0 400.0
 -27.31024 -0.3524747
  -0.525   -0.467   -0.495   -0.551   -0.631   -0.721   -0.817   -0.897   -0.948   -0.959   -0.918   -0.831   -0.715   -0.595   -0.492   -0.426   -0.407   -0.440   -0.534   -0.682   -0.853   -0.994   -1.050   -1.009   -0.916   -0.832   -0.802   -0.818   -0.842   -0.843   -0.814   -0.766   -0.721   -0.681   -0.651   -0.623   -0.605   -0.608   -0.648   -0.731   -0.849   -0.979   -1.101   -1.206   -1.279   -1.305   -1.276   -1.219   -1.172   -1.157   -1.168   -1.184   -1.191   -1.186   -1.169   -1.137   -1.081   -1.006   -0.932   -0.883   -0.880   -0.908   -0.925   -0.890   -0.795   -0.673   -0.569   -0.522   -0.530   -0.572   -0.618   -0.657   -0.697   -0.740   -0.773   -0.770   -0.722   -0.656   -0.598   -0.567   -0.566   -0.587   -0.621   -0.653   -0.675   -0.695   -0.731   -0.798   -0.903   -1.036   -1.177   -1.295   -1.358   -1.339   -1.230   -1.056   -0.859   -0.683   -0.565   -0.579
  -0.559   -0.536   -0.576   -0.638   -0.721   -0.815   -0.908   -0.984   -1.029   -1.029   -0.978   -0.881   -0.753   -0.621   -0.508   -0.431   -0.403   -0.429   -0.513   -0.648   -0.807   -0.936   -0.986   -0.950   -0.862   -0.782   -0.751   -0.764   -0.790   -0.801   -0.788   -0.757   -0.720   -0.681   -0.647   -0.616   -0.598   -0.600   -0.636   -0.709   -0.811   -0.921   -1.024   -1.110   -1.173   -1.203   -1.196   -1.172   -1.162   -1.183   -1.218   -1.247   -1.257   -1.247   -1.220   -1.173   -1.098   -1.002   -0.903   -0.833   -0.811   -0.825   -0.834   -0.803   -0.720   -0.614   -0.528   -0.493   -0.506   -0.551   -0.596   -0.630   -0.664   -0.705   -0.738   -0.738   -0.696   -0.637   -0.589   -0.567   -0.572   -0.598   -0.632   -0.666   -0.693   -0.724   -0.772   -0.854   -0.975   -1.125   -1.287   -1.428   -1.507   -1.492   -1.368   -1.165   -0.934   -0.730   -0.588   -0.564
  -0.768   -0.753   -0.800   -0.870   -0.959   -1.051   -1.137   -1.201   -1.229   -1.210   -1.141   -1.027   -0.883   -0.731   -0.598   -0.500   -0.451   -0.457   -0.519   -0.626   -0.753   -0.856   -0.896   -0.868   -0.797   -0.731   -0.701   -0.708   -0.734   -0.761   -0.777   -0.773   -0.751   -0.717   -0.679   -0.650   -0.635   -0.639   -0.670   -0.727   -0.801   -0.878   -0.947   -1.005   -1.052   -1.082   -1.100   -1.121   -1.166   -1.233   -1.300   -1.345   -1.356   -1.338   -1.295   -1.227   -1.129   -1.008   -0.886   -0.794   -0.747   -0.738   -0.734   -0.708   -0.647   -0.574   -0.517   -0.498   -0.519   -0.559   -0.597   -0.626   -0.652   -0.687   -0.720   -0.729   -0.702   -0.663   -0.636   -0.631   -0.649   -0.677   -0.709   -0.738   -0.768   -0.811   -0.881   -0.984   -1.124   -1.297   -1.490   -1.669   -1.780   -1.776   -1.644   -1.413   -1.145   -0.905   -0.740   -0.699
  -1.054   -1.047   -1.097   -1.171   -1.256   -1.342   -1.414   -1.460   -1.470   -1.431   -1.346   -1.216   -1.055   -0.883   -0.722   -0.595   -0.515   -0.488   -0.513   -0.580   -0.665   -0.735   -0.765   -0.747   -0.700   -0.653   -0.627   -0.628   -0.652   -0.692   -0.730   -0.751   -0.746   -0.719   -0.689   -0.671   -0.669   -0.682   -0.710   -0.753   -0.804   -0.856   -0.903   -0.942   -0.972   -0.999   -1.025   -1.066   -1.132   -1.216   -1.294   -1.341   -1.349   -1.321   -1.269   -1.190   -1.090   -0.972   -0.858   -0.767   -0.714   -0.689   -0.670   -0.642   -0.599   -0.554   -0.522   -0.515   -0.533   -0.564   -0.597   -0.620   -0.644   -0.678   -0.713   -0.733   -0.730   -0.718   -0.718   -0.734   -0.761   -0.786   -0.806   -0.821   -0.845   -0.893   -0.974   -1.090   -1.242   -1.434   -1.654   -1.871   -2.021   -2.048   -1.929   -1.697   -1.420   -1.169   -0.995   -0.946
  -1.363   -1.359   -1.406   -1.475   -1.548   -1.617   -1.673   -1.701   -1.694   -1.644   -1.548   -1.412   -1.241   -1.054   -0.874   -0.718   -0.599   -0.531   -0.510   -0.528   -0.567   -0.604   -0.624   -0.616   -0.591   -0.563   -0.542   -0.536   -0.555   -0.594   -0.638   -0.669   -0.677   -0.665   -0.653   -0.654   -0.668   -0.694   -0.724   -0.762   -0.805   -0.852   -0.896   -0.933   -0.959   -0.978   -0.996   -1.024   -1.070   -1.129   -1.183   -1.214   -1.213   -1.183   -1.134   -1.068   -0.992   -0.914   -0.839   -0.778   -0.734   -0.699   -0.663   -0.622   -0.582   -0.550   -0.535   -0.533   -0.546   -0.570   -0.596   -0.622   -0.650   -0.684   -0.720   -0.750   -0.770   -0.789   -0.818   -0.855   -0.884   -0.898   -0.897   -0.892   -0.905   -0.949   -1.029   -1.145   -1.299   -1.499   -1.741   -1.989   -2.178   -2.242   -2.162   -1.966   -1.721   -1.492   -1.332   -1.288
  -1.647   -1.642   -1.679   -1.731   -1.787   -1.837   -1.872   -1.885   -1.871   -1.818   -1.723   -1.591   -1.423   -1.237   -1.048   -0.872   -0.725   -0.618   -0.552   -0.520   -0.514   -0.518   -0.524   -0.522   -0.513   -0.496   -0.479   -0.467   -0.474   -0.501   -0.540   -0.569   -0.582   -0.585   -0.591   -0.606   -0.630   -0.661   -0.693   -0.731   -0.774   -0.826   -0.880   -0.926   -0.961   -0.982   -0.994   -1.000   -1.007   -1.020   -1.033   -1.039   -1.028   -1.006   -0.973   -0.936   -0.901   -0.870   -0.840   -0.812   -0.776   -0.728   -0.670   -0.611   -0.564   -0.537   -0.529   -0.533   -0.548   -0.573   -0.605   -0.640   -0.673   -0.707   -0.738   -0.770   -0.806   -0.852   -0.905   -0.951   -0.978   -0.979   -0.966   -0.953   -0.958   -0.999   -1.075   -1.189   -1.343   -1.551   -1.811   -2.086   -2.306   -2.411   -2.377   -2.235   -2.040   -1.848   -1.711   -1.670
  -1.873   -1.864   -1.886   -1.921   -1.956   -1.985   -2.003   -2.005   -1.987   -1.938   -1.855   -1.737   -1.585   -1.413   -1.230   -1.054   -0.894   -0.762   -0.659   -0.590   -0.545   -0.522   -0.512   -0.509   -0.505   -0.495   -0.479   -0.464   -0.461   -0.475   -0.502   -0.527   -0.543   -0.554   -0.561   -0.570   -0.586   -0.605   -0.629   -0.663   -0.705   -0.754   -0.810   -0.864   -0.911   -0.946   -0.964   -0.962   -0.947   -0.926   -0.909   -0.894   -0.883   -0.872   -0.862   -0.853   -0.845   -0.842   -0.835   -0.815   -0.775   -0.714   -0.639   -0.569   -0.519   -0.497   -0.498   -0.514   -0.538   -0.575   -0.620   -0.668   -0.708   -0.737   -0.762   -0.792   -0.838   -0.898   -0.958   -1.000   -1.017   -1.013   -1.002   -1.001   -1.024   -1.076   -1.159   -1.277   -1.438   -1.659   -1.939   -2.239   -2.494   -2.637   -2.652   -2.557   -2.398   -2.228   -2.094   -2.049
  -2.033   -2.018   -2.027   -2.043   -2.059   -2.070   -2.075   -2.071   -2.051   -2.010   -1.940   -1.840   -1.710   -1.562   -1.401   -1.239   -1.081   -0.939   -0.818   -0.720   -0.650   -0.605   -0.584   -0.578   -0.577   -0.570   -0.558   -0.548   -0.547   -0.560   -0.583   -0.608   -0.625   -0.629   -0.621   -0.604   -0.587   -0.577   -0.581   -0.597   -0.623   -0.656   -0.698   -0.746   -0.798   -0.844   -0.875   -0.884   -0.871   -0.842   -0.812   -0.793   -0.788   -0.794   -0.802   -0.807   -0.808   -0.803   -0.789   -0.760   -0.711   -0.642   -0.567   -0.505   -0.469   -0.460   -0.470   -0.496   -0.533   -0.580   -0.638   -0.698   -0.744   -0.774   -0.798   -0.830   -0.881   -0.939   -0.988   -1.015   -1.018   -1.016   -1.025   -1.058   -1.116   -1.197   -1.299   -1.428   -1.599   -1.832   -2.131   -2.458   -2.746   -2.937   -2.997   -2.942   -2.805   -2.635   -2.487   -2.430
  -2.133   -2.111   -2.110   -2.114   -2.115   -2.116   -2.112   -2.101   -2.083   -2.049   -1.990   -1.904   -1.794   -1.669   -1.533   -1.389   -1.243   -1.100   -0.970   -0.857   -0.772   -0.716   -0.693   -0.687   -0.691   -0.693   -0.694   -0.703   -0.725   -0.755   -0.790   -0.819   -0.832   -0.821   -0.783   -0.727   -0.666   -0.618   -0.590   -0.579   -0.580   -0.587   -0.605   -0.634   -0.674   -0.718   -0.757   -0.778   -0.773   -0.751   -0.721   -0.704   -0.705   -0.722   -0.745   -0.758   -0.755   -0.738   -0.710   -0.673   -0.621   -0.564   -0.512   -0.477   -0.466   -0.473   -0.490   -0.513   -0.547   -0.595   -0.655   -0.719   -0.772   -0.813   -0.849   -0.893   -0.946   -0.996   -1.027   -1.036   -1.033   -1.041   -1.079   -1.152   -1.249   -1.359   -1.478   -1.615   -1.792   -2.033   -2.341   -2.688   -3.010   -3.244   -3.355   -3.342   -3.231   -3.066   -2.912   -2.844
  -2.185   -2.161   -2.154   -2.150   -2.147   -2.141   -2.133   -2.122   -2.104   -2.074   -2.022   -1.947   -1.849   -1.739   -1.617   -1.486   -1.345   -1.203   -1.068   -0.948   -0.856   -0.798   -0.776   -0.780   -0.796   -0.817   -0.848   -0.894   -0.954   -1.022   -1.080   -1.114   -1.114   -1.079   -1.006   -0.910   -0.813   -0.732   -0.677   -0.640   -0.614   -0.596   -0.587   -0.589   -0.607   -0.636   -0.667   -0.688   -0.685   -0.662   -0.630   -0.608   -0.607   -0.629   -0.658   -0.676   -0.677   -0.662   -0.637   -0.606   -0.571   -0.540   -0.525   -0.529   -0.547   -0.564   -0.573   -0.580   -0.594   -0.627   -0.677   -0.736   -0.792   -0.845   -0.900   -0.961   -1.022   -1.071   -1.097   -1.103   -1.111   -1.140   -1.209   -1.308   -1.426   -1.545   -1.665   -1.799   -1.972   -2.212   -2.523   -2.878   -3.220   -3.487   -3.643   -3.680   -3.615   -3.486   -3.355   -3.290
  -2.209   -2.182   -2.172   -2.166   -2.160   -2.155   -2.150   -2.142   -2.127   -2.101   -2.054   -1.983   -1.892   -1.784   -1.663   -1.530   -1.386   -1.237   -1.093   -0.967   -0.873   -0.819   -0.805   -0.823   -0.863   -0.918   -0.991   -1.086   -1.196   -1.303   -1.382   -1.416   -1.399   -1.333   -1.228   -1.105   -0.986   -0.889   -0.816   -0.761   -0.716   -0.679   -0.649   -0.630   -0.624   -0.632   -0.645   -0.651   -0.639   -0.604   -0.556   -0.518   -0.506   -0.521   -0.551   -0.579   -0.596   -0.602   -0.600   -0.594   -0.588   -0.593   -0.616   -0.655   -0.694   -0.714   -0.707   -0.686   -0.674   -0.687   -0.723   -0.771   -0.823   -0.880   -0.947   -1.022   -1.097   -1.159   -1.202   -1.233   -1.271   -1.329   -1.416   -1.523   -1.633   -1.736   -1.837   -1.954   -2.117   -2.351   -2.656   -3.008   -3.356   -3.639   -3.825   -3.904   -3.895   -3.829   -3.748   -3.704
  -2.217   -2.188   -2.179   -2.172   -2.168   -2.165   -2.163   -2.161   -2.150   -2.130   -2.088   -2.023   -1.933   -1.823   -1.694   -1.547   -1.385   -1.221   -1.064   -0.930   -0.833   -0.784   -0.784   -0.824   -0.896   -0.993   -1.116   -1.260   -1.413   -1.548   -1.636   -1.662   -1.622   -1.528   -1.402   -1.266   -1.145   -1.047   -0.967   -0.899   -0.839   -0.789   -0.750   -0.719   -0.700   -0.691   -0.688   -0.678   -0.648   -0.592   -0.523   -0.464   -0.433   -0.436   -0.463   -0.503   -0.541   -0.576   -0.605   -0.631   -0.658   -0.697   -0.750   -0.810   -0.859   -0.873   -0.849   -0.812   -0.789   -0.796   -0.828   -0.871   -0.915   -0.965   -1.030   -1.112   -1.200   -1.284   -1.359   -1.428   -1.500   -1.582   -1.674   -1.768   -1.852   -1.922   -1.994   -2.088   -2.237   -2.457   -2.750   -3.090   -3.429   -3.713   -3.911   -4.021   -4.058   -4.050   -4.023   -4.005
  -2.216   -2.188   -2.179   -2.172   -2.168   -2.168   -2.169   -2.171   -2.166   -2.150   -2.118   -2.061   -1.976   -1.864   -1.725   -1.561   -1.380   -1.194   -1.021   -0.877   -0.777   -0.732   -0.742   -0.805   -0.909   -1.048   -1.213   -1.393   -1.570   -1.712   -1.798   -1.810   -1.752   -1.642   -1.510   -1.381   -1.272   -1.178   -1.092   -1.008   -0.931   -0.871   -0.833   -0.806   -0.788   -0.777   -0.765   -0.743   -0.698   -0.625   -0.539   -0.463   -0.416   -0.408   -0.432   -0.478   -0.532   -0.589   -0.644   -0.696   -0.752   -0.814   -0.885   -0.955   -1.004   -1.014   -0.991   -0.964   -0.964   -0.996   -1.047   -1.094   -1.133   -1.170   -1.224   -1.301   -1.394   -1.496   -1.595   -1.691   -1.783   -1.871   -1.956   -2.028   -2.080   -2.118   -2.160   -2.233   -2.364   -2.562   -2.831   -3.147   -3.467   -3.742   -3.944   -4.067   -4.133   -4.159   -4.166   -4.167
  -2.213   -2.184   -2.174   -2.167   -2.163   -2.164   -2.167   -2.169   -2.168   -2.158   -2.135   -2.090   -2.015   -1.908   -1.767   -1.592   -1.393   -1.190   -1.002   -0.846   -0.740   -0.694   -0.708   -0.783   -0.906   -1.070   -1.260   -1.456   -1.636   -1.776   -1.853   -1.854   -1.787   -1.676   -1.554   -1.445   -1.353   -1.267   -1.171   -1.069   -0.978   -0.915   -0.883   -0.870   -0.867   -0.864   -0.855   -0.828   -0.774   -0.691   -0.594   -0.507   -0.452   -0.434   -0.455   -0.502   -0.565   -0.636   -0.704   -0.775   -0.852   -0.935   -1.020   -1.099   -1.153   -1.173   -1.176   -1.190   -1.243   -1.326   -1.409   -1.471   -1.508   -1.536   -1.579   -1.646   -1.734   -1.833   -1.935   -2.031   -2.118   -2.194   -2.259   -2.306   -2.335   -2.349   -2.372   -2.426   -2.535   -2.703   -2.936   -3.214   -3.504   -3.765   -3.963   -4.093   -4.168   -4.207   -4.224   -4.234
  -2.209   -2.179   -2.168   -2.161   -2.157   -2.157   -2.158   -2.160   -2.160   -2.155   -2.139   -2.107   -2.048   -1.952   -1.818   -1.644   -1.443   -1.232   -1.036   -0.872   -0.758   -0.700   -0.704   -0.767   -0.884   -1.044   -1.232   -1.427   -1.605   -1.743   -1.815   -1.814   -1.749   -1.649   -1.546   -1.461   -1.388   -1.308   -1.208   -1.099   -1.006   -0.951   -0.935   -0.943   -0.959   -0.968   -0.962   -0.930   -0.866   -0.772   -0.666   -0.571   -0.508   -0.484   -0.499   -0.547   -0.614   -0.692   -0.777   -0.870   -0.973   -1.085   -1.198   -1.301   -1.378   -1.430   -1.478   -1.550   -1.659   -1.787   -1.899   -1.972   -2.009   -2.036   -2.073   -2.129   -2.201   -2.281   -2.361   -2.435   -2.499   -2.551   -2.593   -2.621   -2.633   -2.636   -2.648   -2.688   -2.773   -2.907   -3.095   -3.326   -3.575   -3.808   -3.995   -4.125   -4.203   -4.242   -4.258   -4.269
  -2.203   -2.172   -2.164   -2.157   -2.153   -2.151   -2.151   -2.150   -2.150   -2.146   -2.137   -2.114   -2.070   -1.994   -1.879   -1.722   -1.533   -1.331   -1.137   -0.970   -0.845   -0.767   -0.741   -0.769   -0.849   -0.977   -1.143   -1.327   -1.506   -1.649   -1.731   -1.735   -1.677   -1.585   -1.497   -1.430   -1.374   -1.308   -1.221   -1.129   -1.058   -1.028   -1.038   -1.070   -1.100   -1.115   -1.104   -1.059   -0.976   -0.863   -0.740   -0.630   -0.554   -0.520   -0.532   -0.583   -0.662   -0.761   -0.874   -1.006   -1.157   -1.319   -1.481   -1.628   -1.748   -1.842   -1.935   -2.048   -2.188   -2.332   -2.447   -2.520   -2.558   -2.586   -2.621   -2.668   -2.721   -2.776   -2.826   -2.871   -2.905   -2.932   -2.953   -2.968   -2.971   -2.972   -2.977   -3.007   -3.070   -3.171   -3.316   -3.495   -3.694   -3.887   -4.050   -4.172   -4.250   -4.290   -4.308   -4.320
  -2.200   -2.169   -2.161   -2.155   -2.151   -2.149   -2.147   -2.145   -2.142   -2.138   -2.132   -2.119   -2.089   -2.035   -1.946   -1.819   -1.659   -1.480   -1.299   -1.135   -0.997   -0.893   -0.828   -0.806   -0.830   -0.907   -1.037   -1.207   -1.390   -1.549   -1.646   -1.662   -1.608   -1.517   -1.433   -1.372   -1.331   -1.288   -1.235   -1.183   -1.156   -1.168   -1.211   -1.263   -1.303   -1.313   -1.288   -1.219   -1.108   -0.966   -0.814   -0.678   -0.582   -0.536   -0.549   -0.614   -0.722   -0.861   -1.030   -1.227   -1.445   -1.674   -1.897   -2.096   -2.257   -2.385   -2.500   -2.620   -2.751   -2.877   -2.974   -3.034   -3.069   -3.097   -3.130   -3.170   -3.209   -3.243   -3.270   -3.287   -3.297   -3.303   -3.309   -3.316   -3.319   -3.320   -3.323   -3.343   -3.388   -3.463   -3.570   -3.702   -3.848   -3.993   -4.122   -4.229   -4.306   -4.354   -4.379   -4.394
  -2.200   -2.169   -2.159   -2.155   -2.152   -2.150   -2.147   -2.142   -2.139   -2.135   -2.132   -2.123   -2.107   -2.072   -2.012   -1.920   -1.797   -1.652   -1.494   -1.339   -1.197   -1.075   -0.975   -0.903   -0.869   -0.891   -0.979   -1.128   -1.313   -1.486   -1.599   -1.624   -1.572   -1.478   -1.389   -1.330   -1.300   -1.285   -1.274   -1.274   -1.298   -1.351   -1.422   -1.491   -1.533   -1.538   -1.495   -1.404   -1.266   -1.091   -0.902   -0.734   -0.611   -0.554   -0.574   -0.669   -0.826   -1.033   -1.279   -1.553   -1.845   -2.136   -2.408   -2.639   -2.820   -2.957   -3.065   -3.163   -3.260   -3.348   -3.416   -3.458   -3.485   -3.510   -3.541   -3.575   -3.606   -3.628   -3.639   -3.639   -3.632   -3.625   -3.623   -3.627   -3.631   -3.633   -3.636   -3.648   -3.677   -3.733   -3.811   -3.905   -4.004   -4.100   -4.193   -4.279   -4.356   -4.414   -4.452   -4.473
  -2.201   -2.170   -2.162   -2.156   -2.153   -2.150   -2.147   -2.142   -2.140   -2.135   -2.133   -2.130   -2.122   -2.104   -2.069   -2.010   -1.925   -1.815   -1.688   -1.553   -1.420   -1.291   -1.172   -1.066   -0.987   -0.960   -1.006   -1.130   -1.304   -1.479   -1.601   -1.636   -1.589   -1.496   -1.406   -1.349   -1.330   -1.339   -1.363   -1.405   -1.466   -1.546   -1.630   -1.702   -1.745   -1.746   -1.697   -1.595   -1.440   -1.241   -1.021   -0.817   -0.666   -0.600   -0.637   -0.775   -0.998   -1.284   -1.610   -1.958   -2.306   -2.635   -2.923   -3.156   -3.329   -3.449   -3.532   -3.596   -3.654   -3.705   -3.746   -3.773   -3.793   -3.812   -3.837   -3.866   -3.891   -3.908   -3.912   -3.902   -3.885   -3.871   -3.866   -3.869   -3.875   -3.878   -3.879   -3.884   -3.902   -3.941   -3.999   -4.065   -4.128   -4.185   -4.241   -4.306   -4.379   -4.447   -4.498   -4.527
  -2.202   -2.171   -2.163   -2.159   -2.156   -2.152   -2.149   -2.145   -2.142   -2.139   -2.138   -2.137   -2.135   -2.129   -2.110   -2.077   -2.022   -1.948   -1.854   -1.748   -1.636   -1.520   -1.400   -1.280   -1.176   -1.114   -1.121   -1.212   -1.363   -1.528   -1.648   -1.692   -1.659   -1.581   -1.503   -1.456   -1.446   -1.467   -1.510   -1.569   -1.642   -1.724   -1.804   -1.869   -1.907   -1.907   -1.860   -1.764   -1.610   -1.403   -1.164   -0.931   -0.754   -0.684   -0.744   -0.929   -1.219   -1.577   -1.971   -2.371   -2.750   -3.085   -3.360   -3.569   -3.712   -3.802   -3.855   -3.889   -3.916   -3.944   -3.967   -3.985   -3.999   -4.014   -4.032   -4.056   -4.078   -4.091   -4.089   -4.074   -4.053   -4.037   -4.032   -4.036   -4.041   -4.043   -4.040   -4.038   -4.046   -4.072   -4.115   -4.163   -4.201   -4.229   -4.259   -4.304   -4.370   -4.441   -4.501   -4.536
  -2.207   -2.175   -2.167   -2.162   -2.158   -2.157   -2.153   -2.150   -2.147   -2.145   -2.144   -2.143   -2.144   -2.142   -2.134   -2.117   -2.086   -2.041   -1.980   -1.907   -1.824   -1.730   -1.625   -1.511   -1.401   -1.321   -1.300   -1.357   -1.474   -1.615   -1.728   -1.780   -1.768   -1.716   -1.660   -1.627   -1.624   -1.648   -1.690   -1.744   -1.807   -1.874   -1.935   -1.985   -2.013   -2.014   -1.977   -1.892   -1.752   -1.551   -1.307   -1.058   -0.865   -0.790   -0.868   -1.096   -1.439   -1.851   -2.291   -2.722   -3.110   -3.432   -3.678   -3.848   -3.955   -4.013   -4.043   -4.059   -4.070   -4.085   -4.101   -4.115   -4.126   -4.138   -4.152   -4.171   -4.187   -4.194   -4.188   -4.172   -4.150   -4.136   -4.132   -4.136   -4.139   -4.136   -4.126   -4.117   -4.118   -4.137   -4.169   -4.203   -4.225   -4.236   -4.247   -4.278   -4.332   -4.401   -4.461   -4.499
  -2.211   -2.179   -2.170   -2.166   -2.162   -2.160   -2.157   -2.155   -2.153   -2.151   -2.149   -2.148   -2.148   -2.147   -2.145   -2.136   -2.122   -2.099   -2.066   -2.021   -1.967   -1.899   -1.817   -1.721   -1.622   -1.541   -1.506   -1.533   -1.615   -1.725   -1.823   -1.879   -1.887   -1.864   -1.833   -1.815   -1.816   -1.834   -1.863   -1.900   -1.944   -1.987   -2.027   -2.058   -2.076   -2.074   -2.043   -1.972   -1.848   -1.661   -1.421   -1.166   -0.963   -0.883   -0.971   -1.224   -1.601   -2.049   -2.519   -2.967   -3.357   -3.663   -3.879   -4.014   -4.089   -4.124   -4.138   -4.146   -4.151   -4.161   -4.174   -4.185   -4.196   -4.207   -4.218   -4.231   -4.239   -4.241   -4.233   -4.217   -4.200   -4.189   -4.187   -4.190   -4.188   -4.178   -4.162   -4.146   -4.143   -4.156   -4.181   -4.205   -4.218   -4.222   -4.224   -4.245   -4.288   -4.345   -4.400   -4.436
  -2.216   -2.182   -2.173   -2.168   -2.164   -2.164   -2.162   -2.160   -2.157   -2.154   -2.153   -2.152   -2.150   -2.149   -2.148   -2.145   -2.139   -2.130   -2.115   -2.093   -2.061   -2.016   -1.958   -1.886   -1.810   -1.743   -1.705   -1.711   -1.762   -1.840   -1.919   -1.973   -1.994   -1.991   -1.979   -1.971   -1.972   -1.981   -1.996   -2.016   -2.039   -2.063   -2.083   -2.099   -2.106   -2.099   -2.068   -2.002   -1.885   -1.709   -1.476   -1.220   -1.010   -0.924   -1.012   -1.273   -1.669   -2.141   -2.635   -3.101   -3.498   -3.797   -3.994   -4.105   -4.158   -4.178   -4.185   -4.189   -4.193   -4.201   -4.210   -4.219   -4.227   -4.235   -4.242   -4.248   -4.252   -4.250   -4.243   -4.232   -4.220   -4.212   -4.212   -4.213   -4.208   -4.194   -4.174   -4.157   -4.152   -4.161   -4.177   -4.192   -4.201   -4.202   -4.205   -4.220   -4.251   -4.295   -4.338   -4.370
  -2.221   -2.187   -2.176   -2.170   -2.166   -2.165   -2.164   -2.162   -2.159   -2.155   -2.154   -2.152   -2.152   -2.151   -2.150   -2.147   -2.146   -2.143   -2.138   -2.127   -2.111   -2.084   -2.047   -2.001   -1.950   -1.903   -1.871   -1.868   -1.895   -1.948   -2.005   -2.050   -2.075   -2.081   -2.078   -2.074   -2.072   -2.074   -2.079   -2.086   -2.096   -2.105   -2.113   -2.116   -2.111   -2.093   -2.052   -1.977   -1.856   -1.678   -1.447   -1.193   -0.981   -0.889   -0.971   -1.231   -1.633   -2.124   -2.646   -3.141   -3.557   -3.864   -4.056   -4.155   -4.196   -4.207   -4.211   -4.213   -4.218   -4.224   -4.229   -4.232   -4.233   -4.234   -4.236   -4.237   -4.238   -4.237   -4.233   -4.228   -4.222   -4.218   -4.219   -4.220   -4.215   -4.203   -4.186   -4.173   -4.168   -4.171   -4.178   -4.186   -4.190   -4.192   -4.197   -4.209   -4.232   -4.263   -4.294   -4.320
  -2.221   -2.185   -2.175   -2.170   -2.166   -2.163   -2.161   -2.159   -2.158   -2.155   -2.152   -2.151   -2.151   -2.151   -2.148   -2.145   -2.144   -2.143   -2.141   -2.138   -2.129   -2.113   -2.094   -2.070   -2.042   -2.014   -1.993   -1.988   -2.002   -2.034   -2.073   -2.106   -2.126   -2.133   -2.133   -2.129   -2.125   -2.122   -2.121   -2.120   -2.122   -2.123   -2.121   -2.114   -2.095   -2.056   -1.993   -1.893   -1.751   -1.560   -1.325   -1.077   -0.874   -0.782   -0.855   -1.106   -1.511   -2.020   -2.577   -3.111   -3.561   -3.887   -4.085   -4.181   -4.216   -4.223   -4.224   -4.228   -4.232   -4.235   -4.236   -4.232   -4.227   -4.222   -4.218   -4.217   -4.216   -4.217   -4.217   -4.218   -4.217   -4.215   -4.214   -4.215   -4.214   -4.210   -4.206   -4.201   -4.198   -4.198   -4.197   -4.195   -4.195   -4.196   -4.201   -4.212   -4.229   -4.250   -4.272   -4.293
  -2.216   -2.180   -2.171   -2.165   -2.162   -2.160   -2.159   -2.158   -2.156   -2.152   -2.149   -2.148   -2.148   -2.147   -2.144   -2.140   -2.137   -2.135   -2.136   -2.134   -2.130   -2.123   -2.115   -2.104   -2.093   -2.080   -2.069   -2.065   -2.073   -2.092   -2.115   -2.137   -2.151   -2.155   -2.153   -2.149   -2.144   -2.140   -2.136   -2.133   -2.130   -2.125   -2.114   -2.092   -2.053   -1.986   -1.887   -1.749   -1.574   -1.364   -1.129   -0.896   -0.712   -0.632   -0.702   -0.943   -1.344   -1.869   -2.460   -3.036   -3.525   -3.877   -4.090   -4.189   -4.220   -4.223   -4.222   -4.226   -4.232   -4.235   -4.232   -4.225   -4.216   -4.208   -4.204   -4.202   -4.202   -4.204   -4.206   -4.209   -4.209   -4.207   -4.205   -4.204   -4.207   -4.214   -4.223   -4.229   -4.233   -4.232   -4.226   -4.220   -4.213   -4.212   -4.215   -4.223   -4.234   -4.249   -4.265   -4.283
  -2.214   -2.177   -2.168   -2.163   -2.161   -2.159   -2.158   -2.157   -2.154   -2.151   -2.147   -2.145   -2.144   -2.142   -2.138   -2.133   -2.129   -2.127   -2.127   -2.128   -2.128   -2.127   -2.124   -2.120   -2.117   -2.110   -2.105   -2.104   -2.110   -2.120   -2.133   -2.147   -2.156   -2.156   -2.154   -2.150   -2.145   -2.141   -2.138   -2.134   -2.128   -2.116   -2.092   -2.049   -1.980   -1.876   -1.733   -1.553   -1.343   -1.118   -0.896   -0.692   -0.545   -0.489   -0.562   -0.792   -1.182   -1.716   -2.330   -2.942   -3.465   -3.843   -4.070   -4.174   -4.203   -4.203   -4.202   -4.207   -4.214   -4.217   -4.215   -4.207   -4.200   -4.197   -4.197   -4.197   -4.198   -4.198   -4.198   -4.199   -4.199   -4.196   -4.191   -4.190   -4.195   -4.206   -4.223   -4.239   -4.252   -4.256   -4.253   -4.246   -4.238   -4.233   -4.232   -4.234   -4.239   -4.247   -4.260   -4.274
  -2.219   -2.183   -2.175   -2.171   -2.169   -2.168   -2.167   -2.167   -2.165   -2.159   -2.154   -2.150   -2.147   -2.144   -2.139   -2.134   -2.132   -2.132   -2.134   -2.137   -2.139   -2.139   -2.138   -2.135   -2.130   -2.124   -2.119   -2.117   -2.120   -2.126   -2.133   -2.142   -2.146   -2.146   -2.144   -2.142   -2.139   -2.137   -2.135   -2.129   -2.117   -2.093   -2.050   -1.978   -1.869   -1.721   -1.533   -1.317   -1.088   -0.869   -0.674   -0.518   -0.417   -0.393   -0.475   -0.695   -1.073   -1.599   -2.223   -2.854   -3.396   -3.793   -4.031   -4.141   -4.170   -4.168   -4.166   -4.170   -4.178   -4.181   -4.178   -4.174   -4.173   -4.177   -4.185   -4.190   -4.190   -4.187   -4.183   -4.181   -4.180   -4.176   -4.172   -4.167   -4.169   -4.180   -4.199   -4.220   -4.238   -4.250   -4.256   -4.255   -4.252   -4.247   -4.242   -4.238   -4.236   -4.238   -4.244   -4.256
  -2.258   -2.220   -2.212   -2.207   -2.206   -2.204   -2.204   -2.203   -2.201   -2.196   -2.189   -2.183   -2.178   -2.174   -2.171   -2.167   -2.169   -2.171   -2.176   -2.181   -2.184   -2.183   -2.180   -2.171   -2.159   -2.146   -2.133   -2.125   -2.121   -2.123   -2.128   -2.132   -2.136   -2.136   -2.135   -2.134   -2.134   -2.133   -2.130   -2.120   -2.097   -2.053   -1.979   -1.869   -1.717   -1.523   -1.302   -1.069   -0.846   -0.656   -0.509   -0.409   -0.359   -0.368   -0.461   -0.673   -1.035   -1.548   -2.161   -2.788   -3.333   -3.734   -3.978   -4.091   -4.121   -4.116   -4.111   -4.112   -4.118   -4.120   -4.117   -4.117   -4.120   -4.130   -4.144   -4.153   -4.154   -4.148   -4.141   -4.137   -4.136   -4.135   -4.131   -4.125   -4.123   -4.129   -4.141   -4.159   -4.178   -4.196   -4.211   -4.221   -4.226   -4.226   -4.222   -4.214   -4.206   -4.200   -4.200   -4.210
  -2.357   -2.318   -2.309   -2.303   -2.300   -2.297   -2.295   -2.294   -2.292   -2.287   -2.281   -2.275   -2.270   -2.267   -2.265   -2.265   -2.268   -2.273   -2.280   -2.286   -2.289   -2.286   -2.276   -2.255   -2.228   -2.197   -2.167   -2.143   -2.130   -2.125   -2.125   -2.129   -2.131   -2.133   -2.133   -2.133   -2.133   -2.132   -2.124   -2.102   -2.058   -1.984   -1.874   -1.720   -1.524   -1.298   -1.061   -0.836   -0.646   -0.507   -0.423   -0.386   -0.385   -0.425   -0.529   -0.734   -1.074   -1.560   -2.145   -2.745   -3.270   -3.659   -3.897   -4.009   -4.039   -4.033   -4.024   -4.020   -4.019   -4.017   -4.014   -4.015   -4.021   -4.033   -4.046   -4.055   -4.056   -4.051   -4.044   -4.041   -4.042   -4.044   -4.043   -4.038   -4.032   -4.031   -4.034   -4.044   -4.059   -4.078   -4.097   -4.114   -4.128   -4.136   -4.136   -4.130   -4.120   -4.110   -4.107   -4.114
  -2.543   -2.503   -2.491   -2.484   -2.478   -2.473   -2.470   -2.468   -2.466   -2.462   -2.459   -2.454   -2.451   -2.450   -2.449   -2.451   -2.455   -2.461   -2.467   -2.473   -2.474   -2.467   -2.447   -2.408   -2.356   -2.294   -2.234   -2.186   -2.153   -2.137   -2.133   -2.134   -2.136   -2.138   -2.138   -2.138   -2.137   -2.131   -2.113   -2.072   -1.999   -1.888   -1.734   -1.539   -1.313   -1.074   -0.844   -0.649   -0.509   -0.433   -0.415   -0.442   -0.493   -0.567   -0.682   -0.877   -1.188   -1.627   -2.158   -2.704   -3.183   -3.540   -3.760   -3.863   -3.890   -3.885   -3.873   -3.863   -3.857   -3.852   -3.847   -3.846   -3.851   -3.859   -3.868   -3.873   -3.875   -3.870   -3.866   -3.867   -3.872   -3.877   -3.879   -3.874   -3.866   -3.859   -3.855   -3.856   -3.864   -3.880   -3.898   -3.917   -3.935   -3.949   -3.955   -3.954   -3.946   -3.939   -3.937   -3.946
  -2.820   -2.779   -2.767   -2.756   -2.747   -2.741   -2.737   -2.735   -2.735   -2.733   -2.731   -2.730   -2.729   -2.727   -2.727   -2.730   -2.733   -2.738   -2.744   -2.748   -2.746   -2.732   -2.697   -2.634   -2.545   -2.439   -2.334   -2.248   -2.189   -2.157   -2.144   -2.142   -2.143   -2.144   -2.145   -2.144   -2.141   -2.129   -2.097   -2.034   -1.927   -1.774   -1.580   -1.356   -1.118   -0.889   -0.688   -0.536   -0.447   -0.426   -0.470   -0.554   -0.659   -0.771   -0.903   -1.086   -1.356   -1.728   -2.176   -2.640   -3.047   -3.351   -3.539   -3.626   -3.649   -3.643   -3.633   -3.623   -3.614   -3.607   -3.600   -3.598   -3.599   -3.601   -3.604   -3.606   -3.606   -3.604   -3.604   -3.606   -3.611   -3.617   -3.619   -3.616   -3.608   -3.598   -3.591   -3.589   -3.591   -3.601   -3.614   -3.630   -3.647   -3.662   -3.673   -3.677   -3.676   -3.675   -3.676   -3.692
  -3.156   -3.119   -3.104   -3.094   -3.084   -3.078   -3.075   -3.074   -3.076   -3.077   -3.077   -3.075   -3.074   -3.072   -3.072   -3.073   -3.075   -3.079   -3.083   -3.084   -3.079   -3.056   -3.002   -2.908   -2.774   -2.614   -2.454   -2.321   -2.228   -2.175   -2.153   -2.147   -2.146   -2.146   -2.146   -2.145   -2.141   -2.125   -2.081   -1.996   -1.860   -1.672   -1.449   -1.212   -0.986   -0.784   -0.624   -0.513   -0.462   -0.480   -0.564   -0.696   -0.850   -1.002   -1.151   -1.318   -1.538   -1.830   -2.178   -2.539   -2.857   -3.094   -3.238   -3.303   -3.320   -3.316   -3.310   -3.305   -3.299   -3.291   -3.285   -3.281   -3.279   -3.279   -3.277   -3.277   -3.276   -3.274   -3.275   -3.277   -3.281   -3.284   -3.284   -3.281   -3.275   -3.266   -3.261   -3.258   -3.260   -3.265   -3.273   -3.284   -3.296   -3.308   -3.317   -3.323   -3.328   -3.333   -3.341   -3.365
  -3.501   -3.470   -3.457   -3.446   -3.438   -3.435   -3.432   -3.432   -3.435   -3.437   -3.437   -3.435   -3.432   -3.428   -3.427   -3.428   -3.431   -3.434   -3.436   -3.435   -3.425   -3.392   -3.319   -3.191   -3.010   -2.793   -2.575   -2.391   -2.262   -2.188   -2.155   -2.145   -2.143   -2.142   -2.143   -2.142   -2.137   -2.117   -2.067   -1.971   -1.817   -1.613   -1.382   -1.153   -0.952   -0.789   -0.666   -0.587   -0.556   -0.590   -0.693   -0.851   -1.037   -1.218   -1.379   -1.529   -1.697   -1.906   -2.153   -2.410   -2.636   -2.802   -2.900   -2.940   -2.950   -2.948   -2.949   -2.951   -2.952   -2.949   -2.946   -2.942   -2.939   -2.938   -2.937   -2.936   -2.934   -2.932   -2.931   -2.931   -2.931   -2.931   -2.928   -2.923   -2.919   -2.915   -2.913   -2.913   -2.916   -2.921   -2.926   -2.931   -2.936   -2.941   -2.946   -2.951   -2.958   -2.966   -2.978   -3.012
  -3.805   -3.779   -3.767   -3.759   -3.754   -3.751   -3.749   -3.751   -3.753   -3.754   -3.753   -3.750   -3.744   -3.740   -3.738   -3.738   -3.741   -3.744   -3.747   -3.745   -3.730   -3.687   -3.595   -3.439   -3.217   -2.950   -2.680   -2.451   -2.289   -2.195   -2.153   -2.140   -2.137   -2.137   -2.139   -2.140   -2.135   -2.115   -2.064   -1.965   -1.813   -1.617   -1.403   -1.201   -1.034   -0.905   -0.812   -0.752   -0.732   -0.766   -0.864   -1.022   -1.214   -1.402   -1.562   -1.692   -1.815   -1.955   -2.116   -2.283   -2.428   -2.531   -2.588   -2.607   -2.608   -2.607   -2.614   -2.624   -2.634   -2.639   -2.639   -2.637   -2.636   -2.636   -2.637   -2.637   -2.635   -2.632   -2.630   -2.628   -2.625   -2.619   -2.614   -2.609   -2.605   -2.605   -2.606   -2.609   -2.615   -2.619   -2.623   -2.623   -2.622   -2.620   -2.620   -2.624   -2.629   -2.638   -2.652   -2.690
  -4.035   -4.011   -3.999   -3.993   -3.990   -3.988   -3.988   -3.989   -3.989   -3.988   -3.986   -3.980   -3.973   -3.967   -3.964   -3.966   -3.968   -3.973   -3.977   -3.973   -3.956   -3.906   -3.801   -3.623   -3.371   -3.066   -2.758   -2.495   -2.308   -2.200   -2.151   -2.137   -2.137   -2.140   -2.143   -2.143   -2.139   -2.120   -2.074   -1.986   -1.852   -1.685   -1.506   -1.342   -1.209   -1.109   -1.037   -0.992   -0.976   -1.003   -1.086   -1.223   -1.394   -1.567   -1.711   -1.817   -1.905   -1.993   -2.091   -2.191   -2.274   -2.330   -2.354   -2.356   -2.352   -2.352   -2.361   -2.376   -2.392   -2.402   -2.407   -2.407   -2.408   -2.410   -2.412   -2.413   -2.412   -2.409   -2.407   -2.405   -2.401   -2.395   -2.388   -2.381   -2.379   -2.379   -2.382   -2.389   -2.394   -2.399   -2.399   -2.395   -2.389   -2.384   -2.383   -2.385   -2.389   -2.397   -2.409   -2.450
  -4.183   -4.158   -4.149   -4.143   -4.139   -4.137   -4.136   -4.136   -4.135   -4.133   -4.128   -4.121   -4.113   -4.107   -4.102   -4.103   -4.105   -4.112   -4.116   -4.114   -4.094   -4.041   -3.928   -3.736   -3.465   -3.138   -2.806   -2.521   -2.319   -2.203   -2.154   -2.144   -2.146   -2.152   -2.156   -2.157   -2.152   -2.135   -2.096   -2.025   -1.922   -1.795   -1.662   -1.538   -1.434   -1.355   -1.299   -1.265   -1.256   -1.280   -1.344   -1.450   -1.585   -1.724   -1.839   -1.922   -1.981   -2.035   -2.092   -2.148   -2.191   -2.216   -2.220   -2.214   -2.207   -2.204   -2.209   -2.222   -2.237   -2.250   -2.258   -2.261   -2.262   -2.265   -2.268   -2.270   -2.267   -2.267   -2.266   -2.268   -2.266   -2.261   -2.254   -2.247   -2.243   -2.243   -2.247   -2.254   -2.261   -2.264   -2.260   -2.254   -2.246   -2.242   -2.241   -2.244   -2.248   -2.255   -2.267   -2.306
  -4.265   -4.240   -4.229   -4.222   -4.217   -4.216   -4.214   -4.212   -4.210   -4.206   -4.201   -4.193   -4.184   -4.176   -4.172   -4.171   -4.173   -4.179   -4.184   -4.183   -4.164   -4.108   -3.993   -3.794   -3.513   -3.175   -2.831   -2.535   -2.325   -2.206   -2.158   -2.154   -2.163   -2.171   -2.176   -2.175   -2.169   -2.152   -2.120   -2.069   -2.000   -1.917   -1.827   -1.739   -1.660   -1.595   -1.550   -1.528   -1.529   -1.555   -1.605   -1.680   -1.773   -1.869   -1.950   -2.007   -2.046   -2.080   -2.114   -2.146   -2.169   -2.180   -2.177   -2.167   -2.156   -2.147   -2.143   -2.146   -2.155   -2.166   -2.174   -2.178   -2.181   -2.185   -2.187   -2.188   -2.187   -2.188   -2.192   -2.196   -2.197   -2.195   -2.186   -2.179   -2.174   -2.174   -2.180   -2.189   -2.197   -2.199   -2.194   -2.185   -2.176   -2.174   -2.178   -2.183   -2.190   -2.198   -2.207   -2.246
  -4.305   -4.277   -4.266   -4.258   -4.253   -4.250   -4.247   -4.245   -4.243   -4.240   -4.234   -4.226   -4.217   -4.209   -4.203   -4.200   -4.202   -4.207   -4.212   -4.211   -4.193   -4.138   -4.020   -3.819   -3.535   -3.191   -2.841   -2.539   -2.325   -2.206   -2.161   -2.162   -2.176   -2.189   -2.194   -2.191   -2.179   -2.161   -2.136   -2.102   -2.064   -2.020   -1.967   -1.909   -1.849   -1.796   -1.759   -1.745   -1.756   -1.785   -1.826   -1.878   -1.934   -1.989   -2.035   -2.068   -2.093   -2.116   -2.141   -2.165   -2.182   -2.190   -2.189   -2.180   -2.166   -2.149   -2.134   -2.124   -2.122   -2.127   -2.132   -2.136   -2.141   -2.146   -2.149   -2.148   -2.146   -2.147   -2.153   -2.160   -2.164   -2.163   -2.157   -2.147   -2.141   -2.142   -2.152   -2.165   -2.175   -2.179   -2.172   -2.162   -2.153   -2.152   -2.157   -2.168   -2.178   -2.188   -2.198   -2.234
  -4.323   -4.292   -4.280   -4.272   -4.268   -4.265   -4.262   -4.262   -4.260   -4.257   -4.253   -4.246   -4.238   -4.231   -4.224   -4.218   -4.218   -4.222   -4.226   -4.225   -4.208   -4.152   -4.033   -3.832   -3.545   -3.199   -2.847   -2.543   -2.325   -2.205   -2.160   -2.162   -2.179   -2.193   -2.196   -2.188   -2.173   -2.153   -2.132   -2.114   -2.101   -2.087   -2.064   -2.030   -1.986   -1.945   -1.916   -1.908   -1.923   -1.954   -1.992   -2.029   -2.058   -2.080   -2.095   -2.108   -2.121   -2.140   -2.161   -2.182   -2.199   -2.210   -2.213   -2.208   -2.194   -2.173   -2.150   -2.131   -2.119   -2.114   -2.114   -2.117   -2.122   -2.128   -2.130   -2.128   -2.124   -2.124   -2.131   -2.139   -2.145   -2.146   -2.141   -2.132   -2.127   -2.129   -2.141   -2.160   -2.173   -2.178   -2.171   -2.158   -2.149   -2.147   -2.153   -2.167   -2.180   -2.191   -2.202   -2.237
  -4.332   -4.299   -4.286   -4.280   -4.276   -4.274   -4.273   -4.273   -4.273   -4.273   -4.270   -4.266   -4.260   -4.253   -4.246   -4.239   -4.236   -4.238   -4.239   -4.237   -4.218   -4.162   -4.043   -3.841   -3.553   -3.207   -2.853   -2.547   -2.328   -2.204   -2.156   -2.153   -2.166   -2.178   -2.177   -2.166   -2.148   -2.128   -2.113   -2.107   -2.112   -2.120   -2.119   -2.104   -2.077   -2.048   -2.027   -2.024   -2.040   -2.070   -2.105   -2.135   -2.149   -2.149   -2.142   -2.137   -2.138   -2.147   -2.164   -2.181   -2.198   -2.211   -2.219   -2.219   -2.211   -2.192   -2.171   -2.148   -2.129   -2.114   -2.104   -2.102   -2.106   -2.113   -2.116   -2.114   -2.109   -2.109   -2.115   -2.126   -2.135   -2.138   -2.134   -2.127   -2.123   -2.127   -2.140   -2.159   -2.173   -2.177   -2.170   -2.156   -2.144   -2.140   -2.146   -2.158   -2.171   -2.183   -2.194   -2.231
  -4.338   -4.302   -4.290   -4.284   -4.281   -4.280   -4.280   -4.283   -4.284   -4.287   -4.287   -4.288   -4.283   -4.277   -4.269   -4.260   -4.254   -4.251   -4.250   -4.245   -4.226   -4.169   -4.050   -3.847   -3.558   -3.213   -2.860   -2.554   -2.334   -2.206   -2.149   -2.138   -2.142   -2.145   -2.142   -2.130   -2.115   -2.100   -2.091   -2.094   -2.110   -2.128   -2.141   -2.140   -2.129   -2.115   -2.103   -2.102   -2.118   -2.146   -2.178   -2.202   -2.209   -2.197   -2.175   -2.154   -2.143   -2.142   -2.150   -2.160   -2.173   -2.186   -2.198   -2.205   -2.205   -2.197   -2.182   -2.162   -2.139   -2.114   -2.095   -2.084   -2.085   -2.091   -2.095   -2.097   -2.096   -2.102   -2.113   -2.127   -2.137   -2.142   -2.138   -2.132   -2.127   -2.129   -2.139   -2.153   -2.165   -2.166   -2.158   -2.144   -2.130   -2.124   -2.126   -2.135   -2.145   -2.155   -2.166   -2.205
  -4.346   -4.306   -4.294   -4.288   -4.285   -4.285   -4.285   -4.287   -4.290   -4.296   -4.300   -4.302   -4.300   -4.295   -4.285   -4.273   -4.263   -4.256   -4.252   -4.246   -4.226   -4.169   -4.049   -3.846   -3.559   -3.213   -2.862   -2.559   -2.340   -2.208   -2.144   -2.122   -2.116   -2.113   -2.107   -2.100   -2.092   -2.087   -2.085   -2.092   -2.108   -2.128   -2.145   -2.153   -2.153   -2.149   -2.145   -2.150   -2.163   -2.186   -2.213   -2.232   -2.234   -2.217   -2.186   -2.157   -2.136   -2.127   -2.125   -2.128   -2.135   -2.148   -2.162   -2.175   -2.183   -2.185   -2.178   -2.162   -2.137   -2.109   -2.082   -2.066   -2.063   -2.069   -2.076   -2.081   -2.090   -2.105   -2.124   -2.141   -2.151   -2.154   -2.148   -2.139   -2.131   -2.128   -2.132   -2.141   -2.146   -2.145   -2.137   -2.125   -2.113   -2.108   -2.107   -2.112   -2.116   -2.121   -2.128   -2.169
  -4.361   -4.317   -4.303   -4.296   -4.293   -4.291   -4.290   -4.291   -4.292   -4.298   -4.302   -4.306   -4.305   -4.299   -4.289   -4.277   -4.264   -4.256   -4.250   -4.244   -4.222   -4.165   -4.046   -3.842   -3.555   -3.211   -2.863   -2.563   -2.346   -2.213   -2.144   -2.115   -2.102   -2.094   -2.090   -2.091   -2.095   -2.099   -2.103   -2.109   -2.120   -2.134   -2.146   -2.155   -2.159   -2.161   -2.162   -2.167   -2.178   -2.195   -2.215   -2.226   -2.224   -2.204   -2.172   -2.139   -2.118   -2.105   -2.100   -2.100   -2.104   -2.116   -2.132   -2.148   -2.160   -2.166   -2.162   -2.148   -2.125   -2.098   -2.075   -2.060   -2.057   -2.062   -2.068   -2.076   -2.091   -2.113   -2.139   -2.158   -2.167   -2.164   -2.153   -2.140   -2.128   -2.119   -2.119   -2.121   -2.124   -2.124   -2.120   -2.116   -2.110   -2.110   -2.111   -2.111   -2.110   -2.108   -2.113   -2.156
  -4.395   -4.347   -4.330   -4.322   -4.316   -4.312   -4.309   -4.307   -4.305   -4.307   -4.309   -4.312   -4.312   -4.307   -4.298   -4.286   -4.275   -4.268   -4.263   -4.256   -4.234   -4.176   -4.055   -3.851   -3.563   -3.221   -2.875   -2.579   -2.363   -2.227   -2.156   -2.121   -2.105   -2.097   -2.099   -2.109   -2.126   -2.140   -2.149   -2.154   -2.157   -2.160   -2.162   -2.162   -2.162   -2.161   -2.162   -2.167   -2.174   -2.183   -2.191   -2.193   -2.183   -2.162   -2.133   -2.106   -2.091   -2.083   -2.081   -2.082   -2.087   -2.101   -2.117   -2.133   -2.145   -2.147   -2.141   -2.127   -2.111   -2.096   -2.084   -2.079   -2.078   -2.079   -2.078   -2.081   -2.094   -2.118   -2.145   -2.164   -2.170   -2.163   -2.150   -2.133   -2.116   -2.105   -2.101   -2.103   -2.110   -2.119   -2.129   -2.139   -2.150   -2.163   -2.173   -2.177   -2.172   -2.167   -2.171   -2.213
  -4.471   -4.418   -4.399   -4.388   -4.381   -4.373   -4.366   -4.361   -4.355   -4.353   -4.353   -4.352   -4.352   -4.348   -4.340   -4.333   -4.325   -4.322   -4.320   -4.315   -4.292   -4.232   -4.109   -3.903   -3.614   -3.272   -2.926   -2.629   -2.409   -2.269   -2.190   -2.149   -2.129   -2.124   -2.133   -2.155   -2.186   -2.213   -2.230   -2.236   -2.232   -2.221   -2.204   -2.188   -2.173   -2.164   -2.163   -2.166   -2.168   -2.167   -2.161   -2.149   -2.131   -2.108   -2.085   -2.069   -2.064   -2.065   -2.070   -2.075   -2.083   -2.098   -2.115   -2.131   -2.138   -2.137   -2.127   -2.115   -2.107   -2.107   -2.112   -2.118   -2.121   -2.113   -2.100   -2.092   -2.097   -2.116   -2.140   -2.156   -2.158   -2.152   -2.139   -2.123   -2.106   -2.094   -2.091   -2.099   -2.120   -2.148   -2.184   -2.225   -2.270   -2.314   -2.349   -2.367   -2.369   -2.366   -2.367   -2.410
  -4.612   -4.555   -4.535   -4.523   -4.513   -4.505   -4.496   -4.487   -4.478   -4.470   -4.467   -4.465   -4.463   -4.459   -4.454   -4.449   -4.448   -4.449   -4.451   -4.447   -4.424   -4.362   -4.237   -4.029   -3.740   -3.395   -3.044   -2.738   -2.506   -2.350   -2.255   -2.203   -2.177   -2.174   -2.193   -2.232   -2.283   -2.330   -2.363   -2.373   -2.361   -2.329   -2.286   -2.240   -2.203   -2.181   -2.173   -2.174   -2.172   -2.159   -2.138   -2.113   -2.088   -2.065   -2.047   -2.041   -2.047   -2.060   -2.071   -2.079   -2.087   -2.101   -2.118   -2.131   -2.137   -2.135   -2.125   -2.117   -2.120   -2.133   -2.152   -2.166   -2.166   -2.151   -2.125   -2.105   -2.101   -2.111   -2.129   -2.140   -2.140   -2.134   -2.125   -2.113   -2.103   -2.096   -2.101   -2.120   -2.160   -2.219   -2.302   -2.401   -2.510   -2.615   -2.701   -2.753   -2.774   -2.776   -2.777   -2.816
  -4.836   -4.776   -4.756   -4.744   -4.735   -4.726   -4.716   -4.705   -4.694   -4.684   -4.677   -4.673   -4.669   -4.665   -4.661   -4.659   -4.660   -4.665   -4.669   -4.665   -4.643   -4.581   -4.457   -4.249   -3.958   -3.609   -3.248   -2.924   -2.666   -2.482   -2.359   -2.284   -2.247   -2.247   -2.282   -2.348   -2.429   -2.507   -2.560   -2.576   -2.550   -2.488   -2.406   -2.321   -2.253   -2.212   -2.196   -2.193   -2.186   -2.165   -2.132   -2.096   -2.067   -2.046   -2.034   -2.035   -2.051   -2.072   -2.088   -2.096   -2.100   -2.107   -2.117   -2.129   -2.136   -2.138   -2.135   -2.134   -2.143   -2.165   -2.188   -2.205   -2.202   -2.181   -2.149   -2.121   -2.110   -2.113   -2.121   -2.124   -2.120   -2.114   -2.109   -2.106   -2.105   -2.108   -2.124   -2.159   -2.226   -2.331   -2.484   -2.677   -2.892   -3.099   -3.265   -3.374   -3.426   -3.440   -3.443   -3.473
  -5.143   -5.082   -5.063   -5.052   -5.044   -5.035   -5.023   -5.010   -4.996   -4.986   -4.977   -4.971   -4.966   -4.961   -4.956   -4.953   -4.954   -4.958   -4.963   -4.961   -4.940   -4.881   -4.758   -4.551   -4.259   -3.904   -3.528   -3.175   -2.881   -2.656   -2.495   -2.390   -2.339   -2.341   -2.398   -2.502   -2.626   -2.742   -2.819   -2.836   -2.787   -2.682   -2.546   -2.414   -2.310   -2.246   -2.219   -2.212   -2.204   -2.178   -2.138   -2.098   -2.068   -2.052   -2.048   -2.055   -2.075   -2.097   -2.113   -2.118   -2.113   -2.111   -2.115   -2.124   -2.136   -2.143   -2.148   -2.153   -2.164   -2.185   -2.206   -2.221   -2.216   -2.195   -2.166   -2.140   -2.125   -2.121   -2.119   -2.112   -2.103   -2.095   -2.095   -2.100   -2.110   -2.124   -2.151   -2.204   -2.301   -2.466   -2.715   -3.038   -3.399   -3.744   -4.018   -4.200   -4.294   -4.325   -4.330   -4.345
  -5.516   -5.456   -5.439   -5.429   -5.419   -5.407   -5.389   -5.371   -5.351   -5.337   -5.328   -5.321   -5.315   -5.308   -5.301   -5.296   -5.295   -5.297   -5.300   -5.298   -5.279   -5.222   -5.102   -4.897   -4.603   -4.239   -3.843   -3.459   -3.123   -2.850   -2.645   -2.508   -2.439   -2.447   -2.532   -2.681   -2.855   -3.011   -3.110   -3.123   -3.041   -2.883   -2.688   -2.501   -2.357   -2.269   -2.231   -2.219   -2.211   -2.184   -2.144   -2.104   -2.080   -2.072   -2.077   -2.089   -2.107   -2.126   -2.136   -2.134   -2.123   -2.112   -2.110   -2.119   -2.133   -2.146   -2.155   -2.161   -2.171   -2.184   -2.199   -2.209   -2.205   -2.190   -2.171   -2.153   -2.140   -2.130   -2.122   -2.109   -2.097   -2.089   -2.092   -2.104   -2.119   -2.139   -2.172   -2.238   -2.368   -2.602   -2.964   -3.439   -3.968   -4.465   -4.861   -5.123   -5.263   -5.317   -5.326   -5.323
  -5.957   -5.898   -5.882   -5.870   -5.855   -5.828   -5.791   -5.751   -5.715   -5.689   -5.674   -5.666   -5.660   -5.653   -5.644   -5.636   -5.632   -5.631   -5.632   -5.628   -5.609   -5.553   -5.434   -5.229   -4.933   -4.558   -4.143   -3.727   -3.349   -3.031   -2.785   -2.616   -2.534   -2.550   -2.666   -2.858   -3.080   -3.273   -3.388   -3.392   -3.277   -3.066   -2.810   -2.566   -2.380   -2.266   -2.214   -2.201   -2.194   -2.172   -2.136   -2.105   -2.091   -2.097   -2.111   -2.125   -2.137   -2.145   -2.147   -2.140   -2.125   -2.111   -2.106   -2.114   -2.128   -2.142   -2.150   -2.153   -2.156   -2.162   -2.169   -2.174   -2.173   -2.167   -2.160   -2.154   -2.148   -2.140   -2.130   -2.117   -2.107   -2.105   -2.113   -2.125   -2.139   -2.154   -2.183   -2.253   -2.411   -2.714   -3.191   -3.820   -4.512   -5.157   -5.664   -6.003   -6.188   -6.266   -6.281   -6.261
  -6.529   -6.472   -6.459   -6.441   -6.402   -6.333   -6.241   -6.142   -6.059   -6.003   -5.972   -5.958   -5.951   -5.944   -5.935   -5.926   -5.920   -5.916   -5.914   -5.909   -5.888   -5.831   -5.710   -5.503   -5.201   -4.816   -4.382   -3.938   -3.524   -3.170   -2.892   -2.701   -2.612   -2.642   -2.787   -3.017   -3.274   -3.492   -3.616   -3.608   -3.464   -3.208   -2.899   -2.604   -2.377   -2.237   -2.174   -2.160   -2.159   -2.146   -2.121   -2.101   -2.102   -2.120   -2.140   -2.152   -2.155   -2.152   -2.146   -2.137   -2.126   -2.113   -2.107   -2.111   -2.122   -2.132   -2.136   -2.135   -2.132   -2.132   -2.134   -2.136   -2.137   -2.139   -2.142   -2.147   -2.150   -2.147   -2.141   -2.134   -2.132   -2.138   -2.152   -2.163   -2.168   -2.170   -2.184   -2.253   -2.433   -2.793   -3.374   -4.133   -4.963   -5.729   -6.329   -6.730   -6.952   -7.049   -7.073   -7.036
  -7.389   -7.342   -7.332   -7.293   -7.193   -7.024   -6.805   -6.580   -6.393   -6.268   -6.201   -6.171   -6.160   -6.152   -6.144   -6.136   -6.129   -6.125   -6.122   -6.116   -6.092   -6.031   -5.907   -5.695   -5.384   -4.988   -4.536   -4.069   -3.630   -3.251   -2.956   -2.760   -2.679   -2.726   -2.896   -3.152   -3.428   -3.654   -3.775   -3.754   -3.586   -3.299   -2.953   -2.620   -2.360   -2.199   -2.130   -2.120   -2.129   -2.127   -2.113   -2.104   -2.113   -2.136   -2.155   -2.161   -2.155   -2.146   -2.140   -2.136   -2.129   -2.119   -2.111   -2.110   -2.117   -2.124   -2.127   -2.123   -2.117   -2.113   -2.113   -2.116   -2.120   -2.127   -2.134   -2.144   -2.149   -2.150   -2.148   -2.150   -2.161   -2.177   -2.195   -2.202   -2.195   -2.181   -2.182   -2.245   -2.441   -2.848   -3.504   -4.362   -5.290   -6.141   -6.806   -7.251   -7.499   -7.609   -7.636   -7.589
  -8.759   -8.735   -8.720   -8.623   -8.396   -8.033   -7.581   -7.125   -6.751   -6.501   -6.366   -6.308   -6.287   -6.278   -6.272   -6.266   -6.261   -6.259   -6.255   -6.248   -6.221   -6.156   -6.026   -5.806   -5.485   -5.074   -4.606   -4.121   -3.667   -3.279   -2.985   -2.804   -2.748   -2.821   -3.011   -3.276   -3.550   -3.766   -3.871   -3.833   -3.648   -3.342   -2.976   -2.622   -2.343   -2.172   -2.103   -2.101   -2.121   -2.130   -2.124   -2.118   -2.125   -2.142   -2.153   -2.152   -2.144   -2.137   -2.134   -2.134   -2.130   -2.121   -2.112   -2.109   -2.116   -2.126   -2.131   -2.127   -2.118   -2.114   -2.116   -2.123   -2.131   -2.137   -2.143   -2.146   -2.144   -2.141   -2.143   -2.157   -2.182   -2.209   -2.228   -2.230   -2.212   -2.187   -2.181   -2.241   -2.449   -2.886   -3.591   -4.507   -5.494   -6.394   -7.097   -7.564   -7.825   -7.939   -7.965   -7.911
 -10.785  -10.793  -10.740  -10.522  -10.079   -9.413   -8.611   -7.814   -7.160   -6.725   -6.491   -6.390   -6.355   -6.345   -6.340   -6.336   -6.334   -6.333   -6.330   -6.322   -6.293   -6.224   -6.086   -5.855   -5.520   -5.094   -4.610   -4.112   -3.651   -3.270   -3.000   -2.855   -2.840   -2.946   -3.151   -3.409   -3.662   -3.851   -3.930   -3.871   -3.670   -3.355   -2.983   -2.624   -2.341   -2.168   -2.102   -2.106   -2.134   -2.148   -2.142   -2.133   -2.134   -2.142   -2.145   -2.140   -2.134   -2.128   -2.127   -2.127   -2.122   -2.111   -2.102   -2.103   -2.116   -2.134   -2.144   -2.142   -2.133   -2.128   -2.134   -2.147   -2.157   -2.161   -2.158   -2.146   -2.130   -2.120   -2.126   -2.151   -2.187   -2.222   -2.242   -2.240   -2.218   -2.190   -2.182   -2.248   -2.464   -2.916   -3.641   -4.580   -5.588   -6.504   -7.218   -7.691   -7.952   -8.063   -8.086   -8.030
 -13.347  -13.380  -13.231  -12.817  -12.077  -11.036   -9.810   -8.599   -7.609   -6.949   -6.595   -6.444   -6.393   -6.379   -6.374   -6.372   -6.371   -6.368   -6.367   -6.358   -6.328   -6.256   -6.111   -5.869   -5.517   -5.073   -4.575   -4.070   -3.615   -3.257   -3.027   -2.934   -2.969   -3.109   -3.320   -3.560   -3.779   -3.931   -3.978   -3.897   -3.686   -3.370   -3.000   -2.645   -2.363   -2.189   -2.120   -2.121   -2.145   -2.158   -2.152   -2.142   -2.140   -2.144   -2.145   -2.141   -2.134   -2.126   -2.119   -2.112   -2.101   -2.088   -2.080   -2.088   -2.110   -2.137   -2.153   -2.154   -2.144   -2.140   -2.146   -2.160   -2.173   -2.176   -2.165   -2.141   -2.113   -2.096   -2.102   -2.132   -2.173   -2.209   -2.227   -2.225   -2.205   -2.183   -2.183   -2.256   -2.478   -2.932   -3.652   -4.580   -5.578   -6.484   -7.187   -7.651   -7.903   -8.008   -8.027   -7.971
 -16.049  -16.082  -15.785  -15.114  -14.038  -12.602  -10.955   -9.342   -8.026   -7.152   -6.685   -6.487   -6.420   -6.402   -6.397   -6.394   -6.389   -6.385   -6.381   -6.372   -6.345   -6.272   -6.122   -5.868   -5.501   -5.041   -4.530   -4.027   -3.591   -3.269   -3.089   -3.053   -3.135   -3.299   -3.504   -3.716   -3.896   -4.011   -4.029   -3.933   -3.719   -3.408   -3.045   -2.694   -2.412   -2.231   -2.149   -2.133   -2.142   -2.148   -2.143   -2.141   -2.146   -2.157   -2.164   -2.162   -2.147   -2.128   -2.109   -2.094   -2.078   -2.062   -2.055   -2.065   -2.093   -2.126   -2.147   -2.148   -2.138   -2.130   -2.133   -2.147   -2.163   -2.170   -2.160   -2.134   -2.102   -2.080   -2.081   -2.106   -2.141   -2.172   -2.188   -2.186   -2.173   -2.162   -2.175   -2.258   -2.479   -2.919   -3.611   -4.503   -5.460   -6.329   -7.003   -7.445   -7.683   -7.780   -7.797   -7.745
 -18.493  -18.483  -18.003  -17.037  -15.603  -13.794  -11.788   -9.861   -8.309   -7.289   -6.749   -6.520   -6.444   -6.425   -6.419   -6.412   -6.404   -6.395   -6.389   -6.382   -6.361   -6.292   -6.140   -5.875   -5.493   -5.018   -4.503   -4.011   -3.605   -3.330   -3.202   -3.215   -3.329   -3.499   -3.686   -3.860   -3.997   -4.076   -4.073   -3.969   -3.761   -3.459   -3.107   -2.762   -2.478   -2.285   -2.180   -2.137   -2.124   -2.121   -2.122   -2.133   -2.155   -2.179   -2.192   -2.184   -2.158   -2.128   -2.102   -2.084   -2.069   -2.052   -2.043   -2.051   -2.076   -2.107   -2.126   -2.125   -2.111   -2.099   -2.099   -2.114   -2.137   -2.155   -2.158   -2.141   -2.110   -2.084   -2.074   -2.083   -2.104   -2.123   -2.133   -2.134   -2.130   -2.131   -2.157   -2.245   -2.458   -2.866   -3.505   -4.330   -5.217   -6.025   -6.650   -7.060   -7.280   -7.368   -7.382   -7.340
 -20.482  -20.355  -19.631  -18.321  -16.522  -14.384  -12.116  -10.015   -8.373   -7.319   -6.770   -6.540   -6.466   -6.449   -6.446   -6.440   -6.431   -6.423   -6.422   -6.424   -6.414   -6.352   -6.197   -5.917   -5.514   -5.024   -4.508   -4.039   -3.673   -3.447   -3.367   -3.413   -3.539   -3.700   -3.856   -3.986   -4.077   -4.116   -4.090   -3.980   -3.779   -3.491   -3.153   -2.816   -2.531   -2.328   -2.202   -2.134   -2.102   -2.092   -2.101   -2.128   -2.166   -2.199   -2.209   -2.192   -2.157   -2.126   -2.109   -2.102   -2.094   -2.078   -2.065   -2.063   -2.077   -2.098   -2.109   -2.103   -2.083   -2.069   -2.069   -2.088   -2.122   -2.157   -2.175   -2.167   -2.138   -2.105   -2.083   -2.076   -2.080   -2.087   -2.089   -2.090   -2.091   -2.102   -2.134   -2.218   -2.407   -2.764   -3.324   -4.049   -4.836   -5.554   -6.112   -6.477   -6.672   -6.749   -6.763   -6.733
 -21.845  -21.514  -20.467  -18.799  -16.680  -14.285  -11.870   -9.758   -8.195   -7.229   -6.738   -6.538   -6.483   -6.483   -6.500   -6.515   -6.524   -6.535   -6.555   -6.582   -6.592   -6.534   -6.361   -6.044   -5.598   -5.077   -4.556   -4.109   -3.787   -3.609   -3.568   -3.632   -3.757   -3.897   -4.020   -4.106   -4.148   -4.142   -4.083   -3.957   -3.756   -3.480   -3.156   -2.831   -2.551   -2.344   -2.209   -2.129   -2.089   -2.081   -2.100   -2.140   -2.184   -2.212   -2.211   -2.181   -2.148   -2.132   -2.141   -2.159   -2.166   -2.155   -2.136   -2.123   -2.123   -2.128   -2.126   -2.110   -2.088   -2.073   -2.077   -2.101   -2.140   -2.184   -2.209   -2.204   -2.174   -2.136   -2.106   -2.090   -2.084   -2.082   -2.078   -2.074   -2.075   -2.084   -2.111   -2.181   -2.334   -2.624   -3.079   -3.674   -4.324   -4.923   -5.391   -5.697   -5.860   -5.922   -5.932   -5.919
 -22.264  -21.721  -20.380  -18.446  -16.099  -13.543  -11.120   -9.167   -7.826   -7.042   -6.659   -6.518   -6.507   -6.562   -6.643   -6.729   -6.809   -6.888   -6.970   -7.045   -7.076   -7.000   -6.761   -6.347   -5.798   -5.202   -4.650   -4.213   -3.927   -3.789   -3.776   -3.848   -3.962   -4.082   -4.175   -4.225   -4.224   -4.172   -4.073   -3.922   -3.713   -3.444   -3.134   -2.822   -2.550   -2.346   -2.213   -2.139   -2.107   -2.111   -2.140   -2.183   -2.220   -2.233   -2.214   -2.178   -2.155   -2.169   -2.214   -2.264   -2.289   -2.283   -2.259   -2.236   -2.221   -2.211   -2.196   -2.174   -2.153   -2.141   -2.146   -2.167   -2.198   -2.229   -2.246   -2.236   -2.206   -2.170   -2.142   -2.128   -2.120   -2.114   -2.107   -2.098   -2.093   -2.093   -2.107   -2.153   -2.260   -2.470   -2.803   -3.244   -3.729   -4.180   -4.533   -4.764   -4.881   -4.921   -4.924   -4.930
 -21.536  -20.896  -19.437  -17.382  -14.910  -12.324  -10.063   -8.408   -7.368   -6.800   -6.546   -6.492   -6.576   -6.758   -7.002   -7.269   -7.529   -7.768   -7.976   -8.124   -8.153   -7.989   -7.584   -6.954   -6.192   -5.433   -4.795   -4.340   -4.071   -3.961   -3.963   -4.033   -4.134   -4.231   -4.303   -4.328   -4.298   -4.215   -4.084   -3.911   -3.693   -3.429   -3.132   -2.833   -2.571   -2.374   -2.252   -2.194   -2.183   -2.204   -2.241   -2.277   -2.296   -2.288   -2.254   -2.215   -2.210   -2.256   -2.337   -2.415   -2.457   -2.457   -2.432   -2.403   -2.378   -2.357   -2.335   -2.314   -2.296   -2.286   -2.283   -2.285   -2.291   -2.297   -2.296   -2.281   -2.256   -2.231   -2.213   -2.207   -2.203   -2.197   -2.189   -2.176   -2.163   -2.153   -2.151   -2.172   -2.235   -2.361   -2.566   -2.837   -3.139   -3.418   -3.635   -3.771   -3.832   -3.841   -3.831   -3.850
 -19.912  -19.276  -17.841  -15.776  -13.318  -10.898   -8.959   -7.666   -6.918   -6.540   -6.408   -6.473   -6.732   -7.174   -7.750   -8.378   -8.981   -9.502   -9.899  -10.116  -10.077   -9.708   -8.984   -7.973   -6.842   -5.799   -4.996   -4.478   -4.204   -4.104   -4.109   -4.169   -4.249   -4.324   -4.376   -4.388   -4.350   -4.259   -4.123   -3.946   -3.729   -3.474   -3.192   -2.909   -2.660   -2.477   -2.372   -2.336   -2.348   -2.381   -2.417   -2.437   -2.434   -2.405   -2.359   -2.326   -2.339   -2.410   -2.516   -2.612   -2.666   -2.675   -2.655   -2.627   -2.601   -2.579   -2.559   -2.545   -2.532   -2.519   -2.502   -2.478   -2.453   -2.434   -2.418   -2.405   -2.392   -2.381   -2.374   -2.373   -2.373   -2.369   -2.360   -2.346   -2.327   -2.308   -2.297   -2.300   -2.323   -2.374   -2.456   -2.560   -2.672   -2.768   -2.834   -2.860   -2.849   -2.816   -2.785   -2.812
 -17.846  -17.206  -15.837  -13.880  -11.647   -9.589   -8.047   -7.075   -6.532   -6.273   -6.239   -6.463   -7.010   -7.891   -9.008  -10.189  -11.270  -12.141  -12.727  -12.961  -12.767  -12.083  -10.914   -9.380   -7.734   -6.283   -5.235   -4.612   -4.312   -4.209   -4.209   -4.251   -4.306   -4.354   -4.386   -4.392   -4.362   -4.293   -4.182   -4.027   -3.829   -3.591   -3.329   -3.068   -2.843   -2.684   -2.601   -2.585   -2.611   -2.647   -2.670   -2.669   -2.644   -2.599   -2.553   -2.527   -2.553   -2.636   -2.754   -2.862   -2.929   -2.952   -2.946   -2.929   -2.913   -2.898   -2.890   -2.885   -2.879   -2.863   -2.832   -2.790   -2.749   -2.718   -2.702   -2.696   -2.694   -2.692   -2.690   -2.687   -2.686   -2.684   -2.677   -2.661   -2.639   -2.618   -2.604   -2.597   -2.592   -2.579   -2.552   -2.505   -2.439   -2.357   -2.267   -2.171   -2.075   -1.988   -1.927   -1.953
 -15.728  -15.085  -13.871  -12.200  -10.366   -8.727   -7.503   -6.706   -6.229   -5.993   -6.024   -6.448   -7.406   -8.897  -10.708  -12.519  -14.071  -15.225  -15.917  -16.096  -15.702  -14.681  -13.047  -10.952   -8.727   -6.801   -5.463   -4.716   -4.384   -4.277   -4.269   -4.294   -4.323   -4.342   -4.355   -4.358   -4.346   -4.312   -4.243   -4.128   -3.963   -3.756   -3.525   -3.298   -3.109   -2.979   -2.919   -2.918   -2.945   -2.973   -2.978   -2.957   -2.916   -2.866   -2.823   -2.808   -2.843   -2.935   -3.061   -3.182   -3.268   -3.314   -3.332   -3.335   -3.334   -3.336   -3.341   -3.348   -3.347   -3.331   -3.300   -3.258   -3.222   -3.197   -3.189   -3.192   -3.196   -3.195   -3.190   -3.185   -3.182   -3.183   -3.178   -3.162   -3.137   -3.116   -3.102   -3.090   -3.064   -3.002   -2.886   -2.714   -2.498   -2.261   -2.023   -1.804   -1.612   -1.462   -1.364   -1.381
 -14.265  -13.708  -12.754  -11.443   -9.973   -8.584   -7.448   -6.607   -6.027   -5.708   -5.761   -6.412   -7.863  -10.045  -12.548  -14.889  -16.775  -18.096  -18.825  -18.926  -18.331  -16.991  -14.949  -12.362   -9.602   -7.223   -5.614   -4.764   -4.414   -4.311   -4.301   -4.315   -4.323   -4.321   -4.316   -4.315   -4.318   -4.314   -4.285   -4.213   -4.089   -3.923   -3.734   -3.551   -3.402   -3.305   -3.262   -3.264   -3.285   -3.299   -3.289   -3.256   -3.211   -3.165   -3.133   -3.131   -3.180   -3.285   -3.429   -3.575   -3.692   -3.771   -3.818   -3.846   -3.864   -3.879   -3.893   -3.907   -3.914   -3.905   -3.884   -3.858   -3.839   -3.833   -3.836   -3.845   -3.850   -3.846   -3.837   -3.831   -3.833   -3.841   -3.838   -3.822   -3.796   -3.772   -3.757   -3.740   -3.697   -3.598   -3.421   -3.162   -2.839   -2.482   -2.124   -1.792   -1.509   -1.291   -1.155   -1.157
 -14.250  -13.841  -13.101  -12.006  -10.656   -9.228   -7.902   -6.794   -5.954   -5.453   -5.477   -6.341   -8.278  -11.086  -14.127  -16.824  -18.946  -20.427  -21.214  -21.226  -20.375  -18.686  -16.287  -13.324  -10.154   -7.431   -5.639   -4.742   -4.403   -4.319   -4.318   -4.327   -4.325   -4.311   -4.294   -4.288   -4.294   -4.304   -4.297   -4.255   -4.170   -4.047   -3.905   -3.768   -3.657   -3.585   -3.553   -3.551   -3.560   -3.562   -3.544   -3.510   -3.470   -3.437   -3.422   -3.441   -3.513   -3.646   -3.823   -4.011   -4.172   -4.289   -4.366   -4.414   -4.444   -4.466   -4.484   -4.500   -4.509   -4.508   -4.501   -4.494   -4.495   -4.505   -4.518   -4.532   -4.538   -4.535   -4.529   -4.530   -4.544   -4.561   -4.564   -4.549   -4.521   -4.494   -4.475   -4.453   -4.397   -4.276   -4.065   -3.763   -3.385   -2.961   -2.525   -2.115   -1.761   -1.491   -1.324   -1.313
 -15.493  -15.221  -14.557  -13.476  -12.031  -10.365   -8.687   -7.188   -6.001   -5.263   -5.213   -6.223   -8.520  -11.758  -15.119  -18.030  -20.364  -22.038  -22.886  -22.751  -21.582  -19.548  -16.879  -13.674  -10.259   -7.368   -5.528   -4.659   -4.368   -4.315   -4.328   -4.339   -4.333   -4.316   -4.295   -4.284   -4.284   -4.290   -4.287   -4.259   -4.201   -4.116   -4.016   -3.919   -3.838   -3.783   -3.753   -3.744   -3.741   -3.734   -3.715   -3.688   -3.660   -3.642   -3.647   -3.691   -3.797   -3.971   -4.194   -4.431   -4.639   -4.795   -4.897   -4.958   -4.993   -5.014   -5.030   -5.041   -5.049   -5.052   -5.055   -5.060   -5.073   -5.093   -5.114   -5.132   -5.143   -5.146   -5.150   -5.163   -5.189   -5.215   -5.226   -5.214   -5.187   -5.161   -5.141   -5.115   -5.053   -4.926   -4.713   -4.411   -4.030   -3.599   -3.148   -2.713   -2.329   -2.035   -1.852   -1.828
 -17.055  -16.862  -16.177  -15.004  -13.390  -11.466   -9.452   -7.594   -6.098   -5.146   -5.001   -6.044   -8.474  -11.865  -15.329  -18.309  -20.721  -22.446  -23.251  -22.963  -21.598  -19.418  -16.646  -13.345   -9.883   -7.041   -5.309   -4.545   -4.324   -4.309   -4.335   -4.351   -4.347   -4.329   -4.310   -4.297   -4.290   -4.285   -4.275   -4.250   -4.207   -4.149   -4.081   -4.014   -3.955   -3.911   -3.883   -3.866   -3.855   -3.842   -3.824   -3.805   -3.788   -3.784   -3.808   -3.878   -4.017   -4.232   -4.502   -4.787   -5.036   -5.223   -5.343   -5.411   -5.445   -5.462   -5.472   -5.477   -5.482   -5.484   -5.489   -5.499   -5.515   -5.536   -5.558   -5.579   -5.595   -5.606   -5.619   -5.643   -5.676   -5.709   -5.726   -5.719   -5.697   -5.676   -5.660   -5.634   -5.577   -5.463   -5.276   -5.012   -4.681   -4.302   -3.898   -3.498   -3.138   -2.853   -2.672   -2.639
 -18.214  -18.030  -17.269  -15.969  -14.200  -12.093   -9.870   -7.806   -6.142   -5.073   -4.845   -5.793   -8.081  -11.321  -14.677  -17.556  -19.811  -21.348  -22.004  -21.667  -20.374  -18.305  -15.591  -12.349   -9.070   -6.507   -5.027   -4.424   -4.285   -4.303   -4.341   -4.358   -4.356   -4.343   -4.327   -4.313   -4.301   -4.290   -4.275   -4.251   -4.216   -4.175   -4.130   -4.084   -4.043   -4.009   -3.983   -3.964   -3.948   -3.933   -3.917   -3.902   -3.892   -3.899   -3.935   -4.025   -4.189   -4.435   -4.739   -5.056   -5.335   -5.544   -5.676   -5.746   -5.778   -5.791   -5.795   -5.797   -5.797   -5.797   -5.800   -5.806   -5.818   -5.835   -5.854   -5.873   -5.889   -5.904   -5.923   -5.948   -5.981   -6.013   -6.030   -6.027   -6.014   -6.000   -5.990   -5.972   -5.930   -5.844   -5.705   -5.515   -5.280   -5.010   -4.714   -4.404   -4.108   -3.860   -3.694   -3.652
 -18.563  -18.344  -17.508  -16.115  -14.254  -12.070   -9.798   -7.720   -6.066   -5.004   -4.722   -5.467   -7.374  -10.171  -13.193  -15.841  -17.850  -19.140  -19.655  -19.351  -18.230  -16.345  -13.781  -10.788   -7.938   -5.848   -4.718   -4.305   -4.245   -4.290   -4.333   -4.351   -4.349   -4.340   -4.328   -4.316   -4.305   -4.294   -4.278   -4.258   -4.232   -4.204   -4.177   -4.149   -4.123   -4.100   -4.081   -4.063   -4.048   -4.033   -4.019   -4.006   -4.001   -4.012   -4.055   -4.154   -4.330   -4.589   -4.909   -5.243   -5.538   -5.758   -5.898   -5.972   -6.004   -6.014   -6.016   -6.015   -6.012   -6.010   -6.010   -6.011   -6.016   -6.025   -6.037   -6.052   -6.065   -6.078   -6.093   -6.112   -6.136   -6.158   -6.170   -6.169   -6.162   -6.155   -6.151   -6.145   -6.124   -6.081   -6.015   -5.934   -5.844   -5.742   -5.609   -5.434   -5.227   -5.027   -4.878   -4.827
 -18.072  -17.808  -16.932  -15.510  -13.639  -11.489   -9.315   -7.382   -5.874   -4.905   -4.590   -5.079   -6.468   -8.608  -11.061  -13.329  -15.092  -16.215  -16.654  -16.381  -15.379  -13.671  -11.392   -8.885   -6.668   -5.155   -4.402   -4.173   -4.181   -4.244   -4.288   -4.306   -4.307   -4.301   -4.294   -4.287   -4.280   -4.273   -4.264   -4.252   -4.237   -4.223   -4.211   -4.199   -4.188   -4.177   -4.166   -4.156   -4.144   -4.132   -4.121   -4.112   -4.108   -4.120   -4.164   -4.262   -4.437   -4.695   -5.015   -5.350   -5.650   -5.877   -6.025   -6.105   -6.142   -6.154   -6.156   -6.154   -6.152   -6.148   -6.144   -6.141   -6.140   -6.143   -6.149   -6.158   -6.167   -6.175   -6.182   -6.190   -6.201   -6.210   -6.213   -6.210   -6.204   -6.201   -6.203   -6.209   -6.217   -6.232   -6.268   -6.344   -6.463   -6.597   -6.688   -6.688   -6.590   -6.440   -6.302   -6.232
 -17.039  -16.730  -15.844  -14.446  -12.643  -10.627   -8.650   -6.936   -5.613   -4.749   -4.397   -4.631   -5.499   -6.922   -8.651  -10.354  -11.754  -12.684  -13.057  -12.828  -11.979  -10.571   -8.786   -6.951   -5.442   -4.492   -4.076   -3.999   -4.058   -4.129   -4.173   -4.191   -4.196   -4.195   -4.195   -4.196   -4.200   -4.203   -4.205   -4.205   -4.205   -4.206   -4.208   -4.211   -4.214   -4.214   -4.214   -4.213   -4.210   -4.206   -4.201   -4.195   -4.192   -4.202   -4.240   -4.330   -4.494   -4.738   -5.046   -5.374   -5.675   -5.910   -6.069   -6.161   -6.208   -6.229   -6.234   -6.234   -6.230   -6.226   -6.221   -6.216   -6.212   -6.212   -6.214   -6.218   -6.223   -6.227   -6.228   -6.228   -6.228   -6.225   -6.221   -6.214   -6.207   -6.206   -6.213   -6.233   -6.277   -6.371   -6.549   -6.842   -7.244   -7.688   -8.064   -8.278   -8.312   -8.222   -8.096   -7.993
 -15.792  -15.452  -14.597  -13.282  -11.621   -9.803   -8.045   -6.524   -5.338   -4.527   -4.117   -4.131   -4.571   -5.382   -6.422   -7.495   -8.417   -9.054   -9.319   -9.156   -8.555   -7.583   -6.404   -5.260   -4.382   -3.883   -3.718   -3.745   -3.833   -3.908   -3.952   -3.972   -3.981   -3.988   -3.997   -4.009   -4.028   -4.048   -4.069   -4.088   -4.107   -4.126   -4.146   -4.163   -4.177   -4.189   -4.200   -4.212   -4.223   -4.232   -4.236   -4.235   -4.232   -4.236   -4.263   -4.336   -4.477   -4.699   -4.987   -5.305   -5.605   -5.852   -6.029   -6.143   -6.208   -6.241   -6.254   -6.257   -6.254   -6.250   -6.245   -6.241   -6.238   -6.237   -6.239   -6.241   -6.245   -6.248   -6.249   -6.248   -6.242   -6.235   -6.227   -6.219   -6.214   -6.214   -6.226   -6.263   -6.355   -6.547   -6.901   -7.458   -8.194   -8.989   -9.675  -10.128  -10.322  -10.326  -10.234  -10.086
 -14.597  -14.259  -13.475  -12.293  -10.816   -9.202   -7.623   -6.224   -5.092   -4.272   -3.779   -3.617   -3.759   -4.145   -4.680   -5.244   -5.732   -6.070   -6.202   -6.093   -5.737   -5.182   -4.535   -3.937   -3.516   -3.320   -3.308   -3.390   -3.489   -3.561   -3.606   -3.629   -3.643   -3.657   -3.674   -3.700   -3.738   -3.782   -3.829   -3.874   -3.918   -3.961   -4.000   -4.033   -4.059   -4.081   -4.106   -4.134   -4.163   -4.189   -4.206   -4.211   -4.207   -4.202   -4.212   -4.260   -4.372   -4.563   -4.826   -5.129   -5.430   -5.692   -5.893   -6.035   -6.125   -6.176   -6.199   -6.206   -6.206   -6.203   -6.201   -6.200   -6.201   -6.205   -6.210   -6.217   -6.227   -6.237   -6.245   -6.249   -6.249   -6.245   -6.240   -6.237   -6.236   -6.239   -6.257   -6.314   -6.453   -6.744   -7.272   -8.085   -9.131  -10.243  -11.209  -11.891  -12.266  -12.403  -12.382  -12.197
 -13.594  -13.283  -12.589  -11.553  -10.256   -8.821   -7.379   -6.051   -4.926   -4.060   -3.481   -3.184   -3.133   -3.264   -3.494   -3.741   -3.941   -4.060   -4.080   -3.991   -3.797   -3.525   -3.228   -2.975   -2.824   -2.793   -2.854   -2.952   -3.046   -3.114   -3.160   -3.188   -3.205   -3.218   -3.237   -3.273   -3.329   -3.400   -3.477   -3.552   -3.628   -3.698   -3.759   -3.808   -3.846   -3.879   -3.916   -3.961   -4.010   -4.054   -4.086   -4.098   -4.093   -4.076   -4.065   -4.084   -4.162   -4.318   -4.551   -4.835   -5.134   -5.409   -5.635   -5.805   -5.921   -5.991   -6.026   -6.039   -6.041   -6.042   -6.046   -6.053   -6.064   -6.079   -6.097   -6.120   -6.147   -6.175   -6.201   -6.222   -6.236   -6.245   -6.251   -6.255   -6.260   -6.269   -6.293   -6.363   -6.534   -6.893   -7.537   -8.519   -9.771  -11.094  -12.263  -13.139  -13.698  -13.994  -14.078  -13.887
 -12.779  -12.500  -11.888  -10.981   -9.844   -8.567   -7.252   -5.996   -4.887   -3.992   -3.347   -2.955   -2.780   -2.759   -2.816   -2.884   -2.921   -2.912   -2.856   -2.762   -2.641   -2.507   -2.387   -2.302   -2.275   -2.312   -2.390   -2.481   -2.567   -2.637   -2.689   -2.723   -2.735   -2.735   -2.743   -2.775   -2.840   -2.930   -3.033   -3.138   -3.243   -3.339   -3.420   -3.483   -3.529   -3.569   -3.615   -3.672   -3.736   -3.796   -3.842   -3.863   -3.858   -3.831   -3.801   -3.791   -3.835   -3.956   -4.156   -4.416   -4.704   -4.982   -5.223   -5.413   -5.546   -5.630   -5.673   -5.693   -5.700   -5.708   -5.722   -5.744   -5.773   -5.809   -5.854   -5.906   -5.966   -6.029   -6.090   -6.143   -6.186   -6.217   -6.239   -6.255   -6.267   -6.280   -6.306   -6.378   -6.552   -6.918   -7.576   -8.587   -9.888  -11.286  -12.560  -13.573  -14.298  -14.764  -14.978  -14.830
 -12.080  -11.824  -11.278  -10.477   -9.481   -8.358   -7.186   -6.044   -5.003   -4.130   -3.464   -3.016   -2.756   -2.631   -2.574   -2.533   -2.474   -2.389   -2.281   -2.162   -2.045   -1.947   -1.877   -1.844   -1.852   -1.897   -1.966   -2.049   -2.135   -2.219   -2.287   -2.327   -2.328   -2.301   -2.277   -2.286   -2.341   -2.435   -2.551   -2.673   -2.793   -2.903   -2.996   -3.065   -3.113   -3.152   -3.198   -3.258   -3.327   -3.396   -3.451   -3.481   -3.480   -3.447   -3.403   -3.372   -3.389   -3.478   -3.644   -3.874   -4.138   -4.402   -4.637   -4.826   -4.962   -5.048   -5.095   -5.117   -5.133   -5.152   -5.181   -5.224   -5.279   -5.349   -5.433   -5.533   -5.645   -5.763   -5.880   -5.984   -6.069   -6.134   -6.178   -6.208   -6.227   -6.243   -6.266   -6.326   -6.471   -6.781   -7.349   -8.243   -9.428  -10.752  -12.017  -13.091  -13.936  -14.554  -14.906  -14.843
 -11.451  -11.207  -10.711   -9.998   -9.128   -8.161   -7.154   -6.165   -5.248   -4.454   -3.819   -3.353   -3.036   -2.829   -2.682   -2.557   -2.428   -2.283   -2.126   -1.964   -1.812   -1.685   -1.596   -1.548   -1.542   -1.571   -1.625   -1.704   -1.803   -1.913   -2.009   -2.060   -2.048   -1.989   -1.922   -1.891   -1.918   -1.995   -2.101   -2.218   -2.334   -2.441   -2.527   -2.587   -2.626   -2.657   -2.694   -2.744   -2.807   -2.873   -2.930   -2.965   -2.966   -2.934   -2.884   -2.840   -2.837   -2.899   -3.032   -3.224   -3.450   -3.679   -3.886   -4.054   -4.174   -4.249   -4.291   -4.316   -4.339   -4.372   -4.420   -4.487   -4.574   -4.685   -4.820   -4.981   -5.161   -5.352   -5.542   -5.712   -5.852   -5.956   -6.028   -6.072   -6.098   -6.114   -6.130   -6.168   -6.266   -6.484   -6.897   -7.572   -8.512   -9.620  -10.751  -11.790  -12.687  -13.410  -13.879  -13.923
 -10.887  -10.650  -10.190   -9.551   -8.791   -7.970   -7.130   -6.309   -5.542   -4.862   -4.293   -3.840   -3.491   -3.222   -3.001   -2.803   -2.609   -2.409   -2.202   -1.989   -1.783   -1.604   -1.467   -1.380   -1.342   -1.346   -1.387   -1.468   -1.584   -1.722   -1.847   -1.915   -1.901   -1.818   -1.716   -1.647   -1.638   -1.684   -1.764   -1.854   -1.943   -2.022   -2.082   -2.120   -2.141   -2.156   -2.176   -2.207   -2.252   -2.304   -2.350   -2.381   -2.382   -2.350   -2.297   -2.249   -2.233   -2.271   -2.370   -2.517   -2.692   -2.873   -3.035   -3.165   -3.257   -3.312   -3.345   -3.370   -3.400   -3.445   -3.509   -3.599   -3.717   -3.869   -4.054   -4.276   -4.526   -4.794   -5.059   -5.300   -5.497   -5.641   -5.738   -5.794   -5.825   -5.838   -5.845   -5.859   -5.908   -6.031   -6.281   -6.714   -7.351   -8.154   -9.040   -9.932  -10.784  -11.538  -12.076  -12.226
 -10.377  -10.148   -9.717   -9.135   -8.468   -7.771   -7.078   -6.411   -5.788   -5.223   -4.729   -4.305   -3.945   -3.634   -3.352   -3.090   -2.838   -2.589   -2.336   -2.082   -1.834   -1.613   -1.438   -1.320   -1.256   -1.239   -1.268   -1.343   -1.466   -1.620   -1.764   -1.848   -1.844   -1.764   -1.654   -1.567   -1.533   -1.548   -1.592   -1.646   -1.695   -1.732   -1.754   -1.760   -1.757   -1.754   -1.754   -1.764   -1.783   -1.811   -1.838   -1.854   -1.847   -1.813   -1.761   -1.708   -1.678   -1.691   -1.752   -1.852   -1.977   -2.106   -2.221   -2.308   -2.367   -2.401   -2.423   -2.444   -2.476   -2.526   -2.600   -2.702   -2.840   -3.019   -3.238   -3.501   -3.799   -4.122   -4.445   -4.737   -4.976   -5.148   -5.259   -5.322   -5.352   -5.360   -5.355   -5.348   -5.357   -5.406   -5.529   -5.761   -6.128   -6.621   -7.212   -7.870   -8.570   -9.246   -9.772   -9.994
  -9.864   -9.644   -9.239   -8.707   -8.116   -7.520   -6.945   -6.402   -5.896   -5.429   -5.002   -4.612   -4.252   -3.913   -3.588   -3.275   -2.974   -2.687   -2.409   -2.142   -1.889   -1.666   -1.491   -1.370   -1.301   -1.278   -1.298   -1.363   -1.474   -1.616   -1.753   -1.840   -1.853   -1.794   -1.703   -1.626   -1.585   -1.581   -1.599   -1.620   -1.633   -1.633   -1.616   -1.592   -1.566   -1.545   -1.530   -1.519   -1.515   -1.516   -1.519   -1.518   -1.501   -1.464   -1.409   -1.350   -1.304   -1.289   -1.314   -1.375   -1.459   -1.549   -1.628   -1.684   -1.716   -1.730   -1.738   -1.750   -1.775   -1.818   -1.885   -1.984   -2.121   -2.300   -2.521   -2.782   -3.083   -3.411   -3.742   -4.043   -4.286   -4.459   -4.566   -4.626   -4.652   -4.652   -4.635   -4.610   -4.592   -4.596   -4.640   -4.741   -4.916   -5.169   -5.501   -5.912   -6.399   -6.911   -7.340   -7.575
  -9.257   -9.046   -8.672   -8.188   -7.667   -7.154   -6.673   -6.226   -5.809   -5.418   -5.047   -4.690   -4.342   -3.994   -3.648   -3.308   -2.985   -2.688   -2.420   -2.181   -1.972   -1.800   -1.670   -1.588   -1.550   -1.545   -1.572   -1.629   -1.716   -1.821   -1.921   -1.986   -1.995   -1.951   -1.883   -1.821   -1.784   -1.776   -1.779   -1.781   -1.770   -1.743   -1.700   -1.650   -1.605   -1.569   -1.540   -1.512   -1.488   -1.468   -1.454   -1.440   -1.419   -1.383   -1.331   -1.268   -1.208   -1.170   -1.168   -1.208   -1.275   -1.350   -1.413   -1.451   -1.466   -1.465   -1.458   -1.455   -1.461   -1.482   -1.527   -1.605   -1.721   -1.872   -2.054   -2.267   -2.509   -2.776   -3.045   -3.287   -3.478   -3.610   -3.691   -3.735   -3.751   -3.744   -3.718   -3.683   -3.652   -3.635   -3.640   -3.673   -3.739   -3.844   -4.001   -4.228   -4.528   -4.870   -5.174   -5.383
  -8.487   -8.282   -7.947   -7.526   -7.077   -6.644   -6.243   -5.874   -5.527   -5.196   -4.876   -4.558   -4.238   -3.912   -3.585   -3.266   -2.971   -2.717   -2.512   -2.357   -2.246   -2.175   -2.141   -2.143   -2.175   -2.227   -2.292   -2.362   -2.430   -2.490   -2.526   -2.530   -2.491   -2.420   -2.335   -2.260   -2.212   -2.188   -2.178   -2.167   -2.143   -2.099   -2.035   -1.961   -1.887   -1.822   -1.764   -1.711   -1.662   -1.620   -1.591   -1.574   -1.558   -1.534   -1.494   -1.439   -1.376   -1.329   -1.320   -1.359   -1.432   -1.514   -1.580   -1.615   -1.622   -1.612   -1.591   -1.569   -1.553   -1.548   -1.566   -1.616   -1.700   -1.807   -1.930   -2.061   -2.201   -2.346   -2.484   -2.597   -2.674   -2.719   -2.743   -2.756   -2.758   -2.745   -2.717   -2.681   -2.650   -2.633   -2.630   -2.641   -2.661   -2.700   -2.775   -2.908   -3.107   -3.345   -3.564   -3.743
  -7.577   -7.381   -7.101   -6.756   -6.392   -6.042   -5.718   -5.420   -5.138   -4.868   -4.605   -4.345   -4.089   -3.835   -3.592   -3.368   -3.183   -3.051   -2.982   -2.971   -3.009   -3.085   -3.192   -3.324   -3.472   -3.629   -3.776   -3.897   -3.975   -3.997   -3.956   -3.855   -3.707   -3.529   -3.352   -3.198   -3.084   -3.010   -2.964   -2.929   -2.885   -2.819   -2.721   -2.603   -2.472   -2.341   -2.213   -2.095   -1.988   -1.904   -1.845   -1.812   -1.796   -1.783   -1.759   -1.718   -1.666   -1.627   -1.628   -1.679   -1.767   -1.863   -1.936   -1.974   -1.981   -1.966   -1.938   -1.905   -1.874   -1.852   -1.854   -1.887   -1.947   -2.021   -2.090   -2.144   -2.179   -2.190   -2.169   -2.113   -2.035   -1.958   -1.901   -1.868   -1.849   -1.828   -1.802   -1.774   -1.754   -1.751   -1.762   -1.780   -1.801   -1.832   -1.895   -2.015   -2.197   -2.414   -2.607   -2.774
  -6.673   -6.495   -6.282   -6.026   -5.756   -5.498   -5.260   -5.040   -4.837   -4.647   -4.471   -4.312   -4.175   -4.066   -3.990   -3.959   -3.978   -4.057   -4.194   -4.383   -4.610   -4.866   -5.143   -5.437   -5.743   -6.046   -6.320   -6.534   -6.655   -6.662   -6.547   -6.319   -6.005   -5.643   -5.281   -4.959   -4.702   -4.518   -4.392   -4.299   -4.210   -4.096   -3.940   -3.742   -3.512   -3.262   -3.007   -2.761   -2.541   -2.359   -2.221   -2.130   -2.075   -2.040   -2.009   -1.967   -1.921   -1.887   -1.893   -1.948   -2.038   -2.133   -2.204   -2.239   -2.244   -2.227   -2.199   -2.166   -2.135   -2.116   -2.122   -2.158   -2.217   -2.280   -2.327   -2.342   -2.317   -2.238   -2.098   -1.903   -1.683   -1.486   -1.341   -1.252   -1.202   -1.168   -1.139   -1.117   -1.112   -1.129   -1.169   -1.219   -1.269   -1.327   -1.412   -1.557   -1.763   -1.999   -2.203   -2.367
  -5.972   -5.821   -5.682   -5.520   -5.352   -5.197   -5.061   -4.949   -4.858   -4.790   -4.752   -4.753   -4.806   -4.920   -5.101   -5.345   -5.643   -5.985   -6.361   -6.762   -7.180   -7.612   -8.059   -8.522   -8.996   -9.461   -9.880  -10.207  -10.397  -10.419  -10.258   -9.923   -9.443   -8.873   -8.280   -7.728   -7.265   -6.910   -6.652   -6.457   -6.284   -6.090   -5.849   -5.546   -5.189   -4.788   -4.366   -3.948   -3.556   -3.210   -2.922   -2.695   -2.522   -2.392   -2.286   -2.190   -2.102   -2.037   -2.013   -2.036   -2.091   -2.155   -2.199   -2.218   -2.214   -2.193   -2.168   -2.142   -2.123   -2.118   -2.140   -2.193   -2.265   -2.339   -2.396   -2.421   -2.400   -2.311   -2.140   -1.893   -1.607   -1.340   -1.132   -0.995   -0.909   -0.850   -0.809   -0.783   -0.787   -0.827   -0.904   -1.001   -1.098   -1.193   -1.302   -1.460   -1.675   -1.914   -2.118   -2.270
  -5.593   -5.477   -5.408   -5.341   -5.285   -5.250   -5.247   -5.277   -5.342   -5.442   -5.589   -5.798   -6.091   -6.477   -6.951   -7.494   -8.071   -8.655   -9.231   -9.796  -10.353  -10.915  -11.493  -12.095  -12.713  -13.318  -13.863  -14.291  -14.555  -14.618  -14.464  -14.093  -13.533  -12.834  -12.072  -11.326  -10.666  -10.130   -9.715   -9.388   -9.102   -8.807   -8.467   -8.060   -7.585   -7.054   -6.484   -5.900   -5.326   -4.782   -4.284   -3.844   -3.461   -3.132   -2.847   -2.594   -2.372   -2.194   -2.068   -1.996   -1.964   -1.953   -1.942   -1.924   -1.899   -1.871   -1.843   -1.819   -1.807   -1.814   -1.851   -1.916   -1.999   -2.086   -2.165   -2.228   -2.257   -2.229   -2.120   -1.923   -1.669   -1.412   -1.195   -1.036   -0.921   -0.834   -0.770   -0.731   -0.737   -0.800   -0.918   -1.068   -1.211   -1.332   -1.444   -1.577   -1.749   -1.941   -2.107   -2.231
  -5.569   -5.487   -5.487   -5.514   -5.577   -5.680   -5.829   -6.025   -6.264   -6.546   -6.885   -7.303   -7.823   -8.452   -9.174   -9.947  -10.722  -11.461  -12.150  -12.798  -13.427  -14.061  -14.724  -15.423  -16.145  -16.853  -17.490  -17.998  -18.330  -18.454  -18.351  -18.024  -17.495  -16.805  -16.018  -15.212  -14.460  -13.813  -13.281  -12.840  -12.447  -12.054  -11.625  -11.140  -10.590   -9.982   -9.327   -8.640   -7.934   -7.222   -6.517   -5.832   -5.180   -4.567   -3.998   -3.475   -3.007   -2.607   -2.283   -2.032   -1.847   -1.712   -1.612   -1.536   -1.475   -1.428   -1.388   -1.357   -1.340   -1.345   -1.376   -1.432   -1.508   -1.596   -1.689   -1.785   -1.873   -1.931   -1.927   -1.846   -1.696   -1.519   -1.349   -1.204   -1.080   -0.973   -0.889   -0.841   -0.849   -0.930   -1.079   -1.267   -1.441   -1.569   -1.652   -1.723   -1.809   -1.913   -2.006   -2.093
  -5.972   -5.924   -5.982   -6.096   -6.268   -6.500   -6.790   -7.131   -7.515   -7.940   -8.422   -8.984   -9.651  -10.426  -11.283  -12.172  -13.033  -13.832  -14.560  -15.236  -15.893  -16.567  -17.283  -18.053  -18.858  -19.655  -20.384  -20.983  -21.399  -21.598  -21.566  -21.310  -20.858  -20.253  -19.550  -18.811  -18.098  -17.452  -16.890  -16.396  -15.938  -15.480  -14.992  -14.459  -13.876  -13.242  -12.563  -11.840  -11.072  -10.259   -9.403   -8.514   -7.605   -6.696   -5.805   -4.953   -4.162   -3.454   -2.845   -2.340   -1.938   -1.629   -1.403   -1.245   -1.134   -1.057   -0.998   -0.951   -0.920   -0.907   -0.915   -0.947   -0.999   -1.068   -1.151   -1.255   -1.373   -1.492   -1.581   -1.615   -1.588   -1.517   -1.423   -1.320   -1.214   -1.109   -1.022   -0.973   -0.986   -1.074   -1.233   -1.429   -1.601   -1.707   -1.745   -1.742   -1.738   -1.745   -1.764   -1.815
  -6.960   -6.947   -7.047   -7.218   -7.460   -7.771   -8.144   -8.563   -9.017   -9.505  -10.040  -10.646  -11.347  -12.147  -13.017  -13.906  -14.762  -15.550  -16.268  -16.936  -17.593  -18.279  -19.023  -19.837  -20.706  -21.585  -22.417  -23.133  -23.671  -23.985  -24.058  -23.899  -23.545  -23.047  -22.463  -21.846  -21.239  -20.671  -20.151  -19.665  -19.193  -18.709  -18.192  -17.636  -17.036  -16.395  -15.711  -14.979  -14.187  -13.323  -12.380  -11.358  -10.267   -9.128   -7.968   -6.821   -5.719   -4.695   -3.776   -2.980   -2.319   -1.796   -1.412   -1.145   -0.969   -0.851   -0.767   -0.702   -0.654   -0.622   -0.610   -0.616   -0.641   -0.682   -0.741   -0.825   -0.937   -1.067   -1.196   -1.298   -1.357   -1.373   -1.354   -1.305   -1.233   -1.150   -1.079   -1.040   -1.056   -1.137   -1.277   -1.440   -1.575   -1.640   -1.632   -1.577   -1.515   -1.464   -1.439   -1.472
  -8.575   -8.614   -8.731   -8.914   -9.168   -9.489   -9.864  -10.278  -10.717  -11.179  -11.677  -12.233  -12.867  -13.585  -14.365  -15.164  -15.940  -16.662  -17.326  -17.955  -18.581  -19.243  -19.968  -20.769  -21.633  -22.524  -23.391  -24.173  -24.814  -25.270  -25.516  -25.552  -25.401  -25.101  -24.701  -24.251  -23.787  -23.332  -22.889  -22.446  -21.989  -21.500  -20.970  -20.396  -19.779  -19.123  -18.424  -17.674  -16.858  -15.958  -14.961  -13.862  -12.665  -11.390  -10.066   -8.728   -7.409   -6.146   -4.967   -3.902   -2.980   -2.228   -1.656   -1.254   -0.985   -0.809   -0.690   -0.606   -0.546   -0.509   -0.488   -0.483   -0.492   -0.510   -0.545   -0.601   -0.684   -0.793   -0.915   -1.029   -1.120   -1.180   -1.207   -1.201   -1.166   -1.115   -1.068   -1.042   -1.054   -1.111   -1.203   -1.306   -1.379   -1.396   -1.357   -1.288   -1.217   -1.166   -1.141   -1.177
 -10.528  -10.641  -10.766  -10.935  -11.160  -11.440  -11.763  -12.114  -12.482  -12.864  -13.270  -13.720  -14.229  -14.804  -15.434  -16.088  -16.735  -17.352  -17.935  -18.498  -19.063  -19.662  -20.314  -21.028  -21.795  -22.586  -23.363  -24.086  -24.729  -25.271  -25.701  -26.005  -26.176  -26.211  -26.122  -25.935  -25.680  -25.379  -25.041  -24.662  -24.234  -23.750  -23.208  -22.612  -21.967  -21.279  -20.546  -19.761  -18.909  -17.973  -16.937  -15.796  -14.553  -13.227  -11.845  -10.435   -9.028   -7.646   -6.312   -5.054   -3.914   -2.937   -2.160   -1.587   -1.187   -0.920   -0.747   -0.638   -0.572   -0.539   -0.526   -0.526   -0.529   -0.532   -0.543   -0.571   -0.628   -0.708   -0.809   -0.910   -1.000   -1.070   -1.112   -1.128   -1.117   -1.092   -1.064   -1.046   -1.048   -1.068   -1.101   -1.131   -1.137   -1.109   -1.055   -1.001   -0.968   -0.959   -0.968   -1.023
 -12.323  -12.518  -12.657  -12.814  -13.010  -13.243  -13.506  -13.785  -14.073  -14.368  -14.675  -15.011  -15.390  -15.818  -16.290  -16.792  -17.302  -17.805  -18.296  -18.779  -19.267  -19.773  -20.310  -20.883  -21.483  -22.096  -22.699  -23.280  -23.837  -24.382  -24.919  -25.440  -25.921  -26.325  -26.616  -26.778  -26.809  -26.719  -26.524  -26.231  -25.847  -25.376  -24.823  -24.198  -23.516  -22.783  -22.005  -21.176  -20.288  -19.324  -18.272  -17.128  -15.895  -14.592  -13.241  -11.866  -10.485   -9.105   -7.732   -6.383   -5.099   -3.940   -2.959   -2.186   -1.613   -1.214   -0.951   -0.796   -0.721   -0.699   -0.705   -0.715   -0.715   -0.698   -0.677   -0.672   -0.699   -0.763   -0.850   -0.944   -1.029   -1.098   -1.142   -1.161   -1.158   -1.144   -1.124   -1.105   -1.088   -1.071   -1.048   -1.013   -0.963   -0.902   -0.848   -0.828   -0.852   -0.906   -0.965   -1.046
 -13.563  -13.822  -13.986  -14.149  -14.335  -14.544  -14.769  -15.002  -15.232  -15.461  -15.696  -15.946  -16.225  -16.540  -16.892  -17.274  -17.675  -18.084  -18.495  -18.905  -19.314  -19.723  -20.134  -20.544  -20.949  -21.346  -21.737  -22.136  -22.568  -23.063  -23.633  -24.273  -24.955  -25.634  -26.252  -26.753  -27.093  -27.257  -27.243  -27.070  -26.752  -26.308  -25.753  -25.106  -24.384  -23.605  -22.783  -21.920  -21.009  -20.043  -19.009  -17.906  -16.738  -15.519  -14.269  -13.002  -11.724  -10.428   -9.106   -7.760   -6.422   -5.149   -4.006   -3.040   -2.274   -1.708   -1.325   -1.103   -1.003   -0.986   -1.008   -1.026   -1.011   -0.956   -0.885   -0.829   -0.821   -0.864   -0.944   -1.038   -1.129   -1.197   -1.239   -1.252   -1.246   -1.230   -1.209   -1.184   -1.151   -1.103   -1.041   -0.965   -0.882   -0.811   -0.778   -0.807   -0.895   -1.019   -1.135   -1.242
 -14.065  -14.357  -14.546  -14.730  -14.928  -15.139  -15.355  -15.569  -15.775  -15.973  -16.169  -16.372  -16.595  -16.847  -17.132  -17.447  -17.787  -18.142  -18.504  -18.865  -19.216  -19.550  -19.856  -20.127  -20.356  -20.545  -20.714  -20.904  -21.168  -21.558  -22.101  -22.788  -23.580  -24.419  -25.244  -25.987  -26.585  -26.987  -27.174  -27.147  -26.929  -26.539  -26.004  -25.348  -24.600  -23.789  -22.937  -22.057  -21.151  -20.213  -19.235  -18.212  -17.149  -16.055  -14.941  -13.813  -12.667  -11.488  -10.259   -8.977   -7.660   -6.357   -5.127   -4.026   -3.098   -2.372   -1.860   -1.549   -1.403   -1.372   -1.390   -1.400   -1.356   -1.251   -1.111   -0.989   -0.926   -0.934   -0.996   -1.087   -1.177   -1.245   -1.281   -1.284   -1.270   -1.246   -1.220   -1.189   -1.145   -1.084   -1.007   -0.921   -0.845   -0.801   -0.818   -0.914   -1.079   -1.273   -1.444   -1.573
 -13.852  -14.135  -14.344  -14.554  -14.776  -15.003  -15.229  -15.448  -15.654  -15.849  -16.037  -16.229  -16.437  -16.672  -16.941  -17.244  -17.574  -17.923  -18.278  -18.627  -18.956  -19.252  -19.501  -19.684  -19.792  -19.825  -19.809  -19.797  -19.866  -20.094  -20.534  -21.188  -22.011  -22.931  -23.870  -24.754  -25.517  -26.096  -26.451  -26.571  -26.464  -26.152  -25.660  -25.020  -24.269  -23.448  -22.589  -21.716  -20.838  -19.955  -19.058  -18.141  -17.204  -16.246  -15.271  -14.277  -13.255  -12.188  -11.060   -9.863   -8.612   -7.345   -6.112   -4.962   -3.946   -3.110   -2.488   -2.082   -1.865   -1.784   -1.768   -1.748   -1.667   -1.508   -1.305   -1.113   -0.988   -0.944   -0.968   -1.031   -1.104   -1.160   -1.186   -1.181   -1.157   -1.127   -1.097   -1.065   -1.022   -0.964   -0.900   -0.842   -0.809   -0.828   -0.924   -1.105   -1.347   -1.605   -1.820   -1.964
 -13.140  -13.388  -13.603  -13.832  -14.073  -14.319  -14.562  -14.794  -15.014  -15.220  -15.419  -15.621  -15.841  -16.095  -16.386  -16.717  -17.079  -17.460  -17.844  -18.214  -18.556  -18.853  -19.086  -19.236  -19.285  -19.231  -19.097  -18.937  -18.836  -18.887  -19.165  -19.699  -20.463  -21.388  -22.380  -23.348  -24.209  -24.898  -25.367  -25.594  -25.583  -25.346  -24.907  -24.301  -23.568  -22.758  -21.914  -21.069  -20.238  -19.424  -18.620  -17.816  -17.001  -16.168  -15.313  -14.429  -13.505  -12.530  -11.488  -10.376   -9.207   -8.014   -6.834   -5.708   -4.679   -3.796   -3.100   -2.610   -2.306   -2.147   -2.070   -2.000   -1.879   -1.680   -1.430   -1.189   -1.009   -0.910   -0.881   -0.897   -0.933   -0.965   -0.975   -0.962   -0.935   -0.903   -0.873   -0.844   -0.813   -0.778   -0.749   -0.742   -0.778   -0.880   -1.062   -1.320   -1.625   -1.925   -2.161   -2.309
 -12.286  -12.493  -12.703  -12.935  -13.184  -13.438  -13.690  -13.933  -14.163  -14.383  -14.596  -14.816  -15.059  -15.341  -15.671  -16.045  -16.453  -16.881  -17.307  -17.714  -18.083  -18.399  -18.642  -18.790  -18.824  -18.737  -18.548  -18.307  -18.097  -18.011  -18.133  -18.514  -19.156  -20.009  -20.987  -21.983  -22.898  -23.651  -24.188  -24.486  -24.539  -24.360  -23.970  -23.402  -22.701  -21.919  -21.106  -20.301  -19.529  -18.791  -18.078  -17.373  -16.662  -15.929  -15.166  -14.363  -13.512  -12.604  -11.630  -10.591   -9.500   -8.385   -7.276   -6.203   -5.203   -4.318   -3.588   -3.033   -2.648   -2.407   -2.260   -2.142   -1.988   -1.765   -1.493   -1.225   -1.011   -0.868   -0.789   -0.757   -0.752   -0.754   -0.750   -0.732   -0.705   -0.676   -0.651   -0.631   -0.618   -0.610   -0.622   -0.669   -0.773   -0.945   -1.193   -1.503   -1.840   -2.154   -2.394   -2.542
 -11.614  -11.803  -12.001  -12.226  -12.465  -12.712  -12.959  -13.201  -13.433  -13.656  -13.875  -14.105  -14.361  -14.662  -15.014  -15.414  -15.849  -16.303  -16.752  -17.179  -17.564  -17.893  -18.144  -18.298  -18.334  -18.243  -18.043  -17.779  -17.524  -17.367  -17.391  -17.654  -18.173  -18.920  -19.825  -20.788  -21.703  -22.480  -23.058  -23.398  -23.494  -23.353  -22.998  -22.462  -21.794  -21.049  -20.279  -19.526  -18.814  -18.144  -17.506  -16.880  -16.246  -15.588  -14.892  -14.151  -13.357  -12.505  -11.591  -10.614   -9.589   -8.540   -7.493   -6.473   -5.508   -4.636   -3.895   -3.306   -2.875   -2.582   -2.390   -2.239   -2.064   -1.832   -1.555   -1.280   -1.051   -0.885   -0.779   -0.717   -0.687   -0.670   -0.655   -0.636   -0.611   -0.584   -0.562   -0.550   -0.546   -0.558   -0.595   -0.674   -0.811   -1.020   -1.298   -1.628   -1.973   -2.285   -2.524   -2.687
