DSAA
 100 100
 0.0 400.0
 0.0 400.0
 -238.588 -0.4282351
 -25.847  -26.115  -26.508  -27.100  -27.896  -28.846  -29.857  -30.805  -31.529  -31.868  -31.654  -30.672  -28.750  -25.885  -22.354  -18.717  -15.674  -13.722  -12.967  -13.177  -14.045  -15.316  -16.883  -18.674  -20.541  -22.201  -23.303  -23.578  -22.967  -21.554  -19.473  -16.950  -14.305  -11.992  -10.429   -9.738   -9.745  -10.103  -10.486  -10.693  -10.668  -10.453  -10.144   -9.870   -9.703   -9.699   -9.850  -10.105  -10.397  -10.716  -11.063  -11.457  -11.857  -12.108  -11.977  -11.236   -9.767   -7.749   -5.556   -3.631   -2.245   -1.398   -0.943   -0.734   -0.657   -0.611   -0.598   -0.583   -0.573   -0.559   -0.552   -0.552   -0.553   -0.556   -0.559   -0.564   -0.554   -0.551   -0.558   -0.581   -0.597   -0.608   -0.623   -0.655   -0.700   -0.776   -0.893   -1.087   -1.388   -1.841   -2.502   -3.355   -4.398   -5.599   -6.995   -8.651  -10.556  -12.508  -14.124  -15.176
 -25.587  -25.816  -26.159  -26.669  -27.354  -28.182  -29.085  -29.931  -30.579  -30.883  -30.671  -29.755  -27.943  -25.223  -21.836  -18.331  -15.351  -13.391  -12.570  -12.690  -13.441  -14.606  -16.072  -17.774  -19.572  -21.203  -22.361  -22.802  -22.453  -21.351  -19.593  -17.316  -14.839  -12.590  -10.943  -10.043   -9.775   -9.880  -10.105  -10.246  -10.222  -10.049   -9.801   -9.577   -9.464   -9.494   -9.665   -9.921  -10.201  -10.499  -10.831  -11.213  -11.615  -11.909  -11.864  -11.253   -9.957   -8.100   -6.018   -4.118   -2.669   -1.725   -1.188   -0.915   -0.784   -0.725   -0.687   -0.658   -0.627   -0.602   -0.578   -0.559   -0.558   -0.554   -0.544   -0.548   -0.549   -0.555   -0.562   -0.574   -0.587   -0.616   -0.640   -0.702   -0.793   -0.950   -1.199   -1.578   -2.120   -2.884   -3.907   -5.177   -6.622   -8.185   -9.885  -11.754  -13.801  -15.826  -17.442  -18.401
 -24.861  -25.038  -25.272  -25.623  -26.091  -26.677  -27.340  -27.968  -28.440  -28.635  -28.418  -27.625  -26.082  -23.739  -20.781  -17.645  -14.892  -12.983  -12.060  -11.994  -12.516  -13.439  -14.666  -16.125  -17.696  -19.183  -20.360  -21.050  -21.160  -20.646  -19.500  -17.803  -15.774  -13.750  -12.048  -10.806  -10.019   -9.610   -9.466   -9.451   -9.451   -9.404   -9.333   -9.292   -9.347   -9.495   -9.699   -9.909  -10.094  -10.293  -10.530  -10.851  -11.219  -11.545  -11.629  -11.270  -10.335   -8.858   -7.071   -5.298   -3.803   -2.703   -1.997   -1.585   -1.370   -1.255   -1.173   -1.100   -1.011   -0.916   -0.852   -0.804   -0.777   -0.764   -0.758   -0.747   -0.740   -0.743   -0.753   -0.773   -0.807   -0.850   -0.920   -1.056   -1.289   -1.690   -2.280   -3.105   -4.194   -5.598   -7.329   -9.326  -11.441  -13.533  -15.582  -17.644  -19.724  -21.662  -23.156  -23.909
 -23.514  -23.611  -23.712  -23.850  -24.042  -24.328  -24.697  -25.067  -25.326  -25.382  -25.146  -24.498  -23.301  -21.484  -19.138  -16.566  -14.210  -12.460  -11.493  -11.236  -11.487  -12.097  -12.981  -14.084  -15.300  -16.510  -17.607  -18.474  -19.026  -19.154  -18.766  -17.850  -16.513  -14.945  -13.315  -11.752  -10.375   -9.334   -8.703   -8.465   -8.484   -8.665   -8.958   -9.347   -9.800  -10.221  -10.513  -10.617  -10.558  -10.457  -10.428  -10.539  -10.787  -11.083  -11.296  -11.232  -10.724   -9.761   -8.433   -6.953   -5.550   -4.386   -3.533   -2.985   -2.662   -2.487   -2.344   -2.192   -1.991   -1.780   -1.602   -1.495   -1.437   -1.412   -1.388   -1.352   -1.321   -1.308   -1.323   -1.378   -1.447   -1.549   -1.718   -2.013   -2.538   -3.384   -4.580   -6.132   -8.006  -10.206  -12.700  -15.355  -17.967  -20.357  -22.484  -24.442  -26.276  -27.914  -29.117  -29.576
 -21.436  -21.422  -21.369  -21.275  -21.187  -21.180  -21.264  -21.383  -21.442  -21.372  -21.123  -20.640  -19.830  -18.612  -16.993  -15.134  -13.332  -11.908  -11.014  -10.650  -10.679  -10.979  -11.477  -12.139  -12.896  -13.697  -14.539  -15.391  -16.203  -16.868  -17.260  -17.283  -16.869  -15.969  -14.561  -12.777  -10.875   -9.215   -8.079   -7.576   -7.616   -8.116   -8.965  -10.065  -11.216  -12.164  -12.674  -12.653  -12.201  -11.572  -11.035  -10.732  -10.682  -10.812  -11.033  -11.180  -11.091  -10.662   -9.894   -8.879   -7.765   -6.730   -5.878   -5.277   -4.920   -4.713   -4.543   -4.302   -3.962   -3.581   -3.271   -3.077   -2.990   -2.948   -2.898   -2.821   -2.750   -2.725   -2.759   -2.870   -3.027   -3.236   -3.552   -4.121   -5.082   -6.561   -8.533  -10.897  -13.546  -16.399  -19.367  -22.302  -24.958  -27.185  -28.988  -30.511  -31.859  -33.023  -33.846  -34.005
 -18.729  -18.599  -18.374  -18.054  -17.699  -17.425  -17.271  -17.195  -17.106  -16.946  -16.716  -16.406  -15.991  -15.393  -14.550  -13.493  -12.377  -11.421  -10.767  -10.430  -10.336  -10.392  -10.548  -10.765  -11.009  -11.307  -11.717  -12.318  -13.143  -14.173  -15.319  -16.403  -17.092  -17.014  -15.961  -14.056  -11.745   -9.569   -7.961   -7.133   -7.122   -7.907   -9.398  -11.366  -13.448  -15.158  -16.086  -16.072  -15.268  -14.074  -12.894  -11.973  -11.381  -11.121  -11.147  -11.342  -11.541  -11.577  -11.355  -10.866  -10.207   -9.487   -8.824   -8.325   -8.041   -7.889   -7.752   -7.489   -7.066   -6.576   -6.165   -5.921   -5.826   -5.793   -5.737   -5.636   -5.538   -5.503   -5.575   -5.761   -6.033   -6.404   -6.940   -7.832   -9.278  -11.370  -14.011  -16.979  -20.096  -23.236  -26.298  -29.091  -31.387  -33.060  -34.209  -35.059  -35.806  -36.471  -36.932  -36.859
 -15.819  -15.553  -15.153  -14.615  -14.032  -13.542  -13.218  -13.012  -12.847  -12.656  -12.457  -12.309  -12.262  -12.264  -12.196  -11.969  -11.601  -11.213  -10.920  -10.749  -10.651  -10.579  -10.485  -10.340  -10.124   -9.895   -9.777   -9.932  -10.527  -11.712  -13.507  -15.626  -17.434  -18.222  -17.618  -15.770  -13.253  -10.747   -8.740   -7.498   -7.209   -8.031   -9.967  -12.730  -15.744  -18.302  -19.838  -20.102  -19.262  -17.767  -16.087  -14.516  -13.218  -12.328  -11.937  -12.001  -12.323  -12.654  -12.825  -12.791  -12.578  -12.244  -11.882  -11.602  -11.486  -11.483  -11.476  -11.315  -10.949  -10.494  -10.109   -9.912   -9.876   -9.893   -9.873   -9.792   -9.706   -9.696   -9.819  -10.091  -10.498  -11.041  -11.805  -12.991  -14.780  -17.238  -20.185  -23.351  -26.537  -29.642  -32.540  -34.994  -36.724  -37.643  -37.957  -38.041  -38.175  -38.406  -38.581  -38.340
 -13.287  -12.890  -12.310  -11.559  -10.790  -10.164   -9.751   -9.505   -9.333   -9.148   -8.992   -8.985   -9.252   -9.781  -10.425  -10.983  -11.352  -11.555  -11.670  -11.729  -11.730  -11.635  -11.422  -11.044  -10.503   -9.846   -9.212   -8.826   -9.005  -10.081  -12.208  -15.038  -17.702  -19.260  -19.198  -17.705  -15.398  -12.928  -10.697   -8.960   -8.068   -8.475  -10.406  -13.575  -17.261  -20.566  -22.786  -23.589  -23.113  -21.768  -19.968  -17.982  -16.039  -14.455  -13.540  -13.353  -13.652  -14.088  -14.443  -14.642  -14.707  -14.666  -14.579  -14.525  -14.597  -14.790  -14.981  -15.034  -14.884  -14.610  -14.399  -14.348  -14.430  -14.538  -14.581  -14.561  -14.530  -14.572  -14.757  -15.114  -15.640  -16.330  -17.271  -18.620  -20.539  -23.030  -25.898  -28.886  -31.854  -34.745  -37.420  -39.522  -40.691  -40.836  -40.293  -39.608  -39.178  -39.045  -39.007  -38.652
 -11.668  -11.149  -10.369   -9.400   -8.485   -7.780   -7.368   -7.169   -7.048   -6.922   -6.823   -6.939   -7.472   -8.442   -9.674  -10.893  -11.897  -12.617  -13.106  -13.392  -13.504  -13.449  -13.201  -12.734  -12.021  -11.094  -10.060   -9.147   -8.770   -9.418  -11.374  -14.324  -17.341  -19.404  -19.983  -19.242  -17.705  -15.819  -13.715  -11.541   -9.797   -9.285  -10.614  -13.656  -17.607  -21.419  -24.235  -25.672  -25.800  -24.942  -23.390  -21.335  -19.051  -17.006  -15.714  -15.322  -15.537  -15.935  -16.244  -16.422  -16.522  -16.577  -16.621  -16.726  -16.964  -17.348  -17.768  -18.081  -18.210  -18.208  -18.229  -18.353  -18.550  -18.718  -18.789  -18.798  -18.821  -18.930  -19.186  -19.620  -20.237  -21.033  -22.060  -23.435  -25.272  -27.559  -30.100  -32.704  -35.310  -37.930  -40.379  -42.180  -42.867  -42.345  -41.056  -39.707  -38.789  -38.343  -38.125  -37.683
 -11.180  -10.529   -9.536   -8.345   -7.276   -6.546   -6.180   -6.079   -6.073   -6.049   -6.062   -6.351   -7.122   -8.441  -10.109  -11.808  -13.258  -14.348  -15.081  -15.519  -15.702  -15.671  -15.423  -14.940  -14.166  -13.095  -11.784  -10.431   -9.453   -9.394  -10.669  -13.090  -15.884  -18.150  -19.402  -19.739  -19.464  -18.658  -17.104  -14.736  -12.144  -10.475  -10.757  -13.180  -16.978  -20.970  -24.163  -26.086  -26.755  -26.432  -25.307  -23.500  -21.294  -19.239  -17.922  -17.511  -17.673  -17.938  -18.056  -18.028  -17.960  -17.920  -17.965  -18.143  -18.513  -19.072  -19.719  -20.292  -20.683  -20.919  -21.114  -21.348  -21.572  -21.685  -21.671  -21.601  -21.610  -21.775  -22.118  -22.649  -23.337  -24.171  -25.160  -26.404  -28.004  -29.949  -32.071  -34.217  -36.406  -38.707  -40.904  -42.435  -42.741  -41.726  -39.899  -38.067  -36.766  -36.032  -35.613  -35.107
 -11.702  -10.947   -9.738   -8.330   -7.120   -6.361   -6.055   -6.052   -6.158   -6.256   -6.458   -6.971   -8.017   -9.599  -11.523  -13.464  -15.146  -16.408  -17.237  -17.687  -17.855  -17.795  -17.528  -17.028  -16.239  -15.093  -13.591  -11.880  -10.335   -9.491   -9.797  -11.271  -13.427  -15.613  -17.453  -18.940  -20.087  -20.565  -19.817  -17.604  -14.487  -11.808  -10.978  -12.531  -15.849  -19.694  -22.937  -25.031  -25.974  -26.009  -25.314  -23.987  -22.270  -20.673  -19.701  -19.458  -19.601  -19.711  -19.596  -19.328  -19.035  -18.829  -18.792  -18.980  -19.444  -20.154  -20.995  -21.787  -22.382  -22.750  -22.989  -23.178  -23.272  -23.177  -22.913  -22.630  -22.533  -22.722  -23.176  -23.805  -24.526  -25.287  -26.087  -27.042  -28.270  -29.790  -31.459  -33.142  -34.903  -36.837  -38.733  -39.987  -40.017  -38.723  -36.636  -34.557  -32.998  -31.988  -31.334  -30.803
 -12.936  -12.116  -10.758   -9.195   -7.879   -7.068   -6.772   -6.797   -6.939   -7.165   -7.587   -8.404   -9.726  -11.496  -13.501  -15.462  -17.132  -18.357  -19.107  -19.442  -19.485  -19.316  -18.972  -18.430  -17.610  -16.401  -14.771  -12.806  -10.815   -9.284   -8.684   -9.176  -10.575  -12.493  -14.701  -17.080  -19.384  -20.963  -21.053  -19.261  -16.097  -12.911  -11.275  -11.979  -14.626  -18.024  -21.000  -22.958  -23.897  -24.101  -23.793  -23.091  -22.155  -21.342  -20.939  -20.948  -21.078  -21.037  -20.761  -20.335  -19.901  -19.575  -19.450  -19.618  -20.107  -20.896  -21.849  -22.755  -23.423  -23.782  -23.907  -23.878  -23.684  -23.244  -22.612  -22.022  -21.753  -21.933  -22.456  -23.133  -23.797  -24.350  -24.823  -25.345  -26.105  -27.155  -28.382  -29.647  -31.007  -32.552  -34.096  -35.079  -34.947  -33.629  -31.595  -29.534  -27.866  -26.625  -25.735  -25.193
 -14.496  -13.695  -12.317  -10.717   -9.350   -8.471   -8.082   -8.014   -8.126   -8.434   -9.093  -10.232  -11.824  -13.705  -15.639  -17.431  -18.882  -19.879  -20.385  -20.477  -20.285  -19.927  -19.447  -18.815  -17.934  -16.689  -14.991  -12.893  -10.659   -8.721   -7.521   -7.334   -8.129   -9.732  -11.980  -14.728  -17.593  -19.811  -20.536  -19.329  -16.570  -13.468  -11.512  -11.587  -13.520  -16.295  -18.818  -20.492  -21.317  -21.603  -21.649  -21.591  -21.517  -21.550  -21.729  -21.959  -22.055  -21.925  -21.612  -21.224  -20.830  -20.491  -20.321  -20.429  -20.850  -21.555  -22.410  -23.214  -23.778  -23.979  -23.854  -23.492  -22.919  -22.099  -21.105  -20.215  -19.756  -19.842  -20.318  -20.919  -21.397  -21.651  -21.714  -21.777  -22.068  -22.705  -23.575  -24.528  -25.566  -26.754  -27.926  -28.643  -28.465  -27.344  -25.638  -23.840  -22.224  -20.847  -19.786  -19.239
 -16.007  -15.286  -14.028  -12.528  -11.177  -10.216   -9.650   -9.402   -9.413   -9.781  -10.657  -12.099  -13.914  -15.845  -17.640  -19.141  -20.245  -20.879  -21.023  -20.772  -20.268  -19.652  -18.981  -18.213  -17.263  -16.002  -14.323  -12.259  -10.026   -8.030   -6.692   -6.266   -6.773   -8.072  -10.035  -12.530  -15.249  -17.534  -18.606  -18.015  -15.983  -13.430  -11.603  -11.348  -12.674  -14.832  -16.912  -18.340  -19.100  -19.470  -19.778  -20.205  -20.788  -21.457  -22.045  -22.386  -22.423  -22.266  -22.082  -21.932  -21.762  -21.548  -21.390  -21.409  -21.650  -22.070  -22.581  -23.040  -23.288  -23.190  -22.743  -22.032  -21.128  -20.043  -18.848  -17.795  -17.179  -17.100  -17.397  -17.761  -17.953  -17.871  -17.575  -17.280  -17.252  -17.624  -18.298  -19.102  -19.955  -20.843  -21.652  -22.088  -21.899  -21.057  -19.792  -18.361  -16.914  -15.541  -14.434  -13.909
 -17.073  -16.497  -15.441  -14.146  -12.871  -11.818  -11.071  -10.626  -10.546  -10.980  -12.066  -13.733  -15.699  -17.621  -19.253  -20.469  -21.223  -21.476  -21.235  -20.607  -19.759  -18.857  -17.963  -17.063  -16.055  -14.819  -13.266  -11.415   -9.449   -7.734   -6.645   -6.381   -6.875   -7.892   -9.298  -11.047  -13.027  -14.855  -15.955  -15.885  -14.674  -12.892  -11.468  -11.154  -12.112  -13.863  -15.671  -17.018  -17.799  -18.208  -18.588  -19.174  -20.011  -20.929  -21.653  -21.966  -21.913  -21.767  -21.794  -21.980  -22.132  -22.121  -22.006  -21.930  -21.945  -21.994  -22.026  -21.996  -21.812  -21.361  -20.604  -19.633  -18.572  -17.461  -16.352  -15.384  -14.756  -14.543  -14.595  -14.669  -14.549  -14.184  -13.661  -13.195  -13.029  -13.285  -13.889  -14.648  -15.387  -16.018  -16.463  -16.582  -16.286  -15.615  -14.676  -13.560  -12.339  -11.108  -10.093   -9.654
 -17.386  -16.952  -16.136  -15.066  -13.922  -12.854  -11.984  -11.442  -11.360  -11.902  -13.139  -14.926  -16.934  -18.798  -20.289  -21.312  -21.825  -21.806  -21.283  -20.370  -19.253  -18.109  -17.031  -16.011  -14.993  -13.860  -12.546  -11.059   -9.555   -8.338   -7.733   -7.853   -8.463   -9.215   -9.915  -10.639  -11.530  -12.535  -13.339  -13.542  -12.975  -11.910  -10.973  -10.820  -11.700  -13.326  -15.094  -16.496  -17.323  -17.694  -17.925  -18.334  -19.030  -19.839  -20.430  -20.582  -20.385  -20.212  -20.372  -20.810  -21.214  -21.356  -21.276  -21.133  -20.979  -20.749  -20.407  -19.978  -19.447  -18.726  -17.774  -16.723  -15.728  -14.884  -14.170  -13.602  -13.235  -13.067  -12.968  -12.780  -12.390  -11.811  -11.170  -10.644  -10.413  -10.566  -11.047  -11.671  -12.222  -12.568  -12.630  -12.388  -11.872  -11.186  -10.383   -9.495   -8.526   -7.546   -6.757   -6.455
 -16.765  -16.426  -15.810  -14.962  -13.984  -13.005  -12.183  -11.691  -11.728  -12.417  -13.751  -15.547  -17.469  -19.234  -20.640  -21.593  -22.041  -21.962  -21.362  -20.366  -19.143  -17.889  -16.723  -15.678  -14.705  -13.755  -12.750  -11.696  -10.708  -10.044   -9.951  -10.435  -11.154  -11.631  -11.638  -11.332  -11.075  -11.107  -11.326  -11.430  -11.149  -10.552  -10.053  -10.184  -11.215  -12.942  -14.825  -16.330  -17.175  -17.411  -17.365  -17.421  -17.766  -18.261  -18.583  -18.498  -18.122  -17.817  -17.904  -18.327  -18.744  -18.885  -18.784  -18.622  -18.446  -18.194  -17.798  -17.282  -16.665  -15.889  -14.944  -14.001  -13.275  -12.897  -12.817  -12.901  -13.049  -13.133  -13.020  -12.607  -11.931  -11.133  -10.371   -9.782   -9.448   -9.384   -9.551   -9.827  -10.024  -10.004   -9.693   -9.123   -8.390   -7.624   -6.901   -6.196   -5.497   -4.842   -4.343   -4.198
 -15.263  -14.967  -14.469  -13.799  -13.012  -12.232  -11.615  -11.345  -11.595  -12.443  -13.807  -15.503  -17.269  -18.908  -20.277  -21.297  -21.876  -21.952  -21.524  -20.689  -19.586  -18.409  -17.291  -16.303  -15.455  -14.713  -14.012  -13.329  -12.762  -12.511  -12.763  -13.449  -14.155  -14.367  -13.832  -12.752  -11.587  -10.711  -10.213   -9.907   -9.565   -9.175   -9.019   -9.496  -10.786  -12.698  -14.700  -16.236  -16.984  -16.992  -16.607  -16.268  -16.219  -16.374  -16.431  -16.161  -15.627  -15.127  -14.953  -15.078  -15.231  -15.200  -15.024  -14.906  -14.900  -14.928  -14.865  -14.660  -14.283  -13.696  -12.946  -12.252  -11.873  -11.985  -12.534  -13.290  -13.976  -14.317  -14.133  -13.421  -12.379  -11.290  -10.390   -9.740   -9.280   -8.930   -8.674   -8.462   -8.226   -7.837   -7.243   -6.479   -5.658   -4.915   -4.310   -3.811   -3.398   -3.053   -2.809   -2.798
 -13.238  -12.915  -12.458  -11.880  -11.289  -10.781  -10.476  -10.524  -11.030  -12.001  -13.318  -14.829  -16.381  -17.875  -19.245  -20.417  -21.265  -21.691  -21.652  -21.187  -20.417  -19.495  -18.563  -17.719  -17.022  -16.451  -15.948  -15.483  -15.119  -15.034  -15.362  -16.003  -16.559  -16.543  -15.713  -14.254  -12.602  -11.156  -10.077   -9.315   -8.782   -8.498   -8.668   -9.507  -11.079  -13.121  -15.101  -16.462  -16.912  -16.516  -15.670  -14.872  -14.422  -14.263  -14.118  -13.756  -13.160  -12.521  -12.053  -11.794  -11.583  -11.326  -11.106  -11.129  -11.465  -12.020  -12.568  -12.939  -13.010  -12.763  -12.309  -11.880  -11.768  -12.174  -13.063  -14.169  -15.087  -15.442  -15.013  -13.895  -12.442  -11.089  -10.085   -9.420   -8.898   -8.357   -7.760   -7.163   -6.573   -5.944   -5.226   -4.455   -3.718   -3.128   -2.713   -2.429   -2.230   -2.116   -2.059   -2.147
 -11.334  -10.938  -10.411   -9.846   -9.388   -9.144   -9.182   -9.543  -10.258  -11.257  -12.424  -13.665  -14.938  -16.250  -17.605  -18.952  -20.137  -21.024  -21.507  -21.577  -21.292  -20.761  -20.121  -19.484  -18.924  -18.434  -17.973  -17.507  -17.106  -16.925  -17.061  -17.434  -17.718  -17.511  -16.621  -15.177  -13.524  -11.981  -10.711   -9.785   -9.237   -9.194   -9.774  -11.038  -12.877  -14.936  -16.677  -17.591  -17.452  -16.399  -14.900  -13.503  -12.546  -12.014  -11.663  -11.245  -10.680  -10.018   -9.412   -8.907   -8.476   -8.119   -7.966   -8.244   -9.038  -10.202  -11.426  -12.395  -12.940  -13.051  -12.870  -12.634  -12.611  -12.994  -13.792  -14.763  -15.473  -15.509  -14.671  -13.149  -11.402   -9.923   -8.939   -8.339   -7.840   -7.245   -6.513   -5.747   -5.024   -4.346   -3.698   -3.086   -2.575   -2.214   -2.000   -1.890   -1.851   -1.867   -1.913   -2.047
 -10.287   -9.779   -9.107   -8.444   -8.028   -7.974   -8.264   -8.845   -9.628  -10.511  -11.401  -12.260  -13.159  -14.201  -15.459  -16.914  -18.417  -19.778  -20.846  -21.541  -21.843  -21.812  -21.541  -21.144  -20.693  -20.197  -19.622  -18.979  -18.341  -17.843  -17.591  -17.539  -17.471  -17.107  -16.306  -15.151  -13.870  -12.667  -11.668  -11.000  -10.807  -11.243  -12.366  -14.106  -16.198  -18.190  -19.539  -19.816  -18.900  -17.020  -14.719  -12.580  -10.986   -9.969   -9.315   -8.790   -8.246   -7.648   -7.057   -6.520   -6.092   -5.824   -5.894   -6.507   -7.748   -9.428  -11.176  -12.601  -13.508  -13.895  -13.932  -13.822  -13.762  -13.899  -14.264  -14.706  -14.861  -14.369  -13.102  -11.316   -9.486   -8.062   -7.184   -6.680   -6.245   -5.697   -5.004   -4.292   -3.645   -3.099   -2.639   -2.274   -2.036   -1.926   -1.891   -1.902   -1.953   -2.032   -2.121   -2.270
 -10.577   -9.960   -9.091   -8.262   -7.795   -7.795   -8.193   -8.807   -9.483  -10.084  -10.546  -10.902  -11.307  -11.963  -12.999  -14.425  -16.114  -17.877  -19.519  -20.863  -21.808  -22.350  -22.525  -22.408  -22.060  -21.496  -20.733  -19.804  -18.814  -17.895  -17.163  -16.619  -16.174  -15.659  -14.994  -14.230  -13.486  -12.872  -12.469  -12.386  -12.789  -13.825  -15.500  -17.655  -19.922  -21.804  -22.767  -22.459  -20.843  -18.248  -15.248  -12.437  -10.207   -8.650   -7.618   -6.887   -6.283   -5.723   -5.195   -4.753   -4.448   -4.394   -4.739   -5.683   -7.249   -9.229  -11.232  -12.866  -13.948  -14.519  -14.744  -14.768  -14.677  -14.548  -14.410  -14.191  -13.678  -12.644  -11.067   -9.201   -7.474   -6.198   -5.421   -4.955   -4.551   -4.082   -3.531   -2.995   -2.553   -2.215   -1.988   -1.885   -1.891   -1.973   -2.071   -2.151   -2.233   -2.338   -2.445   -2.590
 -12.092  -11.408  -10.390   -9.403   -8.830   -8.797   -9.156   -9.645  -10.049  -10.213  -10.135   -9.888   -9.728   -9.887  -10.565  -11.806  -13.510  -15.513  -17.595  -19.529  -21.120  -22.255  -22.914  -23.113  -22.894  -22.283  -21.325  -20.107  -18.753  -17.412  -16.215  -15.229  -14.432  -13.772  -13.215  -12.797  -12.586  -12.610  -12.879  -13.450  -14.430  -15.921  -17.911  -20.221  -22.475  -24.190  -24.855  -24.185  -22.223  -19.332  -16.071  -12.967  -10.384   -8.429   -7.035   -6.048   -5.295   -4.685   -4.187   -3.831   -3.679   -3.835   -4.435   -5.584   -7.265   -9.259  -11.207  -12.771  -13.833  -14.470  -14.855  -15.054  -15.042  -14.773  -14.258  -13.490  -12.426  -11.003   -9.284   -7.493   -5.930   -4.776   -4.034   -3.554   -3.174   -2.792   -2.423   -2.100   -1.873   -1.752   -1.725   -1.809   -1.971   -2.148   -2.294   -2.373   -2.444   -2.540   -2.633   -2.771
 -14.152  -13.493  -12.450  -11.413  -10.798  -10.721  -10.987  -11.270  -11.318  -10.991  -10.324   -9.489   -8.756   -8.424   -8.683   -9.606  -11.133  -13.154  -15.466  -17.809  -19.906  -21.552  -22.646  -23.159  -23.105  -22.515  -21.450  -20.025  -18.387  -16.716  -15.168  -13.852  -12.813  -12.037  -11.544  -11.375  -11.581  -12.139  -12.968  -14.031  -15.327  -16.929  -18.829  -20.913  -22.872  -24.270  -24.692  -23.918  -22.040  -19.411  -16.492  -13.676  -11.192   -9.155   -7.566   -6.353   -5.430   -4.735   -4.226   -3.935   -3.907   -4.220   -4.944   -6.118   -7.670   -9.393  -10.987  -12.221  -13.050  -13.619  -14.086  -14.468  -14.596  -14.313  -13.600  -12.511  -11.128   -9.530   -7.836   -6.226   -4.844   -3.799   -3.087   -2.608   -2.271   -2.015   -1.817   -1.687   -1.646   -1.684   -1.807   -1.987   -2.200   -2.376   -2.468   -2.486   -2.488   -2.531   -2.597   -2.718
 -16.061  -15.505  -14.604  -13.697  -13.165  -13.093  -13.278  -13.367  -13.084  -12.325  -11.188   -9.881   -8.710   -7.975   -7.864   -8.428   -9.665  -11.486  -13.750  -16.190  -18.497  -20.408  -21.762  -22.511  -22.621  -22.120  -21.059  -19.559  -17.785  -15.923  -14.176  -12.686  -11.522  -10.706  -10.265  -10.261  -10.744  -11.650  -12.833  -14.129  -15.455  -16.829  -18.292  -19.800  -21.164  -22.075  -22.252  -21.554  -20.102  -18.184  -16.098  -14.044  -12.102  -10.320   -8.750   -7.441   -6.410   -5.648   -5.145   -4.907   -4.956   -5.310   -6.001   -6.995   -8.196   -9.409  -10.441  -11.153  -11.600  -11.969  -12.417  -12.885  -13.119  -12.878  -12.107  -10.917   -9.474   -7.946   -6.466   -5.133   -4.010   -3.124   -2.490   -2.073   -1.828   -1.704   -1.651   -1.674   -1.762   -1.916   -2.115   -2.333   -2.520   -2.619   -2.596   -2.493   -2.390   -2.353   -2.374   -2.490
 -17.426  -17.041  -16.414  -15.805  -15.465  -15.466  -15.615  -15.579  -15.092  -14.076  -12.663  -11.107   -9.712   -8.756   -8.404   -8.686   -9.592  -11.066  -13.000  -15.166  -17.286  -19.097  -20.433  -21.225  -21.439  -21.051  -20.088  -18.643  -16.869  -14.969  -13.166  -11.627  -10.451   -9.662   -9.298   -9.414  -10.049  -11.123  -12.430  -13.740  -14.915  -15.920  -16.812  -17.626  -18.284  -18.650  -18.585  -18.070  -17.210  -16.185  -15.112  -13.992  -12.768  -11.437  -10.069   -8.790   -7.727   -6.949   -6.460   -6.249   -6.277   -6.542   -7.022   -7.650   -8.329   -8.929   -9.329   -9.496   -9.530   -9.652   -9.983  -10.426  -10.671  -10.463   -9.754   -8.670   -7.426   -6.194   -5.087   -4.138   -3.338   -2.697   -2.221   -1.921   -1.787   -1.762   -1.810   -1.919   -2.084   -2.294   -2.524   -2.734   -2.862   -2.857   -2.711   -2.471   -2.252   -2.136   -2.118   -2.219
 -18.257  -18.066  -17.797  -17.553  -17.483  -17.608  -17.762  -17.680  -17.126  -16.062  -14.602  -13.025  -11.609  -10.615  -10.164  -10.274  -10.889  -11.958  -13.365  -14.950  -16.513  -17.863  -18.884  -19.517  -19.713  -19.412  -18.593  -17.289  -15.628  -13.815  -12.069  -10.572   -9.444   -8.717   -8.423   -8.609   -9.281  -10.353  -11.604  -12.808  -13.784  -14.492  -14.955  -15.239  -15.363  -15.336  -15.172  -14.925  -14.658  -14.425  -14.181  -13.832  -13.232  -12.330  -11.200  -10.010   -8.942   -8.126   -7.587   -7.278   -7.164   -7.203   -7.348   -7.521   -7.664   -7.704   -7.591   -7.359   -7.118   -7.049   -7.251   -7.586   -7.791   -7.629   -7.085   -6.286   -5.429   -4.655   -4.011   -3.481   -3.016   -2.621   -2.321   -2.154   -2.103   -2.142   -2.237   -2.371   -2.538   -2.742   -2.939   -3.075   -3.114   -3.012   -2.775   -2.461   -2.180   -2.022   -1.966   -2.064
 -18.706  -18.722  -18.802  -18.946  -19.152  -19.408  -19.602  -19.532  -19.032  -18.064  -16.731  -15.272  -13.960  -13.019  -12.553  -12.547  -12.943  -13.612  -14.429  -15.297  -16.105  -16.786  -17.313  -17.654  -17.733  -17.473  -16.791  -15.676  -14.217  -12.592  -10.990   -9.592   -8.519   -7.811   -7.516   -7.665   -8.251   -9.179  -10.260  -11.296  -12.126  -12.688  -12.977  -13.057  -13.001  -12.919  -12.907  -13.022  -13.261  -13.572  -13.835  -13.905  -13.660  -13.018  -12.030  -10.872   -9.751   -8.811   -8.101   -7.578   -7.197   -6.930   -6.714   -6.503   -6.251   -5.943   -5.584   -5.218   -4.928   -4.827   -4.959   -5.202   -5.366   -5.304   -5.001   -4.578   -4.161   -3.836   -3.607   -3.407   -3.209   -3.014   -2.874   -2.822   -2.852   -2.934   -3.037   -3.146   -3.242   -3.313   -3.353   -3.340   -3.255   -3.077   -2.815   -2.515   -2.257   -2.115   -2.064   -2.150
 -18.924  -19.106  -19.487  -19.958  -20.410  -20.782  -20.999  -20.951  -20.539  -19.727  -18.597  -17.335  -16.171  -15.284  -14.787  -14.675  -14.848  -15.153  -15.442  -15.632  -15.719  -15.755  -15.786  -15.824  -15.788  -15.564  -15.031  -14.144  -12.965  -11.620  -10.254   -8.984   -7.926   -7.151   -6.726   -6.685   -7.030   -7.692   -8.509   -9.328  -10.038  -10.556  -10.866  -11.015  -11.100  -11.271  -11.632  -12.186  -12.850  -13.488  -13.972  -14.188  -14.038  -13.454  -12.477  -11.266  -10.028   -8.915   -7.960   -7.161   -6.493   -5.950   -5.474   -5.045   -4.637   -4.270   -3.943   -3.681   -3.528   -3.543   -3.704   -3.944   -4.130   -4.200   -4.149   -4.041   -3.952   -3.935   -3.953   -3.951   -3.910   -3.878   -3.911   -4.002   -4.142   -4.284   -4.392   -4.434   -4.370   -4.197   -3.964   -3.685   -3.408   -3.151   -2.914   -2.701   -2.539   -2.465   -2.450   -2.553
 -18.961  -19.251  -19.834  -20.528  -21.130  -21.545  -21.732  -21.656  -21.290  -20.621  -19.693  -18.640  -17.620  -16.787  -16.232  -15.970  -15.906  -15.880  -15.736  -15.420  -14.994  -14.573  -14.272  -14.122  -14.051  -13.921  -13.596  -13.020  -12.220  -11.266  -10.218   -9.136   -8.089   -7.156   -6.446   -6.049   -6.006   -6.269   -6.720   -7.258   -7.798   -8.268   -8.641   -8.959   -9.327   -9.879  -10.679  -11.649  -12.641  -13.481  -14.049  -14.276  -14.092  -13.463  -12.423  -11.134   -9.793   -8.539   -7.416   -6.426   -5.579   -4.876   -4.310   -3.864   -3.523   -3.298   -3.173   -3.134   -3.199   -3.363   -3.626   -3.918   -4.187   -4.404   -4.546   -4.623   -4.684   -4.770   -4.855   -4.913   -4.973   -5.103   -5.348   -5.666   -5.992   -6.245   -6.376   -6.328   -6.049   -5.563   -4.947   -4.334   -3.811   -3.429   -3.192   -3.052   -2.999   -3.015   -3.070   -3.201
 -18.819  -19.167  -19.854  -20.634  -21.260  -21.607  -21.650  -21.436  -21.013  -20.398  -19.631  -18.772  -17.919  -17.158  -16.561  -16.143  -15.831  -15.513  -15.065  -14.450  -13.768  -13.150  -12.721  -12.541  -12.541  -12.606  -12.598  -12.449  -12.153  -11.719  -11.106  -10.305   -9.302   -8.178   -7.095   -6.218   -5.657   -5.407   -5.402   -5.562   -5.841   -6.189   -6.570   -7.014   -7.616   -8.468   -9.575  -10.813  -11.991  -12.932  -13.539  -13.753  -13.521  -12.841  -11.765  -10.458   -9.112   -7.872   -6.771   -5.794   -4.957   -4.283   -3.783   -3.468   -3.324   -3.330   -3.438   -3.609   -3.838   -4.130   -4.463   -4.815   -5.174   -5.502   -5.735   -5.854   -5.896   -5.926   -5.964   -6.021   -6.167   -6.498   -7.023   -7.652   -8.231   -8.643   -8.819   -8.686   -8.202   -7.412   -6.427   -5.452   -4.621   -4.019   -3.682   -3.534   -3.523   -3.588   -3.693   -3.853
 -18.562  -18.921  -19.620  -20.374  -20.900  -21.040  -20.801  -20.308  -19.690  -19.020  -18.334  -17.646  -16.979  -16.343  -15.764  -15.236  -14.733  -14.197  -13.578  -12.864  -12.136  -11.521  -11.137  -11.036  -11.192  -11.516  -11.917  -12.306  -12.635  -12.829  -12.772  -12.342  -11.468  -10.217   -8.796   -7.440   -6.340   -5.540   -5.023   -4.745   -4.691   -4.842   -5.150   -5.620   -6.305   -7.238   -8.388   -9.620  -10.768  -11.684  -12.265  -12.467  -12.235  -11.566  -10.537   -9.322   -8.122   -7.073   -6.205   -5.467   -4.844   -4.373   -4.088   -4.001   -4.114   -4.340   -4.633   -4.927   -5.236   -5.553   -5.889   -6.249   -6.636   -6.983   -7.194   -7.238   -7.143   -7.039   -6.989   -7.049   -7.313   -7.887   -8.738   -9.715  -10.572  -11.161  -11.389  -11.204  -10.585   -9.564   -8.293   -6.977   -5.808   -4.920   -4.350   -4.048   -3.968   -4.016   -4.132   -4.301
 -18.325  -18.666  -19.328  -19.984  -20.316  -20.143  -19.507  -18.602  -17.651  -16.808  -16.112  -15.548  -15.068  -14.599  -14.104  -13.557  -12.962  -12.332  -11.669  -10.994  -10.355   -9.850   -9.567   -9.572   -9.882  -10.475  -11.298  -12.265  -13.266  -14.144  -14.683  -14.695  -14.063  -12.841  -11.242   -9.557   -8.038   -6.783   -5.804   -5.116   -4.742   -4.678   -4.872   -5.274   -5.869   -6.641   -7.535   -8.453   -9.290   -9.975  -10.423  -10.584  -10.377   -9.796   -8.921   -7.921   -6.998   -6.283   -5.791   -5.453   -5.227   -5.100   -5.132   -5.347   -5.702   -6.118   -6.515   -6.848   -7.127   -7.381   -7.647   -7.942   -8.249   -8.511   -8.595   -8.466   -8.207   -7.967   -7.860   -7.970   -8.388   -9.208  -10.363  -11.635  -12.730  -13.462  -13.739  -13.525  -12.824  -11.668  -10.199   -8.604   -7.117   -5.913   -5.069   -4.556   -4.316   -4.290   -4.378   -4.554
 -18.228  -18.548  -19.158  -19.693  -19.799  -19.282  -18.203  -16.812  -15.441  -14.314  -13.518  -13.015  -12.686  -12.389  -12.024  -11.552  -10.982  -10.374   -9.780   -9.217   -8.714   -8.332   -8.128   -8.209   -8.621   -9.408  -10.576  -12.050  -13.663  -15.156  -16.255  -16.722  -16.428  -15.405  -13.863  -12.104  -10.395   -8.872   -7.600   -6.638   -6.043   -5.818   -5.894   -6.161   -6.541   -6.956   -7.349   -7.694   -7.971   -8.205   -8.375   -8.408   -8.222   -7.791   -7.162   -6.489   -5.941   -5.650   -5.624   -5.773   -6.006   -6.302   -6.703   -7.225   -7.800   -8.334   -8.745   -9.027   -9.229   -9.387   -9.535   -9.710   -9.887  -10.001   -9.919   -9.624   -9.226   -8.903   -8.802   -9.000   -9.573  -10.566  -11.886  -13.286  -14.474  -15.227  -15.475  -15.218  -14.464  -13.232  -11.638   -9.860   -8.161   -6.741   -5.683   -4.988   -4.616   -4.503   -4.573   -4.752
 -18.267  -18.584  -19.158  -19.597  -19.513  -18.699  -17.215  -15.354  -13.531  -12.073  -11.115  -10.606  -10.373  -10.216   -9.989   -9.639   -9.190   -8.704   -8.241   -7.814   -7.438   -7.142   -7.001   -7.101   -7.536   -8.416   -9.787  -11.597  -13.649  -15.615  -17.171  -18.052  -18.128  -17.437  -16.158  -14.553  -12.887  -11.337   -9.992   -8.943   -8.263   -7.947   -7.913   -8.006   -8.081   -8.027   -7.808   -7.443   -7.036   -6.693   -6.475   -6.311   -6.128   -5.853   -5.517   -5.231   -5.120   -5.290   -5.746   -6.387   -7.094   -7.815   -8.560   -9.327  -10.039  -10.600  -10.967  -11.175  -11.277  -11.342  -11.405  -11.481  -11.551  -11.530  -11.338  -10.956  -10.517  -10.209  -10.164  -10.434  -11.057  -12.037  -13.268  -14.536  -15.559  -16.142  -16.236  -15.861  -15.036  -13.768  -12.135  -10.315   -8.581   -7.131   -6.039   -5.298   -4.878   -4.759   -4.828   -5.025
 -18.238  -18.557  -19.127  -19.533  -19.343  -18.333  -16.549  -14.321  -12.108  -10.330   -9.184   -8.632   -8.452   -8.405   -8.307   -8.107   -7.822   -7.505   -7.193   -6.900   -6.621   -6.385   -6.277   -6.373   -6.775   -7.620   -9.027  -10.985  -13.278  -15.546  -17.418  -18.632  -19.067  -18.751  -17.824  -16.515  -15.064  -13.667  -12.441  -11.472  -10.820  -10.458  -10.293  -10.168   -9.897   -9.360   -8.535   -7.503   -6.457   -5.582   -4.986   -4.639   -4.441   -4.306   -4.241   -4.317   -4.639   -5.262   -6.157   -7.230   -8.351   -9.431  -10.444  -11.355  -12.104  -12.626  -12.918  -13.045  -13.082  -13.111  -13.147  -13.187  -13.212  -13.160  -12.969  -12.640  -12.286  -12.058  -12.063  -12.322  -12.823  -13.536  -14.383  -15.198  -15.788  -16.003  -15.808  -15.241  -14.322  -13.058  -11.507   -9.838   -8.282   -7.015   -6.079   -5.450   -5.109   -5.033   -5.136   -5.366
 -17.721  -18.059  -18.655  -19.075  -18.879  -17.809  -15.885  -13.441  -10.982   -8.971   -7.685   -7.091   -6.943   -6.970   -6.985   -6.922   -6.816   -6.691   -6.530   -6.348   -6.144   -5.963   -5.882   -5.956   -6.286   -7.022   -8.338  -10.269  -12.631  -15.029  -17.090  -18.542  -19.264  -19.280  -18.695  -17.712  -16.556  -15.419  -14.426  -13.640  -13.066  -12.676  -12.367  -11.998  -11.388  -10.405   -9.074   -7.539   -6.052   -4.859   -4.074   -3.644   -3.460   -3.435   -3.561   -3.908   -4.563   -5.532   -6.779   -8.179   -9.603  -10.939  -12.109  -13.069  -13.772  -14.218  -14.442  -14.525  -14.551  -14.580  -14.640  -14.709  -14.759  -14.747  -14.649  -14.459  -14.254  -14.134  -14.157  -14.309  -14.540  -14.803  -15.040  -15.194  -15.168  -14.881  -14.319  -13.532  -12.528  -11.334  -10.002   -8.656   -7.469   -6.549   -5.901   -5.483   -5.272   -5.286   -5.435   -5.689
 -16.347  -16.679  -17.306  -17.798  -17.681  -16.679  -14.786  -12.330   -9.822   -7.756   -6.426   -5.818   -5.685   -5.747   -5.830   -5.883   -5.929   -5.948   -5.927   -5.842   -5.719   -5.605   -5.546   -5.599   -5.846   -6.457   -7.626   -9.421  -11.693  -14.075  -16.194  -17.774  -18.685  -18.942  -18.640  -17.951  -17.103  -16.269  -15.559  -14.981  -14.505  -14.082  -13.630  -13.034  -12.124  -10.807   -9.135   -7.325   -5.671   -4.434   -3.687   -3.343   -3.249   -3.311   -3.555   -4.058   -4.889   -6.054   -7.479   -9.049  -10.626  -12.088  -13.317  -14.247  -14.863  -15.225  -15.400  -15.466  -15.496  -15.551  -15.646  -15.760  -15.853  -15.916  -15.930  -15.890  -15.830  -15.780  -15.780  -15.781  -15.707  -15.491  -15.107  -14.583  -13.921  -13.130  -12.230  -11.257  -10.239   -9.199   -8.175   -7.239   -6.488   -5.960   -5.630   -5.461   -5.420   -5.520   -5.726   -5.996
 -14.059  -14.347  -14.985  -15.550  -15.576  -14.763  -13.079  -10.815   -8.476   -6.547   -5.304   -4.729   -4.592   -4.640   -4.741   -4.842   -4.953   -5.065   -5.136   -5.148   -5.106   -5.075   -5.063   -5.119   -5.322   -5.833   -6.839   -8.434  -10.479  -12.693  -14.732  -16.318  -17.317  -17.716  -17.605  -17.171  -16.613  -16.093  -15.657  -15.281  -14.900  -14.443  -13.865  -13.074  -11.961  -10.454   -8.647   -6.800   -5.238   -4.179   -3.647   -3.506   -3.573   -3.749   -4.062   -4.614   -5.482   -6.650   -8.066   -9.615  -11.180  -12.627  -13.809  -14.653  -15.165  -15.445  -15.573  -15.620  -15.646  -15.715  -15.830  -15.968  -16.098  -16.215  -16.305  -16.363  -16.383  -16.367  -16.322  -16.189  -15.884  -15.313  -14.478  -13.451  -12.333  -11.195  -10.086   -9.047   -8.098   -7.271   -6.578   -6.035   -5.676   -5.476   -5.425   -5.468   -5.594   -5.805   -6.054   -6.361
 -11.228  -11.443  -12.054  -12.660  -12.850  -12.301  -10.954   -9.058   -7.074   -5.451   -4.398   -3.889   -3.729   -3.727   -3.772   -3.851   -3.966   -4.090   -4.204   -4.297   -4.364   -4.434   -4.511   -4.626   -4.845   -5.303   -6.161   -7.487   -9.204  -11.104  -12.912  -14.381  -15.351  -15.793  -15.798  -15.557  -15.254  -15.014  -14.822  -14.614  -14.301  -13.821  -13.155  -12.255  -11.048   -9.522   -7.791   -6.120   -4.804   -4.035   -3.781   -3.872   -4.116   -4.411   -4.787   -5.319   -6.085   -7.098   -8.319   -9.677  -11.063  -12.348  -13.394  -14.106  -14.507  -14.698  -14.772  -14.786  -14.792  -14.839  -14.945  -15.086  -15.224  -15.359  -15.478  -15.571  -15.610  -15.589  -15.501  -15.294  -14.878  -14.156  -13.129  -11.897  -10.602   -9.348   -8.224   -7.265   -6.494   -5.904   -5.510   -5.272   -5.185   -5.210   -5.338   -5.545   -5.828   -6.150   -6.467   -6.804
  -8.585   -8.706   -9.239   -9.845  -10.156   -9.873   -8.900   -7.451   -5.927   -4.682   -3.872   -3.443   -3.254   -3.180   -3.150   -3.164   -3.232   -3.334   -3.473   -3.630   -3.810   -4.002   -4.199   -4.412   -4.678   -5.121   -5.847   -6.911   -8.257   -9.754  -11.214  -12.441  -13.275  -13.677  -13.733  -13.625  -13.519  -13.490  -13.468  -13.356  -13.077  -12.597  -11.913  -11.010   -9.853   -8.475   -6.999   -5.649   -4.658   -4.167   -4.117   -4.351   -4.714   -5.098   -5.509   -5.997   -6.592   -7.322   -8.203   -9.206  -10.259  -11.261  -12.083  -12.632  -12.917  -13.020  -13.037  -13.005  -12.978  -12.990  -13.069  -13.197  -13.332  -13.453  -13.562  -13.638  -13.647  -13.601  -13.496  -13.286  -12.874  -12.190  -11.207  -10.050   -8.834   -7.707   -6.752   -6.003   -5.471   -5.137   -4.975   -4.946   -5.003   -5.140   -5.364   -5.664   -6.050   -6.466   -6.838   -7.191
  -6.891   -6.901   -7.303   -7.820   -8.159   -8.051   -7.404   -6.380   -5.299   -4.415   -3.830   -3.477   -3.255   -3.099   -3.001   -2.953   -2.978   -3.072   -3.229   -3.449   -3.722   -4.020   -4.333   -4.634   -4.966   -5.425   -6.076   -6.952   -7.993   -9.113  -10.200  -11.112  -11.743  -12.045  -12.101  -12.088  -12.125  -12.213  -12.253  -12.140  -11.868  -11.431  -10.820  -10.039   -9.078   -7.988   -6.876   -5.910   -5.238   -4.941   -4.970   -5.215   -5.582   -5.983   -6.389   -6.789   -7.169   -7.556   -7.986   -8.506   -9.097   -9.702  -10.215  -10.559  -10.714  -10.738  -10.700  -10.631  -10.583  -10.570  -10.633  -10.746  -10.862  -10.969  -11.044  -11.067  -11.033  -10.961  -10.865  -10.702  -10.390   -9.841   -9.066   -8.146   -7.202   -6.355   -5.682   -5.207   -4.928   -4.827   -4.859   -4.955   -5.094   -5.260   -5.487   -5.803   -6.208   -6.649   -7.034   -7.408
  -6.566   -6.477   -6.707   -7.030   -7.271   -7.194   -6.725   -6.000   -5.258   -4.648   -4.208   -3.880   -3.617   -3.407   -3.257   -3.181   -3.195   -3.296   -3.491   -3.756   -4.088   -4.452   -4.822   -5.177   -5.570   -6.065   -6.737   -7.574   -8.497   -9.407  -10.218  -10.859  -11.287  -11.493  -11.566  -11.642  -11.773  -11.889  -11.881  -11.706  -11.415  -11.051  -10.606  -10.054   -9.391   -8.663   -7.954   -7.359   -6.963   -6.784   -6.794   -6.948   -7.206   -7.542   -7.883   -8.152   -8.291   -8.282   -8.200   -8.143   -8.154   -8.248   -8.364   -8.443   -8.452   -8.397   -8.308   -8.222   -8.172   -8.160   -8.221   -8.328   -8.435   -8.531   -8.575   -8.552   -8.477   -8.394   -8.331   -8.235   -8.045   -7.688   -7.168   -6.542   -5.928   -5.407   -5.037   -4.845   -4.811   -4.892   -5.060   -5.240   -5.418   -5.580   -5.761   -6.006   -6.351   -6.737   -7.090   -7.463
  -7.632   -7.450   -7.493   -7.578   -7.584   -7.358   -6.868   -6.246   -5.653   -5.169   -4.784   -4.446   -4.142   -3.899   -3.734   -3.661   -3.693   -3.820   -4.035   -4.325   -4.668   -5.033   -5.396   -5.754   -6.181   -6.765   -7.580   -8.563   -9.593  -10.526  -11.273  -11.798  -12.123  -12.315  -12.462  -12.644  -12.829  -12.914  -12.811  -12.541  -12.230  -11.959  -11.713  -11.423  -11.076  -10.704  -10.371  -10.118   -9.956   -9.854   -9.804   -9.821   -9.945  -10.164  -10.390  -10.508  -10.390   -9.986   -9.370   -8.662   -8.006   -7.486   -7.119   -6.879   -6.703   -6.562   -6.443   -6.341   -6.292   -6.291   -6.354   -6.463   -6.570   -6.663   -6.692   -6.654   -6.575   -6.509   -6.478   -6.459   -6.384   -6.202   -5.911   -5.559   -5.232   -4.991   -4.877   -4.900   -5.044   -5.270   -5.534   -5.780   -5.984   -6.129   -6.255   -6.411   -6.669   -6.983   -7.291   -7.675
  -9.852   -9.609   -9.506   -9.347   -9.032   -8.474   -7.734   -6.970   -6.311   -5.787   -5.363   -5.001   -4.695   -4.468   -4.325   -4.284   -4.338   -4.469   -4.667   -4.928   -5.215   -5.517   -5.809   -6.135   -6.586   -7.296   -8.334   -9.618  -10.960  -12.148  -13.053  -13.644  -14.016  -14.288  -14.560  -14.846  -15.061  -15.097  -14.909  -14.578  -14.274  -14.081  -13.981  -13.901  -13.805  -13.725  -13.696  -13.715  -13.734  -13.710  -13.622  -13.551  -13.573  -13.683  -13.800  -13.764  -13.418  -12.682  -11.591  -10.275   -8.933   -7.757   -6.871   -6.278   -5.908   -5.671   -5.519   -5.406   -5.341   -5.333   -5.384   -5.487   -5.597   -5.692   -5.751   -5.748   -5.707   -5.674   -5.683   -5.713   -5.722   -5.676   -5.550   -5.391   -5.262   -5.207   -5.254   -5.404   -5.651   -5.956   -6.300   -6.615   -6.878   -7.048   -7.164   -7.280   -7.475   -7.754   -8.034   -8.439
 -12.858  -12.617  -12.433  -12.065  -11.405  -10.417   -9.241   -8.101   -7.167   -6.464   -5.943   -5.562   -5.292   -5.132   -5.040   -5.017   -5.067   -5.152   -5.280   -5.434   -5.609   -5.782   -5.972   -6.232   -6.699   -7.533   -8.817  -10.454  -12.198  -13.773  -14.998  -15.818  -16.345  -16.752  -17.142  -17.492  -17.710  -17.709  -17.495  -17.176  -16.899  -16.756  -16.721  -16.749  -16.808  -16.916  -17.080  -17.267  -17.418  -17.461  -17.394  -17.310  -17.296  -17.350  -17.384  -17.240  -16.757  -15.815  -14.403  -12.627  -10.722   -8.991   -7.660   -6.783   -6.266   -5.966   -5.780   -5.647   -5.568   -5.541   -5.576   -5.646   -5.755   -5.874   -5.970   -6.037   -6.073   -6.098   -6.153   -6.227   -6.297   -6.335   -6.309   -6.254   -6.203   -6.198   -6.276   -6.447   -6.718   -7.077   -7.499   -7.941   -8.327   -8.608   -8.773   -8.885   -9.048   -9.303   -9.570   -9.999
 -16.264  -16.040  -15.819  -15.311  -14.339  -12.910  -11.224   -9.600   -8.269   -7.296   -6.635   -6.228   -6.003   -5.894   -5.833   -5.800   -5.797   -5.796   -5.803   -5.819   -5.826   -5.848   -5.911   -6.080   -6.523   -7.433   -8.894  -10.821  -12.949  -14.947  -16.552  -17.667  -18.407  -18.945  -19.404  -19.766  -19.965  -19.950  -19.769  -19.513  -19.295  -19.171  -19.158  -19.218  -19.340  -19.519  -19.749  -20.002  -20.204  -20.292  -20.282  -20.244  -20.258  -20.319  -20.323  -20.139  -19.615  -18.616  -17.076  -15.071  -12.871  -10.851   -9.306   -8.328   -7.788   -7.498   -7.325   -7.202   -7.116   -7.083   -7.107   -7.179   -7.285   -7.433   -7.588   -7.748   -7.898   -8.027   -8.144   -8.263   -8.378   -8.464   -8.472   -8.418   -8.323   -8.230   -8.193   -8.274   -8.511   -8.924   -9.484  -10.130  -10.732  -11.188  -11.428  -11.525  -11.614  -11.782  -11.994  -12.415
 -19.736  -19.514  -19.249  -18.612  -17.398  -15.606  -13.470  -11.368   -9.599   -8.303   -7.460   -6.976   -6.746   -6.634   -6.562   -6.487   -6.403   -6.303   -6.181   -6.054   -5.917   -5.793   -5.720   -5.792   -6.183   -7.093   -8.634  -10.741  -13.149  -15.495  -17.454  -18.876  -19.823  -20.471  -20.945  -21.275  -21.432  -21.427  -21.318  -21.168  -21.031  -20.954  -20.953  -21.020  -21.146  -21.311  -21.506  -21.712  -21.891  -21.993  -22.033  -22.064  -22.143  -22.245  -22.267  -22.091  -21.598  -20.648  -19.163  -17.210  -15.054  -13.109  -11.687  -10.854  -10.459  -10.293  -10.215  -10.148  -10.100  -10.092  -10.155  -10.264  -10.404  -10.591  -10.813  -11.086  -11.390  -11.685  -11.931  -12.127  -12.293  -12.405  -12.416  -12.290  -12.028  -11.689  -11.387  -11.258  -11.416  -11.902  -12.679  -13.622  -14.526  -15.194  -15.518  -15.559  -15.505  -15.515  -15.605  -16.029
 -23.408  -23.134  -22.754  -21.943  -20.493  -18.403  -15.891  -13.350  -11.135   -9.469   -8.372   -7.749   -7.438   -7.280   -7.169   -7.045   -6.893   -6.716   -6.512   -6.291   -6.057   -5.845   -5.693   -5.695   -6.027   -6.895   -8.422  -10.585  -13.146  -15.723  -17.944  -19.616  -20.747  -21.474  -21.938  -22.208  -22.329  -22.355  -22.342  -22.326  -22.321  -22.340  -22.399  -22.497  -22.608  -22.725  -22.830  -22.931  -23.020  -23.086  -23.143  -23.229  -23.365  -23.508  -23.570  -23.445  -23.037  -22.236  -20.975  -19.334  -17.569  -16.051  -15.056  -14.602  -14.511  -14.568  -14.629  -14.654  -14.670  -14.726  -14.845  -15.017  -15.207  -15.429  -15.718  -16.122  -16.632  -17.165  -17.625  -17.977  -18.247  -18.426  -18.461  -18.249  -17.765  -17.069  -16.369  -15.931  -15.972  -16.573  -17.646  -18.990  -20.310  -21.297  -21.790  -21.859  -21.773  -21.771  -21.878  -22.423
 -28.226  -27.823  -27.205  -26.080  -24.299  -21.862  -18.945  -15.917  -13.182  -11.045   -9.590   -8.730   -8.278   -8.058   -7.913   -7.764   -7.583   -7.370   -7.139   -6.896   -6.653   -6.424   -6.268   -6.267   -6.580   -7.397   -8.868  -10.992  -13.577  -16.240  -18.612  -20.454  -21.719  -22.502  -22.942  -23.162  -23.263  -23.339  -23.451  -23.613  -23.811  -24.023  -24.239  -24.435  -24.585  -24.671  -24.692  -24.673  -24.642  -24.629  -24.650  -24.731  -24.877  -25.049  -25.173  -25.163  -24.936  -24.414  -23.569  -22.482  -21.370  -20.528  -20.154  -20.213  -20.512  -20.820  -21.023  -21.126  -21.188  -21.285  -21.424  -21.594  -21.770  -21.979  -22.304  -22.851  -23.626  -24.482  -25.262  -25.889  -26.384  -26.774  -26.957  -26.789  -26.156  -25.158  -24.087  -23.375  -23.363  -24.187  -25.715  -27.672  -29.645  -31.265  -32.319  -32.934  -33.434  -34.050  -34.686  -35.650
 -35.640  -35.100  -34.097  -32.466  -30.159  -27.200  -23.715  -20.023  -16.567  -13.757  -11.776  -10.557   -9.892   -9.564   -9.384   -9.229   -9.049   -8.846   -8.633   -8.425   -8.235   -8.089   -8.014   -8.071   -8.404   -9.178  -10.564  -12.591  -15.078  -17.713  -20.109  -22.030  -23.367  -24.176  -24.595  -24.775  -24.879  -25.019  -25.285  -25.693  -26.215  -26.781  -27.312  -27.742  -28.025  -28.149  -28.126  -28.001  -27.839  -27.701  -27.621  -27.623  -27.719  -27.906  -28.148  -28.367  -28.483  -28.436  -28.214  -27.879  -27.592  -27.551  -27.870  -28.481  -29.169  -29.718  -30.040  -30.185  -30.254  -30.315  -30.374  -30.422  -30.468  -30.592  -30.939  -31.652  -32.736  -34.004  -35.227  -36.304  -37.261  -38.111  -38.717  -38.863  -38.416  -37.482  -36.458  -35.892  -36.244  -37.667  -40.019  -42.956  -46.028  -48.832  -51.184  -53.241  -55.298  -57.388  -59.094  -60.496
 -46.475  -45.896  -44.457  -42.201  -39.213  -35.540  -31.280  -26.691  -22.259  -18.526  -15.809  -14.062  -13.065  -12.550  -12.284  -12.107  -11.920  -11.723  -11.534  -11.392  -11.300  -11.281  -11.353  -11.545  -11.940  -12.675  -13.938  -15.777  -18.085  -20.578  -22.906  -24.812  -26.163  -26.972  -27.359  -27.504  -27.608  -27.829  -28.289  -29.028  -30.009  -31.115  -32.165  -33.005  -33.550  -33.782  -33.753  -33.537  -33.236  -32.941  -32.699  -32.559  -32.558  -32.772  -33.207  -33.805  -34.460  -35.092  -35.664  -36.201  -36.792  -37.557  -38.554  -39.692  -40.754  -41.540  -42.006  -42.236  -42.341  -42.371  -42.332  -42.234  -42.156  -42.249  -42.708  -43.687  -45.167  -46.926  -48.718  -50.433  -52.090  -53.675  -55.021  -55.905  -56.215  -56.112  -56.039  -56.569  -58.124  -60.813  -64.449  -68.670  -73.068  -77.309  -81.277  -85.082  -88.808  -92.168  -94.471  -95.411
 -59.744  -59.344  -57.573  -54.761  -51.119  -46.725  -41.638  -36.079  -30.575  -25.792  -22.181  -19.766  -18.310  -17.504  -17.075  -16.812  -16.570  -16.333  -16.138  -16.029  -16.047  -16.191  -16.464  -16.833  -17.315  -18.016  -19.108  -20.696  -22.732  -24.993  -27.179  -29.025  -30.357  -31.144  -31.481  -31.574  -31.659  -31.959  -32.633  -33.764  -35.311  -37.088  -38.797  -40.174  -41.066  -41.457  -41.434  -41.136  -40.710  -40.262  -39.861  -39.566  -39.483  -39.758  -40.465  -41.552  -42.868  -44.271  -45.674  -47.059  -48.462  -49.947  -51.539  -53.146  -54.579  -55.676  -56.422  -56.908  -57.237  -57.450  -57.557  -57.604  -57.718  -58.093  -58.944  -60.385  -62.368  -64.666  -67.063  -69.468  -71.885  -74.288  -76.537  -78.475  -80.076  -81.543  -83.270  -85.687  -89.025  -93.246  -98.107 -103.295 -108.525 -113.601 -118.458 -123.102 -127.394 -130.843 -132.633 -132.044
 -73.009  -72.982  -71.086  -67.948  -63.872  -58.962  -53.254  -46.947  -40.579  -34.910  -30.500  -27.444  -25.507  -24.360  -23.694  -23.273  -22.905  -22.556  -22.267  -22.134  -22.223  -22.539  -23.043  -23.630  -24.232  -24.911  -25.832  -27.147  -28.873  -30.872  -32.900  -34.681  -36.002  -36.762  -37.035  -37.048  -37.094  -37.445  -38.309  -39.808  -41.890  -44.300  -46.637  -48.524  -49.749  -50.295  -50.297  -49.955  -49.460  -48.938  -48.459  -48.104  -48.027  -48.440  -49.468  -51.061  -53.013  -55.116  -57.226  -59.287  -61.314  -63.352  -65.412  -67.418  -69.233  -70.747  -71.962  -72.965  -73.844  -74.639  -75.369  -76.091  -76.929  -78.058  -79.636  -81.725  -84.244  -87.013  -89.879  -92.784  -95.739  -98.743 -101.733 -104.655 -107.557 -110.625 -114.116 -118.230 -122.991 -128.253 -133.776 -139.331 -144.748 -149.922 -154.792 -159.245 -162.964 -165.338 -165.499 -162.948
 -83.854  -84.247  -82.413  -79.191  -74.958  -69.842  -63.871  -57.240  -50.486  -44.384  -39.539  -36.085  -33.795  -32.347  -31.446  -30.830  -30.283  -29.745  -29.284  -29.031  -29.117  -29.573  -30.312  -31.150  -31.931  -32.653  -33.461  -34.556  -36.035  -37.844  -39.784  -41.570  -42.929  -43.697  -43.926  -43.865  -43.854  -44.215  -45.185  -46.907  -49.319  -52.119  -54.841  -57.044  -58.481  -59.148  -59.206  -58.900  -58.452  -57.998  -57.604  -57.361  -57.446  -58.106  -59.484  -61.513  -63.956  -66.555  -69.133  -71.622  -74.032  -76.411  -78.781  -81.104  -83.298  -85.310  -87.157  -88.917  -90.659  -92.412  -94.185  -96.006  -97.944 -100.094 -102.535 -105.271 -108.228 -111.292 -114.379 -117.474 -120.620 -123.862 -127.223 -130.733 -134.471 -138.562 -143.110 -148.130 -153.502 -159.017 -164.453 -169.644 -174.491 -178.927 -182.856 -186.068 -188.227 -188.829 -186.975 -184.862
 -90.738  -91.450  -89.762  -86.626  -82.465  -77.428  -71.563  -65.071  -58.473  -52.502  -47.712  -44.219  -41.813  -40.207  -39.142  -38.349  -37.612  -36.851  -36.151  -35.706  -35.713  -36.249  -37.205  -38.317  -39.344  -40.208  -41.039  -42.068  -43.473  -45.270  -47.287  -49.219  -50.723  -51.593  -51.858  -51.788  -51.752  -52.091  -53.056  -54.780  -57.202  -60.016  -62.756  -64.990  -66.474  -67.206  -67.363  -67.195  -66.927  -66.693  -66.561  -66.617  -67.036  -68.046  -69.774  -72.130  -74.867  -77.719  -80.506  -83.164  -85.718  -88.232  -90.756  -93.300  -95.843  -98.376 -100.933 -103.572 -106.330 -109.201 -112.149 -115.143 -118.176 -121.265 -124.421 -127.626 -130.830 -133.979 -137.047 -140.066 -143.109 -146.263 -149.612 -153.235 -157.205 -161.573 -166.326 -171.355 -176.490 -181.547 -186.399 -190.977 -195.241 -199.139 -202.589 -205.455 -207.519 -208.266 -206.052 -209.944
 -93.005  -93.847  -92.297  -89.330  -85.389  -80.645  -75.184  -69.218  -63.235  -57.869  -53.563  -50.373  -48.100  -46.515  -45.397  -44.501  -43.620  -42.667  -41.742  -41.092  -40.979  -41.549  -42.687  -44.085  -45.416  -46.549  -47.596  -48.803  -50.399  -52.444  -54.772  -57.041  -58.857  -59.984  -60.447  -60.507  -60.536  -60.869  -61.736  -63.264  -65.396  -67.871  -70.289  -72.285  -73.655  -74.398  -74.674  -74.706  -74.696  -74.767  -74.991  -75.450  -76.292  -77.689  -79.718  -82.272  -85.113  -87.998  -90.768  -93.381  -95.885  -98.369 -100.920 -103.594 -106.422 -109.437 -112.674 -116.157 -119.870 -123.746 -127.689 -131.606 -135.433 -139.137 -142.699 -146.102 -149.327 -152.365 -155.237 -158.006 -160.770 -163.643 -166.742 -170.169 -173.995 -178.252 -182.905 -187.877 -193.053 -198.311 -203.516 -208.526 -213.211 -217.443 -221.162 -224.226 -226.358 -226.825 -223.492 -233.264
 -90.695  -91.449  -89.972  -87.187  -83.535  -79.219  -74.359  -69.182  -64.109  -59.641  -56.078  -53.412  -51.463  -50.055  -49.010  -48.121  -47.196  -46.159  -45.116  -44.340  -44.157  -44.764  -46.082  -47.779  -49.497  -51.063  -52.567  -54.259  -56.376  -58.984  -61.894  -64.723  -67.060  -68.651  -69.516  -69.895  -70.125  -70.507  -71.256  -72.484  -74.158  -76.088  -77.980  -79.567  -80.701  -81.384  -81.736  -81.930  -82.128  -82.444  -82.959  -83.753  -84.940  -86.628  -88.832  -91.426  -94.196  -96.937  -99.527 -101.952 -104.285 -106.643 -109.143 -111.880 -114.921 -118.319 -122.095 -126.228 -130.638 -135.194 -139.749 -144.176 -148.386 -152.334 -156.000 -159.380 -162.478 -165.314 -167.931 -170.407 -172.851 -175.394 -178.170 -181.294 -184.855 -188.890 -193.380 -198.246 -203.360 -208.562 -213.646 -218.463 -222.863 -226.747 -229.992 -232.384 -233.573 -232.792 -227.919 -237.553
 -84.425  -84.900  -83.411  -80.775  -77.421  -73.583  -69.419  -65.144  -61.093  -57.616  -54.876  -52.823  -51.303  -50.183  -49.325  -48.564  -47.736  -46.787  -45.821  -45.121  -45.034  -45.800  -47.380  -49.475  -51.732  -53.965  -56.242  -58.780  -61.781  -65.267  -69.008  -72.598  -75.630  -77.864  -79.307  -80.158  -80.702  -81.205  -81.865  -82.797  -84.001  -85.358  -86.681  -87.801  -88.622  -89.144  -89.440  -89.628  -89.838  -90.180  -90.748  -91.630  -92.914  -94.651  -96.807  -99.248 -101.783 -104.247 -106.556 -108.725 -110.849 -113.059 -115.489 -118.246 -121.412 -125.034 -129.111 -133.574 -138.291 -143.092 -147.811 -152.319 -156.533 -160.414 -163.948 -167.138 -169.995 -172.547 -174.847 -176.975 -179.040 -181.176 -183.522 -186.190 -189.265 -192.766 -196.659 -200.838 -205.170 -209.510 -213.739 -217.791 -221.575 -225.045 -228.007 -230.237 -231.311 -230.484 -225.874 -231.279
 -75.347  -75.417  -73.849  -71.313  -68.221  -64.845  -61.364  -57.963  -54.878  -52.317  -50.343  -48.887  -47.828  -47.060  -46.486  -45.979  -45.431  -44.799  -44.201  -43.895  -44.227  -45.437  -47.535  -50.277  -53.355  -56.582  -59.981  -63.695  -67.846  -72.385  -77.049  -81.440  -85.189  -88.091  -90.141  -91.492  -92.375  -93.023  -93.627  -94.313  -95.117  -95.982  -96.801  -97.471  -97.931  -98.171  -98.230  -98.188  -98.152  -98.236  -98.547  -99.189 -100.237 -101.713 -103.557 -105.636 -107.788 -109.882 -111.866 -113.772 -115.705 -117.791 -120.152 -122.882 -126.048 -129.678 -133.745 -138.148 -142.734 -147.329 -151.778 -155.966 -159.830 -163.339 -166.491 -169.289 -171.755 -173.923 -175.846 -177.603 -179.297 -181.047 -182.979 -185.202 -187.788 -190.766 -194.106 -197.741 -201.560 -205.464 -209.365 -213.189 -216.868 -220.284 -223.291 -225.629 -226.947 -226.540 -222.862 -223.878
 -65.071  -64.720  -63.054  -60.586  -57.718  -54.746  -51.857  -49.195  -46.903  -45.082  -43.736  -42.804  -42.189  -41.818  -41.619  -41.523  -41.471  -41.457  -41.594  -42.112  -43.312  -45.415  -48.442  -52.209  -56.444  -60.940  -65.641  -70.595  -75.830  -81.250  -86.601  -91.545  -95.785  -99.156 -101.649 -103.374 -104.510 -105.257 -105.799 -106.278 -106.757 -107.227 -107.626 -107.888 -107.964 -107.838 -107.529 -107.097 -106.639 -106.270 -106.109 -106.267 -106.823 -107.790 -109.110 -110.668 -112.333 -114.009 -115.659 -117.325 -119.092 -121.063 -123.325 -125.937 -128.935 -132.320 -136.047 -140.010 -144.066 -148.067 -151.885 -155.439 -158.686 -161.616 -164.234 -166.552 -168.592 -170.387 -171.986 -173.452 -174.870 -176.346 -177.987 -179.890 -182.129 -184.740 -187.718 -191.021 -194.578 -198.309 -202.130 -205.953 -209.682 -213.180 -216.287 -218.732 -220.197 -220.065 -217.166 -215.201
 -55.471  -54.800  -53.096  -50.731  -48.092  -45.480  -43.074  -40.980  -39.276  -38.001  -37.148  -36.661  -36.476  -36.547  -36.840  -37.336  -38.028  -38.939  -40.172  -41.904  -44.371  -47.741  -52.020  -57.032  -62.504  -68.180  -73.931  -79.727  -85.556  -91.330  -96.863 -101.909 -106.252 -109.765 -112.430 -114.320 -115.565 -116.330 -116.786 -117.076 -117.283 -117.427 -117.474 -117.374 -117.083 -116.580 -115.879 -115.036 -114.141 -113.304 -112.644 -112.272 -112.267 -112.649 -113.377 -114.366 -115.521 -116.773 -118.101 -119.531 -121.124 -122.938 -125.015 -127.374 -130.018 -132.927 -136.046 -139.288 -142.541 -145.697 -148.674 -151.428 -153.943 -156.222 -158.275 -160.115 -161.757 -163.227 -164.562 -165.809 -167.036 -168.326 -169.769 -171.448 -173.428 -175.746 -178.407 -181.390 -184.649 -188.131 -191.772 -195.495 -199.206 -202.770 -205.994 -208.606 -210.253 -210.413 -208.190 -204.708
 -48.338  -47.537  -45.940  -43.803  -41.486  -39.261  -37.288  -35.644  -34.381  -33.521  -33.062  -32.973  -33.223  -33.780  -34.655  -35.870  -37.451  -39.421  -41.839  -44.824  -48.533  -53.075  -58.435  -64.416  -70.713  -77.039  -83.225  -89.215  -95.008 -100.569 -105.793 -110.529 -114.628 -117.993 -120.595 -122.468 -123.700 -124.419 -124.774 -124.897 -124.882 -124.760 -124.519 -124.119 -123.520 -122.703 -121.687 -120.527 -119.309 -118.135 -117.109 -116.334 -115.880 -115.774 -115.995 -116.487 -117.191 -118.061 -119.080 -120.261 -121.630 -123.206 -124.989 -126.966 -129.114 -131.402 -133.781 -136.183 -138.535 -140.777 -142.871 -144.807 -146.591 -148.235 -149.749 -151.140 -152.422 -153.613 -154.737 -155.831 -156.942 -158.131 -159.467 -161.017 -162.830 -164.936 -167.344 -170.040 -173.000 -176.189 -179.564 -183.069 -186.624 -190.110 -193.342 -196.061 -197.906 -198.394 -196.799 -192.977
 -44.967  -44.266  -42.974  -41.268  -39.444  -37.722  -36.216  -34.992  -34.082  -33.531  -33.359  -33.587  -34.185  -35.162  -36.538  -38.360  -40.652  -43.403  -46.610  -50.337  -54.690  -59.765  -65.536  -71.805  -78.254  -84.586  -90.612  -96.276 -101.596 -106.589 -111.222 -115.417 -119.078 -122.130 -124.532 -126.289 -127.448 -128.103 -128.375 -128.383 -128.212 -127.907 -127.464 -126.856 -126.051 -125.038 -123.844 -122.525 -121.162 -119.843 -118.657 -117.683 -116.981 -116.575 -116.457 -116.596 -116.958 -117.513 -118.251 -119.169 -120.266 -121.533 -122.946 -124.471 -126.077 -127.725 -129.375 -130.984 -132.510 -133.934 -135.253 -136.482 -137.643 -138.749 -139.809 -140.828 -141.814 -142.780 -143.747 -144.738 -145.786 -146.932 -148.225 -149.713 -151.432 -153.404 -155.631 -158.106 -160.808 -163.717 -166.801 -170.019 -173.310 -176.572 -179.650 -182.313 -184.232 -184.964 -183.880 -180.378
 -45.759  -45.372  -44.560  -43.472  -42.314  -41.216  -40.238  -39.394  -38.724  -38.291  -38.172  -38.436  -39.087  -40.152  -41.655  -43.638  -46.103  -48.999  -52.274  -55.957  -60.151  -64.968  -70.407  -76.292  -82.318  -88.177  -93.670  -98.731 -103.388 -107.688 -111.646 -115.238 -118.407 -121.096 -123.260 -124.880 -125.977 -126.607 -126.866 -126.850 -126.637 -126.270 -125.755 -125.076 -124.213 -123.164 -121.963 -120.667 -119.348 -118.081 -116.931 -115.956 -115.200 -114.681 -114.398 -114.333 -114.470 -114.793 -115.292 -115.959 -116.777 -117.721 -118.757 -119.848 -120.958 -122.055 -123.108 -124.088 -124.979 -125.786 -126.530 -127.242 -127.948 -128.663 -129.390 -130.131 -130.891 -131.683 -132.524 -133.432 -134.430 -135.544 -136.807 -138.253 -139.909 -141.788 -143.888 -146.194 -148.689 -151.351 -154.159 -157.080 -160.068 -163.043 -165.878 -168.375 -170.249 -171.104 -170.390 -167.407
 -49.885  -49.957  -49.665  -49.214  -48.729  -48.241  -47.727  -47.141  -46.491  -45.872  -45.428  -45.292  -45.533  -46.190  -47.296  -48.877  -50.906  -53.310  -56.010  -59.013  -62.437  -66.416  -70.997  -76.043  -81.272  -86.380  -91.153  -95.512  -99.475 -103.098 -106.423 -109.457 -112.177 -114.544 -116.515 -118.060 -119.172 -119.883 -120.256 -120.365 -120.273 -120.017 -119.607 -119.036 -118.293 -117.389 -116.360 -115.260 -114.150 -113.085 -112.113 -111.274 -110.597 -110.098 -109.777 -109.626 -109.640 -109.814 -110.140 -110.607 -111.192 -111.863 -112.587 -113.331 -114.065 -114.764 -115.403 -115.963 -116.443 -116.857 -117.240 -117.627 -118.043 -118.502 -119.004 -119.548 -120.138 -120.789 -121.516 -122.337 -123.269 -124.332 -125.551 -126.951 -128.552 -130.363 -132.373 -134.559 -136.896 -139.360 -141.933 -144.591 -147.304 -150.012 -152.612 -154.941 -156.750 -157.688 -157.263 -154.798
 -55.394  -55.911  -55.987  -55.957  -55.902  -55.793  -55.520  -54.965  -54.098  -53.018  -51.931  -51.043  -50.495  -50.357  -50.665  -51.431  -52.623  -54.148  -55.913  -57.917  -60.270  -63.131  -66.585  -70.547  -74.778  -78.995  -82.977  -86.630  -89.954  -92.996  -95.802  -98.396 -100.779 -102.933 -104.828 -106.423 -107.696 -108.651 -109.321 -109.752 -109.985 -110.045 -109.940 -109.664 -109.220 -108.622 -107.906 -107.120 -106.312 -105.522 -104.785 -104.131 -103.586 -103.166 -102.876 -102.717 -102.691 -102.799 -103.036 -103.389 -103.832 -104.331 -104.855 -105.379 -105.882 -106.345 -106.748 -107.076 -107.334 -107.539 -107.726 -107.930 -108.173 -108.470 -108.818 -109.217 -109.674 -110.201 -110.816 -111.539 -112.388 -113.382 -114.546 -115.903 -117.471 -119.250 -121.218 -123.337 -125.569 -127.887 -130.275 -132.725 -135.222 -137.728 -140.163 -142.387 -144.178 -145.219 -145.061 -143.066
 -59.934  -60.710  -60.849  -60.853  -60.831  -60.740  -60.413  -59.665  -58.420  -56.765  -54.930  -53.190  -51.747  -50.697  -50.083  -49.906  -50.131  -50.669  -51.429  -52.397  -53.665  -55.393  -57.684  -60.503  -63.680  -66.967  -70.170  -73.183  -75.984  -78.598  -81.056  -83.384  -85.599  -87.705  -89.685  -91.499  -93.110  -94.496  -95.656  -96.601  -97.345  -97.892  -98.241  -98.390  -98.345  -98.128  -97.771  -97.315  -96.797  -96.250  -95.708  -95.206  -94.775  -94.436  -94.205  -94.084  -94.082  -94.206  -94.450  -94.798  -95.213  -95.661  -96.110  -96.540  -96.940  -97.297  -97.594  -97.821  -97.981  -98.090  -98.182  -98.287  -98.426  -98.610  -98.844  -99.129  -99.471  -99.883 -100.384 -100.998 -101.753 -102.677 -103.800 -105.149 -106.735 -108.549 -110.544 -112.662 -114.846 -117.065 -119.313 -121.601 -123.936 -126.305 -128.648 -130.839 -132.673 -133.848 -133.949 -132.376
 -61.632  -62.359  -62.204  -61.821  -61.411  -60.969  -60.316  -59.224  -57.559  -55.382  -52.927  -50.504  -48.344  -46.557  -45.181  -44.207  -43.605  -43.307  -43.233  -43.360  -43.755  -44.559  -45.866  -47.678  -49.894  -52.342  -54.873  -57.394  -59.863  -62.263  -64.599  -66.884  -69.140  -71.381  -73.604  -75.775  -77.846  -79.769  -81.510  -83.043  -84.347  -85.407  -86.213  -86.766  -87.081  -87.182  -87.103  -86.877  -86.538  -86.125  -85.679  -85.249  -84.878  -84.600  -84.433  -84.386  -84.467  -84.683  -85.026  -85.465  -85.954  -86.450  -86.918  -87.341  -87.716  -88.037  -88.296  -88.486  -88.610  -88.681  -88.729  -88.777  -88.847  -88.951  -89.096  -89.282  -89.519  -89.816  -90.195  -90.694  -91.350  -92.215  -93.332  -94.733  -96.421  -98.358 -100.470 -102.662 -104.856 -107.016 -109.155 -111.308 -113.516 -115.789 -118.086 -120.290 -122.200 -123.524 -123.866 -122.667
 -59.520  -59.868  -59.115  -57.995  -56.843  -55.752  -54.579  -53.073  -51.061  -48.562  -45.800  -43.069  -40.604  -38.497  -36.759  -35.366  -34.297  -33.507  -32.946  -32.590  -32.485  -32.723  -33.383  -34.488  -36.000  -37.842  -39.932  -42.200  -44.590  -47.034  -49.498  -51.965  -54.446  -56.950  -59.477  -62.004  -64.484  -66.853  -69.053  -71.027  -72.726  -74.125  -75.213  -76.001  -76.507  -76.765  -76.807  -76.662  -76.365  -75.964  -75.521  -75.099  -74.756  -74.530  -74.444  -74.504  -74.715  -75.074  -75.564  -76.139  -76.742  -77.318  -77.831  -78.265  -78.624  -78.912  -79.135  -79.294  -79.392  -79.442  -79.466  -79.482  -79.510  -79.561  -79.641  -79.749  -79.891  -80.074  -80.326  -80.697  -81.252  -82.071  -83.220  -84.736  -86.606  -88.760  -91.074  -93.413  -95.671  -97.815  -99.870 -101.907 -103.999 -106.190 -108.455 -110.684 -112.676 -114.137 -114.691 -113.819
 -53.609  -53.361  -51.855  -49.823  -47.748  -45.859  -44.089  -42.207  -40.023  -37.517  -34.880  -32.346  -30.099  -28.180  -26.568  -25.230  -24.136  -23.280  -22.625  -22.171  -21.936  -21.976  -22.349  -23.084  -24.214  -25.742  -27.662  -29.932  -32.476  -35.184  -37.958  -40.749  -43.534  -46.306  -49.065  -51.794  -54.461  -57.010  -59.371  -61.477  -63.277  -64.742  -65.873  -66.685  -67.211  -67.478  -67.517  -67.354  -67.027  -66.594  -66.136  -65.729  -65.437  -65.298  -65.324  -65.515  -65.866  -66.359  -66.964  -67.625  -68.281  -68.874  -69.370  -69.757  -70.041  -70.239  -70.374  -70.463  -70.511  -70.531  -70.536  -70.541  -70.555  -70.588  -70.635  -70.695  -70.760  -70.835  -70.956  -71.192  -71.646  -72.428  -73.630  -75.299  -77.408  -79.839  -82.416  -84.955  -87.327  -89.488  -91.484  -93.415  -95.394  -97.495  -99.718 -101.960 -104.018 -105.596 -106.329 -105.738
 -44.894  -44.042  -41.896  -39.105  -36.256  -33.693  -31.456  -29.366  -27.255  -25.078  -22.960  -21.031  -19.389  -18.011  -16.864  -15.901  -15.099  -14.467  -13.996  -13.681  -13.540  -13.605  -13.916  -14.521  -15.487  -16.901  -18.812  -21.210  -24.007  -27.048  -30.176  -33.295  -36.342  -39.290  -42.130  -44.859  -47.466  -49.916  -52.155  -54.122  -55.779  -57.112  -58.134  -58.872  -59.350  -59.595  -59.626  -59.467  -59.159  -58.766  -58.378  -58.074  -57.912  -57.916  -58.084  -58.396  -58.835  -59.372  -59.966  -60.567  -61.124  -61.591  -61.941  -62.167  -62.281  -62.311  -62.291  -62.252  -62.213  -62.182  -62.164  -62.167  -62.197  -62.247  -62.303  -62.349  -62.366  -62.355  -62.356  -62.465  -62.817  -63.567  -64.834  -66.675  -69.041  -71.773  -74.637  -77.400  -79.903  -82.096  -84.038  -85.858  -87.702  -89.685  -91.834  -94.061  -96.160  -97.830  -98.714  -98.360
 -35.248  -34.026  -31.651  -28.608  -25.499  -22.707  -20.323  -18.270  -16.421  -14.738  -13.255  -12.001  -10.982  -10.160   -9.487   -8.922   -8.465   -8.124   -7.886   -7.759   -7.756   -7.892   -8.202   -8.740   -9.613  -10.942  -12.833  -15.309  -18.276  -21.550  -24.932  -28.268  -31.458  -34.446  -37.227  -39.807  -42.200  -44.393  -46.362  -48.069  -49.504  -50.666  -51.586  -52.286  -52.790  -53.109  -53.249  -53.230  -53.085  -52.884  -52.711  -52.632  -52.682  -52.868  -53.166  -53.537  -53.954  -54.386  -54.798  -55.155  -55.433  -55.614  -55.684  -55.648  -55.518  -55.326  -55.109  -54.911  -54.755  -54.654  -54.609  -54.618  -54.678  -54.768  -54.861  -54.922  -54.925  -54.860  -54.777  -54.793  -55.082  -55.831  -57.192  -59.228  -61.860  -64.887  -68.019  -70.977  -73.576  -75.762  -77.605  -79.265  -80.926  -82.738  -84.763  -86.932  -89.038  -90.776  -91.783  -91.626
 -26.935  -25.682  -23.520  -20.763  -17.910  -15.295  -13.041  -11.161   -9.603   -8.345   -7.347   -6.572   -5.951   -5.451   -5.032   -4.712   -4.470   -4.303   -4.220   -4.207   -4.279   -4.439   -4.709   -5.167   -5.901   -7.077   -8.819  -11.189  -14.112  -17.407  -20.841  -24.215  -27.391  -30.293  -32.916  -35.275  -37.406  -39.317  -41.009  -42.480  -43.743  -44.823  -45.747  -46.532  -47.197  -47.740  -48.154  -48.442  -48.629  -48.772  -48.938  -49.165  -49.463  -49.815  -50.178  -50.512  -50.785  -50.970  -51.051  -51.023  -50.898  -50.688  -50.409  -50.069  -49.686  -49.280  -48.889  -48.548  -48.287  -48.119  -48.050  -48.069  -48.153  -48.282  -48.414  -48.508  -48.523  -48.453  -48.354  -48.363  -48.681  -49.521  -51.060  -53.345  -56.262  -59.550  -62.873  -65.921  -68.503  -70.569  -72.217  -73.630  -75.031  -76.608  -78.452  -80.511  -82.583  -84.352  -85.450  -85.456
 -21.550  -20.455  -18.644  -16.300  -13.778  -11.366   -9.247   -7.514   -6.191   -5.245   -4.585   -4.098   -3.678   -3.283   -2.937   -2.669   -2.493   -2.385   -2.350   -2.371   -2.447   -2.581   -2.782   -3.117   -3.682   -4.605   -6.058   -8.103  -10.728  -13.768  -17.007  -20.208  -23.216  -25.933  -28.346  -30.476  -32.368  -34.053  -35.547  -36.873  -38.069  -39.169  -40.201  -41.185  -42.121  -43.001  -43.800  -44.507  -45.131  -45.700  -46.249  -46.789  -47.307  -47.769  -48.123  -48.335  -48.377  -48.235  -47.918  -47.459  -46.906  -46.310  -45.702  -45.104  -44.530  -43.985  -43.494  -43.080  -42.766  -42.567  -42.489  -42.513  -42.616  -42.770  -42.935  -43.073  -43.136  -43.124  -43.105  -43.231  -43.725  -44.816  -46.663  -49.272  -52.466  -55.926  -59.287  -62.243  -64.623  -66.410  -67.731  -68.810  -69.892  -71.187  -72.810  -74.718  -76.714  -78.475  -79.627  -79.760
 -19.037  -18.097  -16.485  -14.311  -11.872   -9.469   -7.352   -5.689   -4.546   -3.861   -3.470   -3.188   -2.884   -2.524   -2.174   -1.890   -1.692   -1.573   -1.531   -1.542   -1.599   -1.683   -1.816   -2.039   -2.408   -3.056   -4.113   -5.688   -7.792  -10.348  -13.150  -15.977  -18.666  -21.119  -23.298  -25.217  -26.930  -28.464  -29.846  -31.117  -32.320  -33.496  -34.680  -35.884  -37.105  -38.329  -39.521  -40.650  -41.701  -42.670  -43.561  -44.360  -45.038  -45.553  -45.857  -45.920  -45.720  -45.266  -44.595  -43.775  -42.885  -42.003  -41.182  -40.443  -39.792  -39.223  -38.735  -38.341  -38.047  -37.872  -37.817  -37.867  -37.994  -38.179  -38.387  -38.583  -38.737  -38.857  -39.025  -39.406  -40.232  -41.720  -43.983  -46.941  -50.333  -53.799  -56.982  -59.621  -61.601  -62.961  -63.868  -64.568  -65.320  -66.342  -67.744  -69.489  -71.377  -73.090  -74.255  -74.482
 -17.874  -17.036  -15.481  -13.317  -10.825   -8.335   -6.173   -4.570   -3.575   -3.092   -2.909   -2.784   -2.572   -2.260   -1.921   -1.623   -1.395   -1.255   -1.201   -1.193   -1.223   -1.269   -1.359   -1.482   -1.710   -2.108   -2.786   -3.849   -5.358   -7.269   -9.461  -11.758  -14.018  -16.118  -18.031  -19.763  -21.334  -22.765  -24.092  -25.349  -26.574  -27.815  -29.110  -30.466  -31.881  -33.340  -34.806  -36.238  -37.594  -38.844  -39.970  -40.943  -41.723  -42.267  -42.531  -42.491  -42.130  -41.479  -40.602  -39.588  -38.545  -37.567  -36.704  -35.979  -35.387  -34.913  -34.531  -34.243  -34.050  -33.964  -33.986  -34.102  -34.287  -34.532  -34.810  -35.093  -35.378  -35.683  -36.109  -36.840  -38.097  -40.049  -42.733  -45.956  -49.387  -52.646  -55.435  -57.571  -59.017  -59.878  -60.355  -60.702  -61.178  -61.981  -63.207  -64.804  -66.572  -68.203  -69.341  -69.627
 -16.331  -15.583  -14.133  -12.085   -9.697   -7.300   -5.226   -3.737   -2.860   -2.509   -2.431   -2.395   -2.259   -2.022   -1.739   -1.475   -1.262   -1.119   -1.044   -1.031   -1.045   -1.077   -1.136   -1.207   -1.326   -1.543   -1.934   -2.565   -3.525   -4.800   -6.350   -8.046   -9.779  -11.475  -13.081  -14.595  -16.015  -17.351  -18.625  -19.868  -21.099  -22.357  -23.670  -25.049  -26.496  -28.003  -29.544  -31.065  -32.526  -33.882  -35.103  -36.148  -36.982  -37.558  -37.838  -37.796  -37.425  -36.767  -35.901  -34.933  -33.975  -33.114  -32.397  -31.836  -31.422  -31.133  -30.935  -30.825  -30.796  -30.862  -31.018  -31.250  -31.546  -31.889  -32.263  -32.660  -33.083  -33.587  -34.293  -35.385  -37.059  -39.420  -42.397  -45.710  -48.979  -51.856  -54.112  -55.662  -56.552  -56.944  -57.059  -57.145  -57.435  -58.098  -59.198  -60.668  -62.311  -63.837  -64.914  -65.223
 -13.555  -12.922  -11.748  -10.067   -8.088   -6.077   -4.331   -3.046   -2.293   -1.989   -1.931   -1.921   -1.845   -1.686   -1.488   -1.294   -1.132   -1.019   -0.957   -0.951   -0.966   -0.991   -1.028   -1.060   -1.115   -1.224   -1.424   -1.773   -2.315   -3.088   -4.065   -5.201   -6.417   -7.668   -8.929  -10.173  -11.405  -12.614  -13.808  -15.005  -16.221  -17.453  -18.711  -19.989  -21.306  -22.660  -24.044  -25.428  -26.773  -28.046  -29.209  -30.235  -31.078  -31.703  -32.072  -32.149  -31.942  -31.490  -30.866  -30.175  -29.513  -28.946  -28.518  -28.224  -28.058  -27.991  -28.012  -28.112  -28.292  -28.555  -28.888  -29.281  -29.712  -30.175  -30.655  -31.148  -31.692  -32.362  -33.301  -34.679  -36.657  -39.261  -42.335  -45.540  -48.492  -50.894  -52.596  -53.600  -54.024  -54.058  -53.933  -53.876  -54.082  -54.672  -55.682  -57.038  -58.551  -59.954  -60.954  -61.259
  -9.861   -9.372   -8.587   -7.454   -6.092   -4.674   -3.392   -2.418   -1.814   -1.539   -1.468   -1.446   -1.409   -1.320   -1.216   -1.101   -0.997   -0.927   -0.904   -0.921   -0.941   -0.963   -0.986   -0.993   -1.019   -1.062   -1.148   -1.322   -1.608   -2.027   -2.599   -3.292   -4.063   -4.911   -5.811   -6.760   -7.742   -8.776   -9.863  -10.999  -12.178  -13.364  -14.517  -15.622  -16.695  -17.754  -18.818  -19.884  -20.943  -21.973  -22.964  -23.883  -24.706  -25.394  -25.908  -26.216  -26.313  -26.228  -26.022  -25.768  -25.526  -25.353  -25.270  -25.271  -25.356  -25.513  -25.744  -26.048  -26.437  -26.896  -27.411  -27.959  -28.519  -29.083  -29.630  -30.184  -30.793  -31.564  -32.639  -34.173  -36.284  -38.934  -41.916  -44.867  -47.436  -49.376  -50.609  -51.196  -51.297  -51.123  -50.891  -50.802  -51.000  -51.570  -52.518  -53.772  -55.161  -56.446  -57.370  -57.665
  -6.238   -5.916   -5.497   -4.883   -4.112   -3.275   -2.476   -1.829   -1.406   -1.183   -1.111   -1.085   -1.075   -1.040   -0.988   -0.937   -0.892   -0.872   -0.891   -0.928   -0.968   -0.990   -1.000   -0.982   -0.965   -0.974   -1.003   -1.081   -1.216   -1.434   -1.747   -2.126   -2.579   -3.098   -3.681   -4.326   -5.058   -5.882   -6.831   -7.881   -9.003  -10.110  -11.130  -12.038  -12.825  -13.542  -14.225  -14.902  -15.601  -16.323  -17.075  -17.848  -18.630  -19.384  -20.070  -20.659  -21.136  -21.496  -21.770  -21.996  -22.206  -22.436  -22.690  -22.967  -23.281  -23.634  -24.037  -24.507  -25.053  -25.655  -26.290  -26.932  -27.557  -28.152  -28.707  -29.259  -29.865  -30.647  -31.747  -33.303  -35.386  -37.919  -40.688  -43.337  -45.550  -47.130  -48.034  -48.363  -48.297  -48.044  -47.810  -47.761  -48.003  -48.590  -49.510  -50.693  -51.989  -53.192  -54.062  -54.362
  -3.562   -3.362   -3.182   -2.910   -2.548   -2.124   -1.699   -1.329   -1.066   -0.925   -0.884   -0.874   -0.891   -0.886   -0.867   -0.854   -0.842   -0.870   -0.927   -1.000   -1.055   -1.067   -1.043   -1.002   -0.949   -0.917   -0.913   -0.942   -1.003   -1.117   -1.267   -1.466   -1.709   -1.995   -2.335   -2.744   -3.226   -3.846   -4.618   -5.530   -6.534   -7.505   -8.363   -9.054   -9.582   -9.998  -10.347  -10.681  -11.045  -11.473  -11.996  -12.621  -13.354  -14.157  -15.010  -15.872  -16.710  -17.493  -18.212  -18.875  -19.503  -20.105  -20.673  -21.214  -21.733  -22.249  -22.781  -23.355  -23.974  -24.623  -25.273  -25.901  -26.481  -27.013  -27.501  -27.975  -28.518  -29.248  -30.286  -31.755  -33.697  -36.039  -38.555  -40.936  -42.887  -44.241  -44.972  -45.193  -45.081  -44.844  -44.670  -44.690  -45.004  -45.636  -46.565  -47.730  -48.993  -50.166  -51.027  -51.351
  -2.014   -1.878   -1.821   -1.708   -1.549   -1.360   -1.161   -0.977   -0.840   -0.779   -0.763   -0.774   -0.802   -0.821   -0.823   -0.824   -0.848   -0.925   -1.024   -1.109   -1.160   -1.147   -1.087   -1.005   -0.927   -0.882   -0.855   -0.858   -0.883   -0.929   -1.003   -1.102   -1.229   -1.370   -1.549   -1.778   -2.085   -2.505   -3.076   -3.787   -4.584   -5.355   -6.003   -6.495   -6.815   -7.012   -7.130   -7.239   -7.372   -7.591   -7.927   -8.425   -9.090   -9.914  -10.876  -11.937  -13.038  -14.132  -15.188  -16.213  -17.203  -18.147  -19.021  -19.816  -20.533  -21.195  -21.820  -22.436  -23.045  -23.639  -24.189  -24.681  -25.119  -25.510  -25.864  -26.224  -26.672  -27.310  -28.258  -29.602  -31.377  -33.516  -35.811  -37.988  -39.790  -41.050  -41.748  -41.984  -41.926  -41.767  -41.680  -41.788  -42.177  -42.868  -43.838  -45.029  -46.312  -47.502  -48.381  -48.737
  -1.283   -1.174   -1.139   -1.100   -1.026   -0.935   -0.852   -0.765   -0.717   -0.688   -0.689   -0.724   -0.768   -0.793   -0.811   -0.828   -0.884   -0.996   -1.141   -1.251   -1.279   -1.213   -1.105   -0.988   -0.886   -0.831   -0.800   -0.790   -0.797   -0.820   -0.856   -0.907   -0.962   -1.033   -1.125   -1.245   -1.417   -1.679   -2.046   -2.530   -3.079   -3.609   -4.046   -4.354   -4.530   -4.602   -4.616   -4.609   -4.623   -4.724   -4.936   -5.315   -5.890   -6.663   -7.629   -8.744   -9.942  -11.196  -12.461  -13.741  -15.023  -16.275  -17.452  -18.508  -19.436  -20.245  -20.950  -21.570  -22.118  -22.582  -22.964  -23.265  -23.511  -23.727  -23.932  -24.185  -24.549  -25.128  -26.003  -27.253  -28.893  -30.862  -32.987  -35.029  -36.757  -38.013  -38.771  -39.115  -39.184  -39.157  -39.184  -39.390  -39.853  -40.602  -41.623  -42.856  -44.174  -45.391  -46.288  -46.658
  -0.983   -0.880   -0.851   -0.822   -0.779   -0.741   -0.697   -0.659   -0.645   -0.633   -0.652   -0.680   -0.721   -0.756   -0.779   -0.811   -0.898   -1.056   -1.231   -1.348   -1.343   -1.230   -1.071   -0.923   -0.824   -0.771   -0.740   -0.729   -0.743   -0.746   -0.768   -0.799   -0.828   -0.866   -0.906   -0.974   -1.063   -1.203   -1.414   -1.692   -2.003   -2.319   -2.563   -2.733   -2.824   -2.852   -2.832   -2.798   -2.787   -2.837   -2.970   -3.239   -3.688   -4.327   -5.168   -6.176   -7.308   -8.529   -9.843  -11.247  -12.729  -14.238  -15.691  -17.013  -18.167  -19.133  -19.922  -20.555  -21.044  -21.384  -21.601  -21.728  -21.808  -21.885  -21.998  -22.193  -22.537  -23.109  -23.970  -25.171  -26.725  -28.552  -30.525  -32.450  -34.115  -35.392  -36.245  -36.739  -36.986  -37.135  -37.307  -37.627  -38.167  -38.978  -40.042  -41.297  -42.631  -43.850  -44.739  -45.087
  -0.843   -0.746   -0.732   -0.699   -0.671   -0.649   -0.627   -0.605   -0.596   -0.601   -0.609   -0.630   -0.666   -0.691   -0.719   -0.770   -0.874   -1.044   -1.235   -1.352   -1.336   -1.193   -1.002   -0.849   -0.755   -0.704   -0.685   -0.682   -0.680   -0.689   -0.705   -0.722   -0.744   -0.763   -0.796   -0.826   -0.874   -0.945   -1.052   -1.182   -1.339   -1.486   -1.612   -1.697   -1.738   -1.754   -1.742   -1.729   -1.716   -1.746   -1.831   -2.007   -2.305   -2.765   -3.382   -4.158   -5.075   -6.128   -7.334   -8.716  -10.264  -11.926  -13.585  -15.142  -16.510  -17.654  -18.561  -19.243  -19.713  -19.997  -20.128  -20.162  -20.165  -20.196  -20.300  -20.517  -20.902  -21.514  -22.399  -23.573  -25.027  -26.696  -28.485  -30.235  -31.783  -33.036  -33.955  -34.583  -35.013  -35.350  -35.692  -36.143  -36.786  -37.660  -38.762  -40.030  -41.346  -42.534  -43.395  -43.692
  -0.777   -0.685   -0.660   -0.638   -0.619   -0.599   -0.586   -0.575   -0.566   -0.561   -0.573   -0.582   -0.605   -0.620   -0.645   -0.696   -0.797   -0.959   -1.145   -1.253   -1.224   -1.081   -0.912   -0.768   -0.684   -0.643   -0.635   -0.629   -0.635   -0.648   -0.662   -0.676   -0.690   -0.704   -0.720   -0.741   -0.773   -0.806   -0.851   -0.916   -0.984   -1.045   -1.102   -1.139   -1.171   -1.176   -1.181   -1.180   -1.189   -1.207   -1.258   -1.353   -1.526   -1.800   -2.191   -2.699   -3.330   -4.110   -5.082   -6.294   -7.754   -9.399  -11.133  -12.824  -14.365  -15.676  -16.718  -17.491  -18.020  -18.334  -18.482  -18.543  -18.575  -18.657  -18.832  -19.144  -19.613  -20.285  -21.175  -22.275  -23.565  -25.010  -26.532  -28.015  -29.361  -30.497  -31.404  -32.106  -32.667  -33.160  -33.660  -34.250  -34.999  -35.953  -37.096  -38.372  -39.664  -40.813  -41.635  -41.896
  -0.741   -0.652   -0.629   -0.608   -0.591   -0.576   -0.565   -0.555   -0.547   -0.540   -0.536   -0.549   -0.557   -0.559   -0.580   -0.626   -0.702   -0.833   -0.969   -1.052   -1.041   -0.929   -0.800   -0.690   -0.627   -0.597   -0.587   -0.591   -0.602   -0.613   -0.625   -0.636   -0.648   -0.661   -0.674   -0.687   -0.701   -0.721   -0.749   -0.775   -0.808   -0.829   -0.859   -0.882   -0.899   -0.911   -0.917   -0.930   -0.932   -0.953   -0.981   -1.036   -1.122   -1.261   -1.465   -1.747   -2.120   -2.620   -3.306   -4.226   -5.431   -6.887   -8.510  -10.184  -11.772  -13.173  -14.315  -15.195  -15.824  -16.242  -16.501  -16.674  -16.830  -17.046  -17.365  -17.804  -18.387  -19.101  -19.938  -20.893  -21.951  -23.081  -24.252  -25.395  -26.454  -27.383  -28.178  -28.862  -29.466  -30.045  -30.650  -31.337  -32.174  -33.179  -34.351  -35.622  -36.889  -38.008  -38.815  -39.084
  -0.714   -0.630   -0.608   -0.587   -0.571   -0.558   -0.546   -0.537   -0.530   -0.523   -0.518   -0.515   -0.517   -0.526   -0.532   -0.560   -0.612   -0.691   -0.780   -0.837   -0.835   -0.763   -0.684   -0.606   -0.571   -0.561   -0.555   -0.564   -0.573   -0.582   -0.592   -0.602   -0.613   -0.624   -0.635   -0.646   -0.658   -0.670   -0.682   -0.699   -0.712   -0.736   -0.751   -0.765   -0.781   -0.790   -0.799   -0.812   -0.825   -0.837   -0.853   -0.877   -0.922   -0.986   -1.075   -1.208   -1.394   -1.674   -2.091   -2.699   -3.565   -4.685   -6.017   -7.467   -8.923  -10.262  -11.408  -12.338  -13.058  -13.602  -14.007  -14.336  -14.671  -15.072  -15.594  -16.210  -16.911  -17.655  -18.409  -19.162  -19.934  -20.703  -21.472  -22.229  -22.942  -23.596  -24.199  -24.767  -25.320  -25.887  -26.499  -27.208  -28.051  -29.047  -30.184  -31.409  -32.621  -33.703  -34.503  -34.819
  -0.692   -0.610   -0.589   -0.570   -0.554   -0.541   -0.530   -0.521   -0.514   -0.508   -0.503   -0.499   -0.495   -0.493   -0.501   -0.515   -0.542   -0.577   -0.629   -0.658   -0.658   -0.626   -0.585   -0.555   -0.536   -0.526   -0.533   -0.540   -0.548   -0.556   -0.565   -0.574   -0.583   -0.592   -0.601   -0.611   -0.622   -0.632   -0.642   -0.653   -0.663   -0.674   -0.684   -0.695   -0.706   -0.717   -0.727   -0.738   -0.750   -0.760   -0.772   -0.789   -0.814   -0.841   -0.884   -0.934   -1.020   -1.154   -1.368   -1.720   -2.253   -2.991   -3.929   -5.013   -6.163   -7.274   -8.287   -9.153   -9.887  -10.494  -11.017  -11.506  -12.030  -12.660  -13.404  -14.238  -15.077  -15.857  -16.522  -17.075  -17.543  -17.947  -18.321  -18.671  -19.012  -19.359  -19.711  -20.090  -20.515  -20.981  -21.512  -22.140  -22.892  -23.772  -24.777  -25.855  -26.946  -27.939  -28.693  -29.075
  -0.672   -0.593   -0.573   -0.553   -0.538   -0.526   -0.516   -0.507   -0.500   -0.494   -0.489   -0.486   -0.483   -0.480   -0.479   -0.480   -0.499   -0.515   -0.532   -0.554   -0.553   -0.538   -0.525   -0.513   -0.502   -0.508   -0.514   -0.520   -0.526   -0.533   -0.540   -0.548   -0.556   -0.565   -0.573   -0.582   -0.590   -0.599   -0.608   -0.617   -0.627   -0.636   -0.645   -0.655   -0.665   -0.674   -0.683   -0.693   -0.703   -0.713   -0.723   -0.733   -0.744   -0.759   -0.779   -0.806   -0.842   -0.899   -1.002   -1.177   -1.454   -1.873   -2.426   -3.108   -3.874   -4.660   -5.408   -6.103   -6.731   -7.311   -7.871   -8.463   -9.146   -9.976  -10.940  -11.968  -12.950  -13.762  -14.351  -14.729  -14.926  -15.012  -15.018  -15.000  -14.985  -15.016  -15.120  -15.295  -15.549  -15.870  -16.262  -16.736  -17.314  -17.994  -18.777  -19.611  -20.476  -21.290  -21.931  -22.349
  -0.655   -0.577   -0.558   -0.540   -0.525   -0.513   -0.504   -0.495   -0.489   -0.483   -0.478   -0.474   -0.471   -0.469   -0.468   -0.467   -0.468   -0.477   -0.489   -0.495   -0.497   -0.495   -0.485   -0.482   -0.486   -0.491   -0.496   -0.502   -0.508   -0.514   -0.520   -0.527   -0.534   -0.541   -0.548   -0.555   -0.564   -0.572   -0.580   -0.588   -0.596   -0.604   -0.612   -0.621   -0.629   -0.638   -0.646   -0.655   -0.663   -0.673   -0.681   -0.691   -0.700   -0.709   -0.719   -0.732   -0.754   -0.780   -0.827   -0.900   -1.028   -1.227   -1.507   -1.869   -2.289   -2.752   -3.219   -3.670   -4.133   -4.597   -5.100   -5.697   -6.439   -7.365   -8.444   -9.572  -10.605  -11.421  -11.940  -12.180  -12.186  -12.030  -11.762  -11.451  -11.148  -10.934  -10.820  -10.831  -10.939  -11.122  -11.373  -11.693  -12.080  -12.542  -13.068  -13.632  -14.227  -14.797  -15.264  -15.668
  -0.640   -0.565   -0.546   -0.528   -0.514   -0.503   -0.493   -0.485   -0.479   -0.473   -0.469   -0.465   -0.462   -0.460   -0.458   -0.457   -0.457   -0.457   -0.458   -0.459   -0.461   -0.463   -0.466   -0.470   -0.473   -0.477   -0.482   -0.486   -0.491   -0.496   -0.502   -0.509   -0.515   -0.521   -0.527   -0.534   -0.541   -0.547   -0.554   -0.562   -0.569   -0.577   -0.584   -0.592   -0.599   -0.607   -0.614   -0.622   -0.630   -0.638   -0.646   -0.654   -0.662   -0.671   -0.680   -0.689   -0.699   -0.711   -0.733   -0.770   -0.815   -0.902   -1.023   -1.188   -1.378   -1.601   -1.840   -2.100   -2.372   -2.683   -3.073   -3.584   -4.263   -5.125   -6.149   -7.197   -8.150   -8.877   -9.296   -9.441   -9.341   -9.055   -8.650   -8.182   -7.741   -7.393   -7.173   -7.083   -7.101   -7.193   -7.345   -7.548   -7.813   -8.113   -8.463   -8.840   -9.223   -9.588   -9.901  -10.245
  -0.628   -0.554   -0.536   -0.519   -0.505   -0.494   -0.485   -0.477   -0.471   -0.465   -0.461   -0.457   -0.454   -0.452   -0.450   -0.449   -0.449   -0.449   -0.449   -0.450   -0.452   -0.454   -0.456   -0.459   -0.462   -0.466   -0.470   -0.474   -0.478   -0.482   -0.487   -0.492   -0.498   -0.503   -0.510   -0.516   -0.522   -0.528   -0.534   -0.540   -0.547   -0.553   -0.560   -0.567   -0.574   -0.580   -0.587   -0.594   -0.601   -0.609   -0.616   -0.623   -0.631   -0.639   -0.647   -0.655   -0.664   -0.672   -0.682   -0.697   -0.724   -0.759   -0.802   -0.861   -0.944   -1.035   -1.138   -1.261   -1.399   -1.583   -1.836   -2.201   -2.725   -3.397   -4.191   -5.011   -5.748   -6.297   -6.604   -6.669   -6.542   -6.258   -5.847   -5.391   -4.969   -4.626   -4.408   -4.297   -4.272   -4.325   -4.422   -4.580   -4.777   -5.040   -5.341   -5.659   -5.981   -6.275   -6.511   -6.807
  -0.619   -0.546   -0.529   -0.512   -0.498   -0.487   -0.478   -0.471   -0.465   -0.459   -0.455   -0.451   -0.448   -0.446   -0.444   -0.443   -0.443   -0.442   -0.443   -0.443   -0.445   -0.446   -0.448   -0.450   -0.453   -0.456   -0.460   -0.463   -0.467   -0.471   -0.475   -0.480   -0.485   -0.489   -0.494   -0.500   -0.505   -0.511   -0.517   -0.523   -0.528   -0.534   -0.540   -0.546   -0.552   -0.559   -0.565   -0.571   -0.578   -0.584   -0.591   -0.598   -0.604   -0.611   -0.619   -0.626   -0.634   -0.642   -0.650   -0.658   -0.667   -0.683   -0.708   -0.729   -0.760   -0.796   -0.833   -0.887   -0.953   -1.050   -1.188   -1.409   -1.737   -2.178   -2.679   -3.204   -3.675   -4.019   -4.200   -4.232   -4.130   -3.916   -3.620   -3.291   -2.981   -2.737   -2.577   -2.489   -2.473   -2.504   -2.589   -2.727   -2.934   -3.225   -3.569   -3.952   -4.329   -4.663   -4.914   -5.183
  -0.613   -0.541   -0.523   -0.507   -0.494   -0.483   -0.474   -0.467   -0.461   -0.456   -0.451   -0.448   -0.445   -0.442   -0.441   -0.439   -0.438   -0.438   -0.438   -0.439   -0.440   -0.441   -0.442   -0.444   -0.447   -0.449   -0.452   -0.455   -0.459   -0.462   -0.466   -0.470   -0.474   -0.479   -0.483   -0.488   -0.493   -0.498   -0.503   -0.508   -0.513   -0.519   -0.524   -0.530   -0.535   -0.541   -0.547   -0.552   -0.558   -0.564   -0.570   -0.576   -0.583   -0.589   -0.596   -0.602   -0.609   -0.616   -0.624   -0.631   -0.639   -0.647   -0.656   -0.668   -0.679   -0.705   -0.717   -0.744   -0.769   -0.817   -0.892   -1.001   -1.177   -1.396   -1.662   -1.935   -2.178   -2.360   -2.450   -2.471   -2.410   -2.286   -2.123   -1.936   -1.768   -1.631   -1.554   -1.511   -1.504   -1.534   -1.607   -1.739   -1.948   -2.264   -2.665   -3.126   -3.592   -4.005   -4.319   -4.604
  -0.610   -0.538   -0.521   -0.505   -0.492   -0.481   -0.472   -0.465   -0.459   -0.454   -0.450   -0.446   -0.443   -0.441   -0.439   -0.438   -0.437   -0.436   -0.436   -0.437   -0.437   -0.438   -0.439   -0.441   -0.443   -0.445   -0.448   -0.451   -0.454   -0.457   -0.460   -0.464   -0.467   -0.471   -0.475   -0.480   -0.484   -0.488   -0.493   -0.497   -0.502   -0.507   -0.512   -0.517   -0.522   -0.527   -0.532   -0.538   -0.543   -0.549   -0.554   -0.560   -0.565   -0.571   -0.577   -0.583   -0.590   -0.596   -0.603   -0.610   -0.617   -0.624   -0.632   -0.639   -0.647   -0.655   -0.664   -0.676   -0.695   -0.718   -0.751   -0.801   -0.877   -0.968   -1.093   -1.212   -1.308   -1.394   -1.431   -1.439   -1.411   -1.366   -1.300   -1.221   -1.153   -1.100   -1.066   -1.048   -1.054   -1.086   -1.138   -1.248   -1.445   -1.752   -2.153   -2.625   -3.140   -3.632   -4.002   -4.305
  -0.612   -0.540   -0.523   -0.506   -0.493   -0.483   -0.474   -0.467   -0.461   -0.456   -0.452   -0.448   -0.445   -0.443   -0.441   -0.440   -0.438   -0.438   -0.438   -0.438   -0.438   -0.439   -0.440   -0.441   -0.443   -0.445   -0.447   -0.449   -0.452   -0.455   -0.458   -0.461   -0.464   -0.468   -0.471   -0.475   -0.479   -0.483   -0.487   -0.491   -0.495   -0.500   -0.504   -0.509   -0.513   -0.518   -0.523   -0.528   -0.533   -0.538   -0.543   -0.548   -0.553   -0.559   -0.564   -0.570   -0.576   -0.582   -0.588   -0.594   -0.600   -0.607   -0.614   -0.621   -0.628   -0.635   -0.642   -0.650   -0.657   -0.667   -0.687   -0.711   -0.742   -0.776   -0.822   -0.863   -0.904   -0.935   -0.945   -0.954   -0.957   -0.945   -0.926   -0.908   -0.890   -0.871   -0.860   -0.867   -0.873   -0.896   -0.933   -1.015   -1.168   -1.410   -1.757   -2.197   -2.700   -3.199   -3.608   -3.931
  -0.621   -0.542   -0.525   -0.509   -0.495   -0.485   -0.476   -0.469   -0.463   -0.458   -0.454   -0.451   -0.448   -0.445   -0.443   -0.442   -0.440   -0.440   -0.439   -0.439   -0.439   -0.440   -0.441   -0.442   -0.443   -0.445   -0.446   -0.448   -0.451   -0.453   -0.456   -0.459   -0.462   -0.465   -0.468   -0.471   -0.475   -0.479   -0.482   -0.486   -0.490   -0.494   -0.498   -0.502   -0.506   -0.511   -0.515   -0.519   -0.524   -0.529   -0.533   -0.538   -0.543   -0.548   -0.553   -0.558   -0.564   -0.569   -0.575   -0.580   -0.586   -0.592   -0.598   -0.604   -0.611   -0.617   -0.624   -0.631   -0.638   -0.645   -0.651   -0.662   -0.680   -0.696   -0.709   -0.732   -0.748   -0.755   -0.763   -0.771   -0.778   -0.787   -0.779   -0.777   -0.780   -0.784   -0.778   -0.780   -0.790   -0.810   -0.842   -0.895   -0.996   -1.174   -1.436   -1.819   -2.281   -2.776   -3.188   -3.527
  -0.793   -0.604   -0.581   -0.563   -0.549   -0.538   -0.529   -0.522   -0.515   -0.510   -0.506   -0.502   -0.499   -0.496   -0.494   -0.492   -0.491   -0.490   -0.489   -0.488   -0.488   -0.489   -0.489   -0.490   -0.491   -0.492   -0.494   -0.495   -0.497   -0.499   -0.502   -0.504   -0.507   -0.509   -0.512   -0.515   -0.519   -0.522   -0.525   -0.529   -0.533   -0.536   -0.540   -0.544   -0.548   -0.552   -0.556   -0.560   -0.565   -0.569   -0.574   -0.578   -0.583   -0.588   -0.593   -0.598   -0.603   -0.608   -0.613   -0.619   -0.625   -0.630   -0.636   -0.642   -0.648   -0.655   -0.661   -0.668   -0.675   -0.681   -0.688   -0.695   -0.702   -0.709   -0.720   -0.730   -0.754   -0.763   -0.771   -0.778   -0.785   -0.778   -0.778   -0.786   -0.790   -0.797   -0.805   -0.813   -0.819   -0.830   -0.861   -0.897   -0.976   -1.122   -1.350   -1.682   -2.124   -2.600   -3.021   -3.501
