DSAA
 100 100
 0.0 400.0
 0.0 400.0
 -96.30452 -1.242937
  -1.853   -1.646   -1.749   -1.944   -2.223   -2.545   -2.879   -3.163   -3.342   -3.380   -3.240   -2.932   -2.523   -2.096   -1.738   -1.502   -1.437   -1.552   -1.882   -2.404   -3.010   -3.505   -3.702   -3.561   -3.230   -2.933   -2.827   -2.883   -2.967   -2.973   -2.870   -2.702   -2.543   -2.404   -2.294   -2.198   -2.133   -2.144   -2.284   -2.577   -2.994   -3.453   -3.884   -4.253   -4.510   -4.601   -4.503   -4.299   -4.134   -4.082   -4.119   -4.175   -4.199   -4.182   -4.124   -4.011   -3.813   -3.548   -3.285   -3.111   -3.104   -3.203   -3.261   -3.138   -2.804   -2.371   -2.008   -1.841   -1.869   -2.018   -2.179   -2.316   -2.456   -2.609   -2.727   -2.714   -2.547   -2.312   -2.108   -1.999   -1.996   -2.068   -2.190   -2.302   -2.382   -2.453   -2.578   -2.814   -3.183   -3.653   -4.148   -4.566   -4.790   -4.725   -4.337   -3.722   -3.027   -2.408   -1.991   -2.042
  -1.971   -1.891   -2.028   -2.252   -2.541   -2.875   -3.201   -3.469   -3.628   -3.629   -3.451   -3.106   -2.655   -2.187   -1.791   -1.519   -1.422   -1.512   -1.807   -2.286   -2.846   -3.301   -3.479   -3.349   -3.037   -2.758   -2.647   -2.693   -2.784   -2.825   -2.779   -2.671   -2.539   -2.402   -2.280   -2.172   -2.107   -2.116   -2.243   -2.501   -2.860   -3.248   -3.610   -3.913   -4.137   -4.243   -4.217   -4.130   -4.096   -4.171   -4.296   -4.399   -4.432   -4.396   -4.301   -4.136   -3.873   -3.533   -3.182   -2.938   -2.861   -2.908   -2.940   -2.831   -2.539   -2.165   -1.863   -1.737   -1.786   -1.944   -2.102   -2.223   -2.341   -2.486   -2.601   -2.601   -2.455   -2.246   -2.077   -1.998   -2.016   -2.110   -2.231   -2.349   -2.444   -2.552   -2.723   -3.010   -3.437   -3.967   -4.536   -5.035   -5.314   -5.260   -4.824   -4.108   -3.296   -2.572   -2.074   -1.987
  -2.706   -2.657   -2.819   -3.070   -3.379   -3.707   -4.010   -4.234   -4.333   -4.266   -4.024   -3.622   -3.115   -2.580   -2.109   -1.765   -1.592   -1.611   -1.828   -2.206   -2.656   -3.019   -3.161   -3.061   -2.810   -2.579   -2.472   -2.496   -2.588   -2.684   -2.738   -2.728   -2.647   -2.526   -2.394   -2.292   -2.238   -2.255   -2.364   -2.564   -2.824   -3.094   -3.340   -3.546   -3.711   -3.815   -3.880   -3.954   -4.111   -4.348   -4.586   -4.742   -4.781   -4.718   -4.568   -4.327   -3.980   -3.555   -3.124   -2.798   -2.635   -2.603   -2.590   -2.496   -2.282   -2.024   -1.825   -1.757   -1.829   -1.969   -2.104   -2.207   -2.300   -2.424   -2.539   -2.570   -2.477   -2.337   -2.241   -2.225   -2.287   -2.389   -2.500   -2.601   -2.706   -2.862   -3.105   -3.470   -3.962   -4.576   -5.254   -5.883   -6.277   -6.265   -5.799   -4.983   -4.036   -3.191   -2.609   -2.465
  -3.717   -3.691   -3.868   -4.129   -4.431   -4.734   -4.984   -5.150   -5.181   -5.048   -4.747   -4.288   -3.720   -3.111   -2.548   -2.100   -1.818   -1.722   -1.809   -2.044   -2.343   -2.591   -2.698   -2.634   -2.470   -2.304   -2.213   -2.215   -2.299   -2.440   -2.574   -2.647   -2.628   -2.537   -2.432   -2.366   -2.357   -2.405   -2.506   -2.654   -2.834   -3.020   -3.183   -3.321   -3.430   -3.521   -3.614   -3.757   -3.990   -4.290   -4.563   -4.726   -4.755   -4.658   -4.474   -4.197   -3.842   -3.427   -3.026   -2.704   -2.516   -2.431   -2.365   -2.265   -2.113   -1.954   -1.843   -1.819   -1.880   -1.990   -2.103   -2.188   -2.273   -2.390   -2.516   -2.586   -2.573   -2.531   -2.530   -2.589   -2.683   -2.772   -2.841   -2.893   -2.979   -3.147   -3.434   -3.843   -4.381   -5.057   -5.834   -6.596   -7.127   -7.221   -6.803   -5.984   -5.007   -4.121   -3.506   -3.337
  -4.806   -4.792   -4.960   -5.198   -5.456   -5.704   -5.900   -6.000   -5.974   -5.797   -5.462   -4.978   -4.375   -3.719   -3.081   -2.530   -2.115   -1.872   -1.800   -1.862   -2.000   -2.129   -2.198   -2.173   -2.086   -1.985   -1.912   -1.892   -1.955   -2.092   -2.251   -2.361   -2.386   -2.344   -2.303   -2.304   -2.356   -2.446   -2.553   -2.687   -2.837   -3.003   -3.161   -3.289   -3.382   -3.447   -3.511   -3.610   -3.772   -3.982   -4.171   -4.280   -4.276   -4.169   -3.997   -3.768   -3.500   -3.221   -2.960   -2.743   -2.588   -2.465   -2.337   -2.193   -2.053   -1.941   -1.885   -1.879   -1.927   -2.009   -2.103   -2.193   -2.293   -2.412   -2.540   -2.645   -2.714   -2.782   -2.886   -3.014   -3.116   -3.166   -3.163   -3.149   -3.191   -3.346   -3.629   -4.038   -4.580   -5.285   -6.141   -7.013   -7.679   -7.905   -7.623   -6.933   -6.067   -5.263   -4.698   -4.540
  -5.810   -5.791   -5.920   -6.103   -6.301   -6.479   -6.603   -6.649   -6.595   -6.410   -6.077   -5.609   -5.020   -4.361   -3.693   -3.075   -2.556   -2.179   -1.945   -1.835   -1.812   -1.828   -1.850   -1.843   -1.808   -1.750   -1.690   -1.648   -1.671   -1.767   -1.902   -2.008   -2.051   -2.062   -2.082   -2.137   -2.223   -2.328   -2.444   -2.578   -2.732   -2.912   -3.102   -3.265   -3.389   -3.465   -3.505   -3.528   -3.553   -3.599   -3.642   -3.663   -3.626   -3.546   -3.432   -3.301   -3.175   -3.066   -2.962   -2.861   -2.735   -2.567   -2.361   -2.154   -1.989   -1.892   -1.863   -1.879   -1.933   -2.019   -2.134   -2.255   -2.375   -2.491   -2.603   -2.714   -2.844   -3.003   -3.192   -3.355   -3.447   -3.453   -3.406   -3.361   -3.378   -3.522   -3.792   -4.192   -4.736   -5.469   -6.387   -7.355   -8.134   -8.504   -8.384   -7.883   -7.193   -6.519   -6.034   -5.886
  -6.608   -6.575   -6.653   -6.772   -6.897   -7.000   -7.064   -7.071   -7.005   -6.834   -6.540   -6.123   -5.589   -4.983   -4.336   -3.717   -3.153   -2.686   -2.327   -2.079   -1.922   -1.842   -1.806   -1.795   -1.781   -1.745   -1.688   -1.638   -1.624   -1.677   -1.770   -1.861   -1.916   -1.953   -1.980   -2.011   -2.065   -2.133   -2.220   -2.340   -2.485   -2.660   -2.856   -3.046   -3.212   -3.335   -3.397   -3.392   -3.339   -3.266   -3.205   -3.152   -3.114   -3.075   -3.040   -3.006   -2.981   -2.969   -2.943   -2.877   -2.733   -2.515   -2.254   -2.006   -1.830   -1.752   -1.756   -1.812   -1.899   -2.027   -2.186   -2.356   -2.498   -2.599   -2.686   -2.793   -2.957   -3.167   -3.378   -3.526   -3.587   -3.574   -3.534   -3.532   -3.611   -3.793   -4.086   -4.503   -5.071   -5.849   -6.838   -7.895   -8.794   -9.302   -9.349   -9.015   -8.457   -7.856   -7.384   -7.226
  -7.170   -7.115   -7.146   -7.206   -7.259   -7.301   -7.319   -7.301   -7.232   -7.089   -6.841   -6.487   -6.028   -5.506   -4.940   -4.367   -3.814   -3.311   -2.883   -2.540   -2.291   -2.133   -2.057   -2.039   -2.034   -2.009   -1.966   -1.932   -1.928   -1.975   -2.058   -2.145   -2.204   -2.220   -2.191   -2.129   -2.070   -2.034   -2.048   -2.107   -2.196   -2.313   -2.461   -2.633   -2.814   -2.976   -3.086   -3.117   -3.070   -2.967   -2.863   -2.797   -2.779   -2.799   -2.828   -2.846   -2.851   -2.829   -2.783   -2.681   -2.505   -2.266   -2.001   -1.782   -1.653   -1.623   -1.659   -1.749   -1.878   -2.046   -2.249   -2.461   -2.623   -2.729   -2.813   -2.929   -3.107   -3.311   -3.484   -3.577   -3.591   -3.581   -3.615   -3.729   -3.934   -4.220   -4.581   -5.035   -5.641   -6.463   -7.515   -8.667   -9.684  -10.356  -10.570  -10.375   -9.891   -9.291   -8.770   -8.569
  -7.519   -7.446   -7.441   -7.452   -7.461   -7.462   -7.447   -7.411   -7.343   -7.224   -7.016   -6.716   -6.328   -5.886   -5.406   -4.898   -4.385   -3.880   -3.422   -3.024   -2.723   -2.527   -2.441   -2.422   -2.435   -2.441   -2.448   -2.481   -2.556   -2.663   -2.787   -2.890   -2.934   -2.895   -2.761   -2.562   -2.348   -2.181   -2.081   -2.043   -2.047   -2.071   -2.133   -2.235   -2.375   -2.534   -2.668   -2.742   -2.726   -2.648   -2.543   -2.481   -2.486   -2.548   -2.628   -2.672   -2.662   -2.603   -2.506   -2.371   -2.192   -1.987   -1.805   -1.682   -1.644   -1.670   -1.728   -1.809   -1.929   -2.097   -2.310   -2.534   -2.722   -2.865   -2.993   -3.150   -3.336   -3.512   -3.623   -3.653   -3.643   -3.670   -3.806   -4.061   -4.405   -4.791   -5.210   -5.696   -6.318   -7.170   -8.256   -9.480  -10.612  -11.437  -11.830  -11.783  -11.393  -10.813  -10.268  -10.028
  -7.707   -7.620   -7.597   -7.580   -7.568   -7.548   -7.519   -7.482   -7.419   -7.314   -7.130   -6.864   -6.521   -6.131   -5.702   -5.240   -4.744   -4.243   -3.766   -3.344   -3.017   -2.813   -2.737   -2.751   -2.805   -2.881   -2.989   -3.152   -3.363   -3.603   -3.808   -3.926   -3.930   -3.804   -3.548   -3.211   -2.867   -2.584   -2.386   -2.258   -2.166   -2.101   -2.069   -2.078   -2.142   -2.244   -2.353   -2.425   -2.417   -2.333   -2.220   -2.143   -2.141   -2.219   -2.320   -2.386   -2.387   -2.334   -2.247   -2.137   -2.013   -1.905   -1.850   -1.865   -1.929   -1.990   -2.023   -2.045   -2.093   -2.210   -2.390   -2.595   -2.793   -2.981   -3.174   -3.387   -3.605   -3.778   -3.867   -3.890   -3.918   -4.021   -4.262   -4.615   -5.027   -5.447   -5.870   -6.344   -6.954   -7.800   -8.895  -10.150  -11.353  -12.295  -12.845  -12.975  -12.745  -12.294  -11.828  -11.602
  -7.787   -7.695   -7.660   -7.640   -7.619   -7.600   -7.582   -7.553   -7.502   -7.409   -7.242   -6.995   -6.672   -6.292   -5.863   -5.397   -4.885   -4.361   -3.854   -3.409   -3.076   -2.887   -2.841   -2.903   -3.044   -3.238   -3.496   -3.829   -4.217   -4.595   -4.875   -4.994   -4.933   -4.700   -4.333   -3.897   -3.478   -3.133   -2.877   -2.683   -2.527   -2.395   -2.288   -2.222   -2.201   -2.227   -2.272   -2.296   -2.253   -2.129   -1.960   -1.828   -1.782   -1.836   -1.942   -2.040   -2.102   -2.122   -2.115   -2.095   -2.075   -2.091   -2.173   -2.310   -2.447   -2.518   -2.491   -2.420   -2.377   -2.421   -2.547   -2.718   -2.902   -3.104   -3.338   -3.606   -3.868   -4.088   -4.239   -4.349   -4.480   -4.685   -4.996   -5.372   -5.759   -6.124   -6.477   -6.892   -7.467   -8.288   -9.369  -10.610  -11.834  -12.833  -13.487  -13.769  -13.738  -13.502  -13.218  -13.063
  -7.818   -7.716   -7.685   -7.660   -7.643   -7.636   -7.627   -7.619   -7.583   -7.511   -7.364   -7.134   -6.816   -6.430   -5.973   -5.454   -4.886   -4.305   -3.752   -3.279   -2.938   -2.764   -2.762   -2.906   -3.159   -3.504   -3.935   -4.444   -4.983   -5.458   -5.769   -5.861   -5.719   -5.390   -4.944   -4.466   -4.038   -3.692   -3.408   -3.169   -2.958   -2.782   -2.643   -2.537   -2.467   -2.437   -2.425   -2.392   -2.284   -2.089   -1.847   -1.636   -1.526   -1.539   -1.635   -1.773   -1.909   -2.030   -2.135   -2.224   -2.322   -2.460   -2.646   -2.858   -3.029   -3.078   -2.995   -2.864   -2.781   -2.807   -2.921   -3.070   -3.228   -3.402   -3.633   -3.920   -4.229   -4.526   -4.792   -5.035   -5.288   -5.577   -5.905   -6.235   -6.531   -6.778   -7.030   -7.365   -7.888   -8.663   -9.697  -10.898  -12.091  -13.093  -13.793  -14.180  -14.311  -14.281  -14.187  -14.122
  -7.814   -7.714   -7.683   -7.657   -7.645   -7.644   -7.650   -7.655   -7.637   -7.583   -7.468   -7.266   -6.968   -6.575   -6.086   -5.505   -4.866   -4.211   -3.599   -3.092   -2.740   -2.580   -2.617   -2.837   -3.205   -3.693   -4.277   -4.912   -5.535   -6.039   -6.340   -6.381   -6.177   -5.791   -5.323   -4.869   -4.485   -4.155   -3.848   -3.552   -3.283   -3.073   -2.935   -2.842   -2.778   -2.739   -2.698   -2.620   -2.459   -2.204   -1.902   -1.631   -1.468   -1.441   -1.526   -1.686   -1.876   -2.078   -2.271   -2.456   -2.651   -2.873   -3.122   -3.367   -3.538   -3.574   -3.494   -3.400   -3.398   -3.512   -3.691   -3.857   -3.995   -4.126   -4.318   -4.586   -4.915   -5.273   -5.625   -5.964   -6.285   -6.599   -6.895   -7.150   -7.334   -7.469   -7.617   -7.875   -8.334   -9.034   -9.983  -11.097  -12.224  -13.197  -13.905  -14.344  -14.573  -14.667  -14.693  -14.696
  -7.803   -7.700   -7.664   -7.642   -7.630   -7.630   -7.640   -7.648   -7.646   -7.611   -7.527   -7.370   -7.107   -6.729   -6.231   -5.614   -4.913   -4.195   -3.531   -2.983   -2.610   -2.447   -2.498   -2.760   -3.196   -3.773   -4.441   -5.134   -5.772   -6.264   -6.533   -6.536   -6.302   -5.910   -5.481   -5.096   -4.772   -4.468   -4.128   -3.769   -3.450   -3.227   -3.113   -3.068   -3.057   -3.046   -3.015   -2.921   -2.729   -2.435   -2.093   -1.787   -1.592   -1.531   -1.603   -1.770   -1.991   -2.241   -2.484   -2.734   -3.005   -3.295   -3.599   -3.873   -4.064   -4.137   -4.147   -4.198   -4.385   -4.675   -4.970   -5.185   -5.317   -5.417   -5.570   -5.805   -6.112   -6.463   -6.823   -7.161   -7.467   -7.735   -7.965   -8.134   -8.232   -8.283   -8.363   -8.558   -8.939   -9.534  -10.351  -11.334  -12.358  -13.274  -13.974  -14.433  -14.698  -14.833  -14.896  -14.931
  -7.787   -7.682   -7.645   -7.620   -7.606   -7.604   -7.610   -7.617   -7.618   -7.599   -7.544   -7.431   -7.221   -6.884   -6.412   -5.798   -5.088   -4.344   -3.652   -3.076   -2.673   -2.469   -2.485   -2.706   -3.118   -3.683   -4.344   -5.031   -5.661   -6.145   -6.401   -6.397   -6.169   -5.813   -5.450   -5.151   -4.894   -4.613   -4.260   -3.876   -3.549   -3.356   -3.298   -3.327   -3.382   -3.412   -3.392   -3.281   -3.056   -2.723   -2.348   -2.013   -1.790   -1.706   -1.758   -1.927   -2.164   -2.442   -2.740   -3.069   -3.433   -3.826   -4.226   -4.587   -4.861   -5.042   -5.213   -5.466   -5.853   -6.301   -6.695   -6.953   -7.084   -7.179   -7.310   -7.509   -7.762   -8.045   -8.327   -8.588   -8.813   -8.995   -9.145   -9.244   -9.286   -9.296   -9.337   -9.480   -9.779  -10.251  -10.914  -11.726  -12.607  -13.427  -14.087  -14.546  -14.820  -14.957  -15.016  -15.054
  -7.767   -7.659   -7.628   -7.604   -7.592   -7.584   -7.584   -7.582   -7.582   -7.566   -7.535   -7.455   -7.300   -7.033   -6.625   -6.075   -5.407   -4.696   -4.010   -3.421   -2.979   -2.703   -2.611   -2.712   -2.994   -3.445   -4.029   -4.677   -5.309   -5.816   -6.103   -6.121   -5.913   -5.589   -5.279   -5.043   -4.845   -4.613   -4.305   -3.980   -3.731   -3.625   -3.663   -3.774   -3.880   -3.933   -3.894   -3.734   -3.443   -3.043   -2.609   -2.222   -1.952   -1.834   -1.875   -2.056   -2.335   -2.683   -3.084   -3.548   -4.078   -4.652   -5.222   -5.742   -6.163   -6.496   -6.824   -7.222   -7.715   -8.223   -8.630   -8.886   -9.022   -9.119   -9.241   -9.409   -9.597   -9.787   -9.967  -10.124  -10.245  -10.340  -10.414  -10.465  -10.479  -10.479  -10.501  -10.604  -10.825  -11.184  -11.693  -12.325  -13.026  -13.705  -14.281  -14.713  -14.987  -15.130  -15.191  -15.232
  -7.757   -7.649   -7.618   -7.597   -7.585   -7.580   -7.571   -7.561   -7.555   -7.540   -7.518   -7.470   -7.367   -7.177   -6.861   -6.415   -5.848   -5.220   -4.581   -4.003   -3.514   -3.150   -2.920   -2.842   -2.927   -3.198   -3.659   -4.258   -4.901   -5.461   -5.804   -5.862   -5.669   -5.351   -5.052   -4.840   -4.695   -4.540   -4.353   -4.171   -4.076   -4.119   -4.269   -4.454   -4.594   -4.631   -4.541   -4.300   -3.909   -3.405   -2.868   -2.392   -2.052   -1.891   -1.935   -2.163   -2.543   -3.036   -3.632   -4.325   -5.097   -5.902   -6.690   -7.390   -7.958   -8.411   -8.815   -9.239   -9.701  -10.144  -10.487  -10.700  -10.822  -10.918  -11.037  -11.178  -11.318  -11.435  -11.531  -11.591  -11.626  -11.647  -11.670  -11.694  -11.705  -11.705  -11.720  -11.789  -11.947  -12.213  -12.589  -13.057  -13.568  -14.078  -14.534  -14.911  -15.186  -15.354  -15.442  -15.494
  -7.757   -7.649   -7.614   -7.599   -7.588   -7.580   -7.569   -7.553   -7.543   -7.528   -7.516   -7.486   -7.429   -7.306   -7.095   -6.772   -6.339   -5.824   -5.268   -4.721   -4.220   -3.791   -3.436   -3.182   -3.065   -3.139   -3.451   -3.979   -4.630   -5.242   -5.637   -5.728   -5.545   -5.213   -4.897   -4.688   -4.585   -4.531   -4.492   -4.492   -4.577   -4.764   -5.014   -5.256   -5.406   -5.423   -5.272   -4.950   -4.463   -3.847   -3.181   -2.587   -2.155   -1.954   -2.024   -2.359   -2.912   -3.643   -4.509   -5.476   -6.504   -7.532   -8.489   -9.304   -9.944  -10.429  -10.807  -11.155  -11.495  -11.806  -12.045  -12.193  -12.290  -12.378  -12.485  -12.605  -12.717  -12.795  -12.831  -12.832  -12.808  -12.783  -12.777  -12.788  -12.803  -12.812  -12.822  -12.864  -12.967  -13.161  -13.438  -13.772  -14.121  -14.460  -14.783  -15.090  -15.359  -15.566  -15.700  -15.773
  -7.761   -7.652   -7.623   -7.604   -7.592   -7.582   -7.571   -7.554   -7.545   -7.530   -7.522   -7.511   -7.483   -7.421   -7.296   -7.089   -6.790   -6.400   -5.953   -5.477   -5.006   -4.552   -4.133   -3.759   -3.482   -3.386   -3.547   -3.983   -4.597   -5.215   -5.645   -5.769   -5.605   -5.276   -4.959   -4.758   -4.690   -4.722   -4.808   -4.954   -5.171   -5.450   -5.749   -6.003   -6.155   -6.157   -5.984   -5.627   -5.079   -4.377   -3.601   -2.880   -2.346   -2.115   -2.246   -2.733   -3.520   -4.526   -5.678   -6.905   -8.132   -9.292  -10.308  -11.131  -11.739  -12.163  -12.454  -12.681  -12.883  -13.064  -13.209  -13.305  -13.374  -13.444  -13.530  -13.632  -13.722  -13.782  -13.794  -13.760  -13.702  -13.652  -13.632  -13.643  -13.666  -13.676  -13.680  -13.697  -13.760  -13.895  -14.099  -14.335  -14.557  -14.756  -14.957  -15.187  -15.443  -15.681  -15.864  -15.962
  -7.767   -7.657   -7.627   -7.612   -7.603   -7.589   -7.579   -7.566   -7.554   -7.544   -7.540   -7.535   -7.528   -7.505   -7.441   -7.322   -7.133   -6.867   -6.538   -6.163   -5.769   -5.359   -4.937   -4.514   -4.147   -3.927   -3.954   -4.275   -4.807   -5.386   -5.811   -5.967   -5.849   -5.577   -5.301   -5.133   -5.098   -5.172   -5.323   -5.532   -5.789   -6.078   -6.363   -6.592   -6.725   -6.724   -6.561   -6.221   -5.679   -4.948   -4.105   -3.282   -2.661   -2.411   -2.623   -3.279   -4.299   -5.562   -6.949   -8.361   -9.698  -10.880  -11.849  -12.585  -13.090  -13.406  -13.592  -13.714  -13.811  -13.906  -13.990  -14.054  -14.101  -14.154  -14.219  -14.303  -14.380  -14.425  -14.420  -14.368  -14.292  -14.236  -14.216  -14.230  -14.251  -14.257  -14.244  -14.238  -14.269  -14.359  -14.510  -14.681  -14.813  -14.911  -15.017  -15.178  -15.410  -15.662  -15.871  -15.995
  -7.783   -7.671   -7.641   -7.624   -7.612   -7.604   -7.593   -7.582   -7.571   -7.563   -7.560   -7.557   -7.559   -7.554   -7.526   -7.463   -7.357   -7.196   -6.982   -6.725   -6.432   -6.102   -5.731   -5.330   -4.941   -4.655   -4.587   -4.784   -5.198   -5.694   -6.093   -6.278   -6.235   -6.052   -5.854   -5.737   -5.727   -5.812   -5.959   -6.151   -6.374   -6.607   -6.824   -7.000   -7.099   -7.103   -6.970   -6.673   -6.177   -5.469   -4.608   -3.730   -3.052   -2.786   -3.063   -3.866   -5.074   -6.527   -8.080   -9.598  -10.966  -12.103  -12.971  -13.569  -13.945  -14.152  -14.256  -14.311  -14.354  -14.404  -14.462  -14.509  -14.551  -14.593  -14.643  -14.707  -14.765  -14.789  -14.771  -14.711  -14.636  -14.584  -14.569  -14.586  -14.597  -14.584  -14.551  -14.519  -14.523  -14.587  -14.702  -14.819  -14.899  -14.937  -14.979  -15.086  -15.278  -15.519  -15.733  -15.865
  -7.797   -7.682   -7.653   -7.638   -7.626   -7.618   -7.608   -7.600   -7.593   -7.583   -7.578   -7.575   -7.577   -7.573   -7.562   -7.533   -7.481   -7.401   -7.284   -7.128   -6.937   -6.695   -6.407   -6.071   -5.720   -5.435   -5.311   -5.406   -5.695   -6.083   -6.428   -6.626   -6.656   -6.572   -6.465   -6.399   -6.404   -6.466   -6.569   -6.701   -6.854   -7.007   -7.146   -7.257   -7.321   -7.315   -7.206   -6.955   -6.515   -5.857   -5.010   -4.111   -3.394   -3.115   -3.423   -4.317   -5.646   -7.225   -8.881  -10.462  -11.839  -12.917  -13.677  -14.155  -14.419  -14.542  -14.593  -14.617  -14.638  -14.673  -14.718  -14.758  -14.798  -14.835  -14.874  -14.918  -14.949  -14.956  -14.928  -14.871  -14.810  -14.771  -14.765  -14.775  -14.768  -14.733  -14.675  -14.621  -14.611  -14.656  -14.744  -14.827  -14.875  -14.886  -14.897  -14.969  -15.119  -15.323  -15.513  -15.642
  -7.815   -7.697   -7.665   -7.645   -7.633   -7.631   -7.625   -7.618   -7.606   -7.596   -7.591   -7.587   -7.583   -7.579   -7.574   -7.564   -7.543   -7.511   -7.459   -7.381   -7.266   -7.110   -6.903   -6.652   -6.382   -6.145   -6.010   -6.033   -6.214   -6.489   -6.766   -6.957   -7.032   -7.022   -6.978   -6.950   -6.954   -6.985   -7.039   -7.108   -7.189   -7.274   -7.345   -7.400   -7.427   -7.402   -7.292   -7.060   -6.650   -6.026   -5.204   -4.301   -3.562   -3.259   -3.569   -4.492   -5.886   -7.548   -9.290  -10.933  -12.333  -13.390  -14.084  -14.477  -14.661  -14.734  -14.757  -14.771  -14.786  -14.813  -14.846  -14.879  -14.908  -14.934  -14.959  -14.979  -14.993  -14.988  -14.961  -14.922  -14.879  -14.854  -14.852  -14.858  -14.839  -14.790  -14.719  -14.661  -14.642  -14.673  -14.729  -14.784  -14.812  -14.819  -14.827  -14.881  -14.989  -15.147  -15.297  -15.409
  -7.832   -7.710   -7.672   -7.650   -7.638   -7.634   -7.628   -7.623   -7.613   -7.601   -7.593   -7.589   -7.588   -7.585   -7.579   -7.572   -7.565   -7.556   -7.540   -7.503   -7.442   -7.349   -7.217   -7.056   -6.876   -6.709   -6.598   -6.586   -6.683   -6.870   -7.071   -7.230   -7.316   -7.337   -7.328   -7.315   -7.308   -7.315   -7.333   -7.356   -7.390   -7.421   -7.450   -7.461   -7.445   -7.381   -7.236   -6.971   -6.545   -5.918   -5.103   -4.206   -3.458   -3.137   -3.424   -4.339   -5.758   -7.489   -9.330  -11.076  -12.546  -13.626  -14.301  -14.652  -14.795  -14.837  -14.849  -14.857  -14.873  -14.893  -14.912  -14.923  -14.927  -14.933  -14.939  -14.943  -14.944  -14.939  -14.927  -14.908  -14.888  -14.876  -14.877  -14.879  -14.862  -14.820  -14.763  -14.717  -14.698  -14.709  -14.735  -14.761  -14.776  -14.782  -14.800  -14.843  -14.923  -15.034  -15.142  -15.235
  -7.829   -7.705   -7.672   -7.652   -7.638   -7.628   -7.621   -7.615   -7.608   -7.597   -7.587   -7.585   -7.585   -7.586   -7.575   -7.565   -7.560   -7.557   -7.552   -7.539   -7.507   -7.452   -7.384   -7.298   -7.201   -7.101   -7.028   -7.010   -7.060   -7.173   -7.310   -7.426   -7.497   -7.521   -7.521   -7.507   -7.495   -7.483   -7.480   -7.477   -7.484   -7.484   -7.478   -7.453   -7.385   -7.251   -7.026   -6.677   -6.176   -5.502   -4.674   -3.800   -3.080   -2.758   -3.013   -3.900   -5.329   -7.125   -9.088  -10.970  -12.558  -13.707  -14.404  -14.745  -14.868  -14.892  -14.897  -14.908  -14.923  -14.936  -14.937  -14.924  -14.907  -14.888  -14.875  -14.871  -14.867  -14.869  -14.871  -14.873  -14.871  -14.864  -14.861  -14.862  -14.860  -14.848  -14.832  -14.815  -14.804  -14.802  -14.798  -14.796  -14.790  -14.796  -14.816  -14.854  -14.912  -14.988  -15.066  -15.141
  -7.815   -7.690   -7.657   -7.637   -7.623   -7.618   -7.615   -7.609   -7.600   -7.587   -7.580   -7.577   -7.575   -7.570   -7.561   -7.546   -7.534   -7.529   -7.530   -7.524   -7.509   -7.484   -7.458   -7.420   -7.381   -7.334   -7.296   -7.284   -7.312   -7.378   -7.461   -7.535   -7.586   -7.600   -7.595   -7.578   -7.562   -7.546   -7.531   -7.521   -7.512   -7.494   -7.454   -7.376   -7.238   -7.004   -6.655   -6.169   -5.551   -4.810   -3.982   -3.160   -2.512   -2.230   -2.477   -3.325   -4.739   -6.591   -8.674  -10.707  -12.430  -13.673  -14.421  -14.770  -14.880  -14.890  -14.890  -14.903  -14.922  -14.934  -14.923  -14.899  -14.867  -14.840  -14.825  -14.819  -14.817  -14.823  -14.831  -14.841  -14.842  -14.835  -14.828  -14.825  -14.837  -14.861  -14.890  -14.912  -14.926  -14.923  -14.905  -14.879  -14.857  -14.851  -14.864  -14.892  -14.930  -14.982  -15.039  -15.102
  -7.806   -7.677   -7.645   -7.628   -7.619   -7.613   -7.609   -7.606   -7.596   -7.584   -7.572   -7.563   -7.559   -7.553   -7.538   -7.521   -7.506   -7.502   -7.501   -7.506   -7.504   -7.500   -7.490   -7.477   -7.463   -7.443   -7.424   -7.420   -7.442   -7.478   -7.523   -7.571   -7.600   -7.603   -7.595   -7.580   -7.564   -7.550   -7.540   -7.527   -7.504   -7.460   -7.377   -7.225   -6.982   -6.615   -6.110   -5.476   -4.737   -3.944   -3.159   -2.442   -1.921   -1.725   -1.982   -2.792   -4.169   -6.050   -8.217  -10.374  -12.217  -13.553  -14.351  -14.718  -14.821  -14.822  -14.817  -14.834  -14.861  -14.871  -14.863  -14.835  -14.811  -14.798  -14.799  -14.801  -14.802  -14.803  -14.802  -14.807  -14.807  -14.796  -14.781  -14.774  -14.792  -14.831  -14.891  -14.951  -14.995  -15.008  -14.998  -14.973  -14.945  -14.928  -14.924  -14.931  -14.949  -14.979  -15.022  -15.074
  -7.826   -7.697   -7.668   -7.655   -7.647   -7.643   -7.641   -7.639   -7.631   -7.614   -7.597   -7.581   -7.572   -7.558   -7.542   -7.526   -7.516   -7.518   -7.525   -7.536   -7.542   -7.544   -7.539   -7.529   -7.510   -7.491   -7.474   -7.465   -7.475   -7.496   -7.524   -7.553   -7.568   -7.568   -7.562   -7.552   -7.543   -7.534   -7.529   -7.511   -7.467   -7.382   -7.228   -6.974   -6.590   -6.069   -5.407   -4.644   -3.839   -3.063   -2.378   -1.826   -1.470   -1.386   -1.674   -2.451   -3.784   -5.641   -7.841  -10.064  -11.977  -13.376  -14.216  -14.601  -14.704  -14.698  -14.689  -14.706  -14.733  -14.745  -14.735  -14.720  -14.716  -14.730  -14.755  -14.774  -14.777  -14.764  -14.749  -14.743  -14.741  -14.728  -14.712  -14.695  -14.702  -14.741  -14.808  -14.880  -14.944  -14.989  -15.006  -15.005  -14.992  -14.975  -14.958  -14.944  -14.936  -14.942  -14.965  -15.005
  -7.961   -7.826   -7.801   -7.785   -7.781   -7.772   -7.771   -7.768   -7.761   -7.742   -7.719   -7.697   -7.683   -7.667   -7.653   -7.643   -7.647   -7.655   -7.675   -7.690   -7.702   -7.700   -7.687   -7.657   -7.611   -7.567   -7.523   -7.491   -7.478   -7.485   -7.503   -7.520   -7.531   -7.533   -7.529   -7.526   -7.524   -7.522   -7.512   -7.477   -7.394   -7.238   -6.979   -6.592   -6.054   -5.372   -4.589   -3.768   -2.985   -2.315   -1.796   -1.443   -1.265   -1.297   -1.625   -2.371   -3.649   -5.457   -7.621   -9.832  -11.754  -13.168  -14.027  -14.424  -14.530  -14.516  -14.496  -14.503  -14.521  -14.528  -14.518  -14.516  -14.529  -14.565  -14.612  -14.644  -14.647  -14.627  -14.601  -14.587  -14.584  -14.580  -14.567  -14.547  -14.539  -14.557  -14.604  -14.666  -14.734  -14.799  -14.850  -14.883  -14.901  -14.902  -14.887  -14.859  -14.832  -14.810  -14.811  -14.844
  -8.310   -8.174   -8.142   -8.122   -8.113   -8.102   -8.094   -8.089   -8.081   -8.064   -8.043   -8.023   -8.002   -7.992   -7.987   -7.987   -7.998   -8.015   -8.039   -8.059   -8.070   -8.060   -8.026   -7.954   -7.856   -7.747   -7.641   -7.559   -7.510   -7.493   -7.494   -7.505   -7.515   -7.520   -7.522   -7.520   -7.522   -7.519   -7.490   -7.413   -7.257   -6.997   -6.607   -6.065   -5.373   -4.578   -3.741   -2.946   -2.278   -1.790   -1.493   -1.359   -1.358   -1.500   -1.865   -2.585   -3.788   -5.500   -7.564   -9.679  -11.530  -12.901  -13.742  -14.138  -14.242  -14.222  -14.188  -14.174  -14.172  -14.166  -14.155  -14.156  -14.178  -14.220  -14.267  -14.298  -14.302  -14.282  -14.260  -14.250  -14.254  -14.263  -14.258  -14.240  -14.220  -14.213  -14.226  -14.262  -14.315  -14.379  -14.449  -14.509  -14.557  -14.584  -14.585  -14.562  -14.525  -14.493  -14.482  -14.507
  -8.967   -8.825   -8.786   -8.759   -8.740   -8.721   -8.711   -8.704   -8.697   -8.682   -8.670   -8.655   -8.643   -8.638   -8.634   -8.643   -8.656   -8.678   -8.701   -8.720   -8.723   -8.700   -8.629   -8.493   -8.307   -8.091   -7.878   -7.708   -7.593   -7.536   -7.521   -7.524   -7.532   -7.538   -7.541   -7.538   -7.537   -7.514   -7.451   -7.306   -7.050   -6.657   -6.114   -5.425   -4.629   -3.786   -2.976   -2.288   -1.795   -1.526   -1.465   -1.556   -1.737   -1.999   -2.405   -3.090   -4.188   -5.738   -7.611   -9.534  -11.224  -12.483  -13.259  -13.622  -13.719  -13.699  -13.657  -13.624  -13.600  -13.582  -13.566  -13.563  -13.581  -13.608  -13.638  -13.659  -13.662  -13.650  -13.634  -13.636  -13.654  -13.671  -13.677  -13.662  -13.634  -13.607  -13.594  -13.599  -13.627  -13.680  -13.745  -13.813  -13.877  -13.924  -13.948  -13.942  -13.915  -13.891  -13.883  -13.915
  -9.943   -9.802   -9.755   -9.720   -9.687   -9.666   -9.652   -9.646   -9.644   -9.638   -9.633   -9.626   -9.622   -9.617   -9.617   -9.625   -9.636   -9.655   -9.675   -9.689   -9.684   -9.634   -9.510   -9.288   -8.973   -8.602   -8.231   -7.928   -7.719   -7.607   -7.560   -7.552   -7.557   -7.562   -7.564   -7.560   -7.549   -7.507   -7.396   -7.174   -6.797   -6.256   -5.572   -4.780   -3.943   -3.135   -2.427   -1.889   -1.577   -1.504   -1.655   -1.956   -2.325   -2.721   -3.186   -3.829   -4.780   -6.093   -7.675   -9.309  -10.746  -11.817  -12.478  -12.786  -12.867  -12.847  -12.811  -12.777  -12.745  -12.718  -12.697  -12.689  -12.692  -12.700  -12.708  -12.716  -12.717  -12.709  -12.708  -12.715  -12.735  -12.756  -12.762  -12.751  -12.722  -12.689  -12.662  -12.653  -12.662  -12.696  -12.743  -12.800  -12.862  -12.915  -12.952  -12.965  -12.962  -12.956  -12.963  -13.019
 -11.127  -10.999  -10.948  -10.909  -10.877  -10.854  -10.843  -10.841  -10.847  -10.851  -10.849  -10.844  -10.839  -10.833  -10.831  -10.835  -10.845  -10.858  -10.873  -10.877  -10.856  -10.776  -10.588  -10.256   -9.782   -9.216   -8.653   -8.183   -7.856   -7.672   -7.593   -7.571   -7.568   -7.569   -7.569   -7.564   -7.550   -7.492   -7.338   -7.039   -6.558   -5.898   -5.110   -4.275   -3.475   -2.765   -2.200   -1.811   -1.630   -1.693   -1.990   -2.454   -2.996   -3.533   -4.059   -4.649   -5.424   -6.452   -7.679   -8.953  -10.075  -10.911  -11.419  -11.649  -11.706  -11.694  -11.672  -11.653  -11.632  -11.605  -11.585  -11.572  -11.564  -11.562  -11.556  -11.557  -11.551  -11.547  -11.548  -11.556  -11.569  -11.580  -11.582  -11.571  -11.548  -11.519  -11.498  -11.490  -11.494  -11.513  -11.543  -11.582  -11.623  -11.664  -11.699  -11.721  -11.734  -11.752  -11.782  -11.866
 -12.345  -12.237  -12.190  -12.153  -12.126  -12.111  -12.103  -12.105  -12.114  -12.121  -12.120  -12.113  -12.103  -12.090  -12.085  -12.089  -12.097  -12.109  -12.117  -12.114  -12.078  -11.961  -11.702  -11.254  -10.614   -9.849   -9.081   -8.431   -7.977   -7.715   -7.600   -7.564   -7.556   -7.554   -7.557   -7.555   -7.536   -7.467   -7.290   -6.949   -6.408   -5.686   -4.873   -4.064   -3.358   -2.781   -2.350   -2.069   -1.963   -2.081   -2.444   -2.999   -3.657   -4.294   -4.861   -5.390   -5.985   -6.722   -7.593   -8.499   -9.297   -9.883  -10.228  -10.369  -10.401  -10.397  -10.397  -10.406  -10.409  -10.400  -10.387  -10.374  -10.365  -10.360  -10.355  -10.355  -10.347  -10.340  -10.336  -10.337  -10.336  -10.334  -10.324  -10.309  -10.293  -10.278  -10.272  -10.273  -10.282  -10.300  -10.317  -10.336  -10.353  -10.370  -10.388  -10.406  -10.429  -10.460  -10.503  -10.619
 -13.419  -13.326  -13.284  -13.255  -13.235  -13.227  -13.223  -13.228  -13.234  -13.238  -13.236  -13.222  -13.204  -13.187  -13.180  -13.183  -13.191  -13.204  -13.215  -13.204  -13.153  -13.001  -12.678  -12.129  -11.344  -10.403   -9.451   -8.643   -8.071   -7.741   -7.593   -7.546   -7.537   -7.538   -7.544   -7.547   -7.530   -7.460   -7.279   -6.930   -6.394   -5.701   -4.946   -4.234   -3.645   -3.193   -2.864   -2.652   -2.581   -2.701   -3.047   -3.603   -4.280   -4.945   -5.508   -5.967   -6.402   -6.892   -7.460   -8.050   -8.563   -8.927   -9.126   -9.193   -9.198   -9.194   -9.219   -9.255   -9.288   -9.305   -9.306   -9.299   -9.296   -9.297   -9.298   -9.298   -9.292   -9.282   -9.273   -9.267   -9.255   -9.237   -9.217   -9.198   -9.187   -9.186   -9.189   -9.203   -9.222   -9.238   -9.248   -9.250   -9.244   -9.238   -9.241   -9.252   -9.272   -9.304   -9.351   -9.487
 -14.230  -14.144  -14.104  -14.082  -14.070  -14.063  -14.062  -14.064  -14.067  -14.064  -14.055  -14.034  -14.012  -13.990  -13.980  -13.983  -13.993  -14.012  -14.024  -14.011  -13.949  -13.774  -13.403  -12.775  -11.886  -10.813   -9.724   -8.798   -8.139   -7.759   -7.588   -7.537   -7.536   -7.546   -7.555   -7.559   -7.542   -7.477   -7.315   -7.002   -6.532   -5.940   -5.312   -4.733   -4.264   -3.912   -3.658   -3.496   -3.441   -3.537   -3.828   -4.312   -4.917   -5.526   -6.033   -6.409   -6.717   -7.029   -7.372   -7.724   -8.020   -8.216   -8.300   -8.310   -8.293   -8.293   -8.326   -8.380   -8.434   -8.471   -8.489   -8.490   -8.490   -8.498   -8.505   -8.509   -8.505   -8.496   -8.489   -8.481   -8.468   -8.444   -8.418   -8.396   -8.388   -8.390   -8.400   -8.423   -8.442   -8.458   -8.461   -8.444   -8.424   -8.407   -8.402   -8.408   -8.423   -8.451   -8.495   -8.640
 -14.751  -14.663  -14.630  -14.608  -14.595  -14.589  -14.584  -14.585  -14.580  -14.573  -14.556  -14.532  -14.505  -14.481  -14.465  -14.468  -14.477  -14.501  -14.514  -14.506  -14.438  -14.248  -13.853  -13.175  -12.218  -11.067   -9.895   -8.889   -8.179   -7.769   -7.597   -7.559   -7.568   -7.587   -7.602   -7.606   -7.590   -7.528   -7.390   -7.140   -6.777   -6.331   -5.860   -5.422   -5.058   -4.778   -4.579   -4.460   -4.430   -4.514   -4.739   -5.114   -5.590   -6.080   -6.486   -6.776   -6.986   -7.176   -7.377   -7.574   -7.726   -7.816   -7.830   -7.809   -7.780   -7.772   -7.790   -7.836   -7.888   -7.935   -7.962   -7.972   -7.976   -7.987   -7.996   -8.003   -7.996   -7.994   -7.992   -7.997   -7.993   -7.974   -7.948   -7.923   -7.909   -7.909   -7.924   -7.948   -7.972   -7.983   -7.971   -7.949   -7.920   -7.905   -7.902   -7.912   -7.928   -7.952   -7.993   -8.134
 -15.042  -14.951  -14.915  -14.889  -14.873  -14.866  -14.858  -14.851  -14.844  -14.834  -14.814  -14.785  -14.754  -14.728  -14.711  -14.707  -14.716  -14.737  -14.753  -14.750  -14.683  -14.488  -14.079  -13.380  -12.390  -11.196   -9.981   -8.939   -8.198   -7.777   -7.611   -7.595   -7.627   -7.657   -7.674   -7.671   -7.649   -7.589   -7.476   -7.295   -7.051   -6.759   -6.444   -6.134   -5.853   -5.626   -5.466   -5.390   -5.392   -5.482   -5.660   -5.924   -6.251   -6.592   -6.877   -7.076   -7.217   -7.336   -7.456   -7.569   -7.649   -7.686   -7.678   -7.642   -7.602   -7.571   -7.558   -7.570   -7.598   -7.637   -7.666   -7.679   -7.692   -7.705   -7.713   -7.714   -7.711   -7.714   -7.728   -7.745   -7.748   -7.738   -7.711   -7.683   -7.665   -7.666   -7.688   -7.720   -7.748   -7.755   -7.734   -7.704   -7.674   -7.667   -7.678   -7.697   -7.721   -7.750   -7.785   -7.919
 -15.179  -15.081  -15.044  -15.015  -14.998  -14.986  -14.977  -14.970  -14.962  -14.950  -14.931  -14.902  -14.872  -14.843  -14.820  -14.811  -14.817  -14.834  -14.852  -14.849  -14.784  -14.591  -14.175  -13.469  -12.463  -11.252  -10.019   -8.954   -8.200   -7.777   -7.622   -7.623   -7.674   -7.718   -7.737   -7.724   -7.685   -7.622   -7.531   -7.414   -7.277   -7.121   -6.938   -6.733   -6.518   -6.332   -6.203   -6.156   -6.193   -6.294   -6.440   -6.621   -6.820   -7.014   -7.174   -7.293   -7.379   -7.462   -7.551   -7.634   -7.696   -7.722   -7.717   -7.688   -7.637   -7.579   -7.526   -7.491   -7.484   -7.500   -7.518   -7.533   -7.552   -7.569   -7.578   -7.575   -7.566   -7.571   -7.591   -7.618   -7.630   -7.629   -7.606   -7.572   -7.551   -7.554   -7.587   -7.636   -7.672   -7.683   -7.660   -7.623   -7.592   -7.589   -7.607   -7.644   -7.681   -7.717   -7.751   -7.877
 -15.244  -15.135  -15.094  -15.067  -15.050  -15.039  -15.031  -15.029  -15.024  -15.011  -14.998  -14.973  -14.947  -14.919  -14.893  -14.876  -14.877  -14.888  -14.903  -14.900  -14.836  -14.640  -14.223  -13.511  -12.499  -11.282  -10.038   -8.966   -8.200   -7.773   -7.618   -7.623   -7.684   -7.733   -7.744   -7.718   -7.662   -7.592   -7.517   -7.455   -7.409   -7.360   -7.279   -7.158   -7.003   -6.857   -6.756   -6.729   -6.781   -6.890   -7.023   -7.153   -7.257   -7.335   -7.390   -7.435   -7.481   -7.544   -7.618   -7.695   -7.755   -7.792   -7.803   -7.787   -7.737   -7.663   -7.582   -7.513   -7.473   -7.455   -7.453   -7.463   -7.484   -7.504   -7.512   -7.504   -7.491   -7.490   -7.512   -7.542   -7.565   -7.568   -7.549   -7.518   -7.500   -7.510   -7.552   -7.617   -7.665   -7.679   -7.655   -7.611   -7.576   -7.570   -7.594   -7.640   -7.688   -7.726   -7.765   -7.889
 -15.277  -15.159  -15.113  -15.091  -15.078  -15.070  -15.068  -15.069  -15.069  -15.066  -15.059  -15.045  -15.023  -14.999  -14.972  -14.948  -14.938  -14.943  -14.950  -14.940  -14.874  -14.677  -14.257  -13.543  -12.528  -11.309  -10.062   -8.984   -8.211   -7.772   -7.602   -7.593   -7.640   -7.679   -7.676   -7.638   -7.575   -7.505   -7.450   -7.429   -7.447   -7.474   -7.472   -7.419   -7.324   -7.223   -7.150   -7.136   -7.192   -7.298   -7.425   -7.530   -7.577   -7.578   -7.554   -7.534   -7.539   -7.572   -7.631   -7.693   -7.752   -7.797   -7.826   -7.826   -7.795   -7.732   -7.655   -7.576   -7.509   -7.454   -7.420   -7.411   -7.428   -7.450   -7.462   -7.453   -7.437   -7.437   -7.459   -7.498   -7.530   -7.540   -7.527   -7.502   -7.486   -7.500   -7.545   -7.613   -7.663   -7.678   -7.651   -7.602   -7.558   -7.546   -7.567   -7.607   -7.654   -7.697   -7.737   -7.867
 -15.297  -15.168  -15.126  -15.107  -15.096  -15.093  -15.095  -15.101  -15.107  -15.116  -15.120  -15.118  -15.104  -15.083  -15.055  -15.022  -15.002  -14.989  -14.985  -14.970  -14.902  -14.702  -14.282  -13.564  -12.548  -11.329  -10.087   -9.009   -8.230   -7.777   -7.580   -7.537   -7.553   -7.566   -7.552   -7.512   -7.457   -7.405   -7.374   -7.385   -7.439   -7.504   -7.548   -7.548   -7.508   -7.457   -7.416   -7.415   -7.468   -7.566   -7.681   -7.764   -7.789   -7.746   -7.668   -7.597   -7.555   -7.554   -7.580   -7.617   -7.661   -7.709   -7.751   -7.776   -7.775   -7.748   -7.696   -7.624   -7.541   -7.455   -7.386   -7.347   -7.353   -7.374   -7.389   -7.394   -7.393   -7.413   -7.451   -7.499   -7.537   -7.552   -7.539   -7.518   -7.501   -7.509   -7.543   -7.594   -7.633   -7.639   -7.610   -7.559   -7.512   -7.492   -7.499   -7.529   -7.566   -7.599   -7.637   -7.774
 -15.323  -15.183  -15.142  -15.120  -15.110  -15.110  -15.111  -15.119  -15.128  -15.147  -15.163  -15.169  -15.162  -15.144  -15.110  -15.070  -15.034  -15.008  -14.994  -14.974  -14.901  -14.701  -14.280  -13.562  -12.549  -11.332  -10.094   -9.025   -8.252   -7.787   -7.562   -7.482   -7.461   -7.453   -7.430   -7.406   -7.376   -7.359   -7.352   -7.376   -7.435   -7.504   -7.562   -7.592   -7.594   -7.580   -7.566   -7.580   -7.627   -7.707   -7.804   -7.871   -7.879   -7.816   -7.710   -7.604   -7.531   -7.499   -7.491   -7.504   -7.531   -7.574   -7.623   -7.670   -7.699   -7.706   -7.682   -7.623   -7.538   -7.436   -7.341   -7.285   -7.275   -7.294   -7.319   -7.340   -7.369   -7.424   -7.490   -7.551   -7.586   -7.596   -7.574   -7.542   -7.513   -7.504   -7.521   -7.549   -7.568   -7.566   -7.537   -7.495   -7.454   -7.434   -7.431   -7.446   -7.461   -7.478   -7.505   -7.651
 -15.378  -15.223  -15.173  -15.148  -15.136  -15.131  -15.129  -15.131  -15.136  -15.155  -15.172  -15.184  -15.181  -15.160  -15.123  -15.081  -15.036  -15.007  -14.989  -14.964  -14.888  -14.687  -14.267  -13.548  -12.536  -11.323  -10.094   -9.039   -8.273   -7.803   -7.562   -7.457   -7.410   -7.385   -7.373   -7.372   -7.388   -7.404   -7.416   -7.437   -7.475   -7.525   -7.569   -7.599   -7.614   -7.619   -7.625   -7.643   -7.679   -7.740   -7.808   -7.851   -7.842   -7.772   -7.657   -7.545   -7.467   -7.422   -7.405   -7.406   -7.420   -7.462   -7.518   -7.574   -7.616   -7.638   -7.624   -7.574   -7.495   -7.399   -7.317   -7.265   -7.256   -7.271   -7.294   -7.322   -7.374   -7.452   -7.544   -7.610   -7.641   -7.632   -7.594   -7.545   -7.502   -7.474   -7.471   -7.482   -7.489   -7.488   -7.478   -7.460   -7.441   -7.441   -7.443   -7.445   -7.440   -7.436   -7.452   -7.602
 -15.500  -15.329  -15.270  -15.241  -15.220  -15.206  -15.193  -15.186  -15.181  -15.188  -15.196  -15.206  -15.205  -15.188  -15.155  -15.113  -15.074  -15.049  -15.033  -15.007  -14.930  -14.725  -14.299  -13.580  -12.565  -11.358  -10.137   -9.093   -8.332   -7.856   -7.603   -7.480   -7.424   -7.397   -7.403   -7.439   -7.497   -7.547   -7.580   -7.595   -7.606   -7.618   -7.624   -7.624   -7.622   -7.622   -7.625   -7.639   -7.665   -7.697   -7.727   -7.733   -7.698   -7.624   -7.521   -7.429   -7.372   -7.345   -7.340   -7.342   -7.361   -7.409   -7.467   -7.523   -7.563   -7.571   -7.551   -7.503   -7.445   -7.389   -7.349   -7.330   -7.328   -7.332   -7.328   -7.339   -7.386   -7.469   -7.565   -7.632   -7.652   -7.627   -7.579   -7.521   -7.462   -7.422   -7.406   -7.416   -7.439   -7.472   -7.508   -7.544   -7.582   -7.628   -7.663   -7.676   -7.661   -7.642   -7.655   -7.803
 -15.766  -15.578  -15.512  -15.474  -15.447  -15.422  -15.399  -15.378  -15.358  -15.350  -15.348  -15.348  -15.345  -15.330  -15.305  -15.277  -15.253  -15.242  -15.235  -15.213  -15.134  -14.923  -14.490  -13.764  -12.745  -11.538  -10.317   -9.270   -8.497   -8.002   -7.722   -7.578   -7.507   -7.490   -7.522   -7.600   -7.707   -7.805   -7.866   -7.886   -7.871   -7.830   -7.774   -7.714   -7.662   -7.631   -7.626   -7.638   -7.646   -7.642   -7.620   -7.578   -7.515   -7.434   -7.352   -7.294   -7.276   -7.284   -7.300   -7.317   -7.345   -7.397   -7.459   -7.513   -7.540   -7.536   -7.501   -7.457   -7.430   -7.428   -7.448   -7.471   -7.478   -7.453   -7.406   -7.375   -7.393   -7.463   -7.545   -7.600   -7.610   -7.588   -7.542   -7.485   -7.428   -7.386   -7.375   -7.403   -7.473   -7.574   -7.702   -7.848   -8.006   -8.160   -8.283   -8.349   -8.357   -8.343   -8.344   -8.497
 -16.264  -16.062  -15.991  -15.950  -15.915  -15.886  -15.855  -15.822  -15.791  -15.765  -15.752  -15.744  -15.738  -15.724  -15.705  -15.691  -15.686  -15.689  -15.696  -15.680  -15.600  -15.382  -14.941  -14.208  -13.187  -11.973  -10.735   -9.656   -8.837   -8.288   -7.953   -7.768   -7.678   -7.665   -7.733   -7.873   -8.050   -8.217   -8.331   -8.370   -8.326   -8.214   -8.062   -7.899   -7.768   -7.690   -7.664   -7.667   -7.658   -7.615   -7.538   -7.450   -7.361   -7.280   -7.219   -7.197   -7.218   -7.263   -7.303   -7.331   -7.360   -7.408   -7.468   -7.515   -7.536   -7.528   -7.495   -7.466   -7.476   -7.521   -7.588   -7.638   -7.638   -7.586   -7.494   -7.421   -7.409   -7.446   -7.507   -7.546   -7.547   -7.525   -7.491   -7.452   -7.414   -7.392   -7.408   -7.477   -7.618   -7.827   -8.116   -8.466   -8.850   -9.222   -9.525   -9.709   -9.783   -9.790   -9.792   -9.931
 -17.052  -16.842  -16.773  -16.731  -16.698  -16.668  -16.631  -16.590  -16.551  -16.517  -16.493  -16.479  -16.466  -16.450  -16.438  -16.428  -16.433  -16.450  -16.464  -16.453  -16.374  -16.156  -15.717  -14.982  -13.956  -12.727  -11.455  -10.311   -9.401   -8.750   -8.320   -8.055   -7.926   -7.922   -8.046   -8.279   -8.567   -8.840   -9.028   -9.085   -8.992   -8.774   -8.482   -8.184   -7.945   -7.800   -7.742   -7.732   -7.709   -7.634   -7.519   -7.391   -7.289   -7.213   -7.173   -7.177   -7.233   -7.305   -7.363   -7.390   -7.403   -7.428   -7.467   -7.508   -7.534   -7.537   -7.529   -7.525   -7.558   -7.634   -7.717   -7.775   -7.766   -7.689   -7.577   -7.481   -7.440   -7.450   -7.478   -7.489   -7.476   -7.454   -7.436   -7.424   -7.424   -7.435   -7.491   -7.615   -7.849   -8.220   -8.758   -9.440  -10.199  -10.928  -11.514  -11.899  -12.081  -12.132  -12.140  -12.247
 -18.135  -17.922  -17.855  -17.815  -17.786  -17.754  -17.711  -17.665  -17.619  -17.580  -17.551  -17.529  -17.511  -17.492  -17.476  -17.465  -17.470  -17.486  -17.501  -17.495  -17.421  -17.211  -16.779  -16.050  -15.019  -13.767  -12.438  -11.198  -10.159   -9.364   -8.798   -8.430   -8.248   -8.256   -8.458   -8.823   -9.261   -9.669   -9.940  -10.001   -9.827   -9.456   -8.980   -8.513   -8.147   -7.921   -7.825   -7.801   -7.772   -7.682   -7.540   -7.399   -7.294   -7.236   -7.222   -7.247   -7.317   -7.396   -7.451   -7.468   -7.452   -7.444   -7.459   -7.490   -7.531   -7.558   -7.574   -7.592   -7.632   -7.706   -7.782   -7.832   -7.816   -7.741   -7.638   -7.548   -7.493   -7.479   -7.473   -7.449   -7.417   -7.387   -7.388   -7.405   -7.439   -7.488   -7.586   -7.771   -8.115   -8.698   -9.573  -10.714  -11.985  -13.199  -14.168  -14.811  -15.143  -15.252  -15.269  -15.323
 -19.451  -19.241  -19.178  -19.143  -19.111  -19.066  -19.005  -18.938  -18.871  -18.821  -18.787  -18.762  -18.741  -18.717  -18.693  -18.676  -18.674  -18.678  -18.690  -18.684  -18.616  -18.414  -17.990  -17.267  -16.231  -14.949  -13.551  -12.197  -11.011  -10.049   -9.327   -8.842   -8.601   -8.628   -8.928   -9.452  -10.066  -10.617  -10.967  -11.011  -10.724  -10.168   -9.478   -8.819   -8.311   -8.002   -7.866   -7.826   -7.795   -7.703   -7.561   -7.420   -7.334   -7.307   -7.324   -7.366   -7.430   -7.495   -7.533   -7.525   -7.484   -7.449   -7.441   -7.472   -7.521   -7.567   -7.597   -7.620   -7.653   -7.701   -7.756   -7.788   -7.774   -7.722   -7.655   -7.593   -7.546   -7.514   -7.482   -7.436   -7.393   -7.367   -7.378   -7.419   -7.473   -7.542   -7.659   -7.891   -8.349   -9.173  -10.450  -12.128  -13.990  -15.745  -17.139  -18.065  -18.559  -18.748  -18.780  -18.771
 -21.006  -20.798  -20.742  -20.701  -20.645  -20.553  -20.421  -20.279  -20.152  -20.062  -20.010  -19.982  -19.960  -19.934  -19.904  -19.876  -19.862  -19.859  -19.861  -19.849  -19.780  -19.582  -19.163  -18.441  -17.394  -16.076  -14.608  -13.143  -11.810  -10.689   -9.821   -9.225   -8.934   -8.993   -9.401  -10.079  -10.861  -11.540  -11.947  -11.962  -11.556  -10.811   -9.908   -9.050   -8.392   -7.991   -7.809   -7.762   -7.735   -7.658   -7.535   -7.423   -7.375   -7.394   -7.444   -7.495   -7.535   -7.564   -7.571   -7.545   -7.492   -7.445   -7.428   -7.454   -7.503   -7.552   -7.580   -7.590   -7.602   -7.622   -7.650   -7.667   -7.661   -7.642   -7.617   -7.595   -7.575   -7.546   -7.510   -7.465   -7.430   -7.423   -7.452   -7.494   -7.542   -7.597   -7.698   -7.945   -8.503   -9.569  -11.253  -13.469  -15.912  -18.185  -19.974  -21.167  -21.821  -22.094  -22.150  -22.077
 -23.023  -22.824  -22.775  -22.715  -22.573  -22.331  -22.006  -21.660  -21.368  -21.169  -21.060  -21.010  -20.986  -20.961  -20.929  -20.896  -20.874  -20.863  -20.856  -20.837  -20.763  -20.561  -20.137  -19.406  -18.340  -16.984  -15.451  -13.886  -12.429  -11.178  -10.197   -9.524   -9.212   -9.315   -9.827  -10.639  -11.546  -12.314  -12.750  -12.723  -12.213  -11.311  -10.222   -9.183   -8.382   -7.888   -7.664   -7.617   -7.613   -7.565   -7.480   -7.411   -7.412   -7.474   -7.548   -7.589   -7.598   -7.588   -7.567   -7.538   -7.495   -7.452   -7.430   -7.445   -7.481   -7.517   -7.534   -7.529   -7.518   -7.517   -7.524   -7.535   -7.537   -7.543   -7.556   -7.571   -7.582   -7.572   -7.550   -7.524   -7.518   -7.541   -7.587   -7.626   -7.644   -7.651   -7.703   -7.944   -8.579   -9.851  -11.896  -14.576  -17.502  -20.201  -22.316  -23.730  -24.516  -24.859  -24.941  -24.810
 -26.055  -25.889  -25.855  -25.718  -25.363  -24.767  -23.998  -23.205  -22.544  -22.103  -21.866  -21.763  -21.722  -21.694  -21.666  -21.637  -21.615  -21.601  -21.591  -21.565  -21.481  -21.267  -20.830  -20.081  -18.987  -17.588  -15.995  -14.348  -12.802  -11.465  -10.425   -9.730   -9.445   -9.615  -10.214  -11.115  -12.087  -12.886  -13.310  -13.237  -12.646  -11.633  -10.410   -9.238   -8.322   -7.754   -7.510   -7.475   -7.507   -7.500   -7.452   -7.421   -7.452   -7.530   -7.598   -7.620   -7.600   -7.569   -7.547   -7.532   -7.506   -7.471   -7.444   -7.441   -7.465   -7.490   -7.500   -7.487   -7.465   -7.451   -7.451   -7.463   -7.477   -7.499   -7.527   -7.561   -7.579   -7.580   -7.572   -7.580   -7.618   -7.679   -7.739   -7.764   -7.739   -7.690   -7.694   -7.917   -8.607  -10.041  -12.357  -15.381  -18.656  -21.655  -24.000  -25.568  -26.444  -26.833  -26.927  -26.758
 -30.888  -30.802  -30.750  -30.409  -29.606  -28.324  -26.732  -25.126  -23.805  -22.924  -22.447  -22.244  -22.172  -22.140  -22.116  -22.097  -22.079  -22.070  -22.059  -22.030  -21.937  -21.710  -21.249  -20.472  -19.340  -17.893  -16.242  -14.532  -12.930  -11.562  -10.528   -9.887   -9.690   -9.948  -10.619  -11.551  -12.519  -13.280  -13.651  -13.517  -12.862  -11.785  -10.494   -9.245   -8.262   -7.658   -7.415   -7.409   -7.480   -7.511   -7.490   -7.467   -7.494   -7.551   -7.592   -7.589   -7.561   -7.534   -7.527   -7.526   -7.511   -7.479   -7.447   -7.438   -7.461   -7.496   -7.515   -7.501   -7.470   -7.454   -7.461   -7.487   -7.515   -7.538   -7.557   -7.567   -7.560   -7.550   -7.558   -7.607   -7.692   -7.789   -7.856   -7.863   -7.802   -7.714   -7.690   -7.905   -8.637  -10.179  -12.663  -15.892  -19.373  -22.547  -25.024  -26.673  -27.592  -27.996  -28.089  -27.899
 -38.032  -38.059  -37.872  -37.105  -35.541  -33.195  -30.368  -27.553  -25.250  -23.715  -22.888  -22.533  -22.412  -22.373  -22.356  -22.343  -22.335  -22.331  -22.323  -22.293  -22.192  -21.948  -21.461  -20.646  -19.466  -17.965  -16.256  -14.501  -12.875  -11.533  -10.581  -10.068  -10.014  -10.390  -11.112  -12.020  -12.915  -13.580  -13.857  -13.648  -12.941  -11.833  -10.519   -9.255   -8.254   -7.643   -7.412   -7.427   -7.525   -7.573   -7.554   -7.522   -7.525   -7.552   -7.562   -7.548   -7.524   -7.503   -7.500   -7.500   -7.483   -7.445   -7.412   -7.418   -7.463   -7.526   -7.562   -7.555   -7.521   -7.506   -7.526   -7.569   -7.607   -7.621   -7.611   -7.568   -7.512   -7.478   -7.498   -7.583   -7.711   -7.834   -7.905   -7.898   -7.821   -7.721   -7.696   -7.927   -8.688  -10.282  -12.840  -16.150  -19.704  -22.937  -25.453  -27.121  -28.041  -28.433  -28.515  -28.317
 -47.065  -47.183  -46.657  -45.194  -42.588  -38.916  -34.593  -30.324  -26.832  -24.506  -23.258  -22.724  -22.542  -22.493  -22.478  -22.470  -22.463  -22.458  -22.451  -22.421  -22.317  -22.061  -21.550  -20.693  -19.456  -17.892  -16.131  -14.352  -12.747  -11.484  -10.674  -10.345  -10.470  -10.963  -11.708  -12.551  -13.327  -13.862  -14.028  -13.743  -12.998  -11.882  -10.581   -9.326   -8.332   -7.718   -7.476   -7.480   -7.564   -7.608   -7.591   -7.553   -7.545   -7.559   -7.565   -7.552   -7.525   -7.497   -7.471   -7.447   -7.410   -7.362   -7.335   -7.362   -7.441   -7.536   -7.594   -7.594   -7.563   -7.546   -7.568   -7.619   -7.663   -7.672   -7.634   -7.549   -7.450   -7.393   -7.414   -7.517   -7.663   -7.790   -7.855   -7.847   -7.775   -7.695   -7.698   -7.957   -8.737  -10.339  -12.877  -16.152  -19.671  -22.865  -25.345  -26.979  -27.869  -28.239  -28.306  -28.109
 -56.593  -56.710  -55.662  -53.298  -49.502  -44.440  -38.633  -32.943  -28.302  -25.220  -23.575  -22.874  -22.637  -22.575  -22.558  -22.546  -22.531  -22.516  -22.500  -22.470  -22.374  -22.117  -21.588  -20.693  -19.400  -17.776  -15.975  -14.201  -12.663  -11.526  -10.892  -10.764  -11.056  -11.633  -12.357  -13.103  -13.738  -14.142  -14.209  -13.870  -13.115  -12.016  -10.738   -9.502   -8.506   -7.868   -7.578   -7.520   -7.554   -7.575   -7.559   -7.548   -7.566   -7.605   -7.632   -7.623   -7.571   -7.503   -7.439   -7.383   -7.328   -7.273   -7.247   -7.282   -7.380   -7.496   -7.571   -7.573   -7.537   -7.510   -7.523   -7.572   -7.628   -7.652   -7.619   -7.526   -7.413   -7.335   -7.338   -7.425   -7.551   -7.661   -7.715   -7.709   -7.664   -7.624   -7.670   -7.960   -8.743  -10.294  -12.734  -15.878  -19.253  -22.320  -24.695  -26.254  -27.094  -27.436  -27.494  -27.313
 -65.213  -65.177  -63.484  -60.077  -55.020  -48.640  -41.570  -34.774  -29.299  -25.703  -23.798  -22.993  -22.724  -22.655  -22.636  -22.611  -22.581  -22.551  -22.530  -22.507  -22.429  -22.188  -21.651  -20.718  -19.371  -17.695  -15.877  -14.146  -12.713  -11.741  -11.292  -11.336  -11.738  -12.339  -12.997  -13.611  -14.095  -14.372  -14.362  -13.998  -13.262  -12.199  -10.959   -9.739   -8.739   -8.059   -7.689   -7.535   -7.488   -7.477   -7.482   -7.520   -7.599   -7.684   -7.730   -7.700   -7.610   -7.505   -7.414   -7.350   -7.294   -7.236   -7.205   -7.232   -7.320   -7.429   -7.497   -7.493   -7.444   -7.401   -7.403   -7.456   -7.535   -7.601   -7.612   -7.548   -7.440   -7.347   -7.312   -7.347   -7.417   -7.487   -7.523   -7.524   -7.510   -7.516   -7.607   -7.917   -8.666  -10.105  -12.358  -15.268  -18.398  -21.246  -23.451  -24.895  -25.670  -25.982  -26.033  -25.883
 -72.225  -71.779  -69.224  -64.605  -58.265  -50.724  -42.725  -35.314  -29.526  -25.810  -23.873  -23.063  -22.800  -22.741  -22.731  -22.711  -22.679  -22.650  -22.644  -22.653  -22.617  -22.400  -21.852  -20.866  -19.445  -17.717  -15.899  -14.243  -12.953  -12.154  -11.871  -12.035  -12.481  -13.048  -13.599  -14.057  -14.378  -14.517  -14.423  -14.037  -13.325  -12.312  -11.119   -9.930   -8.926   -8.209   -7.765   -7.525   -7.411   -7.378   -7.411   -7.505   -7.640   -7.753   -7.790   -7.727   -7.606   -7.496   -7.435   -7.414   -7.385   -7.329   -7.280   -7.276   -7.326   -7.400   -7.438   -7.414   -7.347   -7.295   -7.295   -7.363   -7.483   -7.605   -7.670   -7.641   -7.540   -7.423   -7.345   -7.321   -7.335   -7.358   -7.365   -7.369   -7.374   -7.411   -7.524   -7.821   -8.488   -9.748  -11.721  -14.280  -17.053  -19.585  -21.551  -22.839  -23.526  -23.800  -23.849  -23.743
 -77.033  -75.865  -72.171  -66.289  -58.818  -50.374  -41.856  -34.410  -28.897  -25.492  -23.760  -23.056  -22.858  -22.861  -22.920  -22.972  -23.006  -23.044  -23.116  -23.213  -23.244  -23.043  -22.432  -21.313  -19.741  -17.903  -16.065  -14.489  -13.354  -12.725  -12.580  -12.806  -13.247  -13.744  -14.174  -14.478  -14.627  -14.607  -14.397  -13.953  -13.245  -12.272  -11.130   -9.984   -8.996   -8.265   -7.791   -7.509   -7.368   -7.338   -7.407   -7.546   -7.700   -7.802   -7.796   -7.693   -7.573   -7.518   -7.552   -7.615   -7.638   -7.598   -7.531   -7.487   -7.485   -7.505   -7.496   -7.440   -7.362   -7.311   -7.325   -7.408   -7.547   -7.700   -7.790   -7.772   -7.667   -7.532   -7.428   -7.371   -7.349   -7.339   -7.328   -7.315   -7.316   -7.350   -7.443   -7.690   -8.229   -9.251  -10.856  -12.957  -15.249  -17.361  -19.009  -20.091  -20.662  -20.882  -20.919  -20.872
 -78.508  -76.595  -71.867  -65.045  -56.770  -47.757  -39.214  -32.325  -27.596  -24.831  -23.481  -22.985  -22.946  -23.138  -23.425  -23.726  -24.011  -24.288  -24.579  -24.845  -24.953  -24.684  -23.843  -22.382  -20.447  -18.342  -16.396  -14.856  -13.846  -13.361  -13.314  -13.568  -13.972  -14.394  -14.723  -14.897  -14.894  -14.712  -14.362  -13.830  -13.092  -12.145  -11.051   -9.952   -8.993   -8.274   -7.805   -7.541   -7.430   -7.444   -7.548   -7.699   -7.829   -7.875   -7.808   -7.681   -7.599   -7.648   -7.809   -7.983   -8.071   -8.050   -7.968   -7.886   -7.834   -7.797   -7.743   -7.666   -7.590   -7.549   -7.569   -7.639   -7.749   -7.861   -7.919   -7.886   -7.778   -7.652   -7.554   -7.503   -7.477   -7.456   -7.430   -7.398   -7.381   -7.380   -7.429   -7.590   -7.969   -8.708   -9.885  -11.440  -13.149  -14.739  -15.988  -16.798  -17.213  -17.354  -17.364  -17.383
 -75.941  -73.687  -68.540  -61.296  -52.578  -43.459  -35.485  -29.648  -25.982  -23.977  -23.083  -22.894  -23.187  -23.831  -24.691  -25.632  -26.550  -27.394  -28.127  -28.648  -28.751  -28.172  -26.743  -24.521  -21.834  -19.159  -16.909  -15.304  -14.357  -13.966  -13.974  -14.220  -14.575  -14.922  -15.173  -15.261  -15.158  -14.863  -14.401  -13.791  -13.022  -12.091  -11.043   -9.990   -9.064   -8.371   -7.941   -7.737   -7.698   -7.772   -7.902   -8.028   -8.098   -8.068   -7.946   -7.813   -7.794   -7.956   -8.243   -8.518   -8.664   -8.664   -8.576   -8.474   -8.384   -8.311   -8.233   -8.159   -8.096   -8.061   -8.052   -8.060   -8.080   -8.101   -8.094   -8.044   -7.954   -7.866   -7.806   -7.781   -7.768   -7.750   -7.721   -7.672   -7.627   -7.592   -7.585   -7.659   -7.880   -8.326   -9.048  -10.005  -11.069  -12.053  -12.818  -13.297  -13.512  -13.543  -13.507  -13.576
 -70.215  -67.976  -62.914  -55.629  -46.964  -38.430  -31.592  -27.033  -24.397  -23.062  -22.596  -22.828  -23.739  -25.300  -27.330  -29.546  -31.669  -33.505  -34.906  -35.671  -35.535  -34.234  -31.680  -28.115  -24.126  -20.449  -17.619  -15.791  -14.826  -14.471  -14.489  -14.700  -14.982  -15.247  -15.431  -15.474  -15.338  -15.019  -14.538  -13.915  -13.151  -12.251  -11.255  -10.256   -9.378   -8.736   -8.365   -8.238   -8.279   -8.398   -8.524   -8.594   -8.583   -8.480   -8.319   -8.203   -8.247   -8.496   -8.872   -9.211   -9.402   -9.433   -9.363   -9.264   -9.172   -9.095   -9.026   -8.974   -8.929   -8.883   -8.822   -8.738   -8.652   -8.583   -8.526   -8.480   -8.434   -8.395   -8.373   -8.367   -8.366   -8.354   -8.324   -8.272   -8.204   -8.140   -8.101   -8.109   -8.191   -8.372   -8.659   -9.028   -9.422   -9.762   -9.992  -10.084  -10.047   -9.929   -9.820   -9.916
 -62.929  -60.672  -55.847  -48.945  -41.071  -33.814  -28.377  -24.948  -23.035  -22.120  -22.000  -22.790  -24.720  -27.826  -31.765  -35.931  -39.744  -42.813  -44.880  -45.704  -45.019  -42.610  -38.487  -33.076  -27.271  -22.155  -18.458  -16.263  -15.205  -14.843  -14.841  -14.991  -15.183  -15.353  -15.465  -15.487  -15.383  -15.140  -14.746  -14.199  -13.502  -12.664  -11.739  -10.819  -10.026   -9.464   -9.171   -9.115   -9.207   -9.334   -9.416   -9.413   -9.323   -9.167   -9.001   -8.912   -9.002   -9.296   -9.713  -10.092  -10.329  -10.408  -10.388  -10.329  -10.271  -10.221  -10.189  -10.173  -10.153  -10.094   -9.985   -9.839   -9.696   -9.584   -9.527   -9.505   -9.498   -9.492   -9.484   -9.476   -9.474   -9.467   -9.440   -9.385   -9.307   -9.233   -9.184   -9.159   -9.141   -9.097   -9.000   -8.834   -8.599   -8.311   -7.993   -7.657   -7.317   -7.009   -6.795   -6.886
 -55.460  -53.195  -48.914  -43.020  -36.556  -30.774  -26.456  -23.646  -21.964  -21.134  -21.242  -22.739  -26.115  -31.373  -37.759  -44.146  -49.620  -53.689  -56.127  -56.760  -55.372  -51.770  -46.009  -38.622  -30.773  -23.981  -19.264  -16.632  -15.459  -15.081  -15.053  -15.143  -15.242  -15.313  -15.356  -15.367  -15.326  -15.204  -14.962  -14.556  -13.975  -13.244  -12.429  -11.630  -10.964  -10.507  -10.294  -10.288  -10.387  -10.483  -10.502  -10.429  -10.284  -10.107   -9.956   -9.903  -10.024  -10.349  -10.795  -11.221  -11.525  -11.685  -11.748  -11.760  -11.759  -11.763  -11.780  -11.803  -11.802  -11.748  -11.637  -11.491  -11.361  -11.274  -11.247  -11.258  -11.271  -11.268  -11.251  -11.231  -11.223  -11.225  -11.206  -11.148  -11.064  -10.986  -10.939  -10.897  -10.804  -10.584  -10.178   -9.572   -8.811   -7.974   -7.135   -6.360   -5.685   -5.154   -4.810   -4.869
 -50.303  -48.336  -44.973  -40.352  -35.167  -30.270  -26.263  -23.297  -21.255  -20.129  -20.315  -22.612  -27.728  -35.421  -44.247  -52.504  -59.153  -63.812  -66.381  -66.737  -64.638  -59.916  -52.713  -43.591  -33.858  -25.470  -19.799  -16.799  -15.565  -15.201  -15.169  -15.217  -15.244  -15.238  -15.220  -15.216  -15.225  -15.212  -15.111  -14.856  -14.419  -13.832  -13.166  -12.521  -11.996  -11.654  -11.504  -11.511  -11.583  -11.632  -11.598  -11.483  -11.324  -11.161  -11.048  -11.043  -11.213  -11.584  -12.092  -12.606  -13.020  -13.298  -13.465  -13.563  -13.626  -13.678  -13.729  -13.778  -13.802  -13.771  -13.696  -13.606  -13.539  -13.514  -13.527  -13.557  -13.575  -13.562  -13.530  -13.510  -13.518  -13.544  -13.536  -13.479  -13.386  -13.302  -13.249  -13.189  -13.036  -12.687  -12.064  -11.151  -10.012   -8.752   -7.490   -6.319   -5.320   -4.552   -4.072   -4.081
 -50.250  -48.806  -46.198  -42.337  -37.577  -32.541  -27.865  -23.957  -20.997  -19.229  -19.314  -22.359  -29.189  -39.092  -49.815  -59.327  -66.811  -72.033  -74.808  -74.848  -71.849  -65.893  -57.435  -46.988  -35.805  -26.206  -19.887  -16.722  -15.527  -15.231  -15.226  -15.259  -15.250  -15.201  -15.144  -15.121  -15.142  -15.175  -15.152  -15.005  -14.703  -14.270  -13.771  -13.289  -12.896  -12.642  -12.528  -12.521  -12.552  -12.559  -12.497  -12.379  -12.237  -12.120  -12.067  -12.134  -12.389  -12.858  -13.483  -14.144  -14.711  -15.125  -15.398  -15.566  -15.671  -15.748  -15.813  -15.867  -15.898  -15.898  -15.872  -15.847  -15.849  -15.884  -15.933  -15.981  -16.004  -15.993  -15.972  -15.975  -16.023  -16.083  -16.095  -16.040  -15.940  -15.848  -15.782  -15.702  -15.504  -15.077  -14.336  -13.270  -11.936  -10.441   -8.905   -7.460   -6.210   -5.259   -4.668   -4.631
 -54.634  -53.674  -51.332  -47.521  -42.424  -36.551  -30.631  -25.345  -21.164  -18.557  -18.383  -21.944  -30.046  -41.461  -53.313  -63.580  -71.812  -77.713  -80.705  -80.229  -76.104  -68.932  -59.523  -48.220  -36.176  -25.981  -19.494  -16.431  -15.401  -15.217  -15.261  -15.300  -15.280  -15.218  -15.145  -15.105  -15.106  -15.129  -15.117  -15.019  -14.814  -14.512  -14.161  -13.820  -13.536  -13.340  -13.235  -13.202  -13.192  -13.168  -13.100  -13.004  -12.905  -12.844  -12.861  -13.017  -13.389  -14.002  -14.791  -15.626  -16.360  -16.909  -17.269  -17.483  -17.606  -17.681  -17.736  -17.777  -17.804  -17.815  -17.823  -17.844  -17.890  -17.959  -18.034  -18.096  -18.134  -18.147  -18.161  -18.206  -18.296  -18.391  -18.429  -18.387  -18.292  -18.200  -18.129  -18.036  -17.818  -17.371  -16.622  -15.555  -14.212  -12.691  -11.100   -9.565   -8.214   -7.177   -6.528   -6.447
 -60.141  -59.463  -57.046  -52.908  -47.218  -40.435  -33.329  -26.780  -21.504  -18.144  -17.637  -21.314  -29.883  -41.840  -54.055  -64.564  -73.067  -79.153  -81.992  -80.973  -76.162  -68.474  -58.701  -47.058  -34.851  -24.828  -18.721  -16.027  -15.249  -15.195  -15.287  -15.342  -15.327  -15.267  -15.198  -15.150  -15.126  -15.111  -15.077  -14.989  -14.837  -14.630  -14.390  -14.154  -13.948  -13.793  -13.692  -13.633  -13.595  -13.550  -13.487  -13.417  -13.358  -13.345  -13.429  -13.676  -14.165  -14.923  -15.877  -16.879  -17.760  -18.419  -18.843  -19.080  -19.201  -19.259  -19.294  -19.315  -19.329  -19.339  -19.356  -19.390  -19.447  -19.522  -19.601  -19.672  -19.728  -19.768  -19.816  -19.896  -20.017  -20.133  -20.190  -20.166  -20.091  -20.016  -19.957  -19.867  -19.665  -19.264  -18.604  -17.673  -16.507  -15.169  -13.746  -12.335  -11.064  -10.062   -9.424   -9.308
 -64.227  -63.580  -60.899  -56.312  -50.073  -42.644  -34.804  -27.527  -21.660  -17.890  -17.086  -20.426  -28.495  -39.921  -51.755  -61.909  -69.858  -75.279  -77.593  -76.405  -71.844  -64.550  -54.980  -43.547  -31.985  -22.945  -17.727  -15.600  -15.111  -15.174  -15.307  -15.369  -15.361  -15.313  -15.257  -15.207  -15.168  -15.129  -15.075  -14.989  -14.869  -14.723  -14.563  -14.402  -14.257  -14.137  -14.046  -13.978  -13.922  -13.868  -13.813  -13.759  -13.726  -13.750  -13.878  -14.195  -14.772  -15.638  -16.711  -17.829  -18.814  -19.549  -20.016  -20.264  -20.376  -20.420  -20.436  -20.441  -20.442  -20.442  -20.453  -20.475  -20.516  -20.575  -20.642  -20.708  -20.768  -20.821  -20.884  -20.974  -21.092  -21.202  -21.261  -21.255  -21.206  -21.159  -21.122  -21.061  -20.910  -20.607  -20.119  -19.447  -18.621  -17.668  -16.623  -15.532  -14.485  -13.612  -13.026  -12.879
 -65.459  -64.687  -61.739  -56.826  -50.266  -42.565  -34.551  -27.224  -21.393  -17.647  -16.652  -19.278  -26.003  -35.867  -46.524  -55.860  -62.946  -67.493  -69.307  -68.237  -64.285  -57.638  -48.595  -38.042  -27.993  -20.623  -16.638  -15.180  -14.969  -15.126  -15.278  -15.342  -15.337  -15.303  -15.261  -15.219  -15.180  -15.140  -15.087  -15.014  -14.924  -14.827  -14.729  -14.630  -14.539  -14.459  -14.389  -14.327  -14.273  -14.221  -14.170  -14.128  -14.109  -14.147  -14.299  -14.648  -15.268  -16.183  -17.311  -18.487  -19.527  -20.305  -20.798  -21.059  -21.171  -21.208  -21.213  -21.209  -21.201  -21.194  -21.192  -21.196  -21.214  -21.246  -21.290  -21.341  -21.389  -21.433  -21.486  -21.552  -21.638  -21.715  -21.758  -21.754  -21.728  -21.704  -21.691  -21.668  -21.596  -21.442  -21.209  -20.924  -20.609  -20.247  -19.779  -19.162  -18.433  -17.728  -17.200  -17.021
 -63.727  -62.797  -59.708  -54.693  -48.096  -40.514  -32.847  -26.031  -20.714  -17.296  -16.184  -17.911  -22.810  -30.356  -39.003  -47.003  -53.219  -57.180  -58.727  -57.766  -54.232  -48.209  -40.172  -31.329  -23.512  -18.178  -15.524  -14.716  -14.745  -14.965  -15.122  -15.184  -15.187  -15.167  -15.141  -15.116  -15.092  -15.068  -15.036  -14.993  -14.942  -14.893  -14.848  -14.808  -14.768  -14.730  -14.690  -14.654  -14.614  -14.571  -14.533  -14.498  -14.488  -14.530  -14.683  -15.028  -15.647  -16.556  -17.683  -18.866  -19.923  -20.726  -21.247  -21.529  -21.657  -21.702  -21.709  -21.702  -21.691  -21.680  -21.666  -21.657  -21.653  -21.663  -21.685  -21.715  -21.746  -21.773  -21.799  -21.830  -21.866  -21.897  -21.910  -21.897  -21.878  -21.868  -21.874  -21.896  -21.923  -21.975  -22.103  -22.371  -22.790  -23.262  -23.584  -23.583  -23.238  -22.708  -22.221  -21.977
 -60.084  -58.993  -55.874  -50.942  -44.583  -37.474  -30.504  -24.457  -19.794  -16.746  -15.505  -16.332  -19.390  -24.409  -30.506  -36.513  -41.449  -44.729  -46.046  -45.233  -42.243  -37.278  -30.982  -24.509  -19.192  -15.839  -14.372  -14.101  -14.307  -14.559  -14.718  -14.781  -14.796  -14.793  -14.792  -14.796  -14.809  -14.822  -14.829  -14.830  -14.828  -14.832  -14.840  -14.850  -14.859  -14.860  -14.860  -14.856  -14.846  -14.832  -14.815  -14.793  -14.783  -14.818  -14.953  -15.269  -15.845  -16.705  -17.793  -18.951  -20.010  -20.840  -21.400  -21.726  -21.892  -21.964  -21.984  -21.982  -21.970  -21.956  -21.938  -21.922  -21.907  -21.906  -21.912  -21.929  -21.944  -21.957  -21.962  -21.963  -21.963  -21.953  -21.937  -21.910  -21.889  -21.883  -21.908  -21.979  -22.137  -22.466  -23.094  -24.127  -25.546  -27.113  -28.437  -29.191  -29.309  -28.994  -28.550  -28.187
 -55.688  -54.490  -51.475  -46.836  -40.981  -34.568  -28.369  -23.007  -18.821  -15.966  -14.518  -14.566  -16.119  -18.980  -22.647  -26.429  -29.679  -31.929  -32.863  -32.285  -30.166  -26.739  -22.582  -18.547  -15.452  -13.693  -13.110  -13.206  -13.515  -13.780  -13.936  -14.008  -14.040  -14.063  -14.093  -14.137  -14.203  -14.277  -14.348  -14.416  -14.480  -14.549  -14.619  -14.680  -14.728  -14.770  -14.810  -14.853  -14.891  -14.922  -14.937  -14.933  -14.923  -14.939  -15.033  -15.292  -15.788  -16.568  -17.587  -18.707  -19.767  -20.636  -21.260  -21.661  -21.891  -22.009  -22.054  -22.063  -22.054  -22.039  -22.022  -22.009  -21.996  -21.993  -21.999  -22.008  -22.022  -22.033  -22.037  -22.030  -22.013  -21.986  -21.958  -21.931  -21.912  -21.913  -21.955  -22.086  -22.408  -23.086  -24.334  -26.299  -28.893  -31.697  -34.120  -35.715  -36.399  -36.413  -36.089  -35.567
 -51.471  -50.280  -47.517  -43.348  -38.142  -32.448  -26.881  -21.947  -17.957  -15.064  -13.328  -12.752  -13.254  -14.615  -16.501  -18.491  -20.213  -21.405  -21.869  -21.483  -20.229  -18.275  -15.991  -13.886  -12.400  -11.708  -11.665  -11.956  -12.302  -12.559  -12.715  -12.798  -12.849  -12.895  -12.956  -13.049  -13.181  -13.338  -13.502  -13.660  -13.816  -13.968  -14.106  -14.220  -14.314  -14.392  -14.480  -14.578  -14.681  -14.772  -14.833  -14.851  -14.836  -14.818  -14.853  -15.022  -15.418  -16.089  -17.017  -18.087  -19.149  -20.070  -20.782  -21.280  -21.598  -21.777  -21.861  -21.885  -21.884  -21.874  -21.864  -21.863  -21.868  -21.879  -21.898  -21.925  -21.959  -21.993  -22.021  -22.036  -22.034  -22.022  -22.006  -21.993  -21.988  -22.002  -22.065  -22.264  -22.754  -23.782  -25.645  -28.511  -32.201  -36.118  -39.525  -41.931  -43.254  -43.735  -43.665  -43.010
 -47.935  -46.841  -44.393  -40.738  -36.168  -31.105  -26.020  -21.337  -17.370  -14.319  -12.277  -11.229  -11.048  -11.512  -12.323  -13.190  -13.896  -14.318  -14.387  -14.071  -13.387  -12.431  -11.382  -10.492   -9.959   -9.850  -10.062  -10.409  -10.739  -10.982  -11.143  -11.243  -11.303  -11.347  -11.415  -11.542  -11.740  -11.987  -12.258  -12.527  -12.793  -13.040  -13.257  -13.429  -13.561  -13.678  -13.811  -13.970  -14.141  -14.297  -14.408  -14.452  -14.433  -14.373  -14.335  -14.402  -14.677  -15.225  -16.047  -17.051  -18.103  -19.073  -19.871  -20.470  -20.880  -21.125  -21.249  -21.294  -21.304  -21.307  -21.319  -21.344  -21.385  -21.436  -21.502  -21.582  -21.675  -21.774  -21.865  -21.939  -21.991  -22.022  -22.042  -22.057  -22.075  -22.106  -22.192  -22.437  -23.041  -24.308  -26.579  -30.043  -34.455  -39.120  -43.244  -46.332  -48.303  -49.348  -49.645  -48.971
 -45.063  -44.077  -41.922  -38.725  -34.714  -30.210  -25.571  -21.143  -17.234  -14.078  -11.804  -10.419   -9.804   -9.729   -9.929  -10.168  -10.302  -10.270  -10.072   -9.739   -9.313   -8.844   -8.416   -8.116   -8.025   -8.154   -8.427   -8.749   -9.051   -9.298   -9.483   -9.602   -9.644   -9.646   -9.671   -9.784  -10.014  -10.332  -10.696  -11.067  -11.435  -11.774  -12.062  -12.282  -12.446  -12.585  -12.748  -12.949  -13.174  -13.387  -13.549  -13.622  -13.607  -13.510  -13.403  -13.370  -13.525  -13.949  -14.655  -15.574  -16.587  -17.568  -18.417  -19.087  -19.558  -19.852  -20.006  -20.074  -20.100  -20.128  -20.178  -20.256  -20.357  -20.484  -20.644  -20.827  -21.038  -21.259  -21.475  -21.663  -21.814  -21.924  -22.002  -22.057  -22.100  -22.144  -22.237  -22.490  -23.104  -24.394  -26.716  -30.281  -34.868  -39.796  -44.291  -47.866  -50.421  -52.064  -52.820  -52.295
 -42.599  -41.693  -39.769  -36.947  -33.432  -29.473  -25.339  -21.311  -17.643  -14.563  -12.215  -10.636   -9.720   -9.278   -9.078   -8.933   -8.725   -8.423   -8.042   -7.621   -7.212   -6.865   -6.619   -6.503   -6.532   -6.689   -6.934   -7.224   -7.529   -7.823   -8.064   -8.204   -8.209   -8.115   -8.030   -8.062   -8.256   -8.587   -8.994   -9.425   -9.849  -10.238  -10.566  -10.807  -10.976  -11.116  -11.278  -11.488  -11.731  -11.976  -12.171  -12.276  -12.271  -12.157  -12.001  -11.893  -11.951  -12.264  -12.850  -13.662  -14.592  -15.521  -16.350  -17.018  -17.499  -17.801  -17.965  -18.045  -18.099  -18.167  -18.271  -18.419  -18.615  -18.860  -19.158  -19.510  -19.906  -20.323  -20.733  -21.102  -21.402  -21.629  -21.786  -21.890  -21.957  -22.012  -22.096  -22.307  -22.818  -23.911  -25.916  -29.065  -33.247  -37.914  -42.374  -46.162  -49.143  -51.321  -52.563  -52.342
 -40.381  -39.520  -37.769  -35.258  -32.189  -28.777  -25.226  -21.737  -18.504  -15.705  -13.466  -11.824  -10.707   -9.976   -9.460   -9.017   -8.562   -8.050   -7.498   -6.926   -6.390   -5.940   -5.626   -5.459   -5.440   -5.539   -5.730   -6.008   -6.360   -6.745   -7.083   -7.265   -7.224   -7.012   -6.776   -6.667   -6.765   -7.034   -7.410   -7.821   -8.229   -8.605   -8.911   -9.122   -9.261   -9.370   -9.500   -9.676   -9.896  -10.131  -10.332  -10.456  -10.460  -10.346  -10.168  -10.016  -10.005  -10.224  -10.693  -11.370  -12.164  -12.972  -13.703  -14.296  -14.719  -14.983  -15.132  -15.220  -15.302  -15.416  -15.586  -15.822  -16.129  -16.519  -16.996  -17.563  -18.197  -18.874  -19.542  -20.143  -20.634  -21.003  -21.256  -21.411  -21.504  -21.559  -21.617  -21.751  -22.096  -22.863  -24.319  -26.701  -30.014  -33.923  -37.912  -41.574  -44.737  -47.287  -48.941  -49.098
 -38.390  -37.555  -35.935  -33.678  -31.001  -28.105  -25.143  -22.248  -19.543  -17.145  -15.136  -13.540  -12.312  -11.362  -10.582   -9.884   -9.201   -8.498   -7.764   -7.013   -6.287   -5.655   -5.173   -4.866   -4.732   -4.748   -4.894   -5.174   -5.584   -6.073   -6.513   -6.754   -6.704   -6.411   -6.051   -5.808   -5.778   -5.940   -6.219   -6.540   -6.853   -7.129   -7.342   -7.476   -7.551   -7.603   -7.673   -7.784   -7.942   -8.123   -8.290   -8.398   -8.399   -8.285   -8.101   -7.932   -7.874   -8.010   -8.356   -8.876   -9.494  -10.129  -10.702  -11.161  -11.484  -11.679  -11.797  -11.885  -11.990  -12.146  -12.377  -12.691  -13.109  -13.641  -14.296  -15.077  -15.961  -16.905  -17.842  -18.689  -19.384  -19.894  -20.233  -20.432  -20.540  -20.587  -20.610  -20.662  -20.833  -21.266  -22.149  -23.675  -25.923  -28.755  -31.877  -35.024  -38.029  -40.685  -42.584  -43.114
 -36.590  -35.784  -34.264  -32.212  -29.860  -27.402  -24.959  -22.608  -20.410  -18.419  -16.675  -15.183  -13.912  -12.814  -11.823  -10.898  -10.007   -9.128   -8.239   -7.340   -6.470   -5.690   -5.070   -4.653   -4.429   -4.372   -4.471   -4.738   -5.170   -5.711   -6.218   -6.516   -6.501   -6.218   -5.832   -5.526   -5.405   -5.458   -5.613   -5.802   -5.977   -6.109   -6.185   -6.207   -6.197   -6.185   -6.184   -6.220   -6.288   -6.385   -6.480   -6.538   -6.513   -6.394   -6.210   -6.022   -5.918   -5.963   -6.177   -6.532   -6.972   -7.426   -7.830   -8.141   -8.348   -8.468   -8.543   -8.620   -8.731   -8.909   -9.169   -9.530  -10.015  -10.644  -11.420  -12.344  -13.397  -14.535  -15.673  -16.705  -17.546  -18.153  -18.544  -18.767  -18.874  -18.901  -18.883  -18.859  -18.891  -19.063  -19.496  -20.316  -21.608  -23.349  -25.435  -27.754  -30.219  -32.604  -34.459  -35.242
 -34.785  -34.010  -32.581  -30.703  -28.618  -26.516  -24.490  -22.576  -20.789  -19.143  -17.638  -16.262  -14.993  -13.798  -12.654  -11.548  -10.488   -9.473   -8.497   -7.553   -6.660   -5.875   -5.256   -4.831   -4.589   -4.507   -4.578   -4.807   -5.198   -5.700   -6.181   -6.490   -6.533   -6.324   -6.006   -5.731   -5.588   -5.576   -5.640   -5.714   -5.759   -5.756   -5.698   -5.614   -5.521   -5.449   -5.394   -5.357   -5.343   -5.347   -5.357   -5.351   -5.293   -5.162   -4.969   -4.762   -4.599   -4.543   -4.632   -4.849   -5.145   -5.464   -5.741   -5.938   -6.049   -6.101   -6.128   -6.171   -6.259   -6.409   -6.647   -6.996   -7.479   -8.109   -8.888   -9.813  -10.872  -12.028  -13.195  -14.258  -15.115  -15.722  -16.102  -16.314  -16.404  -16.405  -16.344  -16.256  -16.193  -16.207  -16.362  -16.718  -17.333  -18.228  -19.398  -20.848  -22.563  -24.371  -25.882  -26.712
 -32.644  -31.899  -30.579  -28.875  -27.036  -25.229  -23.532  -21.955  -20.483  -19.103  -17.797  -16.539  -15.309  -14.085  -12.861  -11.666  -10.526   -9.477   -8.534   -7.692   -6.953   -6.346   -5.889   -5.600   -5.463   -5.449   -5.544   -5.744   -6.050   -6.421   -6.776   -7.003   -7.035   -6.881   -6.639   -6.423   -6.292   -6.260   -6.273   -6.280   -6.243   -6.146   -5.994   -5.819   -5.663   -5.535   -5.428   -5.332   -5.247   -5.177   -5.126   -5.080   -5.004   -4.877   -4.694   -4.473   -4.259   -4.125   -4.119   -4.258   -4.494   -4.761   -4.981   -5.116   -5.170   -5.165   -5.141   -5.130   -5.150   -5.225   -5.384   -5.662   -6.069   -6.603   -7.243   -7.993   -8.850   -9.787  -10.738  -11.591  -12.265  -12.729  -13.016  -13.171  -13.226  -13.201  -13.110  -12.987  -12.877  -12.817  -12.837  -12.953  -13.184  -13.555  -14.111  -14.908  -15.967  -17.176  -18.245  -18.983
 -29.927  -29.205  -28.026  -26.538  -24.958  -23.430  -22.016  -20.714  -19.490  -18.325  -17.194  -16.074  -14.943  -13.797  -12.641  -11.518  -10.477   -9.582   -8.860   -8.310   -7.918   -7.667   -7.550   -7.558   -7.671   -7.854   -8.082   -8.329   -8.569   -8.779   -8.910   -8.919   -8.783   -8.532   -8.233   -7.971   -7.799   -7.716   -7.682   -7.642   -7.559   -7.401   -7.175   -6.914   -6.656   -6.427   -6.222   -6.033   -5.858   -5.714   -5.610   -5.548   -5.492   -5.410   -5.270   -5.073   -4.851   -4.686   -4.656   -4.790   -5.049   -5.339   -5.571   -5.695   -5.721   -5.683   -5.611   -5.533   -5.477   -5.460   -5.521   -5.700   -5.994   -6.374   -6.805   -7.268   -7.761   -8.273   -8.759   -9.158   -9.429   -9.586   -9.672   -9.718   -9.725   -9.679   -9.580   -9.455   -9.344   -9.284   -9.275   -9.311   -9.382   -9.521   -9.785  -10.255  -10.955  -11.796  -12.567  -13.201
 -26.717  -26.026  -25.042  -23.823  -22.541  -21.306  -20.166  -19.111  -18.119  -17.164  -16.238  -15.323  -14.418  -13.526  -12.663  -11.876  -11.224  -10.758  -10.514  -10.475  -10.610  -10.880  -11.256  -11.721  -12.244  -12.796  -13.317  -13.744  -14.015  -14.092  -13.950  -13.596  -13.072  -12.445  -11.819  -11.277  -10.874  -10.615  -10.455  -10.329  -10.173   -9.939   -9.598   -9.179   -8.719   -8.255   -7.804   -7.386   -7.010   -6.713   -6.507   -6.390   -6.333   -6.288   -6.203   -6.057   -5.875   -5.737   -5.739   -5.918   -6.231   -6.569   -6.827   -6.961   -6.985   -6.932   -6.834   -6.718   -6.608   -6.532   -6.537   -6.653   -6.865   -7.125   -7.370   -7.561   -7.686   -7.722   -7.647   -7.451   -7.178   -6.905   -6.702   -6.588   -6.518   -6.447   -6.356   -6.256   -6.185   -6.175   -6.216   -6.277   -6.352   -6.461   -6.681   -7.108   -7.748   -8.511   -9.194   -9.784
 -23.532  -22.901  -22.154  -21.250  -20.299  -19.388  -18.547  -17.773  -17.058  -16.387  -15.766  -15.205  -14.722  -14.337  -14.071  -13.960  -14.030  -14.307  -14.790  -15.456  -16.257  -17.159  -18.135  -19.172  -20.249  -21.319  -22.286  -23.040  -23.466  -23.491  -23.088  -22.284  -21.175  -19.902  -18.623  -17.486  -16.581  -15.930  -15.487  -15.159  -14.845  -14.444  -13.895  -13.196  -12.384  -11.502  -10.603   -9.736   -8.959   -8.317   -7.833   -7.511   -7.317   -7.195   -7.084   -6.938   -6.775   -6.655   -6.676   -6.870   -7.186   -7.521   -7.773   -7.895   -7.911   -7.852   -7.753   -7.639   -7.531   -7.462   -7.483   -7.611   -7.818   -8.040   -8.205   -8.260   -8.172   -7.893   -7.396   -6.709   -5.934   -5.238   -4.728   -4.415   -4.238   -4.120   -4.017   -3.940   -3.921   -3.981   -4.122   -4.296   -4.476   -4.678   -4.981   -5.490   -6.218   -7.049   -7.770   -8.345
 -21.060  -20.529  -20.036  -19.465  -18.874  -18.324  -17.848  -17.452  -17.132  -16.892  -16.757  -16.760  -16.946  -17.348  -17.988  -18.847  -19.898  -21.104  -22.430  -23.844  -25.320  -26.844  -28.418  -30.051  -31.724  -33.363  -34.842  -35.994  -36.664  -36.740  -36.172  -34.989  -33.297  -31.288  -29.197  -27.250  -25.618  -24.366  -23.456  -22.770  -22.159  -21.478  -20.625  -19.559  -18.297  -16.885  -15.397  -13.923  -12.541  -11.319  -10.304   -9.504   -8.895   -8.436   -8.062   -7.724   -7.412   -7.183   -7.099   -7.177   -7.374   -7.598   -7.755   -7.822   -7.806   -7.735   -7.645   -7.556   -7.485   -7.470   -7.547   -7.733   -7.988   -8.248   -8.449   -8.537   -8.461   -8.148   -7.547   -6.675   -5.667   -4.723   -3.992   -3.510   -3.204   -3.000   -2.853   -2.763   -2.774   -2.916   -3.187   -3.530   -3.871   -4.204   -4.593   -5.148   -5.906   -6.748   -7.467   -8.004
 -19.724  -19.314  -19.070  -18.836  -18.635  -18.512  -18.503  -18.611  -18.837  -19.192  -19.709  -20.449  -21.479  -22.839  -24.513  -26.424  -28.461  -30.522  -32.553  -34.542  -36.508  -38.489  -40.528  -42.651  -44.831  -46.965  -48.885  -50.396  -51.324  -51.548  -51.002  -49.696  -47.721  -45.258  -42.570  -39.941  -37.614  -35.721  -34.257  -33.106  -32.097  -31.057  -29.855  -28.424  -26.750  -24.874  -22.865  -20.805  -18.780  -16.862  -15.108  -13.555  -12.206  -11.047  -10.039   -9.148   -8.367   -7.738   -7.293   -7.037   -6.925   -6.885   -6.848   -6.785   -6.697   -6.599   -6.499   -6.416   -6.371   -6.399   -6.526   -6.754   -7.048   -7.354   -7.636   -7.856   -7.959   -7.862   -7.474   -6.781   -5.886   -4.979   -4.215   -3.652   -3.249   -2.941   -2.713   -2.579   -2.600   -2.821   -3.237   -3.763   -4.272   -4.700   -5.092   -5.560   -6.167   -6.845   -7.431   -7.869
 -19.638  -19.351  -19.347  -19.446  -19.664  -20.028  -20.555  -21.246  -22.087  -23.083  -24.279  -25.753  -27.585  -29.804  -32.350  -35.077  -37.809  -40.415  -42.845  -45.129  -47.347  -49.586  -51.922  -54.386  -56.934  -59.428  -61.674  -63.468  -64.639  -65.073  -64.711  -63.560  -61.693  -59.260  -56.485  -53.642  -50.991  -48.708  -46.833  -45.280  -43.892  -42.506  -40.993  -39.281  -37.344  -35.200  -32.892  -30.468  -27.977  -25.467  -22.982  -20.567  -18.265  -16.104  -14.098  -12.254  -10.606   -9.195   -8.050   -7.167   -6.515   -6.038   -5.684   -5.417   -5.203   -5.036   -4.895   -4.784   -4.726   -4.743   -4.851   -5.050   -5.320   -5.626   -5.956   -6.293   -6.603   -6.809   -6.797   -6.510   -5.982   -5.356   -4.759   -4.246   -3.808   -3.432   -3.135   -2.964   -2.994   -3.280   -3.808   -4.466   -5.084   -5.532   -5.825   -6.073   -6.380   -6.743   -7.072   -7.381
 -21.062  -20.888  -21.094  -21.497  -22.103  -22.920  -23.942  -25.146  -26.500  -28.000  -29.698  -31.680  -34.032  -36.766  -39.790  -42.921  -45.961  -48.777  -51.343  -53.726  -56.043  -58.418  -60.946  -63.660  -66.500  -69.312  -71.882  -73.992  -75.459  -76.163  -76.049  -75.146  -73.551  -71.417  -68.940  -66.336  -63.818  -61.542  -59.560  -57.819  -56.204  -54.589  -52.869  -50.989  -48.930  -46.696  -44.300  -41.750  -39.043  -36.176  -33.160  -30.023  -26.818  -23.612  -20.471  -17.466  -14.678  -12.181  -10.031   -8.252   -6.833   -5.743   -4.948   -4.389   -3.999   -3.727   -3.519   -3.355   -3.245   -3.196   -3.225   -3.341   -3.524   -3.765   -4.060   -4.425   -4.841   -5.261   -5.575   -5.694   -5.597   -5.349   -5.017   -4.657   -4.280   -3.913   -3.604   -3.433   -3.476   -3.787   -4.350   -5.038   -5.644   -6.020   -6.152   -6.144   -6.128   -6.155   -6.220   -6.400
 -24.544  -24.497  -24.850  -25.451  -26.304  -27.403  -28.718  -30.196  -31.799  -33.517  -35.401  -37.541  -40.014  -42.833  -45.901  -49.037  -52.054  -54.835  -57.364  -59.720  -62.038  -64.456  -67.081  -69.952  -73.014  -76.118  -79.049  -81.573  -83.470  -84.578  -84.836  -84.276  -83.026  -81.272  -79.213  -77.035  -74.895  -72.893  -71.058  -69.347  -67.681  -65.972  -64.152  -62.189  -60.075  -57.814  -55.402  -52.820  -50.026  -46.983  -43.657  -40.052  -36.205  -32.187  -28.100  -24.052  -20.167  -16.557  -13.317  -10.509   -8.176   -6.335   -4.978   -4.040   -3.417   -3.002   -2.704   -2.477   -2.306   -2.195   -2.151   -2.173   -2.263   -2.403   -2.612   -2.910   -3.303   -3.764   -4.218   -4.575   -4.786   -4.842   -4.774   -4.601   -4.346   -4.057   -3.803   -3.668   -3.723   -4.009   -4.502   -5.078   -5.553   -5.784   -5.753   -5.563   -5.343   -5.164   -5.076   -5.191
 -30.238  -30.375  -30.790  -31.436  -32.330  -33.462  -34.785  -36.244  -37.792  -39.422  -41.176  -43.136  -45.374  -47.905  -50.654  -53.474  -56.208  -58.754  -61.099  -63.315  -65.523  -67.856  -70.414  -73.238  -76.285  -79.428  -82.484  -85.244  -87.502  -89.109  -89.977  -90.104  -89.572  -88.514  -87.104  -85.515  -83.881  -82.275  -80.713  -79.153  -77.540  -75.815  -73.946  -71.922  -69.748  -67.433  -64.969  -62.324  -59.446  -56.274  -52.758  -48.880  -44.660  -40.166  -35.497  -30.776  -26.127  -21.671  -17.516  -13.762  -10.508   -7.856   -5.841   -4.421   -3.474   -2.853   -2.435   -2.138   -1.927   -1.793   -1.722   -1.703   -1.736   -1.799   -1.922   -2.119   -2.412   -2.798   -3.225   -3.627   -3.950   -4.162   -4.257   -4.234   -4.114   -3.931   -3.766   -3.676   -3.718   -3.918   -4.244   -4.604   -4.865   -4.924   -4.783   -4.542   -4.293   -4.113   -4.024   -4.150
 -37.127  -37.524  -37.964  -38.560  -39.355  -40.342  -41.480  -42.718  -44.016  -45.363  -46.796  -48.379  -50.175  -52.204  -54.424  -56.732  -59.014  -61.189  -63.244  -65.227  -67.224  -69.332  -71.631  -74.150  -76.856  -79.646  -82.386  -84.937  -87.201  -89.113  -90.629  -91.703  -92.305  -92.428  -92.114  -91.455  -90.557  -89.495  -88.302  -86.967  -85.455  -83.750  -81.839  -79.736  -77.462  -75.035  -72.452  -69.685  -66.681  -63.378  -59.727  -55.701  -51.320  -46.644  -41.768  -36.798  -31.835  -26.962  -22.257  -17.821  -13.801  -10.358   -7.617   -5.594   -4.185   -3.245   -2.636   -2.250   -2.015   -1.900   -1.856   -1.854   -1.864   -1.876   -1.914   -2.014   -2.213   -2.497   -2.851   -3.207   -3.526   -3.774   -3.924   -3.980   -3.941   -3.853   -3.753   -3.691   -3.693   -3.766   -3.881   -3.987   -4.011   -3.909   -3.721   -3.531   -3.414   -3.381   -3.414   -3.607
 -43.455  -44.139  -44.631  -45.186  -45.875  -46.698  -47.625  -48.612  -49.627  -50.664  -51.749  -52.934  -54.269  -55.778  -57.446  -59.215  -61.013  -62.786  -64.517  -66.222  -67.942  -69.728  -71.621  -73.639  -75.758  -77.917  -80.043  -82.090  -84.058  -85.979  -87.871  -89.710  -91.404  -92.830  -93.858  -94.429  -94.536  -94.220  -93.530  -92.499  -91.146  -89.482  -87.534  -85.332  -82.923  -80.341  -77.596  -74.676  -71.542  -68.144  -64.435  -60.398  -56.051  -51.455  -46.691  -41.845  -36.974  -32.106  -27.265  -22.508  -17.982  -13.893  -10.437   -7.709   -5.688   -4.279   -3.354   -2.809   -2.544   -2.464   -2.486   -2.523   -2.521   -2.461   -2.385   -2.371   -2.468   -2.690   -2.998   -3.327   -3.630   -3.871   -4.028   -4.094   -4.084   -4.035   -3.964   -3.896   -3.839   -3.778   -3.698   -3.575   -3.397   -3.181   -2.992   -2.921   -3.003   -3.192   -3.404   -3.687
 -47.825  -48.742  -49.318  -49.894  -50.550  -51.288  -52.082  -52.899  -53.714  -54.522  -55.348  -56.232  -57.215  -58.327  -59.568  -60.915  -62.328  -63.771  -65.219  -66.664  -68.106  -69.551  -70.998  -72.443  -73.873  -75.272  -76.650  -78.057  -79.583  -81.325  -83.335  -85.592  -88.000  -90.393  -92.573  -94.337  -95.539  -96.115  -96.068  -95.457  -94.337  -92.771  -90.814  -88.530  -85.986  -83.240  -80.340  -77.295  -74.085  -70.676  -67.034  -63.143  -59.024  -54.725  -50.316  -45.848  -41.341  -36.772  -32.110  -27.365  -22.647  -18.157  -14.127  -10.720   -8.018   -6.021   -4.674   -3.890   -3.538   -3.478   -3.555   -3.619   -3.565   -3.371   -3.120   -2.922   -2.894   -3.046   -3.328   -3.661   -3.980   -4.223   -4.369   -4.416   -4.394   -4.337   -4.264   -4.174   -4.058   -3.889   -3.670   -3.403   -3.111   -2.862   -2.744   -2.843   -3.156   -3.591   -4.002   -4.380
 -49.597  -50.625  -51.293  -51.943  -52.642  -53.385  -54.145  -54.899  -55.626  -56.324  -57.014  -57.733  -58.519  -59.408  -60.412  -61.524  -62.721  -63.974  -65.251  -66.523  -67.762  -68.939  -70.022  -70.976  -71.782  -72.449  -73.046  -73.714  -74.645  -76.022  -77.938  -80.360  -83.150  -86.110  -89.019  -91.639  -93.745  -95.166  -95.825  -95.730  -94.960  -93.587  -91.698  -89.385  -86.748  -83.889  -80.885  -77.782  -74.585  -71.275  -67.827  -64.222  -60.474  -56.616  -52.686  -48.708  -44.665  -40.509  -36.179  -31.656  -27.011  -22.416  -18.079  -14.197  -10.924   -8.365   -6.559   -5.461   -4.948   -4.836   -4.902   -4.937   -4.783   -4.411   -3.919   -3.486   -3.264   -3.291   -3.512   -3.832   -4.149   -4.391   -4.516   -4.530   -4.477   -4.393   -4.304   -4.193   -4.041   -3.822   -3.549   -3.251   -2.981   -2.825   -2.885   -3.223   -3.805   -4.490   -5.092   -5.547
 -48.845  -49.846  -50.582  -51.322  -52.102  -52.905  -53.703  -54.475  -55.203  -55.889  -56.553  -57.229  -57.963  -58.792  -59.741  -60.808  -61.973  -63.203  -64.455  -65.683  -66.844  -67.890  -68.765  -69.413  -69.793  -69.910  -69.852  -69.810  -70.054  -70.860  -72.410  -74.715  -77.617  -80.861  -84.172  -87.294  -89.981  -92.023  -93.275  -93.696  -93.320  -92.219  -90.484  -88.226  -85.579  -82.682  -79.656  -76.578  -73.482  -70.365  -67.203  -63.972  -60.665  -57.288  -53.850  -50.346  -46.741  -42.980  -39.001  -34.781  -30.370  -25.903  -21.554  -17.497  -13.914  -10.968   -8.774   -7.343   -6.580   -6.289   -6.236   -6.164   -5.878   -5.318   -4.599   -3.926   -3.484   -3.329   -3.416   -3.638   -3.892   -4.091   -4.183   -4.164   -4.081   -3.975   -3.871   -3.754   -3.603   -3.400   -3.174   -2.967   -2.853   -2.922   -3.259   -3.895   -4.750   -5.661   -6.419   -6.925
 -46.336  -47.210  -47.968  -48.775  -49.626  -50.494  -51.348  -52.170  -52.944  -53.672  -54.372  -55.084  -55.863  -56.754  -57.783  -58.949  -60.226  -61.568  -62.922  -64.230  -65.435  -66.481  -67.304  -67.832  -68.006  -67.816  -67.341  -66.778  -66.421  -66.601  -67.581  -69.466  -72.160  -75.420  -78.919  -82.332  -85.370  -87.799  -89.452  -90.255  -90.214  -89.378  -87.831  -85.692  -83.109  -80.253  -77.276  -74.294  -71.363  -68.496  -65.662  -62.824  -59.949  -57.013  -54.000  -50.882  -47.626  -44.184  -40.509  -36.589  -32.469  -28.260  -24.099  -20.127  -16.499  -13.384  -10.934   -9.203   -8.132   -7.570   -7.299   -7.053   -6.625   -5.923   -5.042   -4.193   -3.560   -3.209   -3.106   -3.163   -3.290   -3.401   -3.438   -3.393   -3.295   -3.184   -3.080   -2.979   -2.867   -2.744   -2.641   -2.617   -2.745   -3.104   -3.747   -4.656   -5.728   -6.787   -7.618   -8.144
 -43.327  -44.054  -44.793  -45.614  -46.490  -47.386  -48.274  -49.130  -49.946  -50.719  -51.470  -52.245  -53.103  -54.099  -55.260  -56.580  -58.020  -59.527  -61.031  -62.466  -63.768  -64.882  -65.738  -66.260  -66.379  -66.073  -65.406  -64.559  -63.814  -63.511  -63.943  -65.288  -67.550  -70.559  -74.007  -77.520  -80.745  -83.401  -85.297  -86.345  -86.533  -85.902  -84.527  -82.523  -80.050  -77.292  -74.426  -71.590  -68.864  -66.262  -63.748  -61.264  -58.754  -56.171  -53.481  -50.650  -47.648  -44.445  -41.012  -37.348  -33.501  -29.567  -25.656  -21.876  -18.350  -15.228  -12.651  -10.693   -9.337   -8.488   -7.969   -7.555   -7.009   -6.224   -5.264   -4.320   -3.563   -3.061   -2.782   -2.672   -2.653   -2.658   -2.642   -2.582   -2.488   -2.386   -2.297   -2.225   -2.177   -2.152   -2.192   -2.358   -2.723   -3.330   -4.205   -5.298   -6.490   -7.596   -8.442   -8.964
 -40.955  -41.620  -42.322  -43.110  -43.956  -44.829  -45.701  -46.551  -47.369  -48.154  -48.928  -49.736  -50.643  -51.704  -52.946  -54.355  -55.891  -57.488  -59.074  -60.578  -61.938  -63.096  -63.983  -64.524  -64.649  -64.331  -63.625  -62.693  -61.795  -61.243  -61.328  -62.252  -64.082  -66.717  -69.909  -73.304  -76.532  -79.274  -81.307  -82.507  -82.845  -82.350  -81.097  -79.208  -76.852  -74.224  -71.510  -68.855  -66.342  -63.982  -61.733  -59.526  -57.289  -54.967  -52.515  -49.901  -47.102  -44.097  -40.871  -37.428  -33.814  -30.116  -26.424  -22.826  -19.424  -16.348  -13.734  -11.660  -10.137   -9.106   -8.429   -7.895   -7.279   -6.458   -5.484   -4.514   -3.705   -3.121   -2.747   -2.529   -2.422   -2.362   -2.310   -2.242   -2.153   -2.060   -1.984   -1.936   -1.926   -1.970   -2.097   -2.379   -2.862   -3.597   -4.576   -5.742   -6.958   -8.059   -8.899   -9.475
