DSAA
 100 100
 0.0 400.0
 0.0 400.0
 -67.85531 -0.1217916
  -7.351   -7.428   -7.540   -7.707   -7.934   -8.204   -8.491   -8.761   -8.967   -9.064   -9.003   -8.724   -8.177   -7.362   -6.358   -5.323   -4.458   -3.902   -3.688   -3.748   -3.994   -4.356   -4.802   -5.311   -5.842   -6.314   -6.627   -6.706   -6.531   -6.130   -5.539   -4.821   -4.068   -3.410   -2.966   -2.770   -2.772   -2.873   -2.982   -3.041   -3.034   -2.973   -2.885   -2.807   -2.760   -2.758   -2.801   -2.874   -2.957   -3.048   -3.146   -3.258   -3.372   -3.444   -3.406   -3.195   -2.778   -2.204   -1.580   -1.033   -0.638   -0.398   -0.268   -0.209   -0.187   -0.174   -0.170   -0.166   -0.163   -0.159   -0.157   -0.157   -0.157   -0.158   -0.159   -0.160   -0.158   -0.157   -0.159   -0.165   -0.170   -0.173   -0.177   -0.186   -0.199   -0.220   -0.254   -0.309   -0.395   -0.524   -0.712   -0.955   -1.251   -1.592   -1.990   -2.460   -3.003   -3.558   -4.017   -4.316
  -7.277   -7.343   -7.439   -7.585   -7.779   -8.015   -8.272   -8.513   -8.697   -8.783   -8.723   -8.462   -7.947   -7.173   -6.210   -5.213   -4.366   -3.809   -3.575   -3.609   -3.823   -4.154   -4.571   -5.055   -5.566   -6.030   -6.360   -6.485   -6.386   -6.072   -5.572   -4.924   -4.220   -3.581   -3.112   -2.856   -2.780   -2.810   -2.874   -2.914   -2.907   -2.858   -2.788   -2.724   -2.692   -2.701   -2.749   -2.821   -2.901   -2.986   -3.080   -3.189   -3.303   -3.387   -3.374   -3.200   -2.832   -2.304   -1.712   -1.171   -0.759   -0.490   -0.338   -0.260   -0.223   -0.206   -0.196   -0.187   -0.178   -0.171   -0.164   -0.159   -0.158   -0.157   -0.155   -0.156   -0.156   -0.158   -0.160   -0.163   -0.167   -0.175   -0.182   -0.200   -0.226   -0.270   -0.341   -0.448   -0.603   -0.820   -1.111   -1.473   -1.883   -2.328   -2.811   -3.343   -3.925   -4.501   -4.961   -5.233
  -7.071   -7.121   -7.188   -7.287   -7.420   -7.587   -7.776   -7.955   -8.088   -8.144   -8.082   -7.856   -7.418   -6.752   -5.910   -5.018   -4.235   -3.692   -3.429   -3.411   -3.560   -3.822   -4.171   -4.586   -5.032   -5.456   -5.791   -5.987   -6.018   -5.872   -5.546   -5.063   -4.486   -3.911   -3.426   -3.073   -2.850   -2.733   -2.692   -2.688   -2.688   -2.675   -2.654   -2.643   -2.658   -2.701   -2.758   -2.819   -2.871   -2.927   -2.995   -3.086   -3.191   -3.283   -3.307   -3.206   -2.939   -2.520   -2.011   -1.507   -1.081   -0.768   -0.568   -0.451   -0.389   -0.357   -0.334   -0.313   -0.288   -0.261   -0.243   -0.228   -0.221   -0.217   -0.215   -0.213   -0.210   -0.211   -0.214   -0.219   -0.230   -0.241   -0.262   -0.300   -0.367   -0.481   -0.648   -0.883   -1.193   -1.592   -2.085   -2.653   -3.254   -3.849   -4.432   -5.018   -5.610   -6.161   -6.586   -6.800
  -6.687   -6.716   -6.744   -6.783   -6.838   -6.919   -7.023   -7.129   -7.203   -7.219   -7.152   -6.967   -6.627   -6.110   -5.443   -4.711   -4.042   -3.544   -3.269   -3.195   -3.267   -3.441   -3.692   -4.006   -4.351   -4.695   -5.007   -5.255   -5.411   -5.447   -5.337   -5.077   -4.696   -4.251   -3.787   -3.342   -2.951   -2.655   -2.475   -2.407   -2.412   -2.464   -2.547   -2.658   -2.787   -2.907   -2.990   -3.019   -3.003   -2.974   -2.966   -2.997   -3.068   -3.152   -3.212   -3.195   -3.050   -2.776   -2.399   -1.977   -1.579   -1.247   -1.005   -0.849   -0.757   -0.707   -0.667   -0.623   -0.566   -0.506   -0.456   -0.425   -0.409   -0.402   -0.395   -0.384   -0.375   -0.372   -0.376   -0.392   -0.411   -0.440   -0.489   -0.573   -0.722   -0.963   -1.303   -1.744   -2.277   -2.902   -3.612   -4.367   -5.109   -5.789   -6.394   -6.951   -7.473   -7.938   -8.282   -8.412
  -6.096   -6.093   -6.077   -6.051   -6.026   -6.024   -6.048   -6.081   -6.098   -6.078   -6.007   -5.870   -5.640   -5.293   -4.833   -4.304   -3.792   -3.387   -3.132   -3.029   -3.037   -3.123   -3.264   -3.452   -3.667   -3.895   -4.135   -4.377   -4.608   -4.797   -4.908   -4.915   -4.798   -4.541   -4.142   -3.634   -3.093   -2.621   -2.298   -2.155   -2.166   -2.308   -2.550   -2.863   -3.190   -3.460   -3.604   -3.598   -3.470   -3.291   -3.139   -3.052   -3.038   -3.076   -3.138   -3.180   -3.155   -3.032   -2.814   -2.525   -2.209   -1.914   -1.671   -1.501   -1.399   -1.341   -1.292   -1.224   -1.127   -1.018   -0.930   -0.875   -0.850   -0.839   -0.824   -0.802   -0.782   -0.775   -0.785   -0.816   -0.861   -0.921   -1.011   -1.172   -1.445   -1.866   -2.426   -3.099   -3.853   -4.664   -5.508   -6.343   -7.099   -7.731   -8.244   -8.677   -9.061   -9.392   -9.626   -9.671
  -5.327   -5.290   -5.226   -5.135   -5.034   -4.956   -4.912   -4.891   -4.865   -4.820   -4.754   -4.666   -4.548   -4.377   -4.138   -3.838   -3.520   -3.248   -3.062   -2.967   -2.939   -2.955   -3.000   -3.062   -3.131   -3.216   -3.332   -3.504   -3.738   -4.031   -4.357   -4.665   -4.861   -4.838   -4.539   -3.998   -3.340   -2.722   -2.264   -2.029   -2.025   -2.249   -2.672   -3.232   -3.824   -4.311   -4.575   -4.571   -4.342   -4.003   -3.667   -3.405   -3.237   -3.163   -3.170   -3.226   -3.283   -3.293   -3.230   -3.090   -2.903   -2.698   -2.510   -2.368   -2.287   -2.244   -2.204   -2.130   -2.010   -1.870   -1.754   -1.684   -1.657   -1.648   -1.631   -1.603   -1.575   -1.565   -1.586   -1.638   -1.716   -1.821   -1.974   -2.228   -2.638   -3.233   -3.984   -4.829   -5.715   -6.609   -7.479   -8.274   -8.926   -9.402   -9.729   -9.971  -10.184  -10.373  -10.504  -10.483
  -4.499   -4.423   -4.310   -4.157   -3.990   -3.851   -3.759   -3.701   -3.653   -3.600   -3.543   -3.501   -3.487   -3.488   -3.469   -3.404   -3.299   -3.189   -3.105   -3.057   -3.029   -3.009   -2.982   -2.940   -2.879   -2.814   -2.781   -2.825   -2.994   -3.331   -3.841   -4.444   -4.959   -5.182   -5.011   -4.485   -3.769   -3.057   -2.486   -2.132   -2.051   -2.284   -2.835   -3.621   -4.478   -5.205   -5.642   -5.717   -5.478   -5.053   -4.575   -4.128   -3.760   -3.506   -3.395   -3.413   -3.504   -3.599   -3.647   -3.638   -3.577   -3.482   -3.379   -3.300   -3.267   -3.266   -3.263   -3.218   -3.114   -2.984   -2.875   -2.819   -2.809   -2.813   -2.808   -2.784   -2.761   -2.758   -2.793   -2.870   -2.986   -3.140   -3.357   -3.695   -4.203   -4.902   -5.741   -6.641   -7.547   -8.431   -9.255   -9.953  -10.445  -10.706  -10.795  -10.819  -10.857  -10.923  -10.972  -10.904
  -3.779   -3.666   -3.501   -3.287   -3.069   -2.891   -2.773   -2.703   -2.654   -2.601   -2.557   -2.555   -2.631   -2.782   -2.965   -3.124   -3.228   -3.286   -3.319   -3.336   -3.336   -3.309   -3.248   -3.141   -2.987   -2.800   -2.620   -2.510   -2.561   -2.867   -3.472   -4.277   -5.035   -5.477   -5.460   -5.035   -4.379   -3.677   -3.042   -2.549   -2.295   -2.410   -2.960   -3.861   -4.909   -5.849   -6.480   -6.709   -6.574   -6.191   -5.679   -5.114   -4.562   -4.111   -3.851   -3.798   -3.883   -4.007   -4.108   -4.164   -4.182   -4.171   -4.146   -4.131   -4.151   -4.207   -4.261   -4.276   -4.233   -4.155   -4.095   -4.081   -4.104   -4.135   -4.147   -4.141   -4.133   -4.144   -4.197   -4.298   -4.448   -4.644   -4.911   -5.295   -5.841   -6.549   -7.366   -8.215   -9.059   -9.881  -10.643  -11.240  -11.573  -11.613  -11.459  -11.265  -11.143  -11.104  -11.093  -10.993
  -3.319   -3.171   -2.949   -2.673   -2.413   -2.213   -2.096   -2.039   -2.004   -1.968   -1.941   -1.973   -2.125   -2.401   -2.751   -3.098   -3.383   -3.588   -3.727   -3.809   -3.841   -3.825   -3.755   -3.622   -3.418   -3.155   -2.861   -2.602   -2.494   -2.678   -3.235   -4.074   -4.932   -5.519   -5.683   -5.472   -5.035   -4.499   -3.900   -3.282   -2.786   -2.641   -3.018   -3.884   -5.007   -6.092   -6.892   -7.301   -7.338   -7.093   -6.652   -6.068   -5.418   -4.837   -4.469   -4.358   -4.419   -4.532   -4.620   -4.670   -4.699   -4.715   -4.727   -4.757   -4.825   -4.934   -5.053   -5.142   -5.179   -5.179   -5.184   -5.220   -5.276   -5.324   -5.344   -5.346   -5.353   -5.384   -5.456   -5.580   -5.756   -5.982   -6.274   -6.665   -7.187   -7.838   -8.560   -9.302  -10.043  -10.787  -11.484  -11.996  -12.192  -12.043  -11.677  -11.293  -11.032  -10.905  -10.843  -10.717
  -3.179   -2.995   -2.712   -2.373   -2.069   -1.862   -1.757   -1.729   -1.728   -1.721   -1.724   -1.806   -2.025   -2.401   -2.875   -3.358   -3.771   -4.080   -4.289   -4.414   -4.465   -4.457   -4.386   -4.249   -4.029   -3.724   -3.351   -2.967   -2.688   -2.671   -3.034   -3.723   -4.517   -5.162   -5.518   -5.614   -5.535   -5.306   -4.865   -4.191   -3.454   -2.979   -3.059   -3.748   -4.829   -5.964   -6.872   -7.419   -7.609   -7.518   -7.197   -6.684   -6.056   -5.471   -5.097   -4.980   -5.026   -5.102   -5.135   -5.128   -5.108   -5.096   -5.109   -5.160   -5.265   -5.424   -5.608   -5.771   -5.882   -5.950   -6.005   -6.071   -6.135   -6.167   -6.163   -6.144   -6.146   -6.193   -6.291   -6.441   -6.637   -6.874   -7.156   -7.509   -7.965   -8.518   -9.121   -9.732  -10.354  -11.009  -11.633  -12.069  -12.156  -11.867  -11.348  -10.827  -10.457  -10.248  -10.128   -9.985
  -3.328   -3.114   -2.770   -2.369   -2.025   -1.809   -1.723   -1.721   -1.752   -1.779   -1.836   -1.982   -2.280   -2.730   -3.277   -3.829   -4.307   -4.667   -4.902   -5.031   -5.078   -5.061   -4.985   -4.843   -4.618   -4.293   -3.866   -3.379   -2.939   -2.699   -2.786   -3.205   -3.819   -4.440   -4.963   -5.387   -5.713   -5.849   -5.636   -5.007   -4.120   -3.358   -3.122   -3.564   -4.507   -5.601   -6.523   -7.119   -7.387   -7.397   -7.199   -6.822   -6.334   -5.879   -5.603   -5.534   -5.575   -5.606   -5.573   -5.497   -5.413   -5.355   -5.345   -5.398   -5.530   -5.732   -5.971   -6.196   -6.366   -6.470   -6.538   -6.592   -6.618   -6.591   -6.517   -6.436   -6.408   -6.462   -6.591   -6.770   -6.975   -7.191   -7.419   -7.691   -8.040   -8.473   -8.947   -9.426   -9.927  -10.476  -11.015  -11.373  -11.381  -11.013  -10.420   -9.829   -9.385   -9.097   -8.912   -8.761
  -3.679   -3.446   -3.060   -2.615   -2.241   -2.010   -1.926   -1.933   -1.974   -2.038   -2.158   -2.390   -2.766   -3.270   -3.840   -4.397   -4.872   -5.221   -5.434   -5.529   -5.541   -5.493   -5.395   -5.241   -5.009   -4.664   -4.201   -3.642   -3.076   -2.640   -2.470   -2.610   -3.008   -3.553   -4.181   -4.858   -5.513   -5.962   -5.988   -5.478   -4.578   -3.672   -3.207   -3.407   -4.160   -5.126   -5.973   -6.529   -6.797   -6.855   -6.767   -6.567   -6.301   -6.070   -5.955   -5.958   -5.995   -5.983   -5.904   -5.783   -5.660   -5.567   -5.531   -5.579   -5.719   -5.943   -6.214   -6.472   -6.662   -6.764   -6.799   -6.791   -6.735   -6.610   -6.431   -6.263   -6.187   -6.238   -6.387   -6.579   -6.768   -6.925   -7.060   -7.208   -7.424   -7.723   -8.072   -8.431   -8.819   -9.258   -9.697   -9.977   -9.939   -9.564   -8.986   -8.400   -7.925   -7.572   -7.320   -7.164
  -4.122   -3.895   -3.503   -3.048   -2.659   -2.410   -2.299   -2.280   -2.311   -2.399   -2.586   -2.910   -3.363   -3.898   -4.448   -4.958   -5.370   -5.654   -5.798   -5.824   -5.769   -5.668   -5.531   -5.351   -5.101   -4.746   -4.264   -3.667   -3.031   -2.480   -2.139   -2.086   -2.312   -2.768   -3.407   -4.189   -5.003   -5.635   -5.841   -5.497   -4.713   -3.831   -3.274   -3.295   -3.845   -4.634   -5.352   -5.828   -6.063   -6.144   -6.157   -6.141   -6.120   -6.129   -6.179   -6.246   -6.272   -6.235   -6.146   -6.036   -5.924   -5.828   -5.780   -5.810   -5.930   -6.131   -6.374   -6.602   -6.763   -6.820   -6.785   -6.681   -6.518   -6.285   -6.003   -5.749   -5.619   -5.643   -5.779   -5.949   -6.086   -6.157   -6.175   -6.194   -6.276   -6.457   -6.705   -6.976   -7.271   -7.609   -7.942   -8.147   -8.095   -7.777   -7.292   -6.780   -6.321   -5.929   -5.627   -5.471
  -4.552   -4.347   -3.989   -3.564   -3.179   -2.905   -2.745   -2.674   -2.677   -2.782   -3.031   -3.441   -3.957   -4.507   -5.017   -5.444   -5.757   -5.938   -5.979   -5.908   -5.764   -5.590   -5.398   -5.180   -4.910   -4.551   -4.073   -3.486   -2.851   -2.283   -1.903   -1.782   -1.926   -2.296   -2.854   -3.564   -4.337   -4.987   -5.291   -5.124   -4.546   -3.819   -3.300   -3.228   -3.604   -4.218   -4.810   -5.216   -5.432   -5.537   -5.625   -5.746   -5.912   -6.102   -6.270   -6.367   -6.377   -6.333   -6.280   -6.238   -6.190   -6.128   -6.083   -6.088   -6.157   -6.277   -6.422   -6.553   -6.623   -6.596   -6.468   -6.266   -6.009   -5.700   -5.360   -5.061   -4.886   -4.863   -4.948   -5.051   -5.106   -5.083   -4.999   -4.914   -4.907   -5.012   -5.204   -5.433   -5.675   -5.928   -6.157   -6.282   -6.228   -5.988   -5.629   -5.222   -4.811   -4.420   -4.106   -3.956
  -4.856   -4.692   -4.392   -4.023   -3.661   -3.361   -3.149   -3.022   -2.999   -3.123   -3.432   -3.905   -4.465   -5.012   -5.475   -5.821   -6.036   -6.108   -6.040   -5.860   -5.619   -5.363   -5.109   -4.853   -4.566   -4.215   -3.773   -3.246   -2.687   -2.200   -1.890   -1.815   -1.955   -2.244   -2.645   -3.142   -3.705   -4.225   -4.538   -4.518   -4.173   -3.666   -3.261   -3.172   -3.445   -3.942   -4.457   -4.840   -5.062   -5.179   -5.286   -5.453   -5.691   -5.952   -6.158   -6.247   -6.232   -6.190   -6.198   -6.251   -6.294   -6.291   -6.258   -6.237   -6.241   -6.255   -6.265   -6.256   -6.203   -6.075   -5.859   -5.584   -5.282   -4.966   -4.651   -4.375   -4.197   -4.136   -4.151   -4.172   -4.138   -4.034   -3.886   -3.753   -3.706   -3.778   -3.950   -4.166   -4.376   -4.556   -4.682   -4.716   -4.632   -4.441   -4.174   -3.857   -3.509   -3.160   -2.870   -2.745
  -4.944   -4.821   -4.590   -4.285   -3.960   -3.656   -3.408   -3.254   -3.231   -3.385   -3.736   -4.245   -4.816   -5.346   -5.770   -6.061   -6.207   -6.202   -6.053   -5.794   -5.475   -5.150   -4.843   -4.554   -4.264   -3.942   -3.568   -3.145   -2.717   -2.371   -2.200   -2.234   -2.407   -2.621   -2.820   -3.026   -3.279   -3.565   -3.794   -3.852   -3.690   -3.388   -3.121   -3.077   -3.327   -3.790   -4.293   -4.692   -4.927   -5.032   -5.098   -5.214   -5.412   -5.642   -5.811   -5.854   -5.798   -5.749   -5.794   -5.919   -6.033   -6.074   -6.051   -6.011   -5.966   -5.901   -5.804   -5.682   -5.531   -5.326   -5.055   -4.756   -4.473   -4.233   -4.030   -3.868   -3.764   -3.716   -3.688   -3.635   -3.524   -3.359   -3.177   -3.027   -2.961   -3.005   -3.142   -3.320   -3.476   -3.575   -3.592   -3.523   -3.376   -3.181   -2.953   -2.701   -2.425   -2.147   -1.922   -1.835
  -4.768   -4.671   -4.497   -4.255   -3.977   -3.699   -3.465   -3.325   -3.336   -3.531   -3.911   -4.422   -4.968   -5.471   -5.870   -6.141   -6.268   -6.246   -6.075   -5.792   -5.445   -5.087   -4.756   -4.459   -4.182   -3.912   -3.626   -3.326   -3.045   -2.857   -2.830   -2.968   -3.173   -3.308   -3.310   -3.223   -3.150   -3.159   -3.221   -3.250   -3.171   -3.001   -2.859   -2.897   -3.189   -3.681   -4.216   -4.644   -4.885   -4.951   -4.939   -4.954   -5.052   -5.194   -5.285   -5.261   -5.154   -5.067   -5.092   -5.212   -5.331   -5.371   -5.342   -5.296   -5.246   -5.175   -5.062   -4.915   -4.740   -4.519   -4.250   -3.982   -3.776   -3.668   -3.645   -3.669   -3.711   -3.735   -3.703   -3.585   -3.393   -3.166   -2.950   -2.782   -2.687   -2.669   -2.716   -2.795   -2.851   -2.845   -2.757   -2.594   -2.386   -2.168   -1.963   -1.762   -1.564   -1.377   -1.235   -1.194
  -4.341   -4.257   -4.115   -3.924   -3.701   -3.479   -3.303   -3.226   -3.298   -3.539   -3.927   -4.409   -4.911   -5.378   -5.767   -6.057   -6.222   -6.243   -6.121   -5.884   -5.570   -5.236   -4.918   -4.636   -4.396   -4.185   -3.985   -3.791   -3.630   -3.558   -3.630   -3.825   -4.025   -4.086   -3.934   -3.626   -3.295   -3.046   -2.905   -2.818   -2.720   -2.610   -2.565   -2.701   -3.067   -3.611   -4.180   -4.618   -4.830   -4.833   -4.723   -4.627   -4.613   -4.657   -4.673   -4.597   -4.444   -4.302   -4.253   -4.288   -4.332   -4.323   -4.273   -4.239   -4.238   -4.245   -4.228   -4.169   -4.062   -3.895   -3.682   -3.485   -3.377   -3.409   -3.565   -3.780   -3.975   -4.072   -4.019   -3.817   -3.521   -3.211   -2.955   -2.771   -2.639   -2.540   -2.467   -2.406   -2.340   -2.229   -2.060   -1.842   -1.609   -1.397   -1.226   -1.083   -0.966   -0.868   -0.798   -0.796
  -3.765   -3.673   -3.543   -3.379   -3.210   -3.066   -2.979   -2.993   -3.137   -3.413   -3.788   -4.217   -4.659   -5.083   -5.474   -5.807   -6.048   -6.169   -6.158   -6.026   -5.806   -5.544   -5.279   -5.039   -4.841   -4.679   -4.536   -4.404   -4.300   -4.276   -4.369   -4.552   -4.709   -4.705   -4.469   -4.054   -3.584   -3.172   -2.866   -2.650   -2.497   -2.417   -2.465   -2.703   -3.151   -3.732   -4.295   -4.682   -4.810   -4.697   -4.457   -4.230   -4.102   -4.057   -4.015   -3.912   -3.742   -3.561   -3.428   -3.354   -3.294   -3.221   -3.158   -3.165   -3.261   -3.418   -3.574   -3.680   -3.700   -3.630   -3.501   -3.379   -3.347   -3.462   -3.715   -4.030   -4.291   -4.392   -4.270   -3.952   -3.538   -3.154   -2.868   -2.679   -2.531   -2.377   -2.207   -2.037   -1.869   -1.690   -1.487   -1.267   -1.058   -0.889   -0.772   -0.690   -0.634   -0.602   -0.586   -0.611
  -3.224   -3.111   -2.961   -2.800   -2.670   -2.601   -2.611   -2.714   -2.918   -3.202   -3.533   -3.886   -4.248   -4.621   -5.007   -5.390   -5.727   -5.979   -6.117   -6.137   -6.056   -5.904   -5.722   -5.541   -5.382   -5.243   -5.112   -4.979   -4.865   -4.814   -4.852   -4.958   -5.039   -4.980   -4.727   -4.316   -3.846   -3.408   -3.046   -2.783   -2.627   -2.615   -2.779   -3.139   -3.662   -4.248   -4.743   -5.003   -4.963   -4.664   -4.237   -3.840   -3.568   -3.417   -3.317   -3.198   -3.037   -2.849   -2.677   -2.533   -2.410   -2.309   -2.266   -2.345   -2.571   -2.902   -3.250   -3.525   -3.681   -3.712   -3.660   -3.593   -3.587   -3.696   -3.923   -4.199   -4.400   -4.411   -4.173   -3.739   -3.243   -2.822   -2.543   -2.371   -2.230   -2.061   -1.853   -1.635   -1.429   -1.236   -1.052   -0.878   -0.732   -0.630   -0.569   -0.537   -0.527   -0.531   -0.544   -0.582
  -2.926   -2.782   -2.590   -2.401   -2.283   -2.268   -2.350   -2.515   -2.739   -2.989   -3.243   -3.487   -3.743   -4.039   -4.397   -4.810   -5.238   -5.625   -5.929   -6.127   -6.212   -6.204   -6.126   -6.013   -5.885   -5.744   -5.581   -5.398   -5.216   -5.075   -5.003   -4.988   -4.969   -4.865   -4.637   -4.309   -3.945   -3.603   -3.318   -3.128   -3.074   -3.197   -3.517   -4.012   -4.607   -5.174   -5.557   -5.636   -5.375   -4.840   -4.186   -3.577   -3.125   -2.835   -2.649   -2.500   -2.345   -2.175   -2.007   -1.854   -1.733   -1.656   -1.676   -1.851   -2.204   -2.681   -3.178   -3.584   -3.842   -3.952   -3.962   -3.931   -3.914   -3.953   -4.056   -4.183   -4.227   -4.087   -3.726   -3.219   -2.698   -2.293   -2.043   -1.900   -1.776   -1.620   -1.423   -1.221   -1.036   -0.881   -0.750   -0.646   -0.580   -0.548   -0.538   -0.541   -0.556   -0.578   -0.604   -0.645
  -3.008   -2.833   -2.585   -2.350   -2.217   -2.217   -2.330   -2.505   -2.697   -2.868   -2.999   -3.100   -3.216   -3.403   -3.697   -4.103   -4.583   -5.084   -5.551   -5.933   -6.203   -6.356   -6.406   -6.373   -6.274   -6.114   -5.896   -5.632   -5.350   -5.090   -4.881   -4.727   -4.600   -4.453   -4.265   -4.047   -3.835   -3.661   -3.546   -3.522   -3.637   -3.932   -4.408   -5.021   -5.666   -6.201   -6.475   -6.388   -5.928   -5.190   -4.337   -3.537   -2.903   -2.460   -2.167   -1.959   -1.787   -1.627   -1.478   -1.352   -1.265   -1.250   -1.348   -1.616   -2.062   -2.625   -3.194   -3.659   -3.967   -4.129   -4.193   -4.200   -4.174   -4.138   -4.098   -4.036   -3.890   -3.596   -3.147   -2.617   -2.126   -1.763   -1.542   -1.410   -1.295   -1.161   -1.004   -0.852   -0.726   -0.630   -0.565   -0.536   -0.538   -0.561   -0.589   -0.612   -0.635   -0.665   -0.695   -0.736
  -3.439   -3.244   -2.955   -2.674   -2.511   -2.502   -2.604   -2.743   -2.858   -2.905   -2.882   -2.812   -2.767   -2.812   -3.005   -3.358   -3.842   -4.412   -5.004   -5.554   -6.006   -6.329   -6.517   -6.573   -6.511   -6.337   -6.065   -5.718   -5.334   -4.952   -4.612   -4.331   -4.105   -3.917   -3.758   -3.640   -3.579   -3.586   -3.663   -3.825   -4.104   -4.528   -5.094   -5.750   -6.392   -6.880   -7.069   -6.878   -6.320   -5.498   -4.571   -3.688   -2.953   -2.397   -2.001   -1.720   -1.505   -1.332   -1.191   -1.089   -1.046   -1.091   -1.261   -1.588   -2.066   -2.633   -3.187   -3.632   -3.934   -4.115   -4.225   -4.281   -4.278   -4.202   -4.055   -3.836   -3.534   -3.129   -2.640   -2.131   -1.686   -1.358   -1.148   -1.011   -0.903   -0.795   -0.689   -0.597   -0.532   -0.499   -0.490   -0.515   -0.561   -0.611   -0.652   -0.675   -0.695   -0.723   -0.748   -0.788
  -4.025   -3.838   -3.541   -3.246   -3.071   -3.049   -3.124   -3.205   -3.219   -3.126   -2.936   -2.699   -2.490   -2.396   -2.469   -2.732   -3.166   -3.741   -4.399   -5.065   -5.661   -6.129   -6.441   -6.586   -6.571   -6.404   -6.101   -5.695   -5.229   -4.754   -4.314   -3.939   -3.644   -3.423   -3.283   -3.235   -3.294   -3.452   -3.688   -3.991   -4.359   -4.815   -5.355   -5.948   -6.505   -6.903   -7.022   -6.802   -6.268   -5.521   -4.690   -3.890   -3.183   -2.604   -2.152   -1.807   -1.544   -1.347   -1.202   -1.119   -1.111   -1.200   -1.406   -1.740   -2.181   -2.671   -3.124   -3.476   -3.712   -3.873   -4.006   -4.115   -4.151   -4.071   -3.868   -3.558   -3.165   -2.710   -2.228   -1.771   -1.377   -1.080   -0.878   -0.742   -0.646   -0.573   -0.517   -0.480   -0.468   -0.479   -0.514   -0.565   -0.626   -0.676   -0.702   -0.707   -0.708   -0.720   -0.738   -0.773
  -4.568   -4.409   -4.154   -3.896   -3.744   -3.724   -3.776   -3.802   -3.721   -3.506   -3.182   -2.810   -2.477   -2.268   -2.236   -2.397   -2.749   -3.267   -3.911   -4.604   -5.260   -5.804   -6.189   -6.402   -6.434   -6.291   -5.989   -5.563   -5.058   -4.529   -4.032   -3.608   -3.277   -3.045   -2.920   -2.918   -3.056   -3.314   -3.650   -4.018   -4.396   -4.786   -5.203   -5.631   -6.020   -6.278   -6.328   -6.130   -5.717   -5.171   -4.578   -3.994   -3.441   -2.935   -2.488   -2.116   -1.823   -1.606   -1.463   -1.395   -1.410   -1.510   -1.707   -1.989   -2.331   -2.676   -2.970   -3.172   -3.299   -3.404   -3.531   -3.664   -3.731   -3.663   -3.443   -3.105   -2.694   -2.259   -1.839   -1.460   -1.140   -0.889   -0.708   -0.589   -0.520   -0.485   -0.470   -0.476   -0.501   -0.545   -0.602   -0.663   -0.716   -0.745   -0.738   -0.709   -0.680   -0.669   -0.675   -0.708
  -4.956   -4.847   -4.668   -4.495   -4.398   -4.399   -4.441   -4.431   -4.293   -4.003   -3.601   -3.159   -2.762   -2.490   -2.390   -2.470   -2.728   -3.147   -3.697   -4.313   -4.916   -5.431   -5.811   -6.037   -6.097   -5.987   -5.713   -5.302   -4.798   -4.257   -3.744   -3.307   -2.972   -2.748   -2.644   -2.678   -2.858   -3.163   -3.535   -3.908   -4.242   -4.528   -4.782   -5.013   -5.201   -5.304   -5.286   -5.139   -4.894   -4.603   -4.298   -3.979   -3.631   -3.253   -2.864   -2.500   -2.198   -1.976   -1.837   -1.777   -1.785   -1.860   -1.997   -2.176   -2.369   -2.540   -2.653   -2.701   -2.710   -2.745   -2.839   -2.965   -3.035   -2.975   -2.774   -2.466   -2.112   -1.762   -1.447   -1.177   -0.949   -0.767   -0.632   -0.546   -0.508   -0.501   -0.515   -0.546   -0.593   -0.653   -0.718   -0.777   -0.814   -0.812   -0.771   -0.703   -0.641   -0.607   -0.602   -0.631
  -5.192   -5.138   -5.062   -4.992   -4.972   -5.008   -5.052   -5.028   -4.871   -4.568   -4.153   -3.705   -3.302   -3.019   -2.891   -2.922   -3.097   -3.401   -3.801   -4.252   -4.696   -5.080   -5.371   -5.550   -5.606   -5.521   -5.288   -4.917   -4.445   -3.929   -3.433   -3.007   -2.686   -2.479   -2.395   -2.448   -2.640   -2.944   -3.300   -3.643   -3.920   -4.122   -4.253   -4.334   -4.369   -4.361   -4.315   -4.245   -4.169   -4.102   -4.033   -3.934   -3.764   -3.507   -3.185   -2.847   -2.543   -2.311   -2.158   -2.070   -2.038   -2.049   -2.090   -2.139   -2.180   -2.191   -2.159   -2.093   -2.024   -2.004   -2.062   -2.157   -2.216   -2.170   -2.015   -1.788   -1.544   -1.324   -1.141   -0.990   -0.858   -0.746   -0.660   -0.613   -0.598   -0.610   -0.636   -0.674   -0.722   -0.780   -0.836   -0.874   -0.886   -0.856   -0.789   -0.700   -0.620   -0.575   -0.560   -0.587
  -5.320   -5.325   -5.347   -5.388   -5.447   -5.520   -5.575   -5.555   -5.412   -5.138   -4.758   -4.344   -3.970   -3.702   -3.570   -3.569   -3.680   -3.871   -4.104   -4.351   -4.580   -4.774   -4.924   -5.021   -5.043   -4.970   -4.775   -4.458   -4.043   -3.581   -3.126   -2.728   -2.423   -2.221   -2.137   -2.180   -2.346   -2.611   -2.918   -3.213   -3.449   -3.608   -3.691   -3.713   -3.697   -3.674   -3.671   -3.703   -3.772   -3.860   -3.935   -3.954   -3.885   -3.702   -3.421   -3.092   -2.773   -2.506   -2.304   -2.155   -2.047   -1.971   -1.909   -1.849   -1.778   -1.690   -1.588   -1.484   -1.401   -1.373   -1.410   -1.479   -1.526   -1.509   -1.422   -1.302   -1.183   -1.091   -1.026   -0.969   -0.913   -0.857   -0.817   -0.803   -0.811   -0.834   -0.864   -0.894   -0.922   -0.942   -0.953   -0.950   -0.926   -0.875   -0.800   -0.715   -0.642   -0.602   -0.587   -0.612
  -5.382   -5.434   -5.543   -5.676   -5.805   -5.910   -5.972   -5.958   -5.841   -5.610   -5.289   -4.930   -4.599   -4.347   -4.205   -4.174   -4.223   -4.310   -4.392   -4.446   -4.470   -4.481   -4.489   -4.500   -4.491   -4.427   -4.275   -4.022   -3.687   -3.305   -2.916   -2.555   -2.254   -2.034   -1.913   -1.901   -2.000   -2.188   -2.420   -2.653   -2.855   -3.002   -3.090   -3.132   -3.157   -3.206   -3.308   -3.466   -3.654   -3.836   -3.974   -4.035   -3.992   -3.826   -3.549   -3.204   -2.852   -2.535   -2.264   -2.036   -1.847   -1.692   -1.557   -1.435   -1.319   -1.215   -1.121   -1.047   -1.004   -1.008   -1.053   -1.122   -1.175   -1.195   -1.180   -1.149   -1.124   -1.119   -1.124   -1.124   -1.112   -1.103   -1.112   -1.138   -1.178   -1.219   -1.249   -1.261   -1.243   -1.194   -1.128   -1.048   -0.970   -0.896   -0.829   -0.768   -0.722   -0.701   -0.697   -0.726
  -5.392   -5.475   -5.641   -5.838   -6.010   -6.127   -6.181   -6.159   -6.055   -5.865   -5.601   -5.302   -5.011   -4.774   -4.617   -4.542   -4.523   -4.516   -4.476   -4.386   -4.264   -4.144   -4.059   -4.016   -3.996   -3.959   -3.867   -3.703   -3.476   -3.204   -2.906   -2.598   -2.301   -2.035   -1.833   -1.720   -1.708   -1.783   -1.911   -2.064   -2.218   -2.351   -2.458   -2.548   -2.653   -2.809   -3.037   -3.313   -3.595   -3.834   -3.996   -4.060   -4.008   -3.829   -3.533   -3.166   -2.785   -2.429   -2.109   -1.828   -1.587   -1.387   -1.225   -1.099   -1.002   -0.938   -0.902   -0.892   -0.910   -0.957   -1.031   -1.114   -1.191   -1.252   -1.293   -1.315   -1.332   -1.357   -1.381   -1.397   -1.414   -1.452   -1.521   -1.611   -1.704   -1.776   -1.813   -1.800   -1.721   -1.582   -1.407   -1.232   -1.084   -0.975   -0.907   -0.868   -0.853   -0.858   -0.873   -0.910
  -5.352   -5.451   -5.646   -5.869   -6.046   -6.145   -6.157   -6.096   -5.976   -5.801   -5.583   -5.339   -5.096   -4.880   -4.710   -4.591   -4.503   -4.412   -4.285   -4.110   -3.916   -3.740   -3.618   -3.567   -3.567   -3.585   -3.583   -3.540   -3.456   -3.333   -3.159   -2.931   -2.645   -2.326   -2.018   -1.769   -1.608   -1.538   -1.537   -1.582   -1.661   -1.760   -1.868   -1.995   -2.166   -2.408   -2.723   -3.075   -3.410   -3.678   -3.851   -3.911   -3.846   -3.652   -3.346   -2.974   -2.591   -2.239   -1.926   -1.648   -1.410   -1.218   -1.076   -0.986   -0.945   -0.947   -0.978   -1.027   -1.091   -1.174   -1.269   -1.370   -1.471   -1.565   -1.631   -1.665   -1.677   -1.686   -1.696   -1.712   -1.754   -1.848   -1.997   -2.177   -2.341   -2.458   -2.508   -2.471   -2.333   -2.108   -1.828   -1.550   -1.315   -1.143   -1.047   -1.005   -1.002   -1.020   -1.050   -1.095
  -5.279   -5.381   -5.580   -5.795   -5.944   -5.984   -5.916   -5.776   -5.600   -5.410   -5.214   -5.019   -4.829   -4.648   -4.483   -4.334   -4.190   -4.037   -3.862   -3.659   -3.452   -3.277   -3.168   -3.139   -3.183   -3.275   -3.389   -3.500   -3.593   -3.648   -3.632   -3.510   -3.262   -2.906   -2.501   -2.116   -1.803   -1.576   -1.429   -1.350   -1.334   -1.377   -1.465   -1.598   -1.793   -2.059   -2.386   -2.736   -3.063   -3.323   -3.488   -3.546   -3.480   -3.289   -2.997   -2.651   -2.310   -2.012   -1.765   -1.555   -1.377   -1.244   -1.162   -1.138   -1.170   -1.235   -1.318   -1.402   -1.489   -1.579   -1.675   -1.777   -1.887   -1.986   -2.046   -2.059   -2.031   -2.002   -1.987   -2.005   -2.080   -2.243   -2.485   -2.763   -3.007   -3.174   -3.239   -3.187   -3.010   -2.720   -2.358   -1.984   -1.652   -1.399   -1.237   -1.151   -1.129   -1.142   -1.175   -1.223
  -5.212   -5.308   -5.497   -5.683   -5.778   -5.729   -5.548   -5.291   -5.020   -4.780   -4.582   -4.422   -4.286   -4.152   -4.011   -3.856   -3.686   -3.507   -3.319   -3.127   -2.945   -2.801   -2.721   -2.722   -2.811   -2.979   -3.213   -3.488   -3.773   -4.023   -4.176   -4.179   -4.000   -3.652   -3.197   -2.718   -2.286   -1.929   -1.651   -1.455   -1.348   -1.330   -1.386   -1.500   -1.669   -1.889   -2.143   -2.404   -2.642   -2.837   -2.965   -3.010   -2.951   -2.786   -2.537   -2.253   -1.990   -1.787   -1.647   -1.551   -1.487   -1.450   -1.460   -1.521   -1.622   -1.740   -1.853   -1.947   -2.027   -2.099   -2.175   -2.259   -2.346   -2.420   -2.444   -2.407   -2.334   -2.266   -2.236   -2.267   -2.385   -2.619   -2.947   -3.309   -3.620   -3.829   -3.907   -3.846   -3.647   -3.318   -2.901   -2.447   -2.024   -1.681   -1.442   -1.296   -1.227   -1.220   -1.245   -1.296
  -5.184   -5.275   -5.448   -5.601   -5.631   -5.484   -5.177   -4.782   -4.392   -4.071   -3.844   -3.702   -3.608   -3.523   -3.419   -3.286   -3.124   -2.951   -2.781   -2.622   -2.478   -2.369   -2.312   -2.335   -2.452   -2.676   -3.008   -3.427   -3.886   -4.310   -4.623   -4.756   -4.672   -4.382   -3.943   -3.442   -2.956   -2.523   -2.161   -1.888   -1.719   -1.655   -1.676   -1.752   -1.860   -1.978   -2.090   -2.188   -2.267   -2.334   -2.382   -2.391   -2.339   -2.215   -2.037   -1.845   -1.689   -1.607   -1.599   -1.642   -1.708   -1.792   -1.906   -2.055   -2.218   -2.370   -2.487   -2.567   -2.625   -2.670   -2.712   -2.761   -2.812   -2.844   -2.821   -2.737   -2.624   -2.532   -2.503   -2.560   -2.723   -3.005   -3.380   -3.779   -4.116   -4.331   -4.401   -4.328   -4.113   -3.763   -3.310   -2.804   -2.321   -1.917   -1.616   -1.419   -1.313   -1.280   -1.300   -1.352
  -5.195   -5.286   -5.449   -5.573   -5.550   -5.318   -4.896   -4.366   -3.848   -3.434   -3.162   -3.016   -2.950   -2.906   -2.841   -2.741   -2.614   -2.476   -2.344   -2.223   -2.115   -2.031   -1.991   -2.019   -2.143   -2.394   -2.784   -3.298   -3.882   -4.441   -4.884   -5.134   -5.156   -4.959   -4.596   -4.139   -3.665   -3.224   -2.842   -2.543   -2.350   -2.260   -2.250   -2.277   -2.298   -2.283   -2.221   -2.117   -2.001   -1.904   -1.841   -1.795   -1.743   -1.664   -1.569   -1.488   -1.456   -1.505   -1.634   -1.816   -2.018   -2.223   -2.435   -2.653   -2.855   -3.015   -3.119   -3.178   -3.207   -3.226   -3.243   -3.265   -3.285   -3.279   -3.224   -3.116   -2.991   -2.904   -2.891   -2.967   -3.144   -3.423   -3.774   -4.134   -4.425   -4.591   -4.618   -4.511   -4.276   -3.916   -3.451   -2.934   -2.440   -2.028   -1.717   -1.507   -1.387   -1.353   -1.373   -1.429
  -5.187   -5.278   -5.440   -5.555   -5.501   -5.214   -4.707   -4.073   -3.444   -2.938   -2.612   -2.455   -2.404   -2.391   -2.362   -2.306   -2.225   -2.134   -2.046   -1.962   -1.883   -1.816   -1.785   -1.813   -1.927   -2.167   -2.567   -3.124   -3.776   -4.421   -4.954   -5.299   -5.423   -5.333   -5.069   -4.697   -4.284   -3.887   -3.538   -3.263   -3.077   -2.974   -2.928   -2.892   -2.815   -2.662   -2.427   -2.134   -1.836   -1.587   -1.418   -1.319   -1.263   -1.225   -1.206   -1.228   -1.320   -1.497   -1.751   -2.056   -2.375   -2.682   -2.970   -3.229   -3.443   -3.591   -3.674   -3.710   -3.721   -3.729   -3.739   -3.751   -3.757   -3.743   -3.689   -3.595   -3.494   -3.429   -3.431   -3.505   -3.647   -3.850   -4.091   -4.322   -4.490   -4.551   -4.496   -4.335   -4.073   -3.714   -3.273   -2.798   -2.355   -1.995   -1.729   -1.550   -1.453   -1.431   -1.461   -1.526
  -5.040   -5.136   -5.306   -5.425   -5.369   -5.065   -4.518   -3.823   -3.123   -2.551   -2.185   -2.017   -1.974   -1.982   -1.986   -1.969   -1.939   -1.903   -1.857   -1.805   -1.747   -1.696   -1.673   -1.694   -1.787   -1.997   -2.372   -2.921   -3.592   -4.274   -4.860   -5.274   -5.479   -5.483   -5.317   -5.037   -4.708   -4.385   -4.103   -3.879   -3.716   -3.605   -3.517   -3.412   -3.239   -2.959   -2.581   -2.144   -1.721   -1.382   -1.159   -1.037   -0.984   -0.977   -1.013   -1.111   -1.298   -1.573   -1.928   -2.326   -2.731   -3.111   -3.444   -3.717   -3.917   -4.044   -4.107   -4.131   -4.138   -4.146   -4.164   -4.183   -4.198   -4.194   -4.166   -4.112   -4.054   -4.020   -4.026   -4.069   -4.135   -4.210   -4.277   -4.321   -4.313   -4.232   -4.072   -3.848   -3.563   -3.223   -2.845   -2.462   -2.124   -1.863   -1.678   -1.559   -1.500   -1.503   -1.546   -1.618
  -4.649   -4.744   -4.922   -5.062   -5.029   -4.744   -4.205   -3.506   -2.793   -2.206   -1.828   -1.655   -1.617   -1.634   -1.658   -1.673   -1.686   -1.692   -1.685   -1.662   -1.626   -1.594   -1.578   -1.593   -1.663   -1.836   -2.169   -2.679   -3.326   -4.003   -4.605   -5.055   -5.314   -5.387   -5.301   -5.105   -4.864   -4.627   -4.425   -4.261   -4.125   -4.005   -3.876   -3.707   -3.448   -3.073   -2.598   -2.083   -1.613   -1.261   -1.049   -0.951   -0.924   -0.942   -1.011   -1.154   -1.390   -1.722   -2.127   -2.573   -3.022   -3.438   -3.787   -4.052   -4.227   -4.330   -4.379   -4.398   -4.407   -4.423   -4.450   -4.482   -4.509   -4.527   -4.531   -4.519   -4.502   -4.488   -4.488   -4.488   -4.467   -4.406   -4.297   -4.147   -3.959   -3.734   -3.478   -3.202   -2.912   -2.616   -2.326   -2.059   -1.845   -1.695   -1.601   -1.553   -1.542   -1.570   -1.628   -1.705
  -3.999   -4.080   -4.261   -4.423   -4.430   -4.199   -3.720   -3.076   -2.411   -1.862   -1.508   -1.345   -1.306   -1.320   -1.348   -1.377   -1.409   -1.441   -1.460   -1.464   -1.452   -1.443   -1.440   -1.456   -1.514   -1.659   -1.945   -2.399   -2.980   -3.610   -4.190   -4.641   -4.925   -5.039   -5.007   -4.884   -4.725   -4.577   -4.453   -4.346   -4.238   -4.108   -3.943   -3.718   -3.402   -2.973   -2.459   -1.934   -1.490   -1.189   -1.037   -0.998   -1.016   -1.067   -1.155   -1.312   -1.559   -1.891   -2.294   -2.734   -3.180   -3.591   -3.927   -4.167   -4.313   -4.393   -4.429   -4.442   -4.450   -4.469   -4.502   -4.541   -4.578   -4.612   -4.637   -4.654   -4.659   -4.655   -4.642   -4.604   -4.517   -4.355   -4.118   -3.826   -3.507   -3.184   -2.868   -2.573   -2.303   -2.068   -1.871   -1.717   -1.614   -1.557   -1.543   -1.555   -1.591   -1.651   -1.722   -1.809
  -3.193   -3.254   -3.428   -3.600   -3.654   -3.499   -3.116   -2.576   -2.012   -1.550   -1.251   -1.106   -1.060   -1.060   -1.073   -1.095   -1.128   -1.163   -1.196   -1.222   -1.241   -1.261   -1.283   -1.316   -1.378   -1.508   -1.752   -2.129   -2.618   -3.158   -3.672   -4.090   -4.366   -4.492   -4.493   -4.425   -4.339   -4.270   -4.216   -4.157   -4.067   -3.930   -3.742   -3.486   -3.142   -2.708   -2.216   -1.740   -1.367   -1.148   -1.075   -1.101   -1.171   -1.254   -1.361   -1.513   -1.731   -2.019   -2.366   -2.752   -3.146   -3.512   -3.809   -4.012   -4.126   -4.180   -4.201   -4.205   -4.207   -4.220   -4.250   -4.291   -4.330   -4.368   -4.402   -4.428   -4.440   -4.434   -4.408   -4.350   -4.231   -4.026   -3.734   -3.383   -3.015   -2.659   -2.339   -2.066   -1.847   -1.679   -1.567   -1.500   -1.475   -1.482   -1.518   -1.577   -1.658   -1.749   -1.839   -1.935
  -2.441   -2.476   -2.628   -2.800   -2.888   -2.808   -2.531   -2.119   -1.686   -1.331   -1.102   -0.979   -0.925   -0.904   -0.896   -0.900   -0.919   -0.948   -0.988   -1.033   -1.084   -1.138   -1.194   -1.255   -1.331   -1.456   -1.663   -1.966   -2.348   -2.774   -3.189   -3.538   -3.775   -3.890   -3.906   -3.875   -3.845   -3.837   -3.830   -3.798   -3.719   -3.583   -3.388   -3.131   -2.802   -2.411   -1.990   -1.607   -1.325   -1.185   -1.171   -1.238   -1.341   -1.450   -1.567   -1.705   -1.875   -2.082   -2.333   -2.618   -2.918   -3.203   -3.437   -3.592   -3.674   -3.703   -3.708   -3.698   -3.691   -3.695   -3.717   -3.753   -3.792   -3.826   -3.857   -3.879   -3.881   -3.868   -3.838   -3.779   -3.661   -3.467   -3.187   -2.858   -2.512   -2.192   -1.921   -1.707   -1.556   -1.461   -1.415   -1.407   -1.423   -1.462   -1.526   -1.611   -1.721   -1.839   -1.945   -2.045
  -1.960   -1.963   -2.077   -2.224   -2.321   -2.290   -2.105   -1.815   -1.507   -1.256   -1.089   -0.989   -0.926   -0.882   -0.854   -0.840   -0.847   -0.874   -0.918   -0.981   -1.058   -1.143   -1.232   -1.318   -1.412   -1.543   -1.728   -1.977   -2.274   -2.592   -2.901   -3.160   -3.340   -3.426   -3.441   -3.438   -3.448   -3.473   -3.485   -3.453   -3.375   -3.251   -3.077   -2.855   -2.582   -2.272   -1.956   -1.681   -1.490   -1.405   -1.413   -1.483   -1.588   -1.702   -1.817   -1.931   -2.039   -2.149   -2.271   -2.419   -2.587   -2.759   -2.905   -3.003   -3.047   -3.054   -3.043   -3.024   -3.010   -3.006   -3.024   -3.056   -3.089   -3.120   -3.141   -3.148   -3.138   -3.117   -3.090   -3.044   -2.955   -2.799   -2.579   -2.317   -2.049   -1.807   -1.616   -1.481   -1.402   -1.373   -1.382   -1.409   -1.449   -1.496   -1.561   -1.651   -1.766   -1.891   -2.000   -2.107
  -1.868   -1.842   -1.907   -1.999   -2.068   -2.046   -1.912   -1.707   -1.495   -1.322   -1.197   -1.103   -1.029   -0.969   -0.926   -0.904   -0.909   -0.937   -0.993   -1.068   -1.163   -1.266   -1.371   -1.472   -1.584   -1.725   -1.916   -2.154   -2.416   -2.676   -2.906   -3.088   -3.210   -3.268   -3.289   -3.311   -3.348   -3.381   -3.379   -3.329   -3.246   -3.143   -3.016   -2.859   -2.671   -2.464   -2.262   -2.093   -1.980   -1.929   -1.932   -1.976   -2.050   -2.145   -2.242   -2.318   -2.358   -2.355   -2.332   -2.316   -2.319   -2.346   -2.379   -2.401   -2.404   -2.388   -2.363   -2.338   -2.324   -2.321   -2.338   -2.369   -2.399   -2.426   -2.439   -2.432   -2.411   -2.388   -2.370   -2.342   -2.288   -2.186   -2.039   -1.861   -1.686   -1.538   -1.432   -1.378   -1.368   -1.391   -1.439   -1.490   -1.541   -1.587   -1.639   -1.708   -1.806   -1.916   -2.016   -2.123
  -2.171   -2.119   -2.131   -2.155   -2.157   -2.093   -1.953   -1.777   -1.608   -1.470   -1.360   -1.264   -1.178   -1.109   -1.062   -1.042   -1.050   -1.086   -1.148   -1.230   -1.327   -1.431   -1.535   -1.636   -1.758   -1.924   -2.156   -2.435   -2.728   -2.994   -3.206   -3.356   -3.448   -3.502   -3.544   -3.596   -3.649   -3.673   -3.643   -3.567   -3.478   -3.401   -3.331   -3.249   -3.150   -3.044   -2.950   -2.878   -2.832   -2.803   -2.788   -2.793   -2.828   -2.891   -2.955   -2.988   -2.955   -2.840   -2.665   -2.463   -2.277   -2.129   -2.025   -1.957   -1.906   -1.866   -1.833   -1.803   -1.789   -1.789   -1.807   -1.838   -1.869   -1.895   -1.904   -1.893   -1.870   -1.851   -1.842   -1.837   -1.816   -1.764   -1.681   -1.581   -1.488   -1.419   -1.387   -1.393   -1.435   -1.499   -1.574   -1.644   -1.702   -1.743   -1.779   -1.823   -1.897   -1.986   -2.074   -2.183
  -2.802   -2.733   -2.704   -2.659   -2.569   -2.410   -2.200   -1.983   -1.795   -1.646   -1.526   -1.422   -1.335   -1.270   -1.230   -1.218   -1.234   -1.271   -1.328   -1.402   -1.484   -1.569   -1.652   -1.745   -1.873   -2.075   -2.370   -2.735   -3.117   -3.455   -3.712   -3.880   -3.986   -4.064   -4.141   -4.222   -4.283   -4.294   -4.240   -4.146   -4.059   -4.005   -3.976   -3.954   -3.926   -3.903   -3.895   -3.901   -3.906   -3.899   -3.874   -3.854   -3.860   -3.892   -3.925   -3.914   -3.816   -3.607   -3.296   -2.922   -2.541   -2.206   -1.954   -1.786   -1.680   -1.613   -1.570   -1.537   -1.519   -1.517   -1.531   -1.560   -1.592   -1.619   -1.635   -1.635   -1.623   -1.614   -1.616   -1.625   -1.628   -1.614   -1.579   -1.533   -1.497   -1.481   -1.494   -1.537   -1.607   -1.694   -1.792   -1.882   -1.956   -2.004   -2.038   -2.070   -2.126   -2.205   -2.285   -2.400
  -3.657   -3.588   -3.536   -3.432   -3.244   -2.962   -2.628   -2.304   -2.038   -1.839   -1.690   -1.582   -1.505   -1.459   -1.433   -1.427   -1.441   -1.465   -1.502   -1.546   -1.595   -1.644   -1.699   -1.772   -1.905   -2.142   -2.507   -2.973   -3.470   -3.917   -4.265   -4.498   -4.649   -4.764   -4.875   -4.975   -5.037   -5.037   -4.976   -4.885   -4.806   -4.766   -4.756   -4.763   -4.780   -4.811   -4.858   -4.911   -4.954   -4.966   -4.947   -4.923   -4.919   -4.934   -4.944   -4.903   -4.765   -4.498   -4.096   -3.591   -3.049   -2.557   -2.178   -1.929   -1.782   -1.697   -1.644   -1.606   -1.583   -1.576   -1.586   -1.605   -1.637   -1.671   -1.698   -1.717   -1.727   -1.734   -1.750   -1.771   -1.791   -1.802   -1.795   -1.779   -1.764   -1.763   -1.785   -1.834   -1.910   -2.013   -2.132   -2.259   -2.368   -2.448   -2.495   -2.527   -2.573   -2.646   -2.722   -2.844
  -4.626   -4.562   -4.499   -4.354   -4.078   -3.672   -3.192   -2.731   -2.352   -2.075   -1.887   -1.772   -1.707   -1.676   -1.659   -1.649   -1.649   -1.648   -1.650   -1.655   -1.657   -1.663   -1.681   -1.729   -1.855   -2.114   -2.529   -3.078   -3.683   -4.251   -4.708   -5.025   -5.235   -5.388   -5.519   -5.621   -5.678   -5.674   -5.622   -5.550   -5.487   -5.452   -5.449   -5.466   -5.500   -5.551   -5.616   -5.689   -5.746   -5.771   -5.768   -5.757   -5.761   -5.779   -5.780   -5.728   -5.578   -5.294   -4.856   -4.286   -3.660   -3.086   -2.646   -2.369   -2.215   -2.133   -2.083   -2.049   -2.024   -2.014   -2.021   -2.042   -2.072   -2.114   -2.158   -2.204   -2.246   -2.283   -2.316   -2.350   -2.383   -2.407   -2.409   -2.394   -2.367   -2.341   -2.330   -2.353   -2.421   -2.538   -2.697   -2.881   -3.053   -3.182   -3.250   -3.278   -3.303   -3.351   -3.411   -3.531
  -5.613   -5.550   -5.474   -5.293   -4.948   -4.438   -3.831   -3.233   -2.730   -2.362   -2.122   -1.984   -1.919   -1.887   -1.866   -1.845   -1.821   -1.792   -1.758   -1.722   -1.683   -1.647   -1.627   -1.647   -1.758   -2.018   -2.455   -3.055   -3.740   -4.406   -4.964   -5.368   -5.638   -5.822   -5.957   -6.051   -6.096   -6.094   -6.063   -6.020   -5.981   -5.959   -5.959   -5.978   -6.014   -6.061   -6.116   -6.175   -6.226   -6.255   -6.266   -6.275   -6.298   -6.326   -6.333   -6.283   -6.142   -5.872   -5.450   -4.894   -4.281   -3.728   -3.324   -3.087   -2.974   -2.928   -2.905   -2.886   -2.872   -2.870   -2.888   -2.919   -2.959   -3.012   -3.075   -3.153   -3.239   -3.323   -3.393   -3.449   -3.496   -3.528   -3.531   -3.495   -3.421   -3.324   -3.238   -3.202   -3.247   -3.385   -3.606   -3.874   -4.131   -4.321   -4.413   -4.425   -4.410   -4.412   -4.438   -4.559
  -6.657   -6.579   -6.472   -6.241   -5.828   -5.234   -4.520   -3.797   -3.167   -2.693   -2.381   -2.204   -2.115   -2.070   -2.039   -2.003   -1.960   -1.910   -1.852   -1.789   -1.723   -1.662   -1.619   -1.620   -1.714   -1.961   -2.395   -3.010   -3.739   -4.472   -5.103   -5.579   -5.901   -6.108   -6.239   -6.317   -6.351   -6.358   -6.354   -6.349   -6.348   -6.354   -6.370   -6.398   -6.430   -6.463   -6.493   -6.522   -6.547   -6.566   -6.582   -6.606   -6.645   -6.686   -6.703   -6.668   -6.552   -6.324   -5.965   -5.499   -4.997   -4.565   -4.282   -4.153   -4.127   -4.143   -4.161   -4.168   -4.172   -4.188   -4.222   -4.271   -4.325   -4.388   -4.470   -4.585   -4.730   -4.882   -5.013   -5.113   -5.190   -5.240   -5.250   -5.190   -5.053   -4.854   -4.655   -4.531   -4.542   -4.714   -5.019   -5.401   -5.776   -6.057   -6.197   -6.217   -6.192   -6.192   -6.222   -6.378
  -8.027   -7.913   -7.737   -7.417   -6.911   -6.217   -5.388   -4.527   -3.749   -3.142   -2.727   -2.482   -2.354   -2.292   -2.251   -2.208   -2.157   -2.096   -2.030   -1.961   -1.892   -1.827   -1.783   -1.782   -1.871   -2.104   -2.522   -3.126   -3.861   -4.619   -5.293   -5.817   -6.177   -6.399   -6.525   -6.587   -6.616   -6.638   -6.670   -6.716   -6.772   -6.832   -6.894   -6.949   -6.992   -7.016   -7.023   -7.017   -7.008   -7.005   -7.011   -7.034   -7.075   -7.124   -7.159   -7.156   -7.092   -6.944   -6.703   -6.394   -6.078   -5.838   -5.732   -5.749   -5.834   -5.921   -5.979   -6.008   -6.026   -6.054   -6.093   -6.141   -6.191   -6.251   -6.344   -6.499   -6.719   -6.963   -7.185   -7.363   -7.504   -7.615   -7.666   -7.619   -7.439   -7.155   -6.850   -6.648   -6.644   -6.879   -7.314   -7.870   -8.431   -8.892   -9.191   -9.366   -9.509   -9.684   -9.865  -10.139
 -10.137   -9.982   -9.697   -9.234   -8.577   -7.736   -6.745   -5.694   -4.712   -3.912   -3.349   -3.002   -2.813   -2.720   -2.669   -2.625   -2.574   -2.516   -2.455   -2.396   -2.342   -2.301   -2.279   -2.296   -2.390   -2.610   -3.004   -3.581   -4.288   -5.037   -5.719   -6.265   -6.646   -6.876   -6.995   -7.046   -7.076   -7.116   -7.191   -7.307   -7.455   -7.617   -7.768   -7.890   -7.970   -8.006   -7.999   -7.963   -7.918   -7.878   -7.856   -7.856   -7.884   -7.937   -8.005   -8.067   -8.101   -8.088   -8.024   -7.929   -7.847   -7.836   -7.926   -8.100   -8.296   -8.452   -8.543   -8.585   -8.604   -8.622   -8.638   -8.652   -8.665   -8.701   -8.799   -9.002   -9.310   -9.671  -10.019  -10.325  -10.597  -10.839  -11.011  -11.053  -10.925  -10.660  -10.369  -10.208  -10.308  -10.713  -11.382  -12.217  -13.091  -13.888  -14.557  -15.142  -15.727  -16.321  -16.806  -17.206
 -13.218  -13.053  -12.643  -12.002  -11.152  -10.107   -8.896   -7.591   -6.331   -5.269   -4.496   -3.999   -3.716   -3.569   -3.493   -3.443   -3.390   -3.334   -3.280   -3.240   -3.214   -3.208   -3.228   -3.283   -3.396   -3.605   -3.964   -4.487   -5.143   -5.852   -6.514   -7.056   -7.441   -7.671   -7.781   -7.822   -7.852   -7.915   -8.046   -8.256   -8.535   -8.849   -9.148   -9.387   -9.541   -9.608   -9.599   -9.539   -9.452   -9.368   -9.300   -9.260   -9.259   -9.321   -9.445   -9.614   -9.801   -9.980  -10.143  -10.296  -10.464  -10.682  -10.965  -11.289  -11.590  -11.814  -11.947  -12.012  -12.042  -12.050  -12.039  -12.012  -11.989  -12.016  -12.146  -12.425  -12.845  -13.346  -13.856  -14.343  -14.815  -15.265  -15.648  -15.900  -15.988  -15.958  -15.938  -16.089  -16.531  -17.296  -18.330  -19.530  -20.781  -21.987  -23.115  -24.197  -25.257  -26.213  -26.868  -27.135
 -16.991  -16.878  -16.374  -15.575  -14.538  -13.289  -11.842  -10.261   -8.695   -7.335   -6.308   -5.622   -5.207   -4.978   -4.856   -4.782   -4.713   -4.645   -4.590   -4.559   -4.564   -4.605   -4.682   -4.788   -4.924   -5.124   -5.434   -5.886   -6.465   -7.108   -7.730   -8.255   -8.634   -8.857   -8.953   -8.979   -9.004   -9.089   -9.281   -9.603  -10.043  -10.548  -11.034  -11.426  -11.680  -11.791  -11.784  -11.699  -11.578  -11.450  -11.336  -11.253  -11.229  -11.307  -11.508  -11.817  -12.192  -12.591  -12.990  -13.384  -13.783  -14.205  -14.658  -15.115  -15.522  -15.834  -16.047  -16.185  -16.279  -16.339  -16.369  -16.383  -16.415  -16.522  -16.764  -17.174  -17.737  -18.391  -19.073  -19.757  -20.444  -21.128  -21.768  -22.318  -22.774  -23.191  -23.682  -24.370  -25.319  -26.519  -27.902  -29.378  -30.865  -32.309  -33.690  -35.011  -36.231  -37.212  -37.722  -37.554
 -20.764  -20.756  -20.217  -19.325  -18.165  -16.769  -15.146  -13.352  -11.541   -9.929   -8.674   -7.805   -7.254   -6.928   -6.739   -6.618   -6.515   -6.415   -6.332   -6.295   -6.320   -6.410   -6.553   -6.720   -6.892   -7.085   -7.347   -7.721   -8.212   -8.780   -9.357   -9.864  -10.239  -10.455  -10.533  -10.537  -10.550  -10.649  -10.896  -11.322  -11.914  -12.599  -13.264  -13.800  -14.149  -14.304  -14.305  -14.207  -14.067  -13.918  -13.782  -13.681  -13.659  -13.777  -14.069  -14.522  -15.077  -15.675  -16.275  -16.861  -17.438  -18.017  -18.603  -19.174  -19.690  -20.120  -20.466  -20.751  -21.001  -21.227  -21.435  -21.640  -21.879  -22.200  -22.649  -23.243  -23.959  -24.747  -25.562  -26.388  -27.228  -28.083  -28.933  -29.764  -30.590  -31.462  -32.455  -33.625  -34.979  -36.476  -38.047  -39.626  -41.167  -42.638  -44.023  -45.290  -46.348  -47.022  -47.069  -46.343
 -23.848  -23.960  -23.439  -22.522  -21.318  -19.863  -18.165  -16.279  -14.359  -12.623  -11.245  -10.263   -9.612   -9.200   -8.944   -8.768   -8.612   -8.459   -8.329   -8.256   -8.281   -8.411   -8.621   -8.859   -9.081   -9.286   -9.517   -9.828  -10.248  -10.763  -11.314  -11.822  -12.209  -12.428  -12.493  -12.475  -12.472  -12.575  -12.851  -13.341  -14.027  -14.823  -15.597  -16.224  -16.633  -16.822  -16.838  -16.751  -16.624  -16.495  -16.383  -16.314  -16.338  -16.525  -16.917  -17.494  -18.189  -18.928  -19.662  -20.369  -21.055  -21.731  -22.406  -23.066  -23.690  -24.262  -24.788  -25.288  -25.784  -26.282  -26.787  -27.305  -27.855  -28.467  -29.161  -29.939  -30.781  -31.652  -32.530  -33.410  -34.305  -35.227  -36.183  -37.181  -38.244  -39.407  -40.701  -42.129  -43.657  -45.225  -46.771  -48.247  -49.626  -50.887  -52.005  -52.919  -53.532  -53.704  -53.177  -52.576
 -25.806  -26.009  -25.529  -24.637  -23.453  -22.021  -20.353  -18.506  -16.630  -14.932  -13.569  -12.576  -11.892  -11.435  -11.132  -10.907  -10.697  -10.481  -10.281  -10.155  -10.157  -10.309  -10.581  -10.898  -11.190  -11.435  -11.671  -11.965  -12.364  -12.875  -13.449  -13.998  -14.426  -14.673  -14.749  -14.728  -14.719  -14.815  -15.089  -15.580  -16.269  -17.069  -17.848  -18.484  -18.905  -19.114  -19.158  -19.111  -19.034  -18.968  -18.930  -18.946  -19.066  -19.353  -19.844  -20.514  -21.293  -22.104  -22.896  -23.652  -24.379  -25.093  -25.811  -26.535  -27.258  -27.978  -28.706  -29.456  -30.240  -31.057  -31.896  -32.747  -33.610  -34.488  -35.386  -36.297  -37.209  -38.104  -38.977  -39.835  -40.701  -41.598  -42.550  -43.581  -44.710  -45.952  -47.304  -48.734  -50.194  -51.632  -53.012  -54.315  -55.527  -56.636  -57.617  -58.432  -59.019  -59.231  -58.602  -59.709
 -26.451  -26.690  -26.250  -25.406  -24.285  -22.936  -21.383  -19.686  -17.984  -16.458  -15.233  -14.326  -13.680  -13.229  -12.911  -12.656  -12.406  -12.135  -11.872  -11.687  -11.655  -11.817  -12.141  -12.538  -12.917  -13.239  -13.537  -13.880  -14.334  -14.915  -15.577  -16.222  -16.739  -17.060  -17.191  -17.208  -17.217  -17.311  -17.558  -17.992  -18.599  -19.303  -19.991  -20.558  -20.948  -21.159  -21.238  -21.247  -21.244  -21.264  -21.328  -21.458  -21.698  -22.095  -22.672  -23.399  -24.207  -25.027  -25.815  -26.558  -27.270  -27.976  -28.702  -29.462  -30.267  -31.124  -32.045  -33.035  -34.091  -35.194  -36.315  -37.429  -38.518  -39.571  -40.584  -41.552  -42.469  -43.333  -44.150  -44.938  -45.724  -46.541  -47.422  -48.397  -49.485  -50.695  -52.019  -53.433  -54.905  -56.400  -57.881  -59.305  -60.638  -61.842  -62.899  -63.770  -64.377  -64.510  -63.562  -66.341
 -25.794  -26.009  -25.589  -24.796  -23.758  -22.530  -21.148  -19.676  -18.233  -16.962  -15.949  -15.190  -14.636  -14.236  -13.939  -13.686  -13.423  -13.128  -12.831  -12.610  -12.558  -12.731  -13.106  -13.588  -14.077  -14.522  -14.950  -15.431  -16.034  -16.775  -17.603  -18.407  -19.072  -19.524  -19.771  -19.878  -19.944  -20.052  -20.265  -20.615  -21.091  -21.640  -22.178  -22.629  -22.952  -23.146  -23.246  -23.301  -23.357  -23.447  -23.594  -23.820  -24.157  -24.637  -25.264  -26.002  -26.790  -27.569  -28.306  -28.995  -29.659  -30.330  -31.041  -31.819  -32.684  -33.650  -34.724  -35.900  -37.154  -38.450  -39.745  -41.004  -42.201  -43.324  -44.367  -45.328  -46.209  -47.016  -47.760  -48.465  -49.159  -49.883  -50.672  -51.561  -52.574  -53.721  -54.998  -56.382  -57.836  -59.316  -60.762  -62.132  -63.383  -64.488  -65.411  -66.091  -66.429  -66.207  -64.821  -67.561
 -24.011  -24.146  -23.722  -22.972  -22.019  -20.928  -19.743  -18.527  -17.375  -16.386  -15.607  -15.023  -14.590  -14.272  -14.028  -13.812  -13.576  -13.306  -13.032  -12.832  -12.808  -13.025  -13.475  -14.071  -14.713  -15.348  -15.995  -16.717  -17.571  -18.562  -19.626  -20.647  -21.509  -22.145  -22.555  -22.797  -22.952  -23.095  -23.283  -23.548  -23.891  -24.276  -24.652  -24.971  -25.205  -25.353  -25.437  -25.491  -25.550  -25.648  -25.809  -26.060  -26.425  -26.919  -27.532  -28.226  -28.947  -29.648  -30.305  -30.922  -31.526  -32.155  -32.846  -33.630  -34.530  -35.560  -36.719  -37.989  -39.330  -40.696  -42.038  -43.320  -44.519  -45.623  -46.628  -47.534  -48.347  -49.073  -49.727  -50.333  -50.920  -51.527  -52.194  -52.953  -53.828  -54.823  -55.930  -57.119  -58.351  -59.585  -60.788  -61.941  -63.017  -64.004  -64.846  -65.480  -65.786  -65.550  -64.239  -65.777
 -21.429  -21.449  -21.003  -20.281  -19.402  -18.442  -17.452  -16.485  -15.608  -14.879  -14.318  -13.904  -13.603  -13.384  -13.221  -13.076  -12.921  -12.741  -12.571  -12.484  -12.578  -12.923  -13.519  -14.299  -15.174  -16.092  -17.059  -18.115  -19.296  -20.586  -21.913  -23.162  -24.228  -25.053  -25.636  -26.021  -26.272  -26.456  -26.628  -26.823  -27.051  -27.298  -27.531  -27.721  -27.852  -27.920  -27.937  -27.925  -27.915  -27.939  -28.027  -28.210  -28.508  -28.927  -29.452  -30.043  -30.655  -31.251  -31.815  -32.357  -32.907  -33.500  -34.172  -34.948  -35.848  -36.881  -38.037  -39.290  -40.594  -41.901  -43.166  -44.357  -45.456  -46.454  -47.350  -48.146  -48.848  -49.464  -50.011  -50.511  -50.993  -51.490  -52.040  -52.672  -53.408  -54.254  -55.205  -56.239  -57.325  -58.435  -59.544  -60.632  -61.678  -62.650  -63.505  -64.170  -64.545  -64.429  -63.383  -63.672
 -18.507  -18.407  -17.933  -17.231  -16.415  -15.570  -14.748  -13.991  -13.339  -12.821  -12.439  -12.173  -11.999  -11.893  -11.836  -11.810  -11.794  -11.791  -11.829  -11.977  -12.318  -12.916  -13.777  -14.849  -16.053  -17.331  -18.669  -20.077  -21.566  -23.108  -24.630  -26.036  -27.242  -28.200  -28.909  -29.400  -29.723  -29.935  -30.090  -30.226  -30.362  -30.495  -30.609  -30.683  -30.705  -30.670  -30.581  -30.459  -30.329  -30.224  -30.178  -30.223  -30.381  -30.656  -31.031  -31.475  -31.948  -32.424  -32.894  -33.367  -33.870  -34.431  -35.074  -35.817  -36.669  -37.632  -38.692  -39.819  -40.973  -42.111  -43.196  -44.207  -45.131  -45.964  -46.709  -47.368  -47.948  -48.459  -48.913  -49.330  -49.733  -50.154  -50.620  -51.161  -51.798  -52.541  -53.388  -54.327  -55.339  -56.399  -57.486  -58.574  -59.634  -60.629  -61.512  -62.208  -62.624  -62.587  -61.763  -61.204
 -15.776  -15.585  -15.101  -14.428  -13.677  -12.935  -12.250  -11.654  -11.170  -10.808  -10.565  -10.427  -10.374  -10.394  -10.477  -10.618  -10.815  -11.074  -11.425  -11.918  -12.619  -13.578  -14.794  -16.220  -17.776  -19.391  -21.026  -22.675  -24.332  -25.975  -27.548  -28.983  -30.218  -31.218  -31.976  -32.513  -32.867  -33.085  -33.214  -33.297  -33.356  -33.397  -33.410  -33.382  -33.299  -33.156  -32.956  -32.717  -32.462  -32.224  -32.037  -31.931  -31.929  -32.038  -32.245  -32.526  -32.854  -33.211  -33.588  -33.995  -34.448  -34.964  -35.555  -36.226  -36.978  -37.805  -38.692  -39.614  -40.539  -41.437  -42.283  -43.067  -43.782  -44.430  -45.014  -45.537  -46.005  -46.422  -46.802  -47.157  -47.506  -47.873  -48.283  -48.761  -49.324  -49.983  -50.740  -51.588  -52.515  -53.505  -54.540  -55.599  -56.655  -57.668  -58.585  -59.329  -59.797  -59.842  -59.210  -58.220
 -13.747  -13.520  -13.066  -12.458  -11.799  -11.166  -10.605  -10.137   -9.778   -9.533   -9.403   -9.377   -9.449   -9.607   -9.856  -10.201  -10.651  -11.212  -11.899  -12.748  -13.803  -15.095  -16.619  -18.320  -20.111  -21.910  -23.669  -25.373  -27.021  -28.602  -30.088  -31.435  -32.600  -33.557  -34.297  -34.831  -35.181  -35.385  -35.486  -35.521  -35.517  -35.482  -35.414  -35.300  -35.130  -34.897  -34.608  -34.278  -33.932  -33.598  -33.306  -33.086  -32.956  -32.927  -32.989  -33.129  -33.330  -33.577  -33.867  -34.203  -34.592  -35.040  -35.547  -36.110  -36.721  -37.372  -38.048  -38.731  -39.400  -40.037  -40.633  -41.184  -41.691  -42.158  -42.589  -42.985  -43.349  -43.688  -44.008  -44.319  -44.635  -44.973  -45.353  -45.794  -46.310  -46.909  -47.593  -48.360  -49.202  -50.109  -51.069  -52.066  -53.077  -54.068  -54.987  -55.761  -56.285  -56.424  -55.971  -54.883
 -12.789  -12.589  -12.222  -11.737  -11.218  -10.728  -10.300   -9.952   -9.693   -9.537   -9.488   -9.552   -9.722  -10.000  -10.391  -10.910  -11.561  -12.344  -13.256  -14.316  -15.554  -16.997  -18.639  -20.421  -22.256  -24.057  -25.771  -27.381  -28.894  -30.314  -31.632  -32.825  -33.866  -34.734  -35.418  -35.917  -36.247  -36.433  -36.511  -36.512  -36.464  -36.377  -36.251  -36.078  -35.849  -35.562  -35.222  -34.847  -34.459  -34.084  -33.746  -33.469  -33.270  -33.155  -33.121  -33.160  -33.263  -33.422  -33.631  -33.892  -34.204  -34.565  -34.966  -35.400  -35.857  -36.325  -36.795  -37.252  -37.687  -38.091  -38.467  -38.816  -39.146  -39.461  -39.762  -40.052  -40.332  -40.607  -40.882  -41.164  -41.462  -41.788  -42.156  -42.579  -43.068  -43.628  -44.262  -44.966  -45.735  -46.562  -47.439  -48.354  -49.290  -50.218  -51.093  -51.851  -52.396  -52.604  -52.296  -51.300
 -13.014  -12.904  -12.673  -12.364  -12.034  -11.722  -11.444  -11.204  -11.014  -10.890  -10.857  -10.931  -11.116  -11.419  -11.847  -12.411  -13.112  -13.935  -14.867  -15.914  -17.107  -18.477  -20.024  -21.698  -23.412  -25.078  -26.640  -28.079  -29.404  -30.627  -31.753  -32.774  -33.675  -34.440  -35.056  -35.517  -35.828  -36.008  -36.081  -36.077  -36.016  -35.912  -35.765  -35.572  -35.326  -35.028  -34.686  -34.318  -33.943  -33.582  -33.255  -32.978  -32.763  -32.616  -32.535  -32.517  -32.555  -32.647  -32.789  -32.979  -33.212  -33.480  -33.775  -34.085  -34.401  -34.713  -35.012  -35.291  -35.545  -35.774  -35.986  -36.188  -36.389  -36.592  -36.799  -37.010  -37.226  -37.451  -37.690  -37.949  -38.232  -38.549  -38.908  -39.320  -39.790  -40.325  -40.922  -41.578  -42.287  -43.045  -43.843  -44.675  -45.524  -46.370  -47.176  -47.886  -48.420  -48.663  -48.459  -47.611
 -14.188  -14.208  -14.125  -13.997  -13.858  -13.720  -13.573  -13.407  -13.223  -13.046  -12.919  -12.882  -12.950  -13.137  -13.451  -13.901  -14.478  -15.162  -15.929  -16.783  -17.757  -18.889  -20.192  -21.627  -23.114  -24.567  -25.924  -27.164  -28.291  -29.321  -30.267  -31.130  -31.904  -32.577  -33.137  -33.577  -33.893  -34.095  -34.201  -34.232  -34.206  -34.133  -34.017  -33.854  -33.643  -33.386  -33.093  -32.780  -32.464  -32.162  -31.885  -31.647  -31.454  -31.312  -31.221  -31.178  -31.182  -31.231  -31.324  -31.458  -31.623  -31.815  -32.020  -32.232  -32.441  -32.640  -32.821  -32.980  -33.116  -33.235  -33.344  -33.453  -33.572  -33.702  -33.845  -34.000  -34.167  -34.353  -34.560  -34.793  -35.058  -35.361  -35.707  -36.105  -36.561  -37.076  -37.647  -38.269  -38.934  -39.635  -40.366  -41.122  -41.894  -42.664  -43.404  -44.066  -44.580  -44.847  -44.726  -44.025
 -15.754  -15.901  -15.923  -15.914  -15.899  -15.868  -15.790  -15.632  -15.385  -15.079  -14.769  -14.517  -14.361  -14.322  -14.409  -14.628  -14.967  -15.400  -15.902  -16.472  -17.141  -17.955  -18.937  -20.063  -21.267  -22.466  -23.599  -24.638  -25.583  -26.448  -27.246  -27.984  -28.662  -29.275  -29.814  -30.267  -30.629  -30.901  -31.091  -31.214  -31.280  -31.297  -31.267  -31.189  -31.062  -30.893  -30.689  -30.466  -30.235  -30.011  -29.801  -29.615  -29.460  -29.341  -29.258  -29.213  -29.206  -29.236  -29.304  -29.404  -29.530  -29.672  -29.821  -29.970  -30.113  -30.245  -30.359  -30.453  -30.526  -30.584  -30.638  -30.695  -30.765  -30.849  -30.948  -31.062  -31.192  -31.342  -31.517  -31.722  -31.964  -32.247  -32.577  -32.963  -33.409  -33.915  -34.475  -35.078  -35.712  -36.372  -37.051  -37.747  -38.458  -39.171  -39.863  -40.495  -41.005  -41.300  -41.256  -40.689
 -17.046  -17.266  -17.306  -17.307  -17.301  -17.275  -17.182  -16.969  -16.615  -16.145  -15.622  -15.128  -14.717  -14.419  -14.243  -14.193  -14.258  -14.411  -14.626  -14.902  -15.262  -15.754  -16.405  -17.207  -18.111  -19.046  -19.957  -20.813  -21.610  -22.354  -23.053  -23.715  -24.345  -24.944  -25.507  -26.023  -26.481  -26.875  -27.205  -27.474  -27.685  -27.841  -27.940  -27.982  -27.970  -27.908  -27.807  -27.677  -27.529  -27.374  -27.220  -27.077  -26.954  -26.858  -26.792  -26.758  -26.757  -26.792  -26.862  -26.961  -27.079  -27.206  -27.334  -27.456  -27.570  -27.671  -27.756  -27.820  -27.866  -27.897  -27.923  -27.953  -27.992  -28.045  -28.112  -28.193  -28.290  -28.407  -28.549  -28.724  -28.939  -29.202  -29.521  -29.904  -30.356  -30.872  -31.439  -32.042  -32.663  -33.294  -33.933  -34.584  -35.248  -35.922  -36.588  -37.211  -37.733  -38.067  -38.095  -37.648
 -17.528  -17.735  -17.691  -17.582  -17.466  -17.340  -17.154  -16.844  -16.370  -15.751  -15.052  -14.364  -13.749  -13.241  -12.850  -12.572  -12.401  -12.317  -12.296  -12.332  -12.444  -12.673  -13.045  -13.560  -14.190  -14.886  -15.606  -16.323  -17.025  -17.708  -18.372  -19.022  -19.664  -20.301  -20.933  -21.551  -22.139  -22.687  -23.182  -23.618  -23.989  -24.290  -24.519  -24.677  -24.766  -24.795  -24.772  -24.708  -24.612  -24.494  -24.368  -24.245  -24.140  -24.060  -24.013  -23.999  -24.023  -24.084  -24.182  -24.307  -24.446  -24.587  -24.720  -24.840  -24.947  -25.038  -25.112  -25.166  -25.201  -25.221  -25.235  -25.249  -25.268  -25.298  -25.339  -25.392  -25.459  -25.544  -25.652  -25.794  -25.980  -26.226  -26.544  -26.942  -27.422  -27.974  -28.574  -29.198  -29.821  -30.436  -31.044  -31.656  -32.284  -32.931  -33.584  -34.211  -34.754  -35.130  -35.228  -34.887
 -16.927  -17.027  -16.812  -16.494  -16.166  -15.856  -15.523  -15.094  -14.522  -13.811  -13.025  -12.249  -11.548  -10.949  -10.454  -10.058   -9.754   -9.529   -9.370   -9.269   -9.239   -9.307   -9.494   -9.808  -10.239  -10.762  -11.357  -12.002  -12.682  -13.377  -14.078  -14.779  -15.485  -16.197  -16.915  -17.634  -18.339  -19.013  -19.639  -20.200  -20.684  -21.081  -21.391  -21.615  -21.759  -21.832  -21.844  -21.803  -21.719  -21.604  -21.478  -21.358  -21.261  -21.197  -21.172  -21.189  -21.249  -21.351  -21.491  -21.654  -21.826  -21.990  -22.135  -22.259  -22.361  -22.443  -22.506  -22.551  -22.579  -22.594  -22.600  -22.605  -22.613  -22.628  -22.650  -22.681  -22.721  -22.773  -22.845  -22.950  -23.108  -23.341  -23.668  -24.099  -24.631  -25.243  -25.902  -26.567  -27.209  -27.819  -28.403  -28.983  -29.578  -30.201  -30.845  -31.479  -32.046  -32.461  -32.618  -32.370
 -15.246  -15.176  -14.748  -14.170  -13.580  -13.043  -12.539  -12.004  -11.382  -10.670   -9.920   -9.199   -8.560   -8.014   -7.556   -7.175   -6.864   -6.621   -6.435   -6.305   -6.238   -6.250   -6.356   -6.565   -6.887   -7.321   -7.867   -8.513   -9.237  -10.006  -10.795  -11.589  -12.381  -13.170  -13.954  -14.730  -15.489  -16.214  -16.885  -17.485  -17.996  -18.413  -18.734  -18.965  -19.115  -19.191  -19.202  -19.156  -19.063  -18.940  -18.809  -18.693  -18.610  -18.571  -18.578  -18.633  -18.732  -18.873  -19.045  -19.233  -19.420  -19.588  -19.729  -19.839  -19.920  -19.976  -20.015  -20.040  -20.054  -20.060  -20.061  -20.062  -20.066  -20.076  -20.089  -20.106  -20.124  -20.146  -20.180  -20.248  -20.376  -20.599  -20.940  -21.416  -22.015  -22.706  -23.440  -24.161  -24.836  -25.450  -26.018  -26.568  -27.131  -27.728  -28.360  -28.998  -29.583  -30.032  -30.240  -30.072
 -12.768  -12.526  -11.916  -11.122  -10.312   -9.582   -8.946   -8.352   -7.751   -7.132   -6.530   -5.981   -5.515   -5.122   -4.796   -4.522   -4.294   -4.115   -3.980   -3.891   -3.851   -3.869   -3.958   -4.130   -4.404   -4.807   -5.350   -6.032   -6.828   -7.693   -8.582   -9.469  -10.336  -11.175  -11.982  -12.758  -13.499  -14.196  -14.833  -15.392  -15.864  -16.243  -16.534  -16.743  -16.879  -16.949  -16.958  -16.913  -16.825  -16.713  -16.603  -16.516  -16.471  -16.471  -16.519  -16.608  -16.733  -16.886  -17.055  -17.226  -17.384  -17.517  -17.616  -17.681  -17.713  -17.721  -17.716  -17.704  -17.694  -17.685  -17.680  -17.680  -17.689  -17.703  -17.719  -17.732  -17.737  -17.734  -17.734  -17.765  -17.866  -18.079  -18.439  -18.963  -19.635  -20.413  -21.227  -22.013  -22.725  -23.348  -23.901  -24.418  -24.943  -25.507  -26.118  -26.751  -27.348  -27.824  -28.075  -27.974
 -10.024   -9.678   -9.001   -8.136   -7.252   -6.458   -5.780   -5.196   -4.670   -4.192   -3.769   -3.413   -3.123   -2.890   -2.698   -2.538   -2.407   -2.310   -2.243   -2.207   -2.206   -2.245   -2.333   -2.485   -2.734   -3.112   -3.650   -4.354   -5.198   -6.129   -7.091   -8.040   -8.946   -9.797  -10.587  -11.321  -12.002  -12.626  -13.185  -13.671  -14.079  -14.409  -14.671  -14.871  -15.014  -15.104  -15.144  -15.139  -15.098  -15.041  -14.991  -14.969  -14.983  -15.036  -15.121  -15.226  -15.345  -15.468  -15.585  -15.686  -15.765  -15.817  -15.837  -15.826  -15.790  -15.735  -15.673  -15.617  -15.572  -15.544  -15.531  -15.534  -15.551  -15.576  -15.602  -15.620  -15.621  -15.602  -15.579  -15.583  -15.665  -15.879  -16.266  -16.845  -17.593  -18.454  -19.345  -20.186  -20.925  -21.547  -22.071  -22.543  -23.015  -23.531  -24.107  -24.724  -25.322  -25.817  -26.103  -26.059
  -7.661   -7.304   -6.689   -5.906   -5.094   -4.350   -3.709   -3.174   -2.731   -2.374   -2.090   -1.869   -1.693   -1.550   -1.431   -1.340   -1.271   -1.224   -1.200   -1.196   -1.217   -1.263   -1.339   -1.469   -1.679   -2.013   -2.508   -3.182   -4.013   -4.951   -5.927   -6.887   -7.790   -8.616   -9.361  -10.032  -10.638  -11.182  -11.663  -12.081  -12.441  -12.748  -13.011  -13.234  -13.423  -13.577  -13.695  -13.777  -13.830  -13.871  -13.918  -13.983  -14.067  -14.167  -14.271  -14.366  -14.443  -14.496  -14.519  -14.511  -14.476  -14.416  -14.337  -14.240  -14.131  -14.015  -13.904  -13.808  -13.733  -13.685  -13.665  -13.671  -13.695  -13.732  -13.769  -13.796  -13.800  -13.780  -13.752  -13.754  -13.845  -14.084  -14.522  -15.171  -16.001  -16.936  -17.881  -18.748  -19.482  -20.070  -20.539  -20.940  -21.339  -21.788  -22.312  -22.897  -23.487  -23.990  -24.302  -24.304
  -6.129   -5.817   -5.302   -4.636   -3.918   -3.232   -2.630   -2.137   -1.761   -1.492   -1.304   -1.165   -1.046   -0.934   -0.836   -0.759   -0.709   -0.678   -0.668   -0.674   -0.696   -0.734   -0.791   -0.886   -1.048   -1.310   -1.723   -2.305   -3.051   -3.916   -4.837   -5.747   -6.603   -7.375   -8.062   -8.667   -9.206   -9.685  -10.110  -10.487  -10.827  -11.139  -11.433  -11.713  -11.979  -12.229  -12.457  -12.658  -12.836  -12.997  -13.153  -13.307  -13.454  -13.586  -13.686  -13.747  -13.759  -13.718  -13.628  -13.497  -13.340  -13.170  -12.998  -12.827  -12.664  -12.509  -12.370  -12.252  -12.163  -12.106  -12.084  -12.091  -12.120  -12.164  -12.211  -12.250  -12.268  -12.265  -12.259  -12.295  -12.435  -12.746  -13.271  -14.013  -14.921  -15.906  -16.862  -17.702  -18.379  -18.887  -19.263  -19.569  -19.877  -20.246  -20.707  -21.250  -21.818  -22.319  -22.646  -22.684
  -5.414   -5.147   -4.688   -4.070   -3.376   -2.693   -2.090   -1.618   -1.293   -1.098   -0.987   -0.907   -0.820   -0.718   -0.619   -0.537   -0.481   -0.447   -0.435   -0.439   -0.455   -0.479   -0.517   -0.580   -0.685   -0.869   -1.170   -1.618   -2.216   -2.943   -3.740   -4.544   -5.309   -6.006   -6.626   -7.172   -7.659   -8.096   -8.488   -8.850   -9.192   -9.526   -9.863  -10.205  -10.553  -10.901  -11.240  -11.561  -11.860  -12.136  -12.389  -12.616  -12.809  -12.955  -13.042  -13.060  -13.003  -12.874  -12.683  -12.450  -12.197  -11.946  -11.712  -11.502  -11.317  -11.155  -11.017  -10.904  -10.821  -10.771  -10.756  -10.769  -10.806  -10.858  -10.917  -10.973  -11.017  -11.051  -11.099  -11.207  -11.442  -11.865  -12.509  -13.350  -14.315  -15.301  -16.206  -16.957  -17.520  -17.906  -18.165  -18.364  -18.577  -18.867  -19.267  -19.763  -20.300  -20.787  -21.118  -21.183
  -5.083   -4.845   -4.403   -3.788   -3.079   -2.370   -1.755   -1.300   -1.017   -0.879   -0.827   -0.792   -0.731   -0.643   -0.546   -0.461   -0.397   -0.357   -0.342   -0.339   -0.348   -0.361   -0.387   -0.421   -0.486   -0.599   -0.792   -1.095   -1.524   -2.067   -2.691   -3.344   -3.987   -4.584   -5.128   -5.621   -6.067   -6.474   -6.852   -7.209   -7.558   -7.911   -8.279   -8.665   -9.067   -9.482   -9.899  -10.306  -10.692  -11.047  -11.368  -11.644  -11.866  -12.021  -12.096  -12.085  -11.982  -11.797  -11.547  -11.259  -10.962  -10.684  -10.439  -10.232  -10.065   -9.929   -9.821   -9.739   -9.684   -9.659   -9.665   -9.699   -9.751   -9.821   -9.900   -9.981  -10.061  -10.149  -10.270  -10.477  -10.835  -11.390  -12.153  -13.070  -14.046  -14.973  -15.766  -16.373  -16.785  -17.029  -17.165  -17.264  -17.399  -17.628  -17.976  -18.430  -18.933  -19.397  -19.721  -19.802
  -4.645   -4.432   -4.019   -3.437   -2.758   -2.076   -1.486   -1.062   -0.813   -0.714   -0.691   -0.681   -0.642   -0.575   -0.495   -0.420   -0.359   -0.318   -0.297   -0.293   -0.297   -0.306   -0.323   -0.344   -0.377   -0.439   -0.550   -0.729   -1.003   -1.365   -1.806   -2.288   -2.781   -3.264   -3.720   -4.151   -4.555   -4.935   -5.297   -5.651   -6.001   -6.358   -6.732   -7.124   -7.536   -7.964   -8.402   -8.835   -9.251   -9.637   -9.983  -10.281  -10.518  -10.682  -10.761  -10.750  -10.644  -10.457  -10.211   -9.935   -9.662   -9.418   -9.214   -9.054   -8.936   -8.854   -8.798   -8.767   -8.758   -8.777   -8.822   -8.887   -8.972   -9.069   -9.176   -9.289   -9.408   -9.552   -9.753  -10.064  -10.540  -11.211  -12.058  -13.000  -13.930  -14.748  -15.389  -15.831  -16.084  -16.195  -16.228  -16.252  -16.335  -16.523  -16.836  -17.254  -17.722  -18.155  -18.461  -18.550
  -3.855   -3.675   -3.341   -2.863   -2.300   -1.728   -1.232   -0.866   -0.652   -0.566   -0.550   -0.546   -0.525   -0.479   -0.423   -0.368   -0.322   -0.290   -0.273   -0.271   -0.275   -0.282   -0.292   -0.301   -0.317   -0.348   -0.405   -0.505   -0.658   -0.878   -1.156   -1.479   -1.825   -2.181   -2.540   -2.893   -3.244   -3.588   -3.927   -4.268   -4.614   -4.964   -5.321   -5.685   -6.059   -6.445   -6.838   -7.232   -7.615   -7.976   -8.307   -8.599   -8.838   -9.016   -9.121   -9.143   -9.084   -8.956   -8.778   -8.582   -8.394   -8.232   -8.110   -8.027   -7.980   -7.961   -7.967   -7.995   -8.046   -8.122   -8.216   -8.328   -8.450   -8.582   -8.718   -8.858   -9.013   -9.204   -9.471   -9.863  -10.425  -11.166  -12.040  -12.952  -13.791  -14.474  -14.958  -15.244  -15.365  -15.375  -15.338  -15.323  -15.381  -15.549  -15.836  -16.222  -16.652  -17.051  -17.336  -17.423
  -2.804   -2.666   -2.442   -2.121   -1.733   -1.329   -0.964   -0.688   -0.516   -0.438   -0.418   -0.411   -0.401   -0.375   -0.346   -0.313   -0.283   -0.263   -0.257   -0.262   -0.268   -0.274   -0.280   -0.283   -0.290   -0.302   -0.327   -0.376   -0.457   -0.576   -0.739   -0.936   -1.156   -1.397   -1.653   -1.923   -2.202   -2.496   -2.805   -3.128   -3.463   -3.801   -4.129   -4.443   -4.748   -5.049   -5.352   -5.655   -5.956   -6.249   -6.531   -6.793   -7.026   -7.222   -7.368   -7.456   -7.483   -7.460   -7.401   -7.329   -7.260   -7.211   -7.187   -7.187   -7.211   -7.256   -7.322   -7.409   -7.519   -7.649   -7.795   -7.951   -8.111   -8.271   -8.427   -8.584   -8.758   -8.977   -9.283   -9.719  -10.320  -11.073  -11.921  -12.761  -13.490  -14.043  -14.393  -14.561  -14.589  -14.539  -14.474  -14.448  -14.504  -14.667  -14.937  -15.293  -15.688  -16.054  -16.316  -16.400
  -1.774   -1.682   -1.563   -1.389   -1.170   -0.931   -0.704   -0.520   -0.400   -0.337   -0.316   -0.309   -0.306   -0.296   -0.281   -0.266   -0.254   -0.248   -0.254   -0.264   -0.275   -0.281   -0.284   -0.279   -0.274   -0.277   -0.285   -0.307   -0.346   -0.408   -0.497   -0.604   -0.734   -0.881   -1.047   -1.231   -1.439   -1.672   -1.943   -2.241   -2.561   -2.875   -3.165   -3.424   -3.648   -3.851   -4.045   -4.238   -4.437   -4.642   -4.856   -5.076   -5.299   -5.513   -5.708   -5.876   -6.011   -6.114   -6.191   -6.256   -6.315   -6.381   -6.453   -6.532   -6.621   -6.722   -6.836   -6.970   -7.125   -7.297   -7.477   -7.659   -7.837   -8.006   -8.164   -8.321   -8.494   -8.716   -9.029   -9.472  -10.064  -10.785  -11.572  -12.325  -12.955  -13.404  -13.661  -13.754  -13.736  -13.664  -13.597  -13.584  -13.652  -13.819  -14.081  -14.417  -14.786  -15.128  -15.375  -15.461
  -1.013   -0.956   -0.905   -0.828   -0.725   -0.604   -0.483   -0.378   -0.303   -0.263   -0.251   -0.248   -0.253   -0.252   -0.246   -0.243   -0.239   -0.248   -0.264   -0.284   -0.300   -0.303   -0.297   -0.285   -0.270   -0.261   -0.260   -0.268   -0.285   -0.318   -0.360   -0.417   -0.486   -0.568   -0.664   -0.780   -0.917   -1.094   -1.313   -1.573   -1.858   -2.134   -2.378   -2.575   -2.725   -2.843   -2.943   -3.038   -3.141   -3.263   -3.412   -3.589   -3.798   -4.026   -4.269   -4.514   -4.752   -4.976   -5.179   -5.368   -5.547   -5.718   -5.879   -6.034   -6.181   -6.328   -6.479   -6.642   -6.818   -7.003   -7.188   -7.366   -7.531   -7.683   -7.822   -7.956   -8.111   -8.318   -8.613   -9.032   -9.584  -10.249  -10.965  -11.642  -12.197  -12.582  -12.790  -12.853  -12.822  -12.754  -12.704  -12.710  -12.800  -12.979  -13.244  -13.575  -13.934  -14.267  -14.512  -14.605
  -0.573   -0.534   -0.518   -0.486   -0.441   -0.387   -0.331   -0.278   -0.239   -0.222   -0.217   -0.220   -0.228   -0.233   -0.234   -0.234   -0.241   -0.263   -0.292   -0.315   -0.330   -0.326   -0.309   -0.286   -0.263   -0.251   -0.243   -0.244   -0.251   -0.264   -0.285   -0.313   -0.350   -0.390   -0.441   -0.506   -0.593   -0.712   -0.875   -1.077   -1.304   -1.523   -1.708   -1.847   -1.938   -1.994   -2.028   -2.059   -2.097   -2.159   -2.255   -2.396   -2.586   -2.819   -3.093   -3.395   -3.708   -4.019   -4.319   -4.611   -4.893   -5.161   -5.410   -5.636   -5.840   -6.028   -6.206   -6.381   -6.554   -6.723   -6.879   -7.020   -7.144   -7.255   -7.356   -7.458   -7.585   -7.768   -8.037   -8.419   -8.924   -9.532  -10.185  -10.804  -11.316  -11.675  -11.873  -11.940  -11.924  -11.878  -11.854  -11.885  -11.995  -12.192  -12.468  -12.806  -13.171  -13.510  -13.760  -13.861
  -0.365   -0.334   -0.324   -0.312   -0.292   -0.266   -0.242   -0.217   -0.204   -0.196   -0.196   -0.206   -0.218   -0.225   -0.231   -0.235   -0.251   -0.283   -0.325   -0.356   -0.363   -0.345   -0.314   -0.281   -0.252   -0.236   -0.228   -0.225   -0.226   -0.233   -0.243   -0.258   -0.274   -0.294   -0.320   -0.354   -0.403   -0.477   -0.582   -0.719   -0.876   -1.026   -1.151   -1.238   -1.288   -1.309   -1.313   -1.311   -1.315   -1.343   -1.404   -1.512   -1.675   -1.895   -2.170   -2.487   -2.828   -3.184   -3.544   -3.908   -4.273   -4.629   -4.963   -5.264   -5.528   -5.758   -5.958   -6.134   -6.290   -6.422   -6.531   -6.617   -6.687   -6.748   -6.806   -6.878   -6.982   -7.146   -7.396   -7.751   -8.217   -8.777   -9.382   -9.962  -10.454  -10.811  -11.026  -11.124  -11.144  -11.136  -11.144  -11.203  -11.334  -11.548  -11.838  -12.188  -12.563  -12.909  -13.164  -13.269
  -0.279   -0.250   -0.242   -0.234   -0.222   -0.211   -0.198   -0.188   -0.183   -0.180   -0.185   -0.194   -0.205   -0.215   -0.221   -0.231   -0.255   -0.300   -0.350   -0.384   -0.382   -0.349   -0.305   -0.263   -0.235   -0.219   -0.210   -0.207   -0.211   -0.212   -0.218   -0.227   -0.236   -0.246   -0.258   -0.277   -0.302   -0.342   -0.402   -0.481   -0.570   -0.660   -0.729   -0.777   -0.803   -0.811   -0.805   -0.796   -0.793   -0.807   -0.845   -0.921   -1.049   -1.231   -1.470   -1.757   -2.079   -2.426   -2.800   -3.199   -3.620   -4.049   -4.462   -4.839   -5.167   -5.441   -5.666   -5.846   -5.985   -6.082   -6.144   -6.179   -6.202   -6.224   -6.256   -6.312   -6.410   -6.573   -6.817   -7.159   -7.601   -8.120   -8.681   -9.229   -9.703  -10.066  -10.308  -10.449  -10.519  -10.561  -10.610  -10.702  -10.855  -11.085  -11.388  -11.745  -12.125  -12.471  -12.724  -12.823
  -0.239   -0.212   -0.209   -0.199   -0.190   -0.184   -0.179   -0.172   -0.169   -0.171   -0.173   -0.179   -0.190   -0.197   -0.204   -0.219   -0.248   -0.297   -0.351   -0.385   -0.380   -0.339   -0.285   -0.241   -0.215   -0.200   -0.195   -0.194   -0.193   -0.196   -0.201   -0.205   -0.212   -0.217   -0.226   -0.235   -0.249   -0.269   -0.299   -0.336   -0.381   -0.423   -0.458   -0.483   -0.494   -0.499   -0.495   -0.492   -0.488   -0.497   -0.521   -0.571   -0.655   -0.786   -0.962   -1.182   -1.443   -1.743   -2.086   -2.479   -2.919   -3.391   -3.864   -4.307   -4.695   -5.021   -5.279   -5.473   -5.607   -5.687   -5.724   -5.734   -5.735   -5.744   -5.773   -5.835   -5.945   -6.119   -6.371   -6.704   -7.118   -7.593   -8.101   -8.599   -9.039   -9.396   -9.657   -9.836   -9.958  -10.053  -10.151  -10.279  -10.462  -10.710  -11.024  -11.385  -11.758  -12.097  -12.341  -12.426
  -0.221   -0.195   -0.188   -0.181   -0.176   -0.171   -0.166   -0.163   -0.161   -0.160   -0.163   -0.165   -0.172   -0.176   -0.183   -0.198   -0.227   -0.273   -0.326   -0.356   -0.348   -0.307   -0.259   -0.218   -0.195   -0.183   -0.181   -0.179   -0.180   -0.184   -0.188   -0.192   -0.196   -0.200   -0.205   -0.211   -0.220   -0.229   -0.242   -0.261   -0.280   -0.297   -0.313   -0.324   -0.333   -0.335   -0.336   -0.335   -0.338   -0.343   -0.358   -0.384   -0.434   -0.512   -0.623   -0.768   -0.947   -1.169   -1.445   -1.790   -2.205   -2.673   -3.166   -3.647   -4.085   -4.458   -4.755   -4.974   -5.125   -5.214   -5.256   -5.273   -5.283   -5.306   -5.356   -5.445   -5.578   -5.769   -6.022   -6.335   -6.702   -7.113   -7.546   -7.968   -8.351   -8.674   -8.932   -9.131   -9.290   -9.431   -9.573   -9.741   -9.954  -10.226  -10.550  -10.913  -11.281  -11.607  -11.841  -11.916
  -0.210   -0.185   -0.179   -0.173   -0.168   -0.164   -0.160   -0.158   -0.155   -0.153   -0.153   -0.157   -0.159   -0.159   -0.165   -0.178   -0.200   -0.237   -0.275   -0.299   -0.296   -0.264   -0.228   -0.196   -0.178   -0.169   -0.167   -0.168   -0.171   -0.174   -0.177   -0.181   -0.184   -0.188   -0.191   -0.195   -0.200   -0.204   -0.213   -0.220   -0.230   -0.236   -0.244   -0.251   -0.255   -0.259   -0.261   -0.265   -0.265   -0.271   -0.279   -0.294   -0.319   -0.359   -0.417   -0.496   -0.603   -0.745   -0.940   -1.202   -1.545   -1.959   -2.420   -2.897   -3.348   -3.746   -4.071   -4.321   -4.501   -4.620   -4.693   -4.743   -4.787   -4.848   -4.939   -5.064   -5.229   -5.432   -5.670   -5.942   -6.243   -6.564   -6.897   -7.222   -7.524   -7.788   -8.014   -8.208   -8.380   -8.545   -8.717   -8.912   -9.150   -9.436   -9.770  -10.131  -10.492  -10.809  -11.040  -11.116
  -0.203   -0.179   -0.173   -0.167   -0.162   -0.158   -0.155   -0.152   -0.150   -0.148   -0.147   -0.146   -0.147   -0.150   -0.152   -0.159   -0.174   -0.196   -0.222   -0.238   -0.237   -0.217   -0.195   -0.172   -0.163   -0.160   -0.158   -0.161   -0.163   -0.166   -0.169   -0.171   -0.174   -0.177   -0.180   -0.184   -0.187   -0.190   -0.194   -0.199   -0.203   -0.209   -0.214   -0.218   -0.222   -0.225   -0.227   -0.231   -0.234   -0.238   -0.243   -0.249   -0.262   -0.281   -0.306   -0.344   -0.397   -0.476   -0.595   -0.768   -1.014   -1.332   -1.712   -2.123   -2.538   -2.919   -3.244   -3.509   -3.714   -3.868   -3.984   -4.077   -4.173   -4.286   -4.435   -4.610   -4.810   -5.021   -5.236   -5.450   -5.669   -5.888   -6.107   -6.322   -6.525   -6.711   -6.882   -7.044   -7.202   -7.363   -7.536   -7.738   -7.978   -8.261   -8.584   -8.933   -9.277   -9.585   -9.812   -9.903
  -0.196   -0.173   -0.167   -0.162   -0.157   -0.154   -0.151   -0.148   -0.146   -0.144   -0.143   -0.142   -0.141   -0.140   -0.143   -0.147   -0.154   -0.164   -0.179   -0.187   -0.187   -0.178   -0.166   -0.158   -0.153   -0.150   -0.152   -0.154   -0.156   -0.158   -0.161   -0.163   -0.166   -0.168   -0.171   -0.174   -0.177   -0.180   -0.183   -0.185   -0.188   -0.192   -0.195   -0.198   -0.201   -0.204   -0.207   -0.210   -0.213   -0.216   -0.220   -0.225   -0.232   -0.239   -0.252   -0.266   -0.291   -0.328   -0.389   -0.489   -0.641   -0.851   -1.117   -1.426   -1.753   -2.069   -2.357   -2.603   -2.812   -2.985   -3.133   -3.272   -3.421   -3.600   -3.812   -4.050   -4.288   -4.510   -4.699   -4.856   -4.989   -5.104   -5.211   -5.310   -5.407   -5.506   -5.606   -5.714   -5.835   -5.967   -6.118   -6.297   -6.510   -6.761   -7.046   -7.353   -7.664   -7.946   -8.160   -8.269
  -0.191   -0.168   -0.163   -0.157   -0.153   -0.150   -0.147   -0.144   -0.142   -0.141   -0.139   -0.138   -0.137   -0.137   -0.136   -0.137   -0.142   -0.146   -0.151   -0.157   -0.157   -0.153   -0.149   -0.146   -0.143   -0.144   -0.146   -0.148   -0.150   -0.152   -0.154   -0.156   -0.158   -0.161   -0.163   -0.166   -0.168   -0.171   -0.173   -0.176   -0.178   -0.181   -0.184   -0.186   -0.189   -0.192   -0.194   -0.197   -0.200   -0.203   -0.206   -0.209   -0.212   -0.216   -0.221   -0.229   -0.240   -0.256   -0.285   -0.335   -0.414   -0.532   -0.690   -0.884   -1.102   -1.326   -1.538   -1.736   -1.915   -2.079   -2.239   -2.407   -2.601   -2.838   -3.111   -3.404   -3.683   -3.914   -4.082   -4.189   -4.245   -4.270   -4.271   -4.266   -4.262   -4.271   -4.300   -4.350   -4.422   -4.514   -4.625   -4.760   -4.924   -5.118   -5.340   -5.578   -5.824   -6.055   -6.237   -6.356
  -0.186   -0.164   -0.159   -0.154   -0.149   -0.146   -0.143   -0.141   -0.139   -0.137   -0.136   -0.135   -0.134   -0.133   -0.133   -0.133   -0.133   -0.136   -0.139   -0.141   -0.141   -0.140   -0.138   -0.137   -0.138   -0.139   -0.141   -0.143   -0.144   -0.146   -0.148   -0.150   -0.152   -0.154   -0.156   -0.158   -0.161   -0.163   -0.165   -0.167   -0.170   -0.172   -0.174   -0.177   -0.179   -0.181   -0.184   -0.186   -0.189   -0.191   -0.194   -0.196   -0.199   -0.202   -0.205   -0.208   -0.215   -0.222   -0.235   -0.256   -0.293   -0.349   -0.428   -0.532   -0.651   -0.783   -0.915   -1.044   -1.176   -1.308   -1.450   -1.620   -1.831   -2.095   -2.402   -2.722   -3.016   -3.248   -3.396   -3.464   -3.466   -3.421   -3.345   -3.257   -3.170   -3.110   -3.077   -3.081   -3.112   -3.163   -3.234   -3.326   -3.436   -3.567   -3.717   -3.876   -4.046   -4.208   -4.341   -4.456
  -0.182   -0.161   -0.155   -0.150   -0.146   -0.143   -0.140   -0.138   -0.136   -0.135   -0.133   -0.132   -0.131   -0.131   -0.130   -0.130   -0.130   -0.130   -0.130   -0.130   -0.131   -0.131   -0.132   -0.133   -0.134   -0.135   -0.137   -0.138   -0.139   -0.141   -0.143   -0.145   -0.146   -0.148   -0.150   -0.152   -0.154   -0.156   -0.158   -0.160   -0.162   -0.164   -0.166   -0.168   -0.171   -0.173   -0.175   -0.177   -0.179   -0.182   -0.184   -0.186   -0.188   -0.191   -0.193   -0.196   -0.199   -0.202   -0.209   -0.219   -0.232   -0.257   -0.291   -0.338   -0.392   -0.456   -0.524   -0.597   -0.675   -0.764   -0.874   -1.019   -1.212   -1.458   -1.749   -2.047   -2.318   -2.524   -2.644   -2.685   -2.656   -2.575   -2.460   -2.327   -2.202   -2.103   -2.040   -2.014   -2.019   -2.046   -2.089   -2.147   -2.222   -2.308   -2.407   -2.514   -2.624   -2.727   -2.816   -2.914
  -0.179   -0.158   -0.153   -0.148   -0.144   -0.141   -0.138   -0.136   -0.134   -0.132   -0.131   -0.130   -0.129   -0.129   -0.128   -0.128   -0.128   -0.128   -0.128   -0.128   -0.128   -0.129   -0.130   -0.130   -0.131   -0.132   -0.133   -0.134   -0.136   -0.137   -0.138   -0.140   -0.141   -0.143   -0.145   -0.147   -0.148   -0.150   -0.152   -0.154   -0.156   -0.158   -0.160   -0.162   -0.163   -0.165   -0.167   -0.169   -0.171   -0.173   -0.175   -0.178   -0.180   -0.182   -0.184   -0.186   -0.189   -0.191   -0.194   -0.198   -0.205   -0.216   -0.228   -0.245   -0.268   -0.294   -0.323   -0.358   -0.398   -0.451   -0.522   -0.626   -0.775   -0.966   -1.192   -1.425   -1.635   -1.791   -1.878   -1.897   -1.861   -1.780   -1.663   -1.533   -1.414   -1.316   -1.254   -1.222   -1.215   -1.230   -1.258   -1.303   -1.359   -1.434   -1.519   -1.609   -1.701   -1.785   -1.852   -1.936
  -0.176   -0.155   -0.150   -0.146   -0.142   -0.139   -0.136   -0.134   -0.132   -0.131   -0.129   -0.128   -0.128   -0.127   -0.126   -0.126   -0.126   -0.126   -0.126   -0.126   -0.126   -0.127   -0.127   -0.128   -0.129   -0.130   -0.131   -0.132   -0.133   -0.134   -0.135   -0.136   -0.138   -0.139   -0.140   -0.142   -0.143   -0.145   -0.147   -0.148   -0.151   -0.152   -0.154   -0.156   -0.157   -0.159   -0.161   -0.163   -0.165   -0.166   -0.168   -0.170   -0.172   -0.174   -0.176   -0.178   -0.180   -0.183   -0.185   -0.187   -0.190   -0.194   -0.201   -0.207   -0.216   -0.226   -0.237   -0.252   -0.271   -0.298   -0.338   -0.401   -0.494   -0.619   -0.762   -0.911   -1.045   -1.143   -1.195   -1.204   -1.175   -1.114   -1.029   -0.936   -0.848   -0.778   -0.733   -0.708   -0.704   -0.712   -0.736   -0.776   -0.835   -0.917   -1.015   -1.124   -1.232   -1.326   -1.397   -1.475
  -0.174   -0.154   -0.149   -0.144   -0.140   -0.137   -0.135   -0.133   -0.131   -0.130   -0.128   -0.127   -0.126   -0.126   -0.125   -0.125   -0.125   -0.125   -0.125   -0.125   -0.125   -0.125   -0.126   -0.126   -0.127   -0.128   -0.128   -0.129   -0.130   -0.131   -0.132   -0.133   -0.135   -0.136   -0.137   -0.138   -0.140   -0.141   -0.143   -0.144   -0.146   -0.147   -0.149   -0.151   -0.153   -0.154   -0.156   -0.157   -0.159   -0.161   -0.162   -0.164   -0.166   -0.168   -0.170   -0.172   -0.174   -0.176   -0.178   -0.180   -0.182   -0.184   -0.186   -0.190   -0.193   -0.200   -0.204   -0.212   -0.219   -0.233   -0.254   -0.285   -0.334   -0.396   -0.473   -0.550   -0.619   -0.671   -0.697   -0.702   -0.686   -0.650   -0.604   -0.551   -0.503   -0.464   -0.442   -0.430   -0.427   -0.436   -0.457   -0.495   -0.554   -0.644   -0.758   -0.889   -1.021   -1.139   -1.228   -1.309
  -0.174   -0.153   -0.148   -0.144   -0.140   -0.137   -0.134   -0.132   -0.131   -0.129   -0.128   -0.127   -0.126   -0.125   -0.125   -0.125   -0.124   -0.124   -0.124   -0.124   -0.124   -0.125   -0.125   -0.125   -0.126   -0.127   -0.127   -0.128   -0.129   -0.130   -0.131   -0.132   -0.133   -0.134   -0.135   -0.136   -0.137   -0.139   -0.140   -0.141   -0.142   -0.144   -0.145   -0.147   -0.148   -0.150   -0.152   -0.153   -0.155   -0.156   -0.158   -0.159   -0.161   -0.163   -0.164   -0.166   -0.168   -0.170   -0.172   -0.174   -0.176   -0.178   -0.180   -0.182   -0.184   -0.186   -0.189   -0.192   -0.198   -0.204   -0.213   -0.228   -0.249   -0.276   -0.311   -0.345   -0.372   -0.396   -0.407   -0.409   -0.401   -0.388   -0.370   -0.347   -0.328   -0.313   -0.303   -0.298   -0.300   -0.309   -0.324   -0.355   -0.411   -0.498   -0.613   -0.746   -0.893   -1.033   -1.138   -1.224
  -0.174   -0.154   -0.149   -0.144   -0.140   -0.137   -0.135   -0.133   -0.131   -0.130   -0.128   -0.127   -0.127   -0.126   -0.125   -0.125   -0.125   -0.125   -0.124   -0.124   -0.125   -0.125   -0.125   -0.125   -0.126   -0.126   -0.127   -0.128   -0.128   -0.129   -0.130   -0.131   -0.132   -0.133   -0.134   -0.135   -0.136   -0.137   -0.138   -0.139   -0.141   -0.142   -0.143   -0.144   -0.146   -0.147   -0.148   -0.150   -0.152   -0.153   -0.155   -0.156   -0.158   -0.159   -0.161   -0.162   -0.164   -0.166   -0.167   -0.169   -0.171   -0.173   -0.175   -0.177   -0.179   -0.181   -0.183   -0.185   -0.187   -0.190   -0.196   -0.202   -0.211   -0.221   -0.234   -0.245   -0.257   -0.266   -0.269   -0.271   -0.272   -0.269   -0.263   -0.258   -0.253   -0.248   -0.244   -0.246   -0.248   -0.255   -0.266   -0.288   -0.332   -0.401   -0.499   -0.625   -0.768   -0.910   -1.027   -1.118
  -0.176   -0.154   -0.149   -0.145   -0.141   -0.138   -0.136   -0.133   -0.132   -0.130   -0.129   -0.128   -0.127   -0.127   -0.126   -0.126   -0.125   -0.125   -0.125   -0.125   -0.125   -0.125   -0.125   -0.126   -0.126   -0.126   -0.127   -0.128   -0.128   -0.129   -0.130   -0.130   -0.131   -0.132   -0.133   -0.134   -0.135   -0.136   -0.137   -0.138   -0.139   -0.140   -0.141   -0.143   -0.144   -0.145   -0.146   -0.147   -0.149   -0.151   -0.152   -0.153   -0.155   -0.156   -0.158   -0.159   -0.161   -0.162   -0.164   -0.165   -0.167   -0.169   -0.170   -0.172   -0.174   -0.176   -0.178   -0.180   -0.182   -0.184   -0.186   -0.188   -0.194   -0.199   -0.202   -0.208   -0.213   -0.215   -0.217   -0.219   -0.221   -0.224   -0.222   -0.221   -0.222   -0.223   -0.221   -0.222   -0.225   -0.230   -0.240   -0.255   -0.283   -0.334   -0.408   -0.517   -0.649   -0.789   -0.907   -1.004
  -0.225   -0.172   -0.165   -0.160   -0.156   -0.153   -0.150   -0.148   -0.147   -0.145   -0.144   -0.143   -0.142   -0.141   -0.140   -0.140   -0.140   -0.139   -0.139   -0.139   -0.139   -0.139   -0.139   -0.139   -0.140   -0.140   -0.140   -0.141   -0.141   -0.142   -0.143   -0.143   -0.144   -0.145   -0.146   -0.146   -0.147   -0.148   -0.149   -0.150   -0.151   -0.152   -0.153   -0.154   -0.156   -0.157   -0.158   -0.159   -0.160   -0.162   -0.163   -0.165   -0.166   -0.167   -0.169   -0.170   -0.172   -0.173   -0.175   -0.176   -0.178   -0.180   -0.181   -0.183   -0.185   -0.187   -0.188   -0.190   -0.192   -0.194   -0.196   -0.198   -0.200   -0.202   -0.205   -0.208   -0.215   -0.217   -0.219   -0.222   -0.224   -0.221   -0.222   -0.224   -0.225   -0.227   -0.229   -0.231   -0.233   -0.236   -0.245   -0.256   -0.277   -0.319   -0.384   -0.478   -0.604   -0.740   -0.859   -0.996
