DSAA
 100 100
 0.0 400.0
 0.0 400.0
 -35.93452 -0.4637826
  -0.691   -0.614   -0.653   -0.725   -0.829   -0.950   -1.074   -1.180   -1.247   -1.262   -1.209   -1.094   -0.941   -0.782   -0.649   -0.561   -0.536   -0.579   -0.702   -0.897   -1.123   -1.308   -1.381   -1.328   -1.205   -1.094   -1.055   -1.076   -1.108   -1.109   -1.071   -1.008   -0.949   -0.897   -0.856   -0.820   -0.796   -0.800   -0.852   -0.962   -1.117   -1.288   -1.450   -1.587   -1.683   -1.717   -1.680   -1.604   -1.542   -1.523   -1.537   -1.558   -1.567   -1.561   -1.539   -1.497   -1.423   -1.324   -1.226   -1.161   -1.158   -1.195   -1.217   -1.171   -1.047   -0.885   -0.750   -0.687   -0.698   -0.753   -0.813   -0.864   -0.917   -0.973   -1.017   -1.013   -0.950   -0.863   -0.787   -0.746   -0.745   -0.771   -0.817   -0.859   -0.889   -0.915   -0.962   -1.050   -1.188   -1.363   -1.548   -1.703   -1.788   -1.763   -1.618   -1.389   -1.130   -0.898   -0.743   -0.762
  -0.735   -0.705   -0.757   -0.840   -0.948   -1.073   -1.195   -1.295   -1.354   -1.354   -1.287   -1.159   -0.991   -0.816   -0.668   -0.567   -0.530   -0.564   -0.674   -0.853   -1.061   -1.232   -1.298   -1.249   -1.134   -1.030   -0.988   -1.005   -1.039   -1.054   -1.037   -0.997   -0.947   -0.896   -0.851   -0.810   -0.786   -0.790   -0.837   -0.933   -1.067   -1.212   -1.347   -1.461   -1.543   -1.583   -1.573   -1.541   -1.528   -1.556   -1.603   -1.641   -1.654   -1.640   -1.605   -1.543   -1.445   -1.319   -1.187   -1.096   -1.067   -1.085   -1.097   -1.056   -0.947   -0.808   -0.696   -0.649   -0.666   -0.725   -0.784   -0.829   -0.873   -0.928   -0.971   -0.971   -0.916   -0.838   -0.775   -0.745   -0.753   -0.788   -0.832   -0.877   -0.912   -0.952   -1.016   -1.123   -1.282   -1.481   -1.693   -1.879   -1.983   -1.963   -1.800   -1.533   -1.230   -0.960   -0.774   -0.742
  -1.010   -0.991   -1.052   -1.146   -1.261   -1.383   -1.496   -1.580   -1.617   -1.592   -1.502   -1.352   -1.162   -0.963   -0.787   -0.659   -0.594   -0.601   -0.682   -0.823   -0.991   -1.127   -1.180   -1.142   -1.049   -0.962   -0.922   -0.931   -0.966   -1.001   -1.022   -1.017   -0.987   -0.943   -0.893   -0.855   -0.835   -0.841   -0.882   -0.957   -1.054   -1.155   -1.246   -1.323   -1.385   -1.423   -1.447   -1.476   -1.534   -1.622   -1.712   -1.770   -1.784   -1.761   -1.704   -1.614   -1.484   -1.326   -1.166   -1.044   -0.983   -0.971   -0.967   -0.931   -0.851   -0.755   -0.681   -0.656   -0.683   -0.735   -0.785   -0.823   -0.858   -0.904   -0.947   -0.959   -0.924   -0.872   -0.837   -0.830   -0.853   -0.892   -0.933   -0.970   -1.009   -1.068   -1.159   -1.295   -1.479   -1.708   -1.961   -2.195   -2.342   -2.337   -2.163   -1.859   -1.506   -1.190   -0.974   -0.920
  -1.387   -1.378   -1.443   -1.541   -1.653   -1.766   -1.860   -1.922   -1.933   -1.883   -1.771   -1.600   -1.388   -1.161   -0.951   -0.784   -0.679   -0.643   -0.675   -0.762   -0.874   -0.967   -1.007   -0.983   -0.922   -0.860   -0.825   -0.826   -0.858   -0.910   -0.960   -0.988   -0.980   -0.947   -0.907   -0.883   -0.879   -0.897   -0.935   -0.990   -1.058   -1.127   -1.188   -1.239   -1.280   -1.314   -1.348   -1.402   -1.489   -1.601   -1.703   -1.764   -1.774   -1.738   -1.670   -1.566   -1.434   -1.278   -1.129   -1.009   -0.939   -0.907   -0.882   -0.845   -0.789   -0.730   -0.688   -0.678   -0.701   -0.742   -0.785   -0.816   -0.848   -0.892   -0.939   -0.965   -0.960   -0.944   -0.944   -0.966   -1.001   -1.034   -1.060   -1.080   -1.111   -1.175   -1.281   -1.434   -1.634   -1.887   -2.177   -2.461   -2.659   -2.694   -2.538   -2.233   -1.868   -1.537   -1.308   -1.245
  -1.794   -1.788   -1.850   -1.940   -2.036   -2.128   -2.201   -2.239   -2.229   -2.163   -2.038   -1.857   -1.632   -1.388   -1.150   -0.944   -0.789   -0.698   -0.672   -0.695   -0.746   -0.794   -0.820   -0.811   -0.779   -0.741   -0.713   -0.706   -0.729   -0.781   -0.839   -0.881   -0.891   -0.875   -0.860   -0.860   -0.879   -0.913   -0.953   -1.002   -1.059   -1.120   -1.179   -1.227   -1.262   -1.286   -1.310   -1.347   -1.408   -1.486   -1.556   -1.597   -1.595   -1.556   -1.491   -1.406   -1.306   -1.202   -1.104   -1.023   -0.966   -0.920   -0.872   -0.819   -0.766   -0.725   -0.703   -0.702   -0.719   -0.750   -0.784   -0.819   -0.856   -0.900   -0.948   -0.987   -1.013   -1.038   -1.077   -1.124   -1.163   -1.181   -1.181   -1.175   -1.191   -1.249   -1.354   -1.507   -1.709   -1.972   -2.292   -2.617   -2.865   -2.950   -2.844   -2.587   -2.264   -1.964   -1.753   -1.694
  -2.168   -2.161   -2.209   -2.277   -2.351   -2.418   -2.464   -2.481   -2.461   -2.392   -2.268   -2.093   -1.873   -1.628   -1.378   -1.147   -0.954   -0.813   -0.725   -0.685   -0.676   -0.682   -0.690   -0.688   -0.675   -0.653   -0.630   -0.615   -0.624   -0.660   -0.710   -0.749   -0.766   -0.770   -0.777   -0.797   -0.830   -0.869   -0.912   -0.962   -1.019   -1.087   -1.158   -1.218   -1.264   -1.293   -1.308   -1.316   -1.325   -1.343   -1.359   -1.367   -1.353   -1.323   -1.281   -1.232   -1.185   -1.144   -1.105   -1.068   -1.020   -0.958   -0.881   -0.804   -0.743   -0.706   -0.695   -0.701   -0.721   -0.754   -0.796   -0.842   -0.886   -0.929   -0.971   -1.012   -1.061   -1.121   -1.191   -1.252   -1.286   -1.288   -1.270   -1.254   -1.261   -1.314   -1.415   -1.564   -1.767   -2.041   -2.383   -2.744   -3.035   -3.173   -3.129   -2.941   -2.684   -2.433   -2.251   -2.197
  -2.466   -2.453   -2.483   -2.527   -2.573   -2.612   -2.636   -2.639   -2.614   -2.550   -2.441   -2.284   -2.085   -1.860   -1.618   -1.387   -1.176   -1.002   -0.869   -0.776   -0.717   -0.688   -0.674   -0.670   -0.664   -0.652   -0.630   -0.612   -0.606   -0.626   -0.661   -0.694   -0.715   -0.729   -0.739   -0.751   -0.771   -0.796   -0.828   -0.873   -0.927   -0.993   -1.065   -1.136   -1.198   -1.245   -1.267   -1.266   -1.246   -1.219   -1.196   -1.176   -1.162   -1.147   -1.134   -1.122   -1.112   -1.108   -1.098   -1.074   -1.020   -0.938   -0.842   -0.748   -0.683   -0.654   -0.655   -0.676   -0.709   -0.757   -0.816   -0.879   -0.932   -0.970   -1.002   -1.043   -1.104   -1.181   -1.260   -1.316   -1.338   -1.333   -1.318   -1.317   -1.347   -1.416   -1.525   -1.680   -1.892   -2.182   -2.552   -2.946   -3.281   -3.471   -3.488   -3.364   -3.155   -2.931   -2.755   -2.696
  -2.675   -2.655   -2.667   -2.689   -2.709   -2.724   -2.731   -2.724   -2.699   -2.645   -2.553   -2.420   -2.249   -2.055   -1.843   -1.630   -1.423   -1.236   -1.076   -0.948   -0.855   -0.796   -0.768   -0.761   -0.759   -0.750   -0.733   -0.721   -0.719   -0.737   -0.768   -0.801   -0.822   -0.829   -0.818   -0.795   -0.772   -0.758   -0.764   -0.786   -0.819   -0.863   -0.918   -0.983   -1.050   -1.111   -1.152   -1.163   -1.145   -1.108   -1.069   -1.044   -1.037   -1.045   -1.055   -1.062   -1.063   -1.056   -1.038   -1.000   -0.935   -0.845   -0.747   -0.665   -0.617   -0.605   -0.619   -0.653   -0.701   -0.763   -0.839   -0.918   -0.978   -1.019   -1.049   -1.093   -1.159   -1.235   -1.301   -1.334   -1.340   -1.336   -1.349   -1.392   -1.468   -1.575   -1.709   -1.879   -2.105   -2.412   -2.804   -3.234   -3.613   -3.864   -3.944   -3.871   -3.691   -3.467   -3.272   -3.198
  -2.805   -2.778   -2.777   -2.780   -2.784   -2.784   -2.779   -2.765   -2.740   -2.695   -2.618   -2.506   -2.361   -2.197   -2.017   -1.828   -1.636   -1.447   -1.277   -1.128   -1.016   -0.942   -0.910   -0.904   -0.908   -0.911   -0.914   -0.926   -0.953   -0.994   -1.040   -1.078   -1.094   -1.080   -1.030   -0.956   -0.876   -0.814   -0.776   -0.763   -0.764   -0.773   -0.796   -0.834   -0.886   -0.945   -0.995   -1.023   -1.017   -0.988   -0.948   -0.926   -0.928   -0.951   -0.981   -0.997   -0.993   -0.971   -0.935   -0.885   -0.818   -0.741   -0.673   -0.628   -0.614   -0.623   -0.645   -0.675   -0.719   -0.783   -0.862   -0.945   -1.015   -1.069   -1.117   -1.175   -1.245   -1.310   -1.352   -1.363   -1.359   -1.369   -1.420   -1.516   -1.644   -1.787   -1.944   -2.125   -2.358   -2.675   -3.081   -3.538   -3.960   -4.267   -4.414   -4.397   -4.251   -4.035   -3.831   -3.741
  -2.876   -2.844   -2.834   -2.828   -2.824   -2.816   -2.806   -2.792   -2.768   -2.729   -2.660   -2.561   -2.433   -2.288   -2.127   -1.955   -1.770   -1.583   -1.405   -1.247   -1.126   -1.050   -1.021   -1.026   -1.047   -1.075   -1.115   -1.176   -1.255   -1.344   -1.421   -1.465   -1.467   -1.419   -1.324   -1.198   -1.070   -0.964   -0.890   -0.842   -0.808   -0.784   -0.772   -0.775   -0.799   -0.837   -0.878   -0.905   -0.902   -0.870   -0.828   -0.800   -0.799   -0.828   -0.865   -0.891   -0.891   -0.871   -0.838   -0.797   -0.751   -0.710   -0.690   -0.696   -0.720   -0.742   -0.755   -0.763   -0.781   -0.824   -0.891   -0.968   -1.042   -1.112   -1.184   -1.264   -1.345   -1.410   -1.442   -1.451   -1.462   -1.500   -1.590   -1.722   -1.876   -2.033   -2.190   -2.366   -2.595   -2.911   -3.319   -3.788   -4.236   -4.588   -4.793   -4.841   -4.756   -4.587   -4.414   -4.329
  -2.906   -2.872   -2.859   -2.851   -2.843   -2.836   -2.830   -2.819   -2.799   -2.765   -2.702   -2.610   -2.489   -2.347   -2.187   -2.013   -1.823   -1.627   -1.438   -1.272   -1.148   -1.077   -1.060   -1.084   -1.135   -1.208   -1.304   -1.429   -1.574   -1.715   -1.819   -1.864   -1.841   -1.754   -1.617   -1.454   -1.298   -1.169   -1.074   -1.001   -0.943   -0.894   -0.854   -0.829   -0.821   -0.831   -0.848   -0.857   -0.841   -0.794   -0.731   -0.682   -0.665   -0.685   -0.725   -0.762   -0.784   -0.792   -0.789   -0.782   -0.774   -0.781   -0.810   -0.862   -0.913   -0.940   -0.930   -0.903   -0.887   -0.903   -0.950   -1.014   -1.083   -1.158   -1.245   -1.346   -1.443   -1.525   -1.581   -1.623   -1.672   -1.748   -1.864   -2.004   -2.149   -2.285   -2.417   -2.572   -2.786   -3.092   -3.495   -3.958   -4.415   -4.788   -5.032   -5.137   -5.126   -5.038   -4.932   -4.875
  -2.917   -2.879   -2.868   -2.858   -2.852   -2.849   -2.846   -2.843   -2.830   -2.803   -2.748   -2.662   -2.543   -2.399   -2.228   -2.035   -1.823   -1.607   -1.400   -1.223   -1.096   -1.032   -1.031   -1.085   -1.179   -1.308   -1.468   -1.658   -1.860   -2.037   -2.153   -2.187   -2.134   -2.011   -1.845   -1.666   -1.507   -1.378   -1.272   -1.183   -1.104   -1.038   -0.987   -0.946   -0.921   -0.910   -0.905   -0.892   -0.852   -0.780   -0.689   -0.611   -0.569   -0.574   -0.610   -0.661   -0.712   -0.758   -0.797   -0.830   -0.867   -0.918   -0.987   -1.067   -1.130   -1.149   -1.118   -1.069   -1.038   -1.047   -1.090   -1.146   -1.204   -1.269   -1.356   -1.463   -1.578   -1.689   -1.788   -1.879   -1.973   -2.081   -2.203   -2.327   -2.437   -2.529   -2.623   -2.748   -2.943   -3.233   -3.618   -4.066   -4.512   -4.885   -5.146   -5.291   -5.339   -5.328   -5.294   -5.270
  -2.916   -2.879   -2.867   -2.858   -2.853   -2.853   -2.855   -2.856   -2.850   -2.829   -2.786   -2.711   -2.600   -2.453   -2.271   -2.054   -1.816   -1.571   -1.343   -1.154   -1.023   -0.963   -0.976   -1.059   -1.196   -1.378   -1.596   -1.833   -2.065   -2.253   -2.365   -2.381   -2.305   -2.161   -1.986   -1.817   -1.674   -1.551   -1.436   -1.325   -1.225   -1.147   -1.095   -1.061   -1.036   -1.022   -1.007   -0.978   -0.918   -0.823   -0.710   -0.608   -0.548   -0.538   -0.569   -0.629   -0.700   -0.775   -0.847   -0.916   -0.989   -1.072   -1.165   -1.256   -1.320   -1.334   -1.304   -1.269   -1.268   -1.311   -1.377   -1.439   -1.491   -1.539   -1.611   -1.711   -1.834   -1.968   -2.099   -2.225   -2.345   -2.462   -2.573   -2.668   -2.737   -2.787   -2.842   -2.939   -3.110   -3.371   -3.725   -4.140   -4.561   -4.924   -5.189   -5.352   -5.437   -5.472   -5.483   -5.483
  -2.912   -2.873   -2.860   -2.851   -2.847   -2.847   -2.850   -2.853   -2.853   -2.840   -2.809   -2.750   -2.652   -2.511   -2.325   -2.095   -1.833   -1.566   -1.317   -1.113   -0.974   -0.913   -0.932   -1.030   -1.193   -1.408   -1.657   -1.916   -2.153   -2.337   -2.438   -2.439   -2.351   -2.205   -2.045   -1.901   -1.780   -1.667   -1.540   -1.407   -1.288   -1.204   -1.161   -1.145   -1.141   -1.137   -1.125   -1.090   -1.018   -0.909   -0.781   -0.667   -0.594   -0.571   -0.598   -0.660   -0.743   -0.836   -0.927   -1.021   -1.121   -1.229   -1.343   -1.445   -1.516   -1.544   -1.547   -1.567   -1.636   -1.744   -1.854   -1.935   -1.984   -2.021   -2.078   -2.166   -2.280   -2.411   -2.546   -2.672   -2.786   -2.886   -2.972   -3.035   -3.071   -3.091   -3.121   -3.193   -3.335   -3.557   -3.862   -4.229   -4.611   -4.953   -5.214   -5.385   -5.484   -5.535   -5.559   -5.571
  -2.905   -2.866   -2.852   -2.843   -2.838   -2.837   -2.839   -2.842   -2.843   -2.835   -2.815   -2.772   -2.694   -2.568   -2.392   -2.163   -1.899   -1.621   -1.363   -1.148   -0.997   -0.921   -0.927   -1.010   -1.163   -1.374   -1.621   -1.878   -2.113   -2.293   -2.388   -2.387   -2.302   -2.169   -2.034   -1.922   -1.826   -1.722   -1.589   -1.447   -1.324   -1.252   -1.231   -1.242   -1.262   -1.273   -1.266   -1.224   -1.140   -1.016   -0.876   -0.751   -0.668   -0.637   -0.656   -0.719   -0.807   -0.911   -1.022   -1.145   -1.281   -1.428   -1.577   -1.712   -1.814   -1.881   -1.945   -2.040   -2.184   -2.351   -2.498   -2.594   -2.643   -2.679   -2.727   -2.802   -2.896   -3.002   -3.107   -3.204   -3.289   -3.356   -3.412   -3.449   -3.465   -3.469   -3.484   -3.537   -3.649   -3.825   -4.073   -4.375   -4.704   -5.010   -5.257   -5.428   -5.530   -5.581   -5.603   -5.617
  -2.898   -2.858   -2.846   -2.838   -2.833   -2.830   -2.830   -2.829   -2.829   -2.824   -2.811   -2.782   -2.724   -2.624   -2.472   -2.267   -2.017   -1.752   -1.496   -1.276   -1.112   -1.009   -0.975   -1.012   -1.117   -1.285   -1.503   -1.745   -1.981   -2.170   -2.278   -2.284   -2.206   -2.085   -1.970   -1.881   -1.808   -1.721   -1.607   -1.485   -1.392   -1.353   -1.367   -1.408   -1.448   -1.468   -1.453   -1.393   -1.285   -1.136   -0.974   -0.829   -0.729   -0.685   -0.700   -0.767   -0.871   -1.001   -1.151   -1.324   -1.522   -1.736   -1.948   -2.143   -2.300   -2.424   -2.546   -2.695   -2.879   -3.068   -3.220   -3.316   -3.367   -3.402   -3.448   -3.511   -3.581   -3.652   -3.719   -3.778   -3.823   -3.858   -3.886   -3.905   -3.910   -3.910   -3.918   -3.957   -4.039   -4.173   -4.363   -4.599   -4.861   -5.114   -5.329   -5.490   -5.592   -5.646   -5.668   -5.684
  -2.894   -2.854   -2.843   -2.835   -2.831   -2.828   -2.825   -2.821   -2.819   -2.813   -2.805   -2.788   -2.749   -2.678   -2.560   -2.393   -2.182   -1.948   -1.709   -1.494   -1.312   -1.175   -1.090   -1.060   -1.092   -1.194   -1.365   -1.588   -1.829   -2.038   -2.166   -2.187   -2.115   -1.997   -1.885   -1.806   -1.752   -1.694   -1.624   -1.556   -1.521   -1.536   -1.593   -1.662   -1.714   -1.728   -1.694   -1.604   -1.458   -1.271   -1.070   -0.893   -0.766   -0.706   -0.722   -0.807   -0.949   -1.133   -1.355   -1.614   -1.902   -2.203   -2.496   -2.757   -2.969   -3.139   -3.290   -3.447   -3.620   -3.785   -3.913   -3.992   -4.039   -4.074   -4.118   -4.171   -4.223   -4.267   -4.302   -4.325   -4.338   -4.346   -4.354   -4.363   -4.368   -4.367   -4.373   -4.399   -4.458   -4.557   -4.698   -4.872   -5.063   -5.253   -5.423   -5.564   -5.666   -5.729   -5.762   -5.781
  -2.894   -2.854   -2.841   -2.835   -2.831   -2.828   -2.824   -2.818   -2.815   -2.809   -2.805   -2.794   -2.772   -2.726   -2.647   -2.527   -2.365   -2.173   -1.966   -1.762   -1.575   -1.414   -1.282   -1.188   -1.144   -1.171   -1.288   -1.485   -1.728   -1.956   -2.103   -2.137   -2.069   -1.945   -1.827   -1.749   -1.711   -1.691   -1.676   -1.676   -1.708   -1.777   -1.871   -1.961   -2.017   -2.023   -1.967   -1.847   -1.665   -1.436   -1.187   -0.965   -0.804   -0.729   -0.755   -0.880   -1.086   -1.359   -1.682   -2.043   -2.427   -2.810   -3.168   -3.472   -3.711   -3.891   -4.033   -4.162   -4.289   -4.405   -4.495   -4.550   -4.586   -4.619   -4.658   -4.703   -4.745   -4.774   -4.788   -4.788   -4.779   -4.770   -4.767   -4.772   -4.777   -4.780   -4.784   -4.800   -4.839   -4.911   -5.014   -5.139   -5.269   -5.395   -5.516   -5.631   -5.731   -5.808   -5.858   -5.885
  -2.896   -2.855   -2.844   -2.837   -2.833   -2.829   -2.825   -2.819   -2.815   -2.809   -2.807   -2.802   -2.793   -2.769   -2.723   -2.645   -2.534   -2.388   -2.221   -2.043   -1.868   -1.698   -1.542   -1.402   -1.300   -1.263   -1.323   -1.486   -1.716   -1.946   -2.106   -2.153   -2.091   -1.969   -1.851   -1.775   -1.750   -1.762   -1.794   -1.848   -1.930   -2.033   -2.145   -2.240   -2.296   -2.297   -2.233   -2.099   -1.895   -1.634   -1.343   -1.075   -0.875   -0.789   -0.838   -1.020   -1.313   -1.689   -2.119   -2.576   -3.034   -3.467   -3.846   -4.153   -4.380   -4.539   -4.647   -4.732   -4.807   -4.875   -4.929   -4.965   -4.990   -5.016   -5.049   -5.086   -5.120   -5.143   -5.147   -5.135   -5.113   -5.094   -5.086   -5.090   -5.099   -5.103   -5.104   -5.111   -5.135   -5.185   -5.261   -5.349   -5.432   -5.506   -5.580   -5.667   -5.763   -5.851   -5.919   -5.956
  -2.898   -2.857   -2.846   -2.840   -2.837   -2.831   -2.828   -2.823   -2.818   -2.814   -2.814   -2.812   -2.809   -2.800   -2.776   -2.732   -2.662   -2.562   -2.440   -2.300   -2.153   -1.999   -1.842   -1.684   -1.547   -1.465   -1.476   -1.595   -1.793   -2.010   -2.169   -2.227   -2.183   -2.081   -1.978   -1.916   -1.902   -1.930   -1.986   -2.064   -2.160   -2.268   -2.374   -2.460   -2.509   -2.509   -2.448   -2.321   -2.119   -1.846   -1.532   -1.225   -0.993   -0.900   -0.978   -1.223   -1.604   -2.076   -2.593   -3.120   -3.618   -4.060   -4.421   -4.696   -4.884   -5.002   -5.072   -5.117   -5.153   -5.189   -5.220   -5.244   -5.262   -5.282   -5.306   -5.337   -5.366   -5.383   -5.380   -5.361   -5.333   -5.312   -5.304   -5.310   -5.318   -5.319   -5.315   -5.313   -5.325   -5.358   -5.414   -5.478   -5.527   -5.564   -5.604   -5.664   -5.750   -5.844   -5.922   -5.968
  -2.904   -2.862   -2.851   -2.844   -2.840   -2.838   -2.833   -2.829   -2.825   -2.822   -2.821   -2.820   -2.821   -2.819   -2.808   -2.785   -2.745   -2.685   -2.605   -2.510   -2.400   -2.277   -2.139   -1.989   -1.844   -1.737   -1.711   -1.785   -1.939   -2.125   -2.273   -2.343   -2.326   -2.258   -2.184   -2.140   -2.137   -2.169   -2.223   -2.295   -2.378   -2.465   -2.547   -2.612   -2.649   -2.650   -2.600   -2.490   -2.305   -2.041   -1.720   -1.392   -1.139   -1.039   -1.143   -1.443   -1.894   -2.436   -3.015   -3.581   -4.092   -4.516   -4.840   -5.063   -5.203   -5.281   -5.320   -5.340   -5.356   -5.374   -5.396   -5.414   -5.430   -5.445   -5.464   -5.488   -5.509   -5.518   -5.512   -5.489   -5.461   -5.442   -5.436   -5.442   -5.447   -5.442   -5.429   -5.418   -5.419   -5.443   -5.486   -5.530   -5.559   -5.573   -5.589   -5.630   -5.701   -5.791   -5.870   -5.920
  -2.910   -2.867   -2.856   -2.850   -2.845   -2.842   -2.839   -2.836   -2.833   -2.830   -2.828   -2.827   -2.827   -2.826   -2.822   -2.810   -2.792   -2.762   -2.717   -2.660   -2.589   -2.498   -2.390   -2.265   -2.134   -2.028   -1.981   -2.017   -2.125   -2.270   -2.399   -2.472   -2.483   -2.452   -2.412   -2.388   -2.390   -2.413   -2.451   -2.501   -2.557   -2.615   -2.667   -2.708   -2.732   -2.729   -2.689   -2.595   -2.431   -2.185   -1.869   -1.534   -1.267   -1.162   -1.278   -1.611   -2.107   -2.696   -3.314   -3.904   -4.417   -4.820   -5.103   -5.282   -5.380   -5.426   -5.445   -5.454   -5.462   -5.475   -5.492   -5.507   -5.522   -5.536   -5.550   -5.566   -5.578   -5.580   -5.570   -5.549   -5.526   -5.512   -5.509   -5.513   -5.510   -5.497   -5.476   -5.456   -5.452   -5.469   -5.501   -5.532   -5.550   -5.554   -5.559   -5.585   -5.641   -5.718   -5.789   -5.836
  -2.916   -2.872   -2.860   -2.853   -2.848   -2.847   -2.845   -2.842   -2.838   -2.834   -2.832   -2.831   -2.830   -2.828   -2.826   -2.822   -2.815   -2.803   -2.783   -2.754   -2.711   -2.653   -2.576   -2.482   -2.381   -2.293   -2.243   -2.251   -2.318   -2.421   -2.524   -2.596   -2.624   -2.620   -2.603   -2.594   -2.595   -2.606   -2.626   -2.652   -2.683   -2.714   -2.741   -2.761   -2.771   -2.762   -2.721   -2.634   -2.481   -2.249   -1.942   -1.605   -1.329   -1.216   -1.331   -1.676   -2.196   -2.817   -3.466   -4.079   -4.602   -4.997   -5.255   -5.402   -5.471   -5.498   -5.507   -5.512   -5.517   -5.527   -5.539   -5.552   -5.562   -5.573   -5.581   -5.589   -5.594   -5.592   -5.583   -5.568   -5.552   -5.542   -5.542   -5.544   -5.537   -5.519   -5.492   -5.471   -5.464   -5.475   -5.496   -5.517   -5.527   -5.530   -5.533   -5.553   -5.593   -5.652   -5.708   -5.750
  -2.922   -2.877   -2.863   -2.855   -2.850   -2.849   -2.847   -2.845   -2.841   -2.836   -2.833   -2.832   -2.831   -2.830   -2.828   -2.825   -2.823   -2.819   -2.813   -2.799   -2.777   -2.742   -2.693   -2.633   -2.566   -2.503   -2.462   -2.457   -2.494   -2.563   -2.639   -2.698   -2.730   -2.738   -2.734   -2.730   -2.727   -2.730   -2.736   -2.745   -2.757   -2.769   -2.780   -2.784   -2.778   -2.754   -2.700   -2.601   -2.442   -2.208   -1.904   -1.570   -1.290   -1.170   -1.278   -1.619   -2.148   -2.794   -3.481   -4.133   -4.681   -5.085   -5.336   -5.468   -5.520   -5.536   -5.540   -5.544   -5.550   -5.557   -5.564   -5.568   -5.570   -5.572   -5.574   -5.576   -5.577   -5.574   -5.569   -5.563   -5.555   -5.550   -5.551   -5.552   -5.545   -5.530   -5.508   -5.492   -5.484   -5.488   -5.498   -5.508   -5.513   -5.516   -5.523   -5.538   -5.568   -5.610   -5.650   -5.685
  -2.921   -2.875   -2.862   -2.855   -2.850   -2.846   -2.843   -2.841   -2.839   -2.835   -2.831   -2.830   -2.830   -2.830   -2.826   -2.823   -2.821   -2.820   -2.818   -2.813   -2.801   -2.781   -2.755   -2.723   -2.687   -2.650   -2.622   -2.615   -2.634   -2.677   -2.728   -2.771   -2.798   -2.807   -2.806   -2.801   -2.797   -2.792   -2.791   -2.790   -2.792   -2.793   -2.790   -2.781   -2.756   -2.705   -2.622   -2.491   -2.305   -2.053   -1.744   -1.418   -1.149   -1.029   -1.124   -1.455   -1.988   -2.659   -3.391   -4.093   -4.685   -5.115   -5.375   -5.502   -5.548   -5.557   -5.558   -5.563   -5.569   -5.573   -5.573   -5.569   -5.562   -5.555   -5.550   -5.549   -5.547   -5.548   -5.549   -5.550   -5.549   -5.546   -5.545   -5.546   -5.545   -5.540   -5.535   -5.528   -5.524   -5.523   -5.521   -5.520   -5.518   -5.521   -5.528   -5.542   -5.564   -5.592   -5.621   -5.650
  -2.916   -2.869   -2.857   -2.849   -2.844   -2.843   -2.841   -2.839   -2.836   -2.831   -2.828   -2.827   -2.826   -2.825   -2.821   -2.816   -2.811   -2.810   -2.809   -2.807   -2.802   -2.793   -2.783   -2.769   -2.754   -2.736   -2.723   -2.718   -2.728   -2.753   -2.784   -2.812   -2.830   -2.835   -2.834   -2.827   -2.822   -2.816   -2.811   -2.806   -2.803   -2.796   -2.781   -2.752   -2.701   -2.613   -2.483   -2.302   -2.071   -1.794   -1.486   -1.179   -0.937   -0.832   -0.924   -1.241   -1.768   -2.460   -3.237   -3.995   -4.638   -5.102   -5.381   -5.511   -5.552   -5.556   -5.556   -5.561   -5.568   -5.572   -5.568   -5.559   -5.547   -5.537   -5.532   -5.529   -5.529   -5.531   -5.534   -5.537   -5.538   -5.536   -5.533   -5.532   -5.536   -5.545   -5.556   -5.564   -5.570   -5.568   -5.561   -5.552   -5.544   -5.542   -5.547   -5.557   -5.571   -5.590   -5.611   -5.635
  -2.913   -2.865   -2.853   -2.846   -2.843   -2.841   -2.839   -2.838   -2.835   -2.830   -2.825   -2.823   -2.821   -2.818   -2.813   -2.807   -2.801   -2.799   -2.799   -2.801   -2.800   -2.799   -2.795   -2.790   -2.785   -2.777   -2.770   -2.768   -2.777   -2.790   -2.807   -2.825   -2.836   -2.837   -2.834   -2.828   -2.822   -2.817   -2.813   -2.809   -2.800   -2.783   -2.752   -2.696   -2.605   -2.468   -2.280   -2.043   -1.767   -1.472   -1.179   -0.912   -0.717   -0.644   -0.740   -1.042   -1.556   -2.257   -3.066   -3.871   -4.558   -5.057   -5.355   -5.492   -5.530   -5.531   -5.529   -5.535   -5.545   -5.549   -5.545   -5.535   -5.527   -5.521   -5.522   -5.523   -5.523   -5.524   -5.523   -5.525   -5.525   -5.521   -5.516   -5.513   -5.519   -5.535   -5.556   -5.579   -5.595   -5.600   -5.596   -5.587   -5.576   -5.570   -5.568   -5.571   -5.578   -5.589   -5.605   -5.625
  -2.920   -2.872   -2.861   -2.856   -2.853   -2.852   -2.851   -2.850   -2.848   -2.841   -2.834   -2.829   -2.826   -2.820   -2.814   -2.808   -2.804   -2.806   -2.808   -2.812   -2.814   -2.815   -2.813   -2.809   -2.802   -2.795   -2.789   -2.785   -2.789   -2.797   -2.807   -2.819   -2.824   -2.824   -2.821   -2.818   -2.815   -2.811   -2.809   -2.803   -2.786   -2.754   -2.697   -2.602   -2.459   -2.264   -2.018   -1.733   -1.432   -1.143   -0.887   -0.681   -0.549   -0.517   -0.625   -0.914   -1.412   -2.105   -2.926   -3.755   -4.469   -4.991   -5.304   -5.448   -5.487   -5.484   -5.481   -5.487   -5.497   -5.502   -5.498   -5.493   -5.491   -5.496   -5.506   -5.513   -5.514   -5.509   -5.504   -5.502   -5.501   -5.495   -5.490   -5.483   -5.486   -5.500   -5.525   -5.552   -5.577   -5.593   -5.599   -5.599   -5.594   -5.588   -5.582   -5.576   -5.573   -5.576   -5.584   -5.599
  -2.970   -2.921   -2.911   -2.904   -2.903   -2.900   -2.900   -2.898   -2.896   -2.889   -2.880   -2.872   -2.867   -2.861   -2.856   -2.851   -2.854   -2.856   -2.864   -2.870   -2.874   -2.873   -2.868   -2.857   -2.840   -2.824   -2.807   -2.795   -2.790   -2.793   -2.799   -2.806   -2.810   -2.810   -2.810   -2.808   -2.807   -2.807   -2.803   -2.790   -2.759   -2.701   -2.604   -2.460   -2.259   -2.005   -1.712   -1.406   -1.114   -0.864   -0.670   -0.538   -0.472   -0.484   -0.607   -0.885   -1.362   -2.036   -2.844   -3.669   -4.386   -4.914   -5.234   -5.382   -5.422   -5.416   -5.409   -5.412   -5.418   -5.421   -5.417   -5.416   -5.421   -5.435   -5.452   -5.464   -5.465   -5.458   -5.448   -5.443   -5.442   -5.440   -5.436   -5.428   -5.425   -5.432   -5.449   -5.473   -5.498   -5.522   -5.541   -5.553   -5.560   -5.561   -5.555   -5.545   -5.534   -5.526   -5.526   -5.539
  -3.100   -3.050   -3.038   -3.031   -3.027   -3.024   -3.021   -3.018   -3.015   -3.009   -3.001   -2.994   -2.986   -2.982   -2.980   -2.981   -2.984   -2.991   -2.999   -3.007   -3.012   -3.007   -2.995   -2.968   -2.931   -2.890   -2.851   -2.821   -2.802   -2.796   -2.796   -2.801   -2.804   -2.806   -2.806   -2.806   -2.807   -2.805   -2.795   -2.766   -2.708   -2.611   -2.465   -2.263   -2.005   -1.708   -1.396   -1.099   -0.850   -0.668   -0.557   -0.507   -0.506   -0.560   -0.696   -0.965   -1.413   -2.052   -2.822   -3.612   -4.302   -4.814   -5.128   -5.275   -5.314   -5.307   -5.294   -5.289   -5.288   -5.286   -5.282   -5.282   -5.290   -5.306   -5.324   -5.335   -5.337   -5.329   -5.321   -5.317   -5.319   -5.322   -5.321   -5.313   -5.306   -5.303   -5.308   -5.322   -5.341   -5.365   -5.392   -5.414   -5.431   -5.442   -5.442   -5.433   -5.420   -5.408   -5.404   -5.413
  -3.346   -3.293   -3.278   -3.269   -3.261   -3.254   -3.250   -3.248   -3.245   -3.239   -3.235   -3.229   -3.225   -3.223   -3.222   -3.225   -3.230   -3.238   -3.247   -3.254   -3.255   -3.246   -3.220   -3.169   -3.100   -3.019   -2.939   -2.876   -2.833   -2.812   -2.806   -2.808   -2.811   -2.813   -2.814   -2.813   -2.812   -2.804   -2.780   -2.726   -2.631   -2.484   -2.281   -2.024   -1.727   -1.413   -1.111   -0.854   -0.670   -0.569   -0.547   -0.581   -0.648   -0.746   -0.897   -1.153   -1.562   -2.141   -2.840   -3.557   -4.188   -4.658   -4.947   -5.083   -5.119   -5.112   -5.096   -5.084   -5.075   -5.068   -5.062   -5.061   -5.067   -5.078   -5.089   -5.097   -5.098   -5.093   -5.087   -5.088   -5.095   -5.101   -5.103   -5.098   -5.087   -5.077   -5.072   -5.074   -5.085   -5.104   -5.129   -5.154   -5.178   -5.196   -5.205   -5.203   -5.192   -5.183   -5.180   -5.192
  -3.710   -3.657   -3.640   -3.627   -3.615   -3.607   -3.602   -3.599   -3.598   -3.596   -3.594   -3.592   -3.590   -3.589   -3.588   -3.592   -3.596   -3.603   -3.610   -3.615   -3.613   -3.594   -3.549   -3.465   -3.348   -3.210   -3.071   -2.958   -2.880   -2.838   -2.821   -2.818   -2.820   -2.821   -2.823   -2.821   -2.817   -2.801   -2.760   -2.677   -2.536   -2.335   -2.079   -1.783   -1.471   -1.170   -0.906   -0.705   -0.588   -0.561   -0.618   -0.730   -0.867   -1.015   -1.189   -1.429   -1.784   -2.274   -2.864   -3.473   -4.009   -4.409   -4.656   -4.771   -4.801   -4.794   -4.780   -4.767   -4.756   -4.745   -4.738   -4.735   -4.736   -4.739   -4.742   -4.745   -4.745   -4.742   -4.741   -4.744   -4.752   -4.760   -4.762   -4.758   -4.747   -4.735   -4.725   -4.721   -4.724   -4.737   -4.755   -4.776   -4.799   -4.819   -4.833   -4.838   -4.836   -4.835   -4.837   -4.858
  -4.152   -4.104   -4.085   -4.070   -4.058   -4.050   -4.046   -4.046   -4.047   -4.049   -4.048   -4.046   -4.044   -4.042   -4.042   -4.043   -4.047   -4.052   -4.057   -4.058   -4.050   -4.021   -3.951   -3.827   -3.650   -3.439   -3.229   -3.053   -2.931   -2.862   -2.833   -2.825   -2.824   -2.824   -2.824   -2.823   -2.817   -2.796   -2.738   -2.626   -2.447   -2.201   -1.907   -1.596   -1.296   -1.032   -0.821   -0.676   -0.608   -0.632   -0.742   -0.916   -1.118   -1.319   -1.515   -1.735   -2.024   -2.408   -2.866   -3.341   -3.759   -4.071   -4.261   -4.346   -4.368   -4.363   -4.355   -4.348   -4.341   -4.331   -4.323   -4.318   -4.315   -4.314   -4.312   -4.312   -4.310   -4.309   -4.309   -4.312   -4.317   -4.321   -4.322   -4.318   -4.309   -4.298   -4.290   -4.287   -4.289   -4.296   -4.307   -4.321   -4.337   -4.352   -4.365   -4.373   -4.378   -4.385   -4.396   -4.427
  -4.606   -4.566   -4.548   -4.535   -4.525   -4.519   -4.516   -4.516   -4.520   -4.523   -4.523   -4.520   -4.516   -4.511   -4.509   -4.511   -4.514   -4.518   -4.521   -4.521   -4.507   -4.463   -4.366   -4.199   -3.960   -3.675   -3.389   -3.146   -2.976   -2.879   -2.835   -2.822   -2.819   -2.819   -2.820   -2.819   -2.812   -2.786   -2.720   -2.593   -2.391   -2.122   -1.818   -1.516   -1.253   -1.038   -0.877   -0.772   -0.733   -0.777   -0.912   -1.119   -1.364   -1.602   -1.814   -2.011   -2.233   -2.509   -2.833   -3.171   -3.469   -3.688   -3.816   -3.869   -3.881   -3.880   -3.879   -3.883   -3.884   -3.880   -3.876   -3.871   -3.868   -3.865   -3.864   -3.864   -3.861   -3.858   -3.856   -3.857   -3.857   -3.856   -3.852   -3.847   -3.841   -3.835   -3.833   -3.833   -3.836   -3.843   -3.850   -3.857   -3.863   -3.869   -3.876   -3.883   -3.891   -3.903   -3.919   -3.962
  -5.007   -4.972   -4.956   -4.946   -4.938   -4.936   -4.934   -4.935   -4.938   -4.940   -4.939   -4.933   -4.927   -4.921   -4.918   -4.919   -4.922   -4.927   -4.931   -4.927   -4.908   -4.851   -4.731   -4.526   -4.233   -3.882   -3.526   -3.225   -3.011   -2.889   -2.833   -2.816   -2.812   -2.813   -2.815   -2.816   -2.810   -2.783   -2.716   -2.586   -2.386   -2.127   -1.846   -1.580   -1.360   -1.192   -1.068   -0.990   -0.963   -1.008   -1.137   -1.345   -1.597   -1.845   -2.055   -2.226   -2.389   -2.572   -2.784   -3.004   -3.195   -3.331   -3.405   -3.430   -3.432   -3.430   -3.440   -3.453   -3.466   -3.472   -3.472   -3.470   -3.469   -3.469   -3.469   -3.470   -3.467   -3.463   -3.460   -3.458   -3.453   -3.447   -3.439   -3.432   -3.428   -3.428   -3.429   -3.434   -3.441   -3.447   -3.451   -3.451   -3.449   -3.447   -3.448   -3.452   -3.460   -3.472   -3.489   -3.540
  -5.310   -5.277   -5.262   -5.254   -5.250   -5.247   -5.247   -5.248   -5.249   -5.248   -5.244   -5.237   -5.228   -5.220   -5.216   -5.217   -5.221   -5.228   -5.233   -5.228   -5.205   -5.139   -5.001   -4.767   -4.435   -4.035   -3.628   -3.283   -3.037   -2.895   -2.831   -2.812   -2.811   -2.815   -2.819   -2.820   -2.815   -2.790   -2.729   -2.613   -2.437   -2.217   -1.982   -1.766   -1.591   -1.459   -1.365   -1.304   -1.284   -1.320   -1.428   -1.609   -1.835   -2.062   -2.252   -2.392   -2.506   -2.623   -2.751   -2.882   -2.993   -3.066   -3.097   -3.101   -3.095   -3.094   -3.107   -3.127   -3.147   -3.161   -3.168   -3.168   -3.168   -3.171   -3.173   -3.175   -3.173   -3.170   -3.167   -3.165   -3.159   -3.151   -3.141   -3.133   -3.130   -3.131   -3.134   -3.143   -3.150   -3.156   -3.157   -3.151   -3.144   -3.137   -3.135   -3.137   -3.143   -3.153   -3.170   -3.224
  -5.504   -5.471   -5.459   -5.451   -5.446   -5.444   -5.442   -5.442   -5.441   -5.437   -5.432   -5.423   -5.412   -5.403   -5.398   -5.398   -5.402   -5.411   -5.416   -5.412   -5.388   -5.317   -5.169   -4.916   -4.559   -4.130   -3.692   -3.317   -3.052   -2.899   -2.835   -2.821   -2.824   -2.831   -2.837   -2.838   -2.832   -2.809   -2.758   -2.664   -2.529   -2.362   -2.186   -2.023   -1.887   -1.783   -1.708   -1.664   -1.653   -1.684   -1.768   -1.908   -2.086   -2.269   -2.420   -2.528   -2.607   -2.677   -2.752   -2.826   -2.883   -2.916   -2.922   -2.914   -2.903   -2.900   -2.906   -2.924   -2.944   -2.961   -2.971   -2.975   -2.976   -2.980   -2.984   -2.986   -2.983   -2.983   -2.982   -2.984   -2.982   -2.975   -2.965   -2.956   -2.951   -2.951   -2.957   -2.966   -2.975   -2.978   -2.975   -2.966   -2.955   -2.950   -2.949   -2.952   -2.958   -2.967   -2.982   -3.035
  -5.612   -5.579   -5.565   -5.555   -5.549   -5.547   -5.544   -5.541   -5.539   -5.535   -5.528   -5.517   -5.505   -5.496   -5.489   -5.488   -5.492   -5.499   -5.505   -5.504   -5.479   -5.406   -5.253   -4.992   -4.623   -4.178   -3.724   -3.335   -3.059   -2.902   -2.840   -2.834   -2.846   -2.857   -2.864   -2.862   -2.854   -2.832   -2.790   -2.722   -2.631   -2.523   -2.404   -2.289   -2.184   -2.099   -2.039   -2.011   -2.012   -2.045   -2.112   -2.210   -2.332   -2.460   -2.566   -2.640   -2.693   -2.737   -2.782   -2.824   -2.854   -2.868   -2.865   -2.852   -2.836   -2.825   -2.820   -2.824   -2.835   -2.850   -2.860   -2.865   -2.870   -2.875   -2.878   -2.878   -2.878   -2.879   -2.884   -2.890   -2.891   -2.887   -2.877   -2.867   -2.860   -2.860   -2.869   -2.881   -2.891   -2.893   -2.886   -2.875   -2.863   -2.861   -2.865   -2.872   -2.881   -2.892   -2.905   -2.954
  -5.664   -5.627   -5.613   -5.602   -5.596   -5.592   -5.588   -5.586   -5.583   -5.579   -5.571   -5.560   -5.549   -5.538   -5.530   -5.527   -5.529   -5.535   -5.542   -5.541   -5.516   -5.444   -5.289   -5.026   -4.650   -4.198   -3.738   -3.341   -3.060   -2.902   -2.844   -2.844   -2.863   -2.880   -2.887   -2.882   -2.868   -2.844   -2.810   -2.767   -2.716   -2.657   -2.589   -2.512   -2.433   -2.363   -2.314   -2.297   -2.311   -2.349   -2.403   -2.470   -2.545   -2.617   -2.677   -2.722   -2.753   -2.784   -2.818   -2.849   -2.872   -2.882   -2.880   -2.869   -2.850   -2.828   -2.808   -2.795   -2.792   -2.798   -2.805   -2.811   -2.818   -2.824   -2.828   -2.827   -2.823   -2.825   -2.833   -2.843   -2.847   -2.846   -2.838   -2.825   -2.817   -2.819   -2.831   -2.850   -2.863   -2.867   -2.858   -2.845   -2.833   -2.832   -2.838   -2.852   -2.866   -2.880   -2.892   -2.939
  -5.688   -5.648   -5.632   -5.622   -5.616   -5.612   -5.609   -5.608   -5.605   -5.602   -5.596   -5.587   -5.577   -5.567   -5.557   -5.551   -5.551   -5.555   -5.561   -5.560   -5.536   -5.463   -5.307   -5.041   -4.664   -4.209   -3.745   -3.345   -3.060   -2.900   -2.842   -2.844   -2.867   -2.886   -2.890   -2.880   -2.859   -2.833   -2.805   -2.782   -2.765   -2.746   -2.716   -2.671   -2.613   -2.559   -2.521   -2.511   -2.530   -2.571   -2.621   -2.669   -2.708   -2.737   -2.757   -2.774   -2.791   -2.815   -2.842   -2.871   -2.894   -2.907   -2.911   -2.905   -2.887   -2.859   -2.829   -2.803   -2.788   -2.782   -2.781   -2.785   -2.793   -2.800   -2.803   -2.800   -2.796   -2.795   -2.803   -2.814   -2.823   -2.824   -2.816   -2.805   -2.798   -2.802   -2.818   -2.842   -2.860   -2.866   -2.857   -2.840   -2.827   -2.825   -2.834   -2.851   -2.868   -2.883   -2.897   -2.944
  -5.701   -5.657   -5.639   -5.632   -5.626   -5.624   -5.622   -5.623   -5.623   -5.622   -5.619   -5.614   -5.606   -5.597   -5.587   -5.578   -5.574   -5.575   -5.578   -5.575   -5.550   -5.476   -5.320   -5.054   -4.674   -4.220   -3.754   -3.352   -3.064   -2.900   -2.837   -2.833   -2.851   -2.865   -2.864   -2.850   -2.827   -2.800   -2.779   -2.772   -2.779   -2.789   -2.788   -2.768   -2.733   -2.695   -2.668   -2.663   -2.684   -2.723   -2.771   -2.810   -2.827   -2.828   -2.818   -2.811   -2.813   -2.825   -2.847   -2.870   -2.893   -2.909   -2.921   -2.920   -2.909   -2.885   -2.856   -2.827   -2.802   -2.782   -2.769   -2.765   -2.772   -2.780   -2.784   -2.781   -2.775   -2.775   -2.783   -2.798   -2.810   -2.814   -2.808   -2.799   -2.793   -2.798   -2.815   -2.841   -2.859   -2.864   -2.855   -2.837   -2.820   -2.816   -2.824   -2.839   -2.856   -2.872   -2.887   -2.936
  -5.708   -5.660   -5.644   -5.637   -5.633   -5.632   -5.633   -5.635   -5.637   -5.640   -5.642   -5.641   -5.636   -5.628   -5.618   -5.606   -5.598   -5.593   -5.591   -5.586   -5.560   -5.486   -5.329   -5.061   -4.682   -4.227   -3.764   -3.362   -3.071   -2.902   -2.828   -2.813   -2.818   -2.823   -2.818   -2.803   -2.783   -2.763   -2.751   -2.756   -2.776   -2.800   -2.816   -2.816   -2.802   -2.783   -2.767   -2.767   -2.786   -2.824   -2.866   -2.897   -2.906   -2.890   -2.861   -2.835   -2.819   -2.819   -2.829   -2.842   -2.859   -2.876   -2.892   -2.902   -2.901   -2.891   -2.872   -2.845   -2.814   -2.782   -2.756   -2.742   -2.743   -2.751   -2.757   -2.759   -2.759   -2.766   -2.780   -2.798   -2.812   -2.818   -2.813   -2.805   -2.799   -2.802   -2.814   -2.833   -2.848   -2.850   -2.839   -2.820   -2.803   -2.795   -2.798   -2.810   -2.823   -2.835   -2.850   -2.901
  -5.718   -5.666   -5.650   -5.642   -5.638   -5.638   -5.638   -5.642   -5.645   -5.652   -5.658   -5.660   -5.657   -5.651   -5.638   -5.623   -5.610   -5.600   -5.595   -5.587   -5.560   -5.485   -5.328   -5.060   -4.683   -4.228   -3.766   -3.368   -3.079   -2.906   -2.822   -2.792   -2.784   -2.781   -2.772   -2.764   -2.752   -2.746   -2.743   -2.752   -2.774   -2.800   -2.821   -2.833   -2.834   -2.828   -2.823   -2.829   -2.846   -2.876   -2.912   -2.937   -2.940   -2.916   -2.877   -2.838   -2.810   -2.798   -2.795   -2.800   -2.810   -2.826   -2.844   -2.862   -2.873   -2.875   -2.867   -2.844   -2.813   -2.775   -2.739   -2.719   -2.715   -2.722   -2.731   -2.739   -2.750   -2.770   -2.795   -2.817   -2.831   -2.835   -2.826   -2.814   -2.803   -2.800   -2.806   -2.817   -2.824   -2.823   -2.813   -2.797   -2.781   -2.774   -2.773   -2.778   -2.784   -2.791   -2.801   -2.855
  -5.738   -5.681   -5.662   -5.652   -5.648   -5.646   -5.645   -5.646   -5.648   -5.655   -5.661   -5.666   -5.665   -5.657   -5.643   -5.627   -5.610   -5.600   -5.593   -5.583   -5.556   -5.480   -5.323   -5.055   -4.678   -4.225   -3.766   -3.373   -3.087   -2.912   -2.822   -2.782   -2.765   -2.756   -2.751   -2.751   -2.757   -2.762   -2.768   -2.775   -2.789   -2.808   -2.824   -2.836   -2.841   -2.843   -2.845   -2.852   -2.865   -2.888   -2.913   -2.929   -2.926   -2.900   -2.857   -2.816   -2.786   -2.770   -2.763   -2.763   -2.769   -2.784   -2.805   -2.826   -2.842   -2.850   -2.845   -2.826   -2.797   -2.761   -2.730   -2.711   -2.708   -2.713   -2.722   -2.732   -2.751   -2.781   -2.815   -2.840   -2.851   -2.848   -2.833   -2.815   -2.800   -2.789   -2.788   -2.792   -2.794   -2.795   -2.790   -2.784   -2.776   -2.777   -2.777   -2.778   -2.776   -2.774   -2.781   -2.836
  -5.784   -5.720   -5.698   -5.687   -5.679   -5.674   -5.669   -5.667   -5.665   -5.667   -5.670   -5.674   -5.674   -5.667   -5.655   -5.640   -5.625   -5.615   -5.609   -5.600   -5.571   -5.494   -5.335   -5.067   -4.689   -4.238   -3.782   -3.393   -3.109   -2.931   -2.837   -2.791   -2.770   -2.760   -2.762   -2.776   -2.797   -2.816   -2.828   -2.834   -2.838   -2.843   -2.845   -2.845   -2.844   -2.844   -2.845   -2.850   -2.860   -2.872   -2.884   -2.886   -2.872   -2.845   -2.806   -2.772   -2.751   -2.741   -2.739   -2.740   -2.747   -2.765   -2.786   -2.807   -2.822   -2.825   -2.817   -2.799   -2.778   -2.757   -2.742   -2.735   -2.734   -2.736   -2.734   -2.739   -2.756   -2.787   -2.822   -2.848   -2.855   -2.846   -2.828   -2.807   -2.784   -2.769   -2.763   -2.767   -2.776   -2.788   -2.801   -2.815   -2.829   -2.846   -2.859   -2.864   -2.859   -2.852   -2.856   -2.911
  -5.883   -5.813   -5.788   -5.774   -5.763   -5.755   -5.746   -5.738   -5.730   -5.727   -5.727   -5.727   -5.726   -5.720   -5.711   -5.700   -5.692   -5.687   -5.684   -5.677   -5.647   -5.568   -5.407   -5.136   -4.756   -4.305   -3.850   -3.459   -3.171   -2.986   -2.882   -2.828   -2.801   -2.795   -2.807   -2.836   -2.875   -2.912   -2.935   -2.943   -2.937   -2.922   -2.901   -2.879   -2.859   -2.847   -2.846   -2.850   -2.853   -2.851   -2.843   -2.827   -2.804   -2.774   -2.743   -2.721   -2.715   -2.718   -2.724   -2.730   -2.741   -2.760   -2.784   -2.803   -2.814   -2.812   -2.799   -2.783   -2.773   -2.772   -2.779   -2.787   -2.790   -2.781   -2.763   -2.752   -2.759   -2.785   -2.815   -2.836   -2.840   -2.831   -2.814   -2.793   -2.772   -2.756   -2.751   -2.762   -2.789   -2.826   -2.874   -2.928   -2.987   -3.045   -3.091   -3.115   -3.118   -3.113   -3.114   -3.171
  -6.069   -5.993   -5.967   -5.952   -5.939   -5.928   -5.916   -5.904   -5.892   -5.882   -5.878   -5.875   -5.872   -5.867   -5.860   -5.854   -5.853   -5.854   -5.856   -5.851   -5.821   -5.739   -5.575   -5.302   -4.921   -4.468   -4.006   -3.603   -3.297   -3.093   -2.968   -2.899   -2.865   -2.860   -2.886   -2.937   -3.004   -3.066   -3.109   -3.123   -3.107   -3.065   -3.008   -2.947   -2.899   -2.869   -2.860   -2.861   -2.858   -2.841   -2.813   -2.780   -2.746   -2.716   -2.693   -2.685   -2.693   -2.710   -2.725   -2.735   -2.746   -2.764   -2.786   -2.804   -2.812   -2.809   -2.797   -2.786   -2.789   -2.806   -2.831   -2.850   -2.850   -2.831   -2.796   -2.769   -2.764   -2.778   -2.801   -2.816   -2.816   -2.808   -2.795   -2.781   -2.766   -2.758   -2.764   -2.790   -2.842   -2.920   -3.029   -3.159   -3.302   -3.441   -3.554   -3.623   -3.650   -3.653   -3.654   -3.706
  -6.363   -6.284   -6.259   -6.243   -6.230   -6.219   -6.206   -6.190   -6.176   -6.163   -6.154   -6.149   -6.144   -6.138   -6.133   -6.130   -6.132   -6.138   -6.143   -6.139   -6.109   -6.028   -5.865   -5.590   -5.208   -4.749   -4.274   -3.848   -3.508   -3.265   -3.104   -3.006   -2.958   -2.956   -3.002   -3.089   -3.197   -3.299   -3.369   -3.390   -3.355   -3.274   -3.165   -3.054   -2.965   -2.910   -2.889   -2.885   -2.877   -2.849   -2.806   -2.758   -2.720   -2.692   -2.677   -2.678   -2.699   -2.726   -2.747   -2.758   -2.762   -2.772   -2.786   -2.802   -2.811   -2.812   -2.809   -2.808   -2.820   -2.848   -2.880   -2.901   -2.898   -2.869   -2.827   -2.791   -2.776   -2.780   -2.790   -2.794   -2.790   -2.781   -2.775   -2.770   -2.770   -2.774   -2.795   -2.842   -2.929   -3.067   -3.268   -3.522   -3.805   -4.077   -4.296   -4.440   -4.508   -4.527   -4.530   -4.570
  -6.767   -6.687   -6.662   -6.648   -6.637   -6.625   -6.609   -6.592   -6.575   -6.560   -6.549   -6.541   -6.534   -6.527   -6.521   -6.517   -6.519   -6.524   -6.530   -6.528   -6.500   -6.422   -6.261   -5.989   -5.604   -5.137   -4.641   -4.178   -3.790   -3.494   -3.283   -3.145   -3.077   -3.081   -3.156   -3.292   -3.456   -3.608   -3.709   -3.732   -3.667   -3.528   -3.351   -3.176   -3.040   -2.955   -2.920   -2.911   -2.900   -2.866   -2.814   -2.761   -2.722   -2.700   -2.694   -2.704   -2.730   -2.759   -2.780   -2.786   -2.781   -2.778   -2.783   -2.795   -2.810   -2.820   -2.826   -2.833   -2.848   -2.875   -2.904   -2.922   -2.916   -2.888   -2.850   -2.816   -2.796   -2.791   -2.788   -2.780   -2.768   -2.756   -2.756   -2.763   -2.775   -2.794   -2.830   -2.900   -3.028   -3.245   -3.572   -3.998   -4.473   -4.925   -5.287   -5.526   -5.650   -5.691   -5.697   -5.717
  -7.258   -7.180   -7.156   -7.143   -7.131   -7.114   -7.091   -7.067   -7.041   -7.023   -7.010   -7.000   -6.993   -6.984   -6.975   -6.969   -6.967   -6.970   -6.974   -6.972   -6.946   -6.871   -6.712   -6.443   -6.056   -5.578   -5.056   -4.551   -4.109   -3.749   -3.480   -3.299   -3.209   -3.220   -3.332   -3.527   -3.756   -3.962   -4.092   -4.109   -4.002   -3.794   -3.536   -3.290   -3.101   -2.986   -2.935   -2.920   -2.909   -2.874   -2.821   -2.769   -2.736   -2.727   -2.733   -2.748   -2.773   -2.796   -2.811   -2.808   -2.793   -2.779   -2.776   -2.788   -2.806   -2.823   -2.835   -2.843   -2.856   -2.874   -2.894   -2.906   -2.901   -2.882   -2.856   -2.834   -2.816   -2.803   -2.792   -2.774   -2.758   -2.749   -2.753   -2.768   -2.789   -2.814   -2.858   -2.944   -3.115   -3.423   -3.899   -4.526   -5.220   -5.875   -6.395   -6.740   -6.925   -6.996   -7.007   -7.004
  -7.838   -7.760   -7.739   -7.724   -7.704   -7.669   -7.620   -7.567   -7.519   -7.486   -7.466   -7.456   -7.448   -7.438   -7.427   -7.416   -7.411   -7.410   -7.411   -7.406   -7.381   -7.306   -7.150   -6.881   -6.490   -5.999   -5.451   -4.904   -4.406   -3.989   -3.665   -3.442   -3.334   -3.355   -3.508   -3.761   -4.053   -4.306   -4.458   -4.463   -4.312   -4.034   -3.697   -3.377   -3.131   -2.982   -2.914   -2.896   -2.886   -2.858   -2.811   -2.770   -2.752   -2.759   -2.778   -2.797   -2.812   -2.822   -2.825   -2.816   -2.796   -2.778   -2.772   -2.781   -2.799   -2.817   -2.829   -2.832   -2.836   -2.844   -2.854   -2.860   -2.859   -2.851   -2.842   -2.834   -2.826   -2.816   -2.802   -2.786   -2.773   -2.770   -2.780   -2.796   -2.814   -2.835   -2.872   -2.964   -3.172   -3.571   -4.199   -5.026   -5.938   -6.786   -7.453   -7.898   -8.142   -8.244   -8.265   -8.238
  -8.591   -8.516   -8.498   -8.476   -8.423   -8.332   -8.211   -8.082   -7.973   -7.899   -7.858   -7.840   -7.831   -7.821   -7.809   -7.797   -7.789   -7.784   -7.782   -7.775   -7.747   -7.672   -7.514   -7.241   -6.844   -6.338   -5.765   -5.181   -4.637   -4.171   -3.805   -3.554   -3.437   -3.476   -3.667   -3.970   -4.308   -4.595   -4.758   -4.747   -4.557   -4.221   -3.814   -3.427   -3.128   -2.943   -2.860   -2.842   -2.840   -2.823   -2.791   -2.765   -2.765   -2.789   -2.816   -2.832   -2.835   -2.832   -2.823   -2.813   -2.797   -2.781   -2.772   -2.778   -2.792   -2.805   -2.811   -2.809   -2.805   -2.805   -2.807   -2.811   -2.812   -2.815   -2.819   -2.825   -2.829   -2.826   -2.817   -2.807   -2.805   -2.814   -2.831   -2.845   -2.852   -2.855   -2.875   -2.964   -3.201   -3.676   -4.439   -5.438   -6.531   -7.538   -8.327   -8.855   -9.147   -9.276   -9.306   -9.257
  -9.722   -9.660   -9.648   -9.596   -9.464   -9.241   -8.954   -8.659   -8.412   -8.247   -8.159   -8.120   -8.105   -8.095   -8.084   -8.073   -8.065   -8.060   -8.056   -8.046   -8.015   -7.935   -7.772   -7.493   -7.085   -6.562   -5.968   -5.354   -4.777   -4.278   -3.890   -3.631   -3.524   -3.588   -3.811   -4.147   -4.510   -4.808   -4.966   -4.939   -4.718   -4.341   -3.885   -3.447   -3.105   -2.893   -2.802   -2.789   -2.801   -2.798   -2.781   -2.769   -2.780   -2.810   -2.835   -2.843   -2.836   -2.824   -2.816   -2.810   -2.801   -2.788   -2.778   -2.776   -2.786   -2.795   -2.798   -2.794   -2.786   -2.780   -2.780   -2.785   -2.790   -2.798   -2.809   -2.821   -2.828   -2.829   -2.825   -2.829   -2.843   -2.865   -2.888   -2.897   -2.888   -2.869   -2.871   -2.954   -3.211   -3.747   -4.611   -5.739   -6.961   -8.080   -8.955   -9.540   -9.867  -10.012  -10.047   -9.985
 -11.525  -11.493  -11.474  -11.347  -11.047  -10.569   -9.975   -9.375   -8.883   -8.554   -8.375   -8.300   -8.273   -8.261   -8.252   -8.245   -8.238   -8.235   -8.231   -8.221   -8.186   -8.100   -7.929   -7.639   -7.217   -6.677   -6.061   -5.422   -4.824   -4.314   -3.928   -3.689   -3.615   -3.712   -3.962   -4.310   -4.671   -4.956   -5.094   -5.043   -4.799   -4.397   -3.916   -3.450   -3.083   -2.857   -2.767   -2.765   -2.791   -2.803   -2.795   -2.787   -2.796   -2.817   -2.833   -2.831   -2.822   -2.811   -2.809   -2.808   -2.803   -2.791   -2.779   -2.775   -2.784   -2.797   -2.804   -2.799   -2.787   -2.781   -2.784   -2.794   -2.804   -2.812   -2.820   -2.823   -2.821   -2.817   -2.820   -2.838   -2.870   -2.906   -2.931   -2.934   -2.911   -2.878   -2.869   -2.950   -3.223   -3.798   -4.725   -5.930   -7.228   -8.413   -9.337   -9.953  -10.295  -10.447  -10.481  -10.410
 -14.191  -14.201  -14.131  -13.845  -13.261  -12.386  -11.331  -10.281   -9.422   -8.849   -8.540   -8.408   -8.363   -8.348   -8.342   -8.337   -8.334   -8.332   -8.330   -8.318   -8.280   -8.190   -8.008   -7.704   -7.263   -6.703   -6.066   -5.411   -4.804   -4.303   -3.948   -3.756   -3.736   -3.877   -4.146   -4.485   -4.819   -5.068   -5.171   -5.093   -4.829   -4.415   -3.925   -3.453   -3.080   -2.852   -2.766   -2.771   -2.807   -2.826   -2.819   -2.807   -2.808   -2.818   -2.822   -2.817   -2.807   -2.800   -2.798   -2.798   -2.792   -2.778   -2.765   -2.768   -2.785   -2.808   -2.821   -2.819   -2.806   -2.801   -2.808   -2.824   -2.838   -2.844   -2.840   -2.824   -2.803   -2.791   -2.798   -2.830   -2.877   -2.923   -2.949   -2.947   -2.918   -2.881   -2.872   -2.958   -3.242   -3.837   -4.791   -6.026   -7.352   -8.558   -9.497  -10.120  -10.463  -10.609  -10.640  -10.566
 -17.562  -17.605  -17.409  -16.863  -15.891  -14.521  -12.908  -11.315  -10.012   -9.144   -8.678   -8.479   -8.412   -8.393   -8.387   -8.384   -8.382   -8.380   -8.378   -8.366   -8.327   -8.232   -8.041   -7.721   -7.260   -6.676   -6.020   -5.355   -4.756   -4.285   -3.983   -3.860   -3.906   -4.091   -4.369   -4.683   -4.973   -5.173   -5.234   -5.128   -4.850   -4.434   -3.948   -3.480   -3.109   -2.880   -2.789   -2.791   -2.822   -2.839   -2.832   -2.818   -2.815   -2.821   -2.823   -2.818   -2.808   -2.797   -2.788   -2.779   -2.765   -2.747   -2.737   -2.747   -2.776   -2.812   -2.833   -2.834   -2.822   -2.815   -2.824   -2.843   -2.859   -2.863   -2.848   -2.817   -2.780   -2.759   -2.766   -2.805   -2.859   -2.906   -2.931   -2.928   -2.901   -2.872   -2.872   -2.969   -3.260   -3.858   -4.805   -6.027   -7.340   -8.532   -9.457  -10.067  -10.398  -10.537  -10.562  -10.488
 -21.117  -21.161  -20.769  -19.887  -18.471  -16.582  -14.415  -12.293  -10.560   -9.410   -8.796   -8.535   -8.447   -8.423   -8.418   -8.412   -8.407   -8.402   -8.396   -8.385   -8.349   -8.253   -8.055   -7.721   -7.239   -6.633   -5.961   -5.299   -4.725   -4.301   -4.064   -4.017   -4.126   -4.340   -4.611   -4.889   -5.126   -5.277   -5.301   -5.175   -4.894   -4.484   -4.007   -3.545   -3.174   -2.936   -2.828   -2.806   -2.819   -2.826   -2.821   -2.817   -2.823   -2.838   -2.848   -2.844   -2.825   -2.800   -2.776   -2.755   -2.734   -2.714   -2.704   -2.717   -2.754   -2.797   -2.825   -2.826   -2.812   -2.802   -2.807   -2.826   -2.846   -2.855   -2.843   -2.808   -2.766   -2.737   -2.738   -2.771   -2.818   -2.858   -2.879   -2.877   -2.860   -2.845   -2.862   -2.970   -3.262   -3.841   -4.751   -5.925   -7.184   -8.328   -9.215   -9.796  -10.110  -10.237  -10.259  -10.191
 -24.333  -24.320  -23.688  -22.416  -20.530  -18.150  -15.511  -12.975  -10.933   -9.591   -8.880   -8.579   -8.479   -8.453   -8.446   -8.437   -8.426   -8.414   -8.407   -8.398   -8.369   -8.279   -8.079   -7.731   -7.228   -6.603   -5.924   -5.278   -4.744   -4.381   -4.213   -4.230   -4.380   -4.604   -4.850   -5.079   -5.259   -5.363   -5.359   -5.223   -4.948   -4.552   -4.089   -3.634   -3.261   -3.007   -2.869   -2.811   -2.794   -2.790   -2.792   -2.806   -2.835   -2.867   -2.884   -2.873   -2.839   -2.800   -2.766   -2.742   -2.722   -2.700   -2.688   -2.699   -2.731   -2.772   -2.797   -2.796   -2.778   -2.762   -2.762   -2.782   -2.812   -2.836   -2.840   -2.817   -2.776   -2.742   -2.729   -2.741   -2.768   -2.793   -2.807   -2.807   -2.802   -2.804   -2.839   -2.954   -3.234   -3.771   -4.611   -5.697   -6.865   -7.928   -8.750   -9.290   -9.578   -9.695   -9.714   -9.657
 -26.950  -26.784  -25.830  -24.106  -21.740  -18.927  -15.942  -13.177  -11.017   -9.630   -8.908   -8.606   -8.508   -8.485   -8.482   -8.474   -8.462   -8.451   -8.449   -8.453   -8.439   -8.358   -8.154   -7.786   -7.255   -6.610   -5.932   -5.315   -4.833   -4.535   -4.430   -4.490   -4.657   -4.869   -5.074   -5.245   -5.365   -5.417   -5.382   -5.237   -4.972   -4.594   -4.149   -3.705   -3.331   -3.063   -2.898   -2.808   -2.765   -2.753   -2.765   -2.800   -2.851   -2.893   -2.907   -2.883   -2.838   -2.797   -2.774   -2.766   -2.756   -2.735   -2.717   -2.715   -2.734   -2.761   -2.775   -2.766   -2.741   -2.722   -2.722   -2.748   -2.792   -2.838   -2.862   -2.851   -2.813   -2.770   -2.741   -2.732   -2.737   -2.745   -2.748   -2.750   -2.751   -2.765   -2.808   -2.918   -3.167   -3.637   -4.374   -5.328   -6.363   -7.308   -8.042   -8.522   -8.778   -8.881   -8.899   -8.859
 -28.744  -28.308  -26.929  -24.734  -21.947  -18.796  -15.618  -12.839  -10.782   -9.512   -8.866   -8.603   -8.530   -8.530   -8.552   -8.572   -8.584   -8.599   -8.625   -8.661   -8.673   -8.598   -8.370   -7.953   -7.366   -6.680   -5.994   -5.407   -4.983   -4.748   -4.694   -4.779   -4.943   -5.128   -5.289   -5.402   -5.458   -5.450   -5.372   -5.206   -4.942   -4.579   -4.153   -3.725   -3.357   -3.084   -2.907   -2.802   -2.749   -2.738   -2.764   -2.816   -2.873   -2.911   -2.909   -2.870   -2.826   -2.805   -2.818   -2.841   -2.850   -2.835   -2.810   -2.794   -2.793   -2.800   -2.797   -2.776   -2.747   -2.728   -2.733   -2.764   -2.816   -2.873   -2.907   -2.900   -2.861   -2.810   -2.772   -2.751   -2.742   -2.739   -2.734   -2.730   -2.730   -2.743   -2.777   -2.869   -3.071   -3.452   -4.051   -4.835   -5.690   -6.478   -7.093   -7.496   -7.709   -7.792   -7.806   -7.788
 -29.295  -28.580  -26.816  -24.271  -21.183  -17.820  -14.632  -12.061  -10.297   -9.265   -8.762   -8.577   -8.562   -8.634   -8.741   -8.853   -8.959   -9.063   -9.171   -9.270   -9.311   -9.210   -8.897   -8.351   -7.630   -6.844   -6.118   -5.544   -5.167   -4.986   -4.968   -5.062   -5.214   -5.371   -5.494   -5.559   -5.557   -5.489   -5.359   -5.161   -4.885   -4.531   -4.123   -3.713   -3.356   -3.087   -2.912   -2.814   -2.772   -2.778   -2.816   -2.873   -2.921   -2.938   -2.913   -2.866   -2.836   -2.853   -2.914   -2.979   -3.011   -3.004   -2.973   -2.942   -2.923   -2.910   -2.889   -2.860   -2.832   -2.817   -2.824   -2.850   -2.891   -2.933   -2.955   -2.942   -2.902   -2.855   -2.819   -2.799   -2.790   -2.782   -2.773   -2.761   -2.754   -2.754   -2.772   -2.832   -2.974   -3.250   -3.689   -4.268   -4.906   -5.499   -5.965   -6.268   -6.423   -6.475   -6.479   -6.486
 -28.336  -27.495  -25.575  -22.871  -19.619  -16.216  -13.241  -11.063   -9.695   -8.947   -8.613   -8.542   -8.652   -8.892   -9.213   -9.564   -9.906  -10.222  -10.495  -10.689  -10.728  -10.512   -9.979   -9.149   -8.147   -7.149   -6.309   -5.710   -5.357   -5.211   -5.214   -5.306   -5.439   -5.568   -5.662   -5.695   -5.656   -5.546   -5.373   -5.146   -4.859   -4.512   -4.121   -3.728   -3.382   -3.124   -2.963   -2.887   -2.872   -2.900   -2.948   -2.996   -3.022   -3.010   -2.965   -2.915   -2.908   -2.969   -3.076   -3.179   -3.233   -3.233   -3.200   -3.162   -3.129   -3.101   -3.072   -3.045   -3.021   -3.008   -3.004   -3.008   -3.015   -3.023   -3.020   -3.002   -2.968   -2.935   -2.912   -2.904   -2.899   -2.892   -2.881   -2.863   -2.846   -2.833   -2.831   -2.858   -2.940   -3.107   -3.376   -3.733   -4.130   -4.498   -4.783   -4.962   -5.041   -5.053   -5.040   -5.065
 -26.199  -25.364  -23.476  -20.757  -17.524  -14.340  -11.788  -10.087   -9.103   -8.606   -8.431   -8.518   -8.858   -9.440  -10.198  -11.024  -11.817  -12.502  -13.025  -13.310  -13.259  -12.774  -11.821  -10.491   -9.003   -7.630   -6.574   -5.892   -5.532   -5.400   -5.406   -5.485   -5.590   -5.690   -5.758   -5.774   -5.724   -5.604   -5.425   -5.192   -4.907   -4.571   -4.199   -3.827   -3.499   -3.260   -3.121   -3.074   -3.089   -3.133   -3.180   -3.207   -3.202   -3.164   -3.104   -3.061   -3.077   -3.170   -3.310   -3.437   -3.508   -3.520   -3.494   -3.457   -3.423   -3.393   -3.368   -3.349   -3.332   -3.314   -3.292   -3.260   -3.228   -3.203   -3.181   -3.164   -3.147   -3.132   -3.124   -3.122   -3.122   -3.117   -3.106   -3.086   -3.062   -3.038   -3.022   -3.026   -3.056   -3.124   -3.231   -3.369   -3.516   -3.643   -3.728   -3.763   -3.749   -3.704   -3.664   -3.700
 -23.481  -22.639  -20.838  -18.263  -15.325  -12.617  -10.589   -9.309   -8.595   -8.254   -8.209   -8.503   -9.223  -10.383  -11.853  -13.407  -14.830  -15.975  -16.747  -17.054  -16.798  -15.899  -14.361  -12.342  -10.176   -8.267   -6.887   -6.068   -5.674   -5.538   -5.538   -5.594   -5.665   -5.729   -5.770   -5.779   -5.740   -5.649   -5.502   -5.298   -5.038   -4.726   -4.380   -4.037   -3.741   -3.531   -3.422   -3.401   -3.435   -3.483   -3.514   -3.512   -3.479   -3.420   -3.358   -3.325   -3.359   -3.468   -3.624   -3.766   -3.854   -3.884   -3.876   -3.854   -3.832   -3.814   -3.802   -3.796   -3.788   -3.766   -3.726   -3.671   -3.618   -3.576   -3.555   -3.547   -3.544   -3.542   -3.539   -3.536   -3.535   -3.532   -3.522   -3.502   -3.472   -3.445   -3.427   -3.417   -3.411   -3.394   -3.358   -3.296   -3.208   -3.101   -2.982   -2.857   -2.730   -2.616   -2.536   -2.570
 -20.694  -19.849  -18.252  -16.052  -13.640  -11.483   -9.872   -8.823   -8.196   -7.886   -7.927   -8.484   -9.744  -11.706  -14.089  -16.472  -18.515  -20.033  -20.943  -21.179  -20.661  -19.317  -17.168  -14.411  -11.483   -8.948   -7.188   -6.206   -5.768   -5.628   -5.617   -5.650   -5.687   -5.714   -5.730   -5.734   -5.719   -5.673   -5.583   -5.431   -5.215   -4.942   -4.638   -4.340   -4.091   -3.920   -3.841   -3.839   -3.876   -3.912   -3.919   -3.891   -3.838   -3.771   -3.715   -3.695   -3.741   -3.862   -4.028   -4.187   -4.300   -4.360   -4.383   -4.388   -4.388   -4.389   -4.396   -4.404   -4.404   -4.383   -4.342   -4.288   -4.239   -4.207   -4.197   -4.201   -4.206   -4.204   -4.198   -4.191   -4.187   -4.188   -4.181   -4.160   -4.128   -4.099   -4.082   -4.066   -4.031   -3.950   -3.798   -3.572   -3.288   -2.976   -2.662   -2.374   -2.121   -1.923   -1.795   -1.817
 -18.770  -18.036  -16.781  -15.057  -13.122  -11.295   -9.799   -8.693   -7.931   -7.510   -7.580   -8.437  -10.346  -13.217  -16.510  -19.591  -22.072  -23.811  -24.769  -24.902  -24.118  -22.357  -19.669  -16.266  -12.634   -9.504   -7.388   -6.269   -5.808   -5.672   -5.660   -5.678   -5.688   -5.686   -5.679   -5.678   -5.681   -5.677   -5.639   -5.543   -5.380   -5.161   -4.913   -4.672   -4.476   -4.349   -4.293   -4.295   -4.322   -4.340   -4.328   -4.285   -4.225   -4.165   -4.122   -4.120   -4.184   -4.322   -4.512   -4.704   -4.858   -4.962   -5.025   -5.060   -5.084   -5.103   -5.123   -5.141   -5.150   -5.138   -5.111   -5.077   -5.052   -5.043   -5.047   -5.059   -5.066   -5.060   -5.049   -5.041   -5.044   -5.054   -5.051   -5.030   -4.995   -4.964   -4.944   -4.921   -4.864   -4.734   -4.501   -4.161   -3.736   -3.266   -2.795   -2.358   -1.985   -1.699   -1.520   -1.523
 -18.750  -18.211  -17.238  -15.797  -14.021  -12.142  -10.398   -8.939   -7.835   -7.175   -7.207   -8.343  -10.891  -14.586  -18.588  -22.137  -24.930  -26.878  -27.914  -27.928  -26.809  -24.587  -21.431  -17.532  -13.360   -9.778   -7.421   -6.240   -5.794   -5.683   -5.681   -5.693   -5.691   -5.672   -5.650   -5.642   -5.650   -5.662   -5.654   -5.599   -5.486   -5.325   -5.138   -4.959   -4.812   -4.717   -4.674   -4.672   -4.684   -4.686   -4.663   -4.619   -4.566   -4.522   -4.503   -4.527   -4.623   -4.798   -5.031   -5.277   -5.489   -5.644   -5.746   -5.808   -5.848   -5.876   -5.900   -5.920   -5.932   -5.932   -5.922   -5.913   -5.914   -5.927   -5.945   -5.963   -5.972   -5.967   -5.960   -5.961   -5.979   -6.001   -6.006   -5.985   -5.948   -5.913   -5.889   -5.859   -5.785   -5.626   -5.349   -4.952   -4.454   -3.895   -3.323   -2.783   -2.317   -1.963   -1.742   -1.728
 -20.386  -20.027  -19.154  -17.732  -15.830  -13.638  -11.429   -9.457   -7.897   -6.924   -6.860   -8.188  -11.211  -15.470  -19.893  -23.724  -26.796  -28.997  -30.114  -29.936  -28.397  -25.721  -22.210  -17.992  -13.498   -9.695   -7.274   -6.131   -5.747   -5.678   -5.694   -5.709   -5.701   -5.678   -5.651   -5.637   -5.637   -5.645   -5.640   -5.604   -5.527   -5.415   -5.284   -5.157   -5.051   -4.977   -4.938   -4.926   -4.923   -4.913   -4.888   -4.852   -4.815   -4.793   -4.799   -4.857   -4.996   -5.225   -5.520   -5.830   -6.104   -6.309   -6.444   -6.524   -6.569   -6.597   -6.618   -6.634   -6.644   -6.647   -6.650   -6.658   -6.675   -6.701   -6.729   -6.752   -6.767   -6.771   -6.777   -6.793   -6.827   -6.862   -6.877   -6.861   -6.825   -6.791   -6.765   -6.730   -6.649   -6.482   -6.202   -5.804   -5.303   -4.735   -4.142   -3.569   -3.065   -2.678   -2.436   -2.406
 -22.441  -22.188  -21.286  -19.742  -17.619  -15.087  -12.437   -9.992   -8.024   -6.770   -6.581   -7.953  -11.150  -15.612  -20.170  -24.091  -27.264  -29.534  -30.594  -30.214  -28.419  -25.550  -21.903  -17.559  -13.004   -9.264   -6.986   -5.980   -5.690   -5.670   -5.704   -5.725   -5.719   -5.696   -5.671   -5.653   -5.644   -5.638   -5.625   -5.593   -5.536   -5.459   -5.369   -5.281   -5.205   -5.146   -5.109   -5.087   -5.073   -5.056   -5.032   -5.006   -4.984   -4.980   -5.011   -5.103   -5.286   -5.568   -5.924   -6.298   -6.627   -6.872   -7.031   -7.119   -7.165   -7.186   -7.200   -7.207   -7.213   -7.216   -7.223   -7.235   -7.256   -7.285   -7.314   -7.340   -7.361   -7.376   -7.394   -7.424   -7.469   -7.512   -7.534   -7.524   -7.497   -7.469   -7.447   -7.413   -7.338   -7.188   -6.942   -6.595   -6.160   -5.660   -5.129   -4.602   -4.128   -3.754   -3.516   -3.473
 -23.966  -23.724  -22.723  -21.012  -18.684  -15.911  -12.987  -10.271   -8.082   -6.675   -6.376   -7.622  -10.632  -14.895  -19.311  -23.100  -26.067  -28.089  -28.953  -28.509  -26.807  -24.086  -20.515  -16.249  -11.934   -8.562   -6.615   -5.821   -5.638   -5.662   -5.712   -5.735   -5.732   -5.714   -5.693   -5.674   -5.659   -5.645   -5.625   -5.593   -5.548   -5.494   -5.434   -5.374   -5.320   -5.275   -5.241   -5.216   -5.195   -5.175   -5.154   -5.134   -5.121   -5.130   -5.178   -5.296   -5.512   -5.835   -6.235   -6.653   -7.020   -7.294   -7.469   -7.561   -7.603   -7.619   -7.625   -7.627   -7.628   -7.628   -7.632   -7.640   -7.655   -7.677   -7.702   -7.727   -7.749   -7.769   -7.792   -7.826   -7.870   -7.911   -7.933   -7.931   -7.913   -7.895   -7.881   -7.858   -7.803   -7.689   -7.507   -7.256   -6.948   -6.593   -6.203   -5.796   -5.404   -5.079   -4.860   -4.805
 -24.425  -24.137  -23.037  -21.204  -18.756  -15.882  -12.892  -10.158   -7.982   -6.585   -6.214   -7.194   -9.703  -13.383  -17.359  -20.843  -23.487  -25.184  -25.861  -25.462  -23.987  -21.507  -18.132  -14.195  -10.445   -7.695   -6.208   -5.664   -5.586   -5.644   -5.701   -5.724   -5.723   -5.710   -5.695   -5.679   -5.664   -5.649   -5.629   -5.602   -5.569   -5.532   -5.496   -5.459   -5.425   -5.395   -5.369   -5.346   -5.326   -5.306   -5.287   -5.271   -5.265   -5.279   -5.335   -5.466   -5.697   -6.038   -6.459   -6.898   -7.286   -7.576   -7.761   -7.857   -7.899   -7.913   -7.916   -7.914   -7.911   -7.908   -7.908   -7.909   -7.916   -7.928   -7.944   -7.963   -7.981   -7.998   -8.017   -8.042   -8.074   -8.103   -8.119   -8.117   -8.108   -8.098   -8.094   -8.085   -8.058   -8.001   -7.914   -7.808   -7.690   -7.555   -7.380   -7.150   -6.878   -6.615   -6.418   -6.351
 -23.779  -23.432  -22.279  -20.408  -17.947  -15.117  -12.257   -9.713   -7.729   -6.453   -6.039   -6.683   -8.511  -11.326  -14.553  -17.538  -19.858  -21.336  -21.913  -21.555  -20.236  -17.988  -14.990  -11.690   -8.773   -6.783   -5.792   -5.491   -5.502   -5.584   -5.643   -5.666   -5.667   -5.660   -5.650   -5.640   -5.631   -5.623   -5.610   -5.594   -5.576   -5.557   -5.540   -5.525   -5.510   -5.496   -5.481   -5.468   -5.453   -5.437   -5.423   -5.410   -5.406   -5.421   -5.479   -5.607   -5.838   -6.178   -6.598   -7.040   -7.434   -7.734   -7.928   -8.033   -8.081   -8.098   -8.100   -8.098   -8.094   -8.089   -8.084   -8.081   -8.079   -8.083   -8.091   -8.103   -8.114   -8.124   -8.134   -8.146   -8.159   -8.171   -8.175   -8.170   -8.163   -8.160   -8.162   -8.170   -8.180   -8.199   -8.248   -8.347   -8.504   -8.680   -8.800   -8.800   -8.671   -8.473   -8.291   -8.200
 -22.420  -22.013  -20.848  -19.008  -16.635  -13.983  -11.382   -9.125   -7.386   -6.248   -5.786   -6.094   -7.235   -9.108  -11.383  -13.624  -15.466  -16.690  -17.181  -16.878  -15.762  -13.910  -11.560   -9.146   -7.161   -5.910   -5.362   -5.261   -5.339   -5.433   -5.492   -5.515   -5.521   -5.520   -5.520   -5.521   -5.526   -5.530   -5.533   -5.534   -5.533   -5.534   -5.537   -5.541   -5.545   -5.545   -5.545   -5.543   -5.540   -5.535   -5.528   -5.520   -5.516   -5.529   -5.580   -5.697   -5.913   -6.233   -6.639   -7.071   -7.466   -7.776   -7.985   -8.107   -8.169   -8.196   -8.203   -8.202   -8.198   -8.193   -8.186   -8.180   -8.174   -8.174   -8.176   -8.182   -8.188   -8.193   -8.195   -8.195   -8.195   -8.192   -8.185   -8.176   -8.167   -8.165   -8.175   -8.201   -8.260   -8.383   -8.617   -9.003   -9.532  -10.117  -10.611  -10.893  -10.936  -10.818  -10.653  -10.517
 -20.779  -20.332  -19.207  -17.476  -15.291  -12.898  -10.585   -8.585   -7.023   -5.957   -5.418   -5.435   -6.015   -7.081   -8.450   -9.862  -11.074  -11.914  -12.262  -12.047  -11.256   -9.978   -8.426   -6.920   -5.766   -5.110   -4.892   -4.927   -5.043   -5.142   -5.200   -5.227   -5.239   -5.247   -5.259   -5.275   -5.300   -5.328   -5.354   -5.379   -5.403   -5.429   -5.455   -5.477   -5.496   -5.511   -5.526   -5.542   -5.557   -5.568   -5.574   -5.573   -5.568   -5.574   -5.609   -5.706   -5.891   -6.182   -6.562   -6.980   -7.376   -7.700   -7.933   -8.082   -8.168   -8.212   -8.229   -8.233   -8.229   -8.224   -8.218   -8.212   -8.208   -8.206   -8.208   -8.212   -8.217   -8.221   -8.223   -8.220   -8.214   -8.204   -8.193   -8.183   -8.176   -8.176   -8.192   -8.241   -8.362   -8.614   -9.080   -9.813  -10.781  -11.827  -12.731  -13.327  -13.581  -13.587  -13.466  -13.271
 -19.206  -18.761  -17.730  -16.175  -14.232  -12.107  -10.030   -8.190   -6.700   -5.620   -4.973   -4.758   -4.945   -5.453   -6.157   -6.900   -7.542   -7.987   -8.160   -8.016   -7.549   -6.819   -5.967   -5.182   -4.627   -4.369   -4.352   -4.461   -4.590   -4.686   -4.744   -4.776   -4.794   -4.811   -4.834   -4.869   -4.918   -4.977   -5.038   -5.097   -5.155   -5.212   -5.263   -5.306   -5.341   -5.370   -5.403   -5.440   -5.478   -5.512   -5.535   -5.541   -5.536   -5.529   -5.542   -5.605   -5.753   -6.004   -6.350   -6.749   -7.145   -7.489   -7.755   -7.940   -8.059   -8.126   -8.157   -8.166   -8.166   -8.162   -8.159   -8.158   -8.159   -8.164   -8.171   -8.181   -8.193   -8.207   -8.217   -8.222   -8.222   -8.217   -8.211   -8.206   -8.205   -8.209   -8.233   -8.307   -8.490   -8.874   -9.569  -10.639  -12.015  -13.477  -14.748  -15.646  -16.139  -16.319  -16.293  -16.048
 -17.886  -17.478  -16.565  -15.201  -13.496  -11.606   -9.709   -7.962   -6.482   -5.343   -4.581   -4.190   -4.123   -4.295   -4.598   -4.922   -5.185   -5.342   -5.369   -5.251   -4.995   -4.638   -4.247   -3.915   -3.716   -3.676   -3.754   -3.884   -4.007   -4.098   -4.158   -4.195   -4.218   -4.234   -4.259   -4.307   -4.381   -4.473   -4.574   -4.674   -4.773   -4.866   -4.947   -5.011   -5.060   -5.104   -5.153   -5.212   -5.277   -5.335   -5.376   -5.392   -5.386   -5.363   -5.349   -5.374   -5.477   -5.681   -5.988   -6.362   -6.755   -7.117   -7.414   -7.638   -7.791   -7.883   -7.929   -7.946   -7.949   -7.950   -7.955   -7.964   -7.980   -7.999   -8.023   -8.053   -8.088   -8.125   -8.158   -8.186   -8.206   -8.217   -8.225   -8.230   -8.237   -8.249   -8.281   -8.372   -8.598   -9.070   -9.918  -11.210  -12.857  -14.597  -16.136  -17.288  -18.023  -18.413  -18.524  -18.273
 -16.814  -16.447  -15.642  -14.450  -12.953  -11.272   -9.541   -7.889   -6.430   -5.253   -4.404   -3.888   -3.658   -3.630   -3.705   -3.794   -3.844   -3.832   -3.758   -3.634   -3.475   -3.300   -3.140   -3.029   -2.994   -3.042   -3.145   -3.265   -3.377   -3.469   -3.539   -3.583   -3.598   -3.599   -3.609   -3.651   -3.736   -3.855   -3.991   -4.130   -4.267   -4.393   -4.501   -4.583   -4.644   -4.696   -4.757   -4.832   -4.916   -4.995   -5.056   -5.083   -5.077   -5.041   -5.001   -4.989   -5.047   -5.205   -5.468   -5.811   -6.189   -6.555   -6.872   -7.122   -7.298   -7.407   -7.465   -7.491   -7.500   -7.510   -7.529   -7.558   -7.596   -7.643   -7.703   -7.771   -7.850   -7.932   -8.013   -8.083   -8.139   -8.181   -8.210   -8.230   -8.247   -8.263   -8.297   -8.392   -8.621   -9.102   -9.969  -11.299  -13.010  -14.849  -16.526  -17.861  -18.814  -19.427  -19.709  -19.513
 -15.895  -15.558  -14.839  -13.786  -12.474  -10.997   -9.455   -7.952   -6.583   -5.434   -4.558   -3.969   -3.627   -3.462   -3.387   -3.333   -3.256   -3.143   -3.001   -2.844   -2.691   -2.562   -2.470   -2.426   -2.437   -2.496   -2.587   -2.695   -2.809   -2.919   -3.009   -3.061   -3.063   -3.028   -2.996   -3.009   -3.080   -3.204   -3.356   -3.517   -3.675   -3.820   -3.942   -4.033   -4.096   -4.148   -4.208   -4.287   -4.377   -4.469   -4.541   -4.581   -4.579   -4.537   -4.478   -4.437   -4.459   -4.576   -4.795   -5.098   -5.445   -5.792   -6.101   -6.350   -6.529   -6.642   -6.703   -6.733   -6.753   -6.779   -6.817   -6.873   -6.946   -7.037   -7.149   -7.280   -7.427   -7.583   -7.737   -7.874   -7.986   -8.071   -8.129   -8.168   -8.193   -8.213   -8.245   -8.323   -8.514   -8.922   -9.670  -10.845  -12.405  -14.147  -15.811  -17.225  -18.337  -19.150  -19.614  -19.530
 -15.067  -14.746  -14.093  -13.156  -12.011  -10.738   -9.413   -8.111   -6.905   -5.860   -5.024   -4.412   -3.995   -3.723   -3.529   -3.364   -3.195   -3.004   -2.798   -2.584   -2.384   -2.216   -2.100   -2.037   -2.030   -2.067   -2.138   -2.242   -2.373   -2.517   -2.643   -2.711   -2.695   -2.616   -2.528   -2.488   -2.524   -2.625   -2.765   -2.918   -3.071   -3.211   -3.325   -3.404   -3.455   -3.496   -3.545   -3.610   -3.693   -3.780   -3.855   -3.901   -3.903   -3.860   -3.794   -3.737   -3.733   -3.815   -3.990   -4.243   -4.539   -4.840   -5.113   -5.334   -5.492   -5.591   -5.646   -5.679   -5.710   -5.752   -5.815   -5.904   -6.019   -6.164   -6.341   -6.553   -6.790   -7.042   -7.291   -7.516   -7.699   -7.837   -7.931   -7.989   -8.023   -8.044   -8.066   -8.116   -8.245   -8.530   -9.075   -9.963  -11.199  -12.658  -14.146  -15.512  -16.693  -17.645  -18.262  -18.320
 -14.325  -14.013  -13.408  -12.566  -11.568  -10.487   -9.382   -8.302   -7.292   -6.398   -5.648   -5.052   -4.594   -4.240   -3.949   -3.688   -3.433   -3.171   -2.897   -2.617   -2.346   -2.110   -1.930   -1.816   -1.766   -1.772   -1.826   -1.931   -2.084   -2.266   -2.430   -2.520   -2.502   -2.392   -2.258   -2.167   -2.156   -2.217   -2.321   -2.440   -2.557   -2.660   -2.739   -2.789   -2.817   -2.837   -2.863   -2.905   -2.963   -3.031   -3.093   -3.133   -3.134   -3.092   -3.023   -2.960   -2.938   -2.989   -3.118   -3.312   -3.543   -3.780   -3.994   -4.165   -4.285   -4.358   -4.402   -4.434   -4.474   -4.533   -4.618   -4.736   -4.891   -5.090   -5.334   -5.626   -5.955   -6.308   -6.657   -6.974   -7.233   -7.423   -7.550   -7.624   -7.664   -7.682   -7.691   -7.710   -7.773   -7.935   -8.264   -8.834   -9.673  -10.729  -11.895  -13.068  -14.190  -15.181  -15.889  -16.087
 -13.653  -13.352  -12.785  -12.020  -11.142  -10.225   -9.314   -8.436   -7.615   -6.872   -6.222   -5.666   -5.191   -4.781   -4.411   -4.066   -3.734   -3.406   -3.074   -2.739   -2.414   -2.123   -1.891   -1.736   -1.653   -1.631   -1.668   -1.768   -1.929   -2.132   -2.320   -2.431   -2.426   -2.320   -2.176   -2.062   -2.017   -2.036   -2.094   -2.165   -2.230   -2.280   -2.308   -2.316   -2.313   -2.307   -2.307   -2.321   -2.346   -2.382   -2.418   -2.439   -2.430   -2.386   -2.317   -2.247   -2.208   -2.225   -2.305   -2.437   -2.601   -2.771   -2.922   -3.038   -3.115   -3.160   -3.187   -3.216   -3.258   -3.324   -3.421   -3.556   -3.737   -3.972   -4.261   -4.606   -4.999   -5.424   -5.848   -6.233   -6.547   -6.774   -6.920   -7.003   -7.042   -7.053   -7.046   -7.037   -7.049   -7.114   -7.275   -7.581   -8.062   -8.712   -9.490  -10.356  -11.276  -12.165  -12.858  -13.150
 -12.979  -12.690  -12.157  -11.457  -10.679   -9.894   -9.138   -8.424   -7.757   -7.143   -6.581   -6.068   -5.594   -5.149   -4.721   -4.309   -3.913   -3.535   -3.170   -2.818   -2.485   -2.192   -1.962   -1.803   -1.712   -1.682   -1.708   -1.794   -1.939   -2.127   -2.306   -2.422   -2.438   -2.359   -2.241   -2.139   -2.085   -2.080   -2.105   -2.132   -2.149   -2.148   -2.126   -2.095   -2.060   -2.033   -2.013   -1.999   -1.994   -1.995   -1.999   -1.997   -1.975   -1.926   -1.854   -1.777   -1.716   -1.695   -1.728   -1.809   -1.920   -2.039   -2.142   -2.216   -2.257   -2.276   -2.287   -2.303   -2.335   -2.392   -2.480   -2.610   -2.791   -3.026   -3.316   -3.661   -4.057   -4.488   -4.923   -5.320   -5.640   -5.866   -6.008   -6.087   -6.121   -6.121   -6.098   -6.065   -6.043   -6.047   -6.105   -6.238   -6.467   -6.801   -7.238   -7.779   -8.419   -9.093   -9.657   -9.968
 -12.181  -11.903  -11.410  -10.774  -10.088   -9.413   -8.781   -8.192   -7.643   -7.128   -6.641   -6.171   -5.713   -5.256   -4.799   -4.353   -3.928   -3.536   -3.184   -2.870   -2.595   -2.368   -2.197   -2.090   -2.038   -2.033   -2.069   -2.143   -2.258   -2.396   -2.528   -2.613   -2.625   -2.567   -2.478   -2.396   -2.348   -2.336   -2.341   -2.343   -2.329   -2.293   -2.237   -2.171   -2.113   -2.065   -2.025   -1.990   -1.958   -1.931   -1.913   -1.895   -1.867   -1.820   -1.751   -1.669   -1.589   -1.539   -1.537   -1.589   -1.676   -1.777   -1.859   -1.909   -1.929   -1.927   -1.918   -1.914   -1.922   -1.950   -2.009   -2.113   -2.265   -2.464   -2.702   -2.982   -3.302   -3.652   -4.007   -4.325   -4.577   -4.750   -4.857   -4.915   -4.935   -4.926   -4.892   -4.846   -4.805   -4.782   -4.790   -4.833   -4.919   -5.058   -5.265   -5.563   -5.958   -6.409   -6.808   -7.083
 -11.167  -10.897  -10.457   -9.902   -9.313   -8.742   -8.215   -7.729   -7.272   -6.838   -6.416   -5.998   -5.575   -5.148   -4.717   -4.298   -3.909   -3.576   -3.306   -3.101   -2.955   -2.861   -2.817   -2.820   -2.862   -2.930   -3.015   -3.108   -3.197   -3.276   -3.324   -3.328   -3.277   -3.184   -3.072   -2.974   -2.910   -2.879   -2.866   -2.852   -2.820   -2.762   -2.677   -2.580   -2.484   -2.398   -2.322   -2.251   -2.186   -2.132   -2.093   -2.070   -2.049   -2.018   -1.966   -1.893   -1.810   -1.748   -1.737   -1.787   -1.884   -1.992   -2.079   -2.125   -2.135   -2.121   -2.093   -2.064   -2.044   -2.038   -2.060   -2.127   -2.237   -2.379   -2.539   -2.712   -2.896   -3.087   -3.269   -3.417   -3.518   -3.577   -3.609   -3.626   -3.629   -3.612   -3.575   -3.528   -3.486   -3.464   -3.461   -3.474   -3.501   -3.552   -3.651   -3.827   -4.088   -4.402   -4.689   -4.926
  -9.969   -9.711   -9.344   -8.889   -8.411   -7.950   -7.525   -7.131   -6.761   -6.405   -6.059   -5.718   -5.380   -5.047   -4.725   -4.431   -4.188   -4.014   -3.923   -3.909   -3.959   -4.059   -4.200   -4.373   -4.568   -4.775   -4.969   -5.128   -5.230   -5.258   -5.205   -5.073   -4.877   -4.643   -4.410   -4.208   -4.058   -3.961   -3.901   -3.854   -3.796   -3.709   -3.581   -3.425   -3.254   -3.080   -2.912   -2.756   -2.615   -2.505   -2.428   -2.384   -2.363   -2.346   -2.315   -2.260   -2.192   -2.141   -2.141   -2.208   -2.325   -2.451   -2.548   -2.598   -2.606   -2.586   -2.550   -2.507   -2.466   -2.437   -2.439   -2.483   -2.562   -2.658   -2.751   -2.821   -2.868   -2.881   -2.854   -2.780   -2.678   -2.577   -2.501   -2.458   -2.432   -2.405   -2.372   -2.335   -2.308   -2.304   -2.319   -2.342   -2.370   -2.411   -2.493   -2.652   -2.891   -3.176   -3.431   -3.651
  -8.780   -8.545   -8.267   -7.929   -7.574   -7.235   -6.921   -6.632   -6.365   -6.115   -5.882   -5.674   -5.493   -5.350   -5.251   -5.209   -5.235   -5.338   -5.519   -5.767   -6.066   -6.403   -6.767   -7.154   -7.556   -7.954   -8.316   -8.597   -8.756   -8.765   -8.615   -8.315   -7.901   -7.426   -6.949   -6.524   -6.187   -5.944   -5.779   -5.657   -5.539   -5.389   -5.185   -4.924   -4.621   -4.292   -3.956   -3.633   -3.343   -3.103   -2.923   -2.803   -2.731   -2.685   -2.643   -2.589   -2.528   -2.483   -2.491   -2.564   -2.682   -2.807   -2.900   -2.946   -2.952   -2.930   -2.893   -2.850   -2.810   -2.784   -2.792   -2.840   -2.917   -3.000   -3.062   -3.083   -3.049   -2.945   -2.760   -2.503   -2.214   -1.954   -1.764   -1.648   -1.581   -1.537   -1.499   -1.470   -1.463   -1.486   -1.538   -1.603   -1.670   -1.746   -1.858   -2.049   -2.320   -2.630   -2.900   -3.114
  -7.858   -7.660   -7.476   -7.263   -7.042   -6.838   -6.660   -6.512   -6.393   -6.303   -6.252   -6.253   -6.323   -6.473   -6.712   -7.032   -7.425   -7.875   -8.369   -8.897   -9.448  -10.016  -10.604  -11.213  -11.837  -12.449  -13.001  -13.431  -13.680  -13.709  -13.497  -13.056  -12.425  -11.675  -10.894  -10.168   -9.559   -9.092   -8.753   -8.496   -8.269   -8.014   -7.696   -7.298   -6.827   -6.301   -5.745   -5.195   -4.679   -4.224   -3.845   -3.546   -3.319   -3.148   -3.009   -2.882   -2.765   -2.680   -2.649   -2.678   -2.752   -2.835   -2.894   -2.919   -2.913   -2.886   -2.853   -2.819   -2.793   -2.788   -2.816   -2.885   -2.980   -3.077   -3.153   -3.186   -3.157   -3.041   -2.816   -2.491   -2.115   -1.762   -1.490   -1.310   -1.195   -1.119   -1.065   -1.031   -1.035   -1.088   -1.189   -1.317   -1.445   -1.568   -1.714   -1.921   -2.203   -2.518   -2.786   -2.987
  -7.359   -7.206   -7.115   -7.028   -6.954   -6.907   -6.903   -6.944   -7.029   -7.161   -7.354   -7.630   -8.015   -8.522   -9.146   -9.860  -10.619  -11.389  -12.147  -12.888  -13.622  -14.361  -15.122  -15.915  -16.728  -17.524  -18.240  -18.804  -19.151  -19.234  -19.031  -18.544  -17.806  -16.888  -15.884  -14.903  -14.035  -13.329  -12.783  -12.353  -11.976  -11.588  -11.140  -10.606   -9.982   -9.282   -8.532   -7.763   -7.008   -6.291   -5.637   -5.058   -4.555   -4.122   -3.746   -3.413   -3.122   -2.887   -2.721   -2.626   -2.584   -2.569   -2.555   -2.532   -2.499   -2.462   -2.424   -2.394   -2.377   -2.388   -2.435   -2.520   -2.630   -2.744   -2.849   -2.932   -2.970   -2.934   -2.789   -2.530   -2.196   -1.858   -1.573   -1.362   -1.212   -1.098   -1.012   -0.963   -0.971   -1.053   -1.208   -1.404   -1.594   -1.754   -1.900   -2.075   -2.301   -2.554   -2.773   -2.936
  -7.327   -7.220   -7.219   -7.256   -7.337   -7.473   -7.670   -7.927   -8.241   -8.613   -9.059   -9.609  -10.293  -11.121  -12.071  -13.088  -14.107  -15.081  -15.986  -16.840  -17.667  -18.502  -19.374  -20.294  -21.244  -22.174  -23.013  -23.682  -24.119  -24.281  -24.146  -23.717  -23.020  -22.112  -21.077  -20.016  -19.027  -18.174  -17.475  -16.896  -16.377  -15.861  -15.296  -14.657  -13.935  -13.135  -12.273  -11.369  -10.439   -9.503   -8.575   -7.674   -6.816   -6.009   -5.260   -4.572   -3.957   -3.431   -3.004   -2.674   -2.431   -2.253   -2.121   -2.021   -1.942   -1.879   -1.826   -1.785   -1.764   -1.770   -1.810   -1.884   -1.985   -2.099   -2.222   -2.348   -2.464   -2.541   -2.536   -2.429   -2.232   -1.998   -1.775   -1.585   -1.421   -1.281   -1.170   -1.106   -1.117   -1.224   -1.421   -1.666   -1.896   -2.065   -2.173   -2.266   -2.381   -2.516   -2.639   -2.754
  -7.858   -7.794   -7.871   -8.021   -8.247   -8.553   -8.933   -9.383   -9.888  -10.447  -11.081  -11.821  -12.699  -13.718  -14.847  -16.016  -17.149  -18.200  -19.158  -20.047  -20.911  -21.798  -22.741  -23.754  -24.814  -25.862  -26.822  -27.609  -28.157  -28.419  -28.376  -28.039  -27.444  -26.648  -25.724  -24.752  -23.813  -22.963  -22.224  -21.574  -20.971  -20.369  -19.727  -19.026  -18.258  -17.424  -16.530  -15.578  -14.568  -13.498  -12.373  -11.203  -10.007   -8.810   -7.639   -6.517   -5.477   -4.545   -3.743   -3.079   -2.550   -2.143   -1.847   -1.638   -1.492   -1.391   -1.313   -1.252   -1.211   -1.193   -1.204   -1.246   -1.315   -1.405   -1.515   -1.651   -1.807   -1.963   -2.080   -2.125   -2.089   -1.996   -1.872   -1.738   -1.597   -1.460   -1.345   -1.281   -1.297   -1.413   -1.623   -1.880   -2.105   -2.246   -2.296   -2.293   -2.286   -2.297   -2.321   -2.389
  -9.159   -9.141   -9.272   -9.497   -9.815  -10.225  -10.716  -11.267  -11.865  -12.506  -13.210  -14.008  -14.931  -15.982  -17.127  -18.298  -19.424  -20.461  -21.405  -22.284  -23.149  -24.050  -25.030  -26.102  -27.244  -28.402  -29.496  -30.438  -31.146  -31.559  -31.655  -31.446  -30.980  -30.325  -29.557  -28.744  -27.946  -27.199  -26.514  -25.876  -25.254  -24.616  -23.937  -23.205  -22.416  -21.573  -20.672  -19.709  -18.666  -17.531  -16.290  -14.945  -13.509  -12.011  -10.485   -8.974   -7.525   -6.178   -4.969   -3.921   -3.051   -2.364   -1.858   -1.508   -1.275   -1.120   -1.009   -0.924   -0.860   -0.819   -0.803   -0.811   -0.844   -0.897   -0.975   -1.086   -1.233   -1.405   -1.574   -1.707   -1.786   -1.807   -1.781   -1.717   -1.622   -1.514   -1.419   -1.368   -1.389   -1.496   -1.680   -1.895   -2.072   -2.158   -2.146   -2.076   -1.994   -1.927   -1.894   -1.937
 -11.283  -11.334  -11.489  -11.730  -12.064  -12.485  -12.979  -13.524  -14.102  -14.710  -15.365  -16.095  -16.931  -17.875  -18.901  -19.954  -20.973  -21.923  -22.798  -23.625  -24.449  -25.319  -26.274  -27.328  -28.465  -29.637  -30.778  -31.807  -32.650  -33.250  -33.574  -33.621  -33.423  -33.027  -32.501  -31.909  -31.299  -30.700  -30.117  -29.534  -28.933  -28.289  -27.592  -26.837  -26.025  -25.161  -24.242  -23.255  -22.181  -20.998  -19.686  -18.239  -16.664  -14.987  -13.245  -11.484   -9.749   -8.086   -6.536   -5.135   -3.921   -2.931   -2.180   -1.649   -1.296   -1.065   -0.908   -0.797   -0.719   -0.669   -0.642   -0.636   -0.648   -0.671   -0.717   -0.790   -0.900   -1.044   -1.203   -1.353   -1.474   -1.553   -1.588   -1.580   -1.535   -1.466   -1.405   -1.372   -1.387   -1.462   -1.583   -1.718   -1.815   -1.837   -1.785   -1.694   -1.602   -1.535   -1.501   -1.549
 -13.853  -14.001  -14.165  -14.388  -14.685  -15.053  -15.477  -15.940  -16.424  -16.926  -17.461  -18.052  -18.722  -19.480  -20.307  -21.169  -22.020  -22.832  -23.598  -24.339  -25.083  -25.870  -26.728  -27.668  -28.677  -29.719  -30.741  -31.693  -32.538  -33.251  -33.817  -34.217  -34.442  -34.488  -34.371  -34.125  -33.790  -33.394  -32.949  -32.450  -31.886  -31.250  -30.537  -29.752  -28.904  -27.998  -27.034  -26.002  -24.881  -23.648  -22.286  -20.784  -19.149  -17.405  -15.585  -13.730  -11.879  -10.060   -8.305   -6.650   -5.149   -3.865   -2.842   -2.087   -1.561   -1.211   -0.984   -0.839   -0.752   -0.709   -0.693   -0.692   -0.696   -0.700   -0.715   -0.751   -0.826   -0.932   -1.064   -1.196   -1.316   -1.408   -1.464   -1.485   -1.471   -1.438   -1.401   -1.377   -1.378   -1.405   -1.448   -1.488   -1.496   -1.458   -1.388   -1.318   -1.274   -1.262   -1.274   -1.346
 -16.214  -16.470  -16.653  -16.860  -17.118  -17.425  -17.771  -18.139  -18.518  -18.905  -19.310  -19.751  -20.249  -20.813  -21.435  -22.095  -22.766  -23.428  -24.073  -24.709  -25.352  -26.018  -26.724  -27.477  -28.268  -29.074  -29.867  -30.631  -31.365  -32.081  -32.788  -33.474  -34.106  -34.638  -35.022  -35.235  -35.275  -35.157  -34.899  -34.514  -34.010  -33.389  -32.662  -31.840  -30.942  -29.978  -28.954  -27.864  -26.695  -25.427  -24.043  -22.536  -20.915  -19.199  -17.422  -15.613  -13.796  -11.980  -10.173   -8.399   -6.710   -5.184   -3.894   -2.876   -2.122   -1.596   -1.252   -1.048   -0.950   -0.919   -0.928   -0.942   -0.940   -0.918   -0.890   -0.884   -0.921   -1.004   -1.118   -1.241   -1.354   -1.444   -1.503   -1.528   -1.524   -1.506   -1.480   -1.454   -1.432   -1.409   -1.380   -1.334   -1.267   -1.187   -1.116   -1.089   -1.120   -1.191   -1.270   -1.376
 -17.845  -18.188  -18.403  -18.617  -18.862  -19.137  -19.434  -19.739  -20.043  -20.344  -20.653  -20.982  -21.349  -21.764  -22.227  -22.730  -23.257  -23.795  -24.335  -24.874  -25.413  -25.951  -26.492  -27.031  -27.564  -28.087  -28.601  -29.126  -29.695  -30.345  -31.095  -31.937  -32.836  -33.729  -34.542  -35.200  -35.649  -35.864  -35.847  -35.618  -35.200  -34.616  -33.886  -33.033  -32.085  -31.060  -29.977  -28.842  -27.644  -26.372  -25.013  -23.561  -22.024  -20.420  -18.774  -17.108  -15.426  -13.721  -11.981  -10.211   -8.450   -6.775   -5.271   -4.000   -2.992   -2.247   -1.744   -1.451   -1.320   -1.298   -1.326   -1.350   -1.330   -1.258   -1.164   -1.091   -1.080   -1.137   -1.242   -1.366   -1.485   -1.576   -1.630   -1.647   -1.639   -1.618   -1.591   -1.558   -1.514   -1.451   -1.369   -1.269   -1.161   -1.068   -1.024   -1.061   -1.178   -1.340   -1.493   -1.634
 -18.506  -18.890  -19.139  -19.381  -19.642  -19.920  -20.203  -20.485  -20.756  -21.017  -21.274  -21.542  -21.836  -22.167  -22.542  -22.957  -23.403  -23.871  -24.347  -24.822  -25.284  -25.723  -26.127  -26.483  -26.784  -27.033  -27.256  -27.505  -27.853  -28.366  -29.081  -29.985  -31.027  -32.131  -33.216  -34.194  -34.979  -35.510  -35.755  -35.721  -35.433  -34.920  -34.216  -33.353  -32.369  -31.302  -30.181  -29.023  -27.831  -26.595  -25.309  -23.964  -22.565  -21.125  -19.659  -18.174  -16.666  -15.115  -13.500  -11.812  -10.078   -8.364   -6.746   -5.298   -4.076   -3.121   -2.447   -2.038   -1.847   -1.804   -1.829   -1.842   -1.785   -1.646   -1.462   -1.301   -1.218   -1.228   -1.311   -1.430   -1.548   -1.638   -1.685   -1.690   -1.670   -1.640   -1.606   -1.565   -1.507   -1.426   -1.324   -1.213   -1.112   -1.054   -1.077   -1.202   -1.420   -1.675   -1.900   -2.069
 -18.226  -18.599  -18.873  -19.150  -19.442  -19.741  -20.039  -20.327  -20.598  -20.854  -21.102  -21.354  -21.628  -21.937  -22.291  -22.690  -23.124  -23.583  -24.050  -24.508  -24.942  -25.332  -25.659  -25.900  -26.042  -26.086  -26.064  -26.048  -26.140  -26.440  -27.019  -27.879  -28.962  -30.172  -31.408  -32.572  -33.576  -34.336  -34.804  -34.961  -34.821  -34.410  -33.763  -32.920  -31.933  -30.852  -29.722  -28.574  -27.418  -26.255  -25.075  -23.870  -22.636  -21.376  -20.093  -18.786  -17.441  -16.037  -14.553  -12.977  -11.332   -9.665   -8.043   -6.529   -5.192   -4.092   -3.273   -2.740   -2.455   -2.347   -2.327   -2.300   -2.193   -1.984   -1.716   -1.465   -1.300   -1.242   -1.274   -1.357   -1.452   -1.527   -1.561   -1.553   -1.523   -1.483   -1.444   -1.401   -1.345   -1.268   -1.184   -1.108   -1.065   -1.091   -1.216   -1.454   -1.772   -2.112   -2.395   -2.584
 -17.290  -17.616  -17.898  -18.200  -18.517  -18.840  -19.160  -19.466  -19.755  -20.027  -20.288  -20.554  -20.844  -21.177  -21.561  -21.996  -22.472  -22.973  -23.478  -23.966  -24.416  -24.807  -25.113  -25.310  -25.376  -25.305  -25.127  -24.917  -24.784  -24.851  -25.217  -25.920  -26.926  -28.142  -29.447  -30.721  -31.854  -32.761  -33.378  -33.677  -33.662  -33.349  -32.773  -31.974  -31.011  -29.945  -28.834  -27.721  -26.628  -25.558  -24.501  -23.442  -22.369  -21.274  -20.149  -18.986  -17.771  -16.486  -15.116  -13.652  -12.115  -10.545   -8.992   -7.510   -6.156   -4.994   -4.079   -3.434   -3.034   -2.824   -2.723   -2.632   -2.472   -2.210   -1.881   -1.564   -1.329   -1.197   -1.159   -1.180   -1.228   -1.269   -1.283   -1.266   -1.229   -1.188   -1.150   -1.112   -1.070   -1.024   -0.985   -0.976   -1.024   -1.158   -1.398   -1.738   -2.137   -2.532   -2.842   -3.039
 -16.167  -16.438  -16.714  -17.020  -17.347  -17.681  -18.013  -18.333  -18.636  -18.925  -19.206  -19.494  -19.815  -20.186  -20.619  -21.112  -21.649  -22.211  -22.773  -23.308  -23.794  -24.210  -24.529  -24.724  -24.768  -24.654  -24.405  -24.089  -23.811  -23.698  -23.859  -24.361  -25.206  -26.328  -27.615  -28.925  -30.128  -31.120  -31.827  -32.218  -32.289  -32.053  -31.540  -30.792  -29.869  -28.840  -27.771  -26.713  -25.696  -24.724  -23.786  -22.860  -21.923  -20.960  -19.955  -18.899  -17.779  -16.584  -15.303  -13.936  -12.500  -11.033   -9.573   -8.163   -6.847   -5.682   -4.721   -3.990   -3.484   -3.167   -2.974   -2.819   -2.616   -2.322   -1.964   -1.612   -1.330   -1.142   -1.038   -0.997   -0.990   -0.992   -0.986   -0.964   -0.928   -0.890   -0.857   -0.830   -0.812   -0.803   -0.818   -0.880   -1.016   -1.243   -1.569   -1.977   -2.421   -2.835   -3.150   -3.345
 -15.282  -15.530  -15.792  -16.086  -16.402  -16.727  -17.053  -17.370  -17.675  -17.968  -18.257  -18.558  -18.897  -19.293  -19.756  -20.282  -20.855  -21.451  -22.042  -22.604  -23.111  -23.543  -23.874  -24.076  -24.123  -24.005  -23.741  -23.393  -23.058  -22.852  -22.884  -23.228  -23.911  -24.895  -26.085  -27.353  -28.557  -29.580  -30.338  -30.787  -30.912  -30.728  -30.260  -29.555  -28.676  -27.696  -26.683  -25.693  -24.754  -23.874  -23.035  -22.211  -21.377  -20.510  -19.595  -18.620  -17.575  -16.454  -15.250  -13.966  -12.617  -11.237   -9.860   -8.518   -7.248   -6.100   -5.125   -4.351   -3.783   -3.397   -3.145   -2.946   -2.716   -2.410   -2.046   -1.685   -1.383   -1.165   -1.025   -0.944   -0.904   -0.882   -0.862   -0.836   -0.804   -0.768   -0.741   -0.723   -0.719   -0.735   -0.782   -0.887   -1.068   -1.342   -1.707   -2.143   -2.596   -3.007   -3.321   -3.535
