DSAA
 100 100
 0.0 400.0
 0.0 400.0
 -148.0502 -1.910784
  -2.848   -2.531   -2.688   -2.988   -3.419   -3.913   -4.426   -4.862   -5.138   -5.197   -4.980   -4.507   -3.878   -3.223   -2.671   -2.309   -2.209   -2.386   -2.893   -3.695   -4.627   -5.388   -5.691   -5.474   -4.966   -4.509   -4.346   -4.432   -4.562   -4.570   -4.412   -4.154   -3.910   -3.695   -3.528   -3.379   -3.280   -3.297   -3.512   -3.962   -4.603   -5.307   -5.972   -6.538   -6.933   -7.073   -6.922   -6.609   -6.355   -6.275   -6.332   -6.419   -6.455   -6.430   -6.340   -6.166   -5.861   -5.455   -5.050   -4.783   -4.772   -4.924   -5.013   -4.824   -4.312   -3.646   -3.088   -2.830   -2.873   -3.102   -3.350   -3.560   -3.775   -4.012   -4.191   -4.172   -3.915   -3.554   -3.241   -3.075   -3.069   -3.178   -3.366   -3.539   -3.662   -3.771   -3.963   -4.327   -4.894   -5.616   -6.377   -7.020   -7.365   -7.263   -6.667   -5.723   -4.655   -3.702   -3.061   -3.139
  -3.030   -2.907   -3.118   -3.462   -3.907   -4.421   -4.922   -5.333   -5.577   -5.579   -5.305   -4.775   -4.082   -3.362   -2.752   -2.335   -2.185   -2.325   -2.778   -3.515   -4.374   -5.075   -5.348   -5.148   -4.670   -4.241   -4.069   -4.140   -4.280   -4.343   -4.273   -4.107   -3.903   -3.693   -3.505   -3.339   -3.240   -3.252   -3.448   -3.844   -4.396   -4.993   -5.549   -6.016   -6.359   -6.523   -6.482   -6.349   -6.297   -6.412   -6.606   -6.762   -6.814   -6.758   -6.612   -6.358   -5.953   -5.431   -4.892   -4.516   -4.398   -4.471   -4.520   -4.352   -3.904   -3.329   -2.865   -2.671   -2.745   -2.988   -3.232   -3.418   -3.598   -3.822   -3.998   -3.999   -3.773   -3.453   -3.193   -3.071   -3.099   -3.244   -3.430   -3.612   -3.758   -3.923   -4.186   -4.628   -5.284   -6.099   -6.973   -7.740   -8.170   -8.085   -7.416   -6.317   -5.067   -3.955   -3.189   -3.054
  -4.160   -4.084   -4.334   -4.720   -5.195   -5.698   -6.165   -6.510   -6.661   -6.559   -6.186   -5.568   -4.789   -3.966   -3.243   -2.712   -2.448   -2.476   -2.811   -3.390   -4.083   -4.641   -4.861   -4.705   -4.320   -3.965   -3.800   -3.837   -3.979   -4.127   -4.209   -4.193   -4.069   -3.884   -3.682   -3.523   -3.441   -3.466   -3.634   -3.942   -4.341   -4.757   -5.134   -5.451   -5.704   -5.865   -5.964   -6.079   -6.320   -6.685   -7.051   -7.290   -7.350   -7.253   -7.023   -6.651   -6.118   -5.465   -4.803   -4.302   -4.051   -4.002   -3.982   -3.837   -3.508   -3.111   -2.806   -2.702   -2.812   -3.026   -3.235   -3.393   -3.536   -3.726   -3.904   -3.952   -3.808   -3.593   -3.445   -3.421   -3.516   -3.672   -3.843   -3.997   -4.159   -4.400   -4.773   -5.334   -6.091   -7.036   -8.078   -9.044   -9.649   -9.631   -8.915   -7.661   -6.204   -4.905   -4.011   -3.789
  -5.713   -5.675   -5.947   -6.348   -6.811   -7.278   -7.661   -7.917   -7.964   -7.760   -7.298   -6.592   -5.719   -4.783   -3.917   -3.229   -2.795   -2.649   -2.781   -3.142   -3.601   -3.983   -4.147   -4.049   -3.797   -3.542   -3.402   -3.406   -3.535   -3.751   -3.956   -4.069   -4.040   -3.900   -3.739   -3.637   -3.624   -3.697   -3.853   -4.080   -4.358   -4.643   -4.893   -5.106   -5.272   -5.413   -5.556   -5.776   -6.134   -6.595   -7.015   -7.266   -7.310   -7.161   -6.878   -6.453   -5.906   -5.269   -4.651   -4.157   -3.868   -3.737   -3.636   -3.482   -3.248   -3.005   -2.833   -2.796   -2.890   -3.059   -3.234   -3.363   -3.494   -3.674   -3.867   -3.976   -3.956   -3.891   -3.889   -3.981   -4.126   -4.261   -4.367   -4.448   -4.580   -4.839   -5.279   -5.908   -6.735   -7.775   -8.969  -10.140  -10.956  -11.101  -10.457   -9.199   -7.697   -6.335   -5.389   -5.129
  -7.389   -7.366   -7.625   -7.992   -8.388   -8.769   -9.070   -9.224   -9.185   -8.912   -8.396   -7.653   -6.726   -5.717   -4.737   -3.890   -3.251   -2.878   -2.768   -2.862   -3.074   -3.273   -3.379   -3.341   -3.208   -3.053   -2.939   -2.908   -3.005   -3.216   -3.459   -3.629   -3.668   -3.603   -3.542   -3.541   -3.623   -3.761   -3.926   -4.131   -4.361   -4.617   -4.859   -5.056   -5.199   -5.300   -5.398   -5.550   -5.799   -6.121   -6.412   -6.579   -6.573   -6.410   -6.145   -5.792   -5.380   -4.952   -4.549   -4.217   -3.978   -3.790   -3.593   -3.372   -3.155   -2.985   -2.898   -2.889   -2.963   -3.088   -3.232   -3.372   -3.525   -3.709   -3.904   -4.066   -4.172   -4.277   -4.436   -4.633   -4.791   -4.866   -4.863   -4.841   -4.906   -5.145   -5.578   -6.207   -7.041   -8.125   -9.440  -10.782  -11.804  -12.153  -11.719  -10.658   -9.328   -8.091   -7.223   -6.979
  -8.930   -8.902   -9.101   -9.382   -9.686   -9.960  -10.152  -10.222  -10.138   -9.853   -9.343   -8.623   -7.717   -6.704   -5.677   -4.726   -3.930   -3.349   -2.989   -2.821   -2.786   -2.811   -2.844   -2.832   -2.779   -2.690   -2.598   -2.532   -2.569   -2.716   -2.924   -3.086   -3.154   -3.170   -3.202   -3.286   -3.418   -3.580   -3.757   -3.963   -4.199   -4.477   -4.768   -5.020   -5.210   -5.327   -5.388   -5.423   -5.462   -5.532   -5.599   -5.632   -5.575   -5.451   -5.276   -5.076   -4.882   -4.713   -4.553   -4.399   -4.205   -3.946   -3.630   -3.312   -3.058   -2.909   -2.865   -2.889   -2.971   -3.105   -3.279   -3.467   -3.651   -3.830   -4.001   -4.172   -4.372   -4.616   -4.907   -5.159   -5.299   -5.308   -5.235   -5.166   -5.193   -5.414   -5.830   -6.445   -7.281   -8.408   -9.820  -11.306  -12.505  -13.073  -12.889  -12.118  -11.059  -10.022   -9.276   -9.049
 -10.158  -10.107  -10.228  -10.411  -10.603  -10.761  -10.859  -10.871  -10.768  -10.506  -10.056   -9.412   -8.593   -7.660   -6.666   -5.713   -4.847   -4.129   -3.577   -3.196   -2.955   -2.832   -2.776   -2.760   -2.737   -2.683   -2.596   -2.518   -2.497   -2.578   -2.721   -2.860   -2.945   -3.003   -3.043   -3.092   -3.174   -3.278   -3.413   -3.597   -3.821   -4.089   -4.390   -4.682   -4.938   -5.127   -5.222   -5.215   -5.133   -5.021   -4.927   -4.846   -4.787   -4.726   -4.674   -4.621   -4.582   -4.564   -4.525   -4.422   -4.201   -3.867   -3.466   -3.083   -2.813   -2.694   -2.699   -2.785   -2.920   -3.117   -3.360   -3.622   -3.840   -3.996   -4.129   -4.294   -4.546   -4.868   -5.192   -5.421   -5.513   -5.493   -5.433   -5.429   -5.552   -5.831   -6.281   -6.923   -7.796   -8.993  -10.513  -12.137  -13.519  -14.300  -14.372  -13.859  -13.000  -12.078  -11.352  -11.107
 -11.022  -10.937  -10.985  -11.078  -11.159  -11.223  -11.253  -11.223  -11.118  -10.898  -10.517   -9.972   -9.268   -8.465   -7.594   -6.713   -5.863   -5.090   -4.433   -3.904   -3.522   -3.280   -3.163   -3.135   -3.127   -3.089   -3.023   -2.970   -2.965   -3.036   -3.163   -3.297   -3.388   -3.413   -3.369   -3.272   -3.182   -3.126   -3.148   -3.239   -3.376   -3.557   -3.783   -4.048   -4.327   -4.575   -4.744   -4.792   -4.719   -4.563   -4.402   -4.300   -4.272   -4.303   -4.347   -4.377   -4.382   -4.350   -4.278   -4.121   -3.852   -3.483   -3.076   -2.740   -2.540   -2.495   -2.550   -2.689   -2.887   -3.145   -3.458   -3.782   -4.031   -4.196   -4.324   -4.503   -4.776   -5.089   -5.357   -5.499   -5.522   -5.505   -5.558   -5.733   -6.049   -6.489   -7.043   -7.741   -8.672   -9.936  -11.554  -13.323  -14.888  -15.920  -16.250  -15.949  -15.206  -14.283  -13.483  -13.173
 -11.559  -11.447  -11.439  -11.457  -11.470  -11.471  -11.448  -11.393  -11.290  -11.106  -10.785  -10.323   -9.728   -9.049   -8.311   -7.530   -6.741   -5.964   -5.260   -4.649   -4.186   -3.885   -3.752   -3.724   -3.743   -3.753   -3.764   -3.814   -3.928   -4.094   -4.284   -4.443   -4.510   -4.450   -4.244   -3.939   -3.610   -3.352   -3.199   -3.140   -3.147   -3.185   -3.279   -3.436   -3.651   -3.894   -4.101   -4.215   -4.191   -4.070   -3.908   -3.815   -3.822   -3.917   -4.040   -4.108   -4.092   -4.002   -3.853   -3.646   -3.370   -3.054   -2.775   -2.586   -2.527   -2.567   -2.657   -2.781   -2.964   -3.224   -3.551   -3.896   -4.184   -4.404   -4.602   -4.843   -5.128   -5.400   -5.569   -5.616   -5.601   -5.642   -5.851   -6.244   -6.772   -7.365   -8.010   -8.756   -9.713  -11.022  -12.692  -14.573  -16.315  -17.583  -18.186  -18.115  -17.515  -16.623  -15.785  -15.415
 -11.847  -11.714  -11.679  -11.653  -11.635  -11.603  -11.559  -11.503  -11.406  -11.244  -10.961  -10.552  -10.026   -9.425   -8.766   -8.055   -7.293   -6.523   -5.789   -5.140   -4.637   -4.325   -4.208   -4.229   -4.312   -4.429   -4.596   -4.845   -5.171   -5.539   -5.855   -6.035   -6.043   -5.847   -5.454   -4.936   -4.408   -3.972   -3.667   -3.471   -3.329   -3.230   -3.181   -3.194   -3.293   -3.449   -3.617   -3.728   -3.716   -3.587   -3.414   -3.295   -3.293   -3.411   -3.566   -3.668   -3.670   -3.588   -3.454   -3.285   -3.095   -2.928   -2.844   -2.866   -2.966   -3.059   -3.110   -3.145   -3.217   -3.397   -3.674   -3.989   -4.293   -4.583   -4.880   -5.207   -5.542   -5.807   -5.944   -5.981   -6.024   -6.180   -6.552   -7.093   -7.728   -8.375   -9.023   -9.751  -10.691  -11.991  -13.674  -15.604  -17.453  -18.902  -19.747  -19.946  -19.594  -18.898  -18.185  -17.835
 -11.972  -11.830  -11.777  -11.745  -11.714  -11.684  -11.657  -11.612  -11.534  -11.390  -11.133  -10.752  -10.257   -9.672   -9.013   -8.297   -7.510   -6.705   -5.926   -5.241   -4.728   -4.438   -4.367   -4.463   -4.680   -4.977   -5.374   -5.887   -6.482   -7.064   -7.494   -7.678   -7.584   -7.226   -6.661   -5.991   -5.347   -4.817   -4.423   -4.124   -3.885   -3.682   -3.517   -3.417   -3.383   -3.425   -3.493   -3.529   -3.464   -3.273   -3.013   -2.810   -2.740   -2.822   -2.985   -3.137   -3.230   -3.262   -3.251   -3.220   -3.190   -3.215   -3.341   -3.551   -3.762   -3.871   -3.830   -3.719   -3.655   -3.723   -3.916   -4.178   -4.462   -4.771   -5.132   -5.543   -5.946   -6.285   -6.516   -6.687   -6.887   -7.203   -7.680   -8.258   -8.854   -9.414   -9.959  -10.594  -11.479  -12.741  -14.402  -16.311  -18.192  -19.728  -20.733  -21.168  -21.119  -20.756  -20.320  -20.082
 -12.018  -11.862  -11.814  -11.775  -11.750  -11.739  -11.726  -11.712  -11.658  -11.547  -11.321  -10.967  -10.479   -9.885   -9.181   -8.384   -7.510   -6.618   -5.768   -5.041   -4.517   -4.250   -4.247   -4.468   -4.856   -5.387   -6.049   -6.832   -7.661   -8.391   -8.868   -9.009   -8.791   -8.286   -7.600   -6.866   -6.207   -5.676   -5.239   -4.872   -4.547   -4.277   -4.063   -3.899   -3.793   -3.747   -3.728   -3.676   -3.511   -3.212   -2.839   -2.515   -2.346   -2.365   -2.513   -2.725   -2.934   -3.121   -3.282   -3.419   -3.570   -3.782   -4.067   -4.394   -4.656   -4.732   -4.605   -4.402   -4.276   -4.315   -4.491   -4.719   -4.962   -5.230   -5.584   -6.027   -6.502   -6.958   -7.366   -7.741   -8.129   -8.574   -9.077   -9.585  -10.040  -10.419  -10.808  -11.321  -12.127  -13.319  -14.907  -16.753  -18.588  -20.128  -21.204  -21.799  -22.001  -21.954  -21.810  -21.709
 -12.013  -11.860  -11.810  -11.772  -11.753  -11.752  -11.761  -11.768  -11.741  -11.658  -11.480  -11.170  -10.712  -10.107   -9.356   -8.462   -7.481   -6.474   -5.533   -4.753   -4.213   -3.967   -4.023   -4.361   -4.927   -5.678   -6.575   -7.552   -8.508   -9.284   -9.746   -9.810   -9.496   -8.902   -8.183   -7.486   -6.895   -6.388   -5.916   -5.461   -5.047   -4.724   -4.513   -4.370   -4.270   -4.211   -4.147   -4.027   -3.781   -3.389   -2.925   -2.507   -2.256   -2.216   -2.345   -2.593   -2.885   -3.195   -3.492   -3.775   -4.076   -4.416   -4.800   -5.176   -5.439   -5.495   -5.370   -5.226   -5.224   -5.400   -5.675   -5.929   -6.142   -6.342   -6.638   -7.049   -7.556   -8.106   -8.647   -9.168   -9.663  -10.144  -10.600  -10.992  -11.275  -11.481  -11.710  -12.106  -12.812  -13.889  -15.346  -17.059  -18.792  -20.288  -21.376  -22.051  -22.402  -22.547  -22.588  -22.592
 -11.996  -11.838  -11.782  -11.748  -11.729  -11.730  -11.744  -11.758  -11.754  -11.700  -11.573  -11.330  -10.925  -10.346   -9.579   -8.631   -7.552   -6.450   -5.428   -4.586   -4.013   -3.762   -3.840   -4.243   -4.914   -5.800   -6.827   -7.892   -8.873   -9.629  -10.043  -10.049   -9.687   -9.086   -8.426   -7.835   -7.335   -6.870   -6.346   -5.795   -5.304   -4.962   -4.786   -4.716   -4.699   -4.683   -4.635   -4.491   -4.195   -3.744   -3.217   -2.747   -2.447   -2.354   -2.464   -2.721   -3.060   -3.444   -3.819   -4.203   -4.620   -5.066   -5.533   -5.954   -6.247   -6.359   -6.375   -6.453   -6.740   -7.187   -7.640   -7.972   -8.174   -8.328   -8.562   -8.924   -9.396   -9.936  -10.490  -11.008  -11.480  -11.892  -12.245  -12.504  -12.656  -12.734  -12.856  -13.156  -13.741  -14.656  -15.912  -17.424  -18.998  -20.406  -21.483  -22.187  -22.596  -22.804  -22.901  -22.955
 -11.971  -11.810  -11.752  -11.714  -11.693  -11.691  -11.699  -11.710  -11.711  -11.682  -11.597  -11.424  -11.100  -10.584   -9.857   -8.913   -7.822   -6.678   -5.615   -4.728   -4.109   -3.796   -3.820   -4.160   -4.793   -5.662   -6.678   -7.735   -8.703   -9.447   -9.841   -9.834   -9.483   -8.937   -8.379   -7.919   -7.523   -7.093   -6.548   -5.959   -5.455   -5.159   -5.070   -5.115   -5.199   -5.246   -5.215   -5.045   -4.698   -4.186   -3.609   -3.095   -2.753   -2.623   -2.703   -2.963   -3.327   -3.754   -4.212   -4.717   -5.278   -5.881   -6.497   -7.052   -7.472   -7.751   -8.013   -8.402   -8.998   -9.687  -10.292  -10.689  -10.890  -11.038  -11.237  -11.544  -11.933  -12.368  -12.801  -13.202  -13.548  -13.828  -14.059  -14.209  -14.276  -14.290  -14.354  -14.575  -15.033  -15.758  -16.778  -18.028  -19.381  -20.642  -21.657  -22.363  -22.783  -22.993  -23.084  -23.143
 -11.940  -11.775  -11.726  -11.691  -11.671  -11.660  -11.659  -11.655  -11.656  -11.632  -11.582  -11.461  -11.222  -10.812  -10.185   -9.339   -8.312   -7.219   -6.165   -5.259   -4.580   -4.157   -4.015   -4.170   -4.603   -5.296   -6.193   -7.191   -8.161   -8.941   -9.382   -9.409   -9.091   -8.592   -8.117   -7.753   -7.449   -7.091   -6.618   -6.119   -5.735   -5.573   -5.631   -5.802   -5.964   -6.046   -5.986   -5.740   -5.292   -4.678   -4.011   -3.416   -3.001   -2.819   -2.882   -3.160   -3.590   -4.125   -4.741   -5.455   -6.269   -7.151   -8.027   -8.827   -9.474   -9.987  -10.490  -11.103  -11.860  -12.640  -13.267  -13.661  -13.869  -14.018  -14.206  -14.465  -14.753  -15.046  -15.324  -15.564  -15.749  -15.895  -16.009  -16.088  -16.110  -16.109  -16.142  -16.303  -16.642  -17.192  -17.975  -18.947  -20.025  -21.070  -21.955  -22.618  -23.040  -23.260  -23.354  -23.416
 -11.925  -11.759  -11.712  -11.679  -11.661  -11.652  -11.639  -11.625  -11.614  -11.591  -11.557  -11.485  -11.325  -11.033  -10.548   -9.862   -8.991   -8.024   -7.042   -6.154   -5.402   -4.842   -4.490   -4.370   -4.501   -4.916   -5.624   -6.546   -7.534   -8.395   -8.923   -9.010   -8.715   -8.226   -7.766   -7.440   -7.217   -6.980   -6.692   -6.412   -6.266   -6.332   -6.562   -6.847   -7.062   -7.119   -6.981   -6.611   -6.009   -5.235   -4.410   -3.678   -3.154   -2.907   -2.976   -3.325   -3.910   -4.669   -5.584   -6.649   -7.835   -9.073  -10.285  -11.361  -12.234  -12.931  -13.552  -14.203  -14.913  -15.595  -16.121  -16.449  -16.637  -16.785  -16.967  -17.183  -17.399  -17.580  -17.726  -17.820  -17.873  -17.905  -17.939  -17.977  -17.995  -17.993  -18.016  -18.123  -18.366  -18.775  -19.353  -20.072  -20.859  -21.643  -22.343  -22.923  -23.345  -23.603  -23.739  -23.819
 -11.926  -11.759  -11.705  -11.682  -11.665  -11.653  -11.636  -11.611  -11.596  -11.574  -11.554  -11.508  -11.421  -11.232  -10.907  -10.411   -9.745   -8.954   -8.099   -7.258   -6.487   -5.827   -5.283   -4.892   -4.711   -4.826   -5.306   -6.118   -7.118   -8.058   -8.666   -8.806   -8.524   -8.014   -7.529   -7.208   -7.049   -6.966   -6.905   -6.905   -7.036   -7.324   -7.708   -8.080   -8.312   -8.336   -8.105   -7.610   -6.861   -5.914   -4.890   -3.977   -3.312   -3.004   -3.111   -3.627   -4.476   -5.601   -6.931   -8.418   -9.999  -11.579  -13.051  -14.304  -15.287  -16.032  -16.614  -17.148  -17.671  -18.150  -18.518  -18.745  -18.894  -19.030  -19.193  -19.378  -19.549  -19.670  -19.726  -19.726  -19.690  -19.650  -19.642  -19.659  -19.683  -19.695  -19.711  -19.776  -19.935  -20.233  -20.659  -21.172  -21.709  -22.229  -22.728  -23.198  -23.611  -23.929  -24.137  -24.248
 -11.932  -11.764  -11.718  -11.690  -11.671  -11.655  -11.639  -11.614  -11.599  -11.576  -11.564  -11.547  -11.504  -11.409  -11.216  -10.897  -10.438   -9.838   -9.151   -8.420   -7.696   -6.998   -6.353   -5.779   -5.353   -5.205   -5.453   -6.123   -7.068   -8.017   -8.679   -8.869   -8.616   -8.112   -7.623   -7.315   -7.210   -7.260   -7.392   -7.615   -7.949   -8.379   -8.838   -9.230   -9.462   -9.464   -9.199   -8.649   -7.808   -6.729   -5.536   -4.427   -3.607   -3.250   -3.453   -4.201   -5.412   -6.958   -8.729  -10.615  -12.502  -14.285  -15.846  -17.112  -18.047  -18.698  -19.144  -19.495  -19.804  -20.084  -20.307  -20.455  -20.560  -20.667  -20.801  -20.956  -21.094  -21.187  -21.206  -21.153  -21.065  -20.988  -20.956  -20.973  -21.009  -21.024  -21.030  -21.057  -21.154  -21.361  -21.675  -22.039  -22.379  -22.684  -22.993  -23.347  -23.741  -24.108  -24.388  -24.538
 -11.941  -11.770  -11.725  -11.700  -11.688  -11.667  -11.651  -11.631  -11.612  -11.598  -11.592  -11.584  -11.574  -11.538  -11.439  -11.257  -10.965  -10.557  -10.052   -9.474   -8.869   -8.238   -7.589   -6.940   -6.375   -6.038   -6.079   -6.572   -7.389   -8.280   -8.934   -9.173   -8.992   -8.573   -8.149   -7.892   -7.837   -7.952   -8.184   -8.505   -8.899   -9.345   -9.782  -10.134  -10.338  -10.337  -10.086   -9.563   -8.730   -7.607   -6.310   -5.045   -4.090   -3.708   -4.032   -5.040   -6.609   -8.551  -10.683  -12.853  -14.908  -16.726  -18.216  -19.346  -20.123  -20.608  -20.895  -21.083  -21.231  -21.377  -21.507  -21.606  -21.678  -21.759  -21.859  -21.988  -22.106  -22.177  -22.168  -22.088  -21.972  -21.886  -21.854  -21.877  -21.908  -21.917  -21.898  -21.889  -21.936  -22.075  -22.308  -22.569  -22.773  -22.923  -23.085  -23.334  -23.690  -24.078  -24.399  -24.589
 -11.965  -11.792  -11.746  -11.720  -11.701  -11.690  -11.672  -11.656  -11.639  -11.627  -11.622  -11.618  -11.620  -11.612  -11.570  -11.474  -11.310  -11.062  -10.733  -10.339   -9.888   -9.380   -8.811   -8.193   -7.595   -7.157   -7.051   -7.355   -7.991   -8.754   -9.367   -9.651   -9.585   -9.304   -8.999   -8.819   -8.805   -8.935   -9.160   -9.457   -9.798  -10.156  -10.491  -10.760  -10.914  -10.919  -10.715  -10.259   -9.497   -8.408   -7.084   -5.733   -4.692   -4.282   -4.708   -5.943   -7.800  -10.034  -12.422  -14.755  -16.859  -18.607  -19.940  -20.860  -21.437  -21.757  -21.916  -22.001  -22.067  -22.143  -22.232  -22.305  -22.369  -22.434  -22.511  -22.610  -22.697  -22.735  -22.707  -22.615  -22.500  -22.421  -22.397  -22.423  -22.441  -22.421  -22.368  -22.320  -22.325  -22.426  -22.601  -22.782  -22.904  -22.963  -23.027  -23.193  -23.488  -23.857  -24.185  -24.389
 -11.987  -11.810  -11.764  -11.742  -11.723  -11.710  -11.696  -11.684  -11.672  -11.657  -11.650  -11.646  -11.647  -11.642  -11.625  -11.580  -11.502  -11.378  -11.197  -10.958  -10.665  -10.292   -9.849   -9.333   -8.794   -8.355   -8.164   -8.310   -8.754   -9.351   -9.883  -10.186  -10.231  -10.103   -9.938   -9.837   -9.845   -9.940  -10.100  -10.302  -10.537  -10.772  -10.986  -11.157  -11.256  -11.245  -11.079  -10.692  -10.015   -9.005   -7.702   -6.319   -5.217   -4.788   -5.262   -6.636   -8.680  -11.108  -13.653  -16.084  -18.200  -19.857  -21.026  -21.760  -22.167  -22.354  -22.435  -22.472  -22.503  -22.557  -22.625  -22.689  -22.748  -22.806  -22.866  -22.934  -22.981  -22.991  -22.949  -22.861  -22.768  -22.708  -22.697  -22.714  -22.704  -22.649  -22.560  -22.478  -22.462  -22.531  -22.665  -22.794  -22.867  -22.884  -22.902  -23.012  -23.242  -23.555  -23.849  -24.047
 -12.013  -11.833  -11.783  -11.754  -11.734  -11.732  -11.721  -11.710  -11.693  -11.678  -11.671  -11.664  -11.658  -11.652  -11.644  -11.628  -11.596  -11.547  -11.468  -11.347  -11.170  -10.930  -10.612  -10.227   -9.811   -9.446   -9.239   -9.274   -9.552   -9.976  -10.401  -10.695  -10.810  -10.794  -10.727  -10.685  -10.690  -10.738  -10.821  -10.927  -11.052  -11.183  -11.292  -11.377  -11.418  -11.378  -11.210  -10.853  -10.222   -9.264   -8.000   -6.611   -5.475   -5.010   -5.487   -6.905   -9.048  -11.603  -14.282  -16.807  -18.960  -20.585  -21.651  -22.256  -22.539  -22.651  -22.686  -22.707  -22.730  -22.773  -22.823  -22.874  -22.918  -22.959  -22.996  -23.028  -23.049  -23.041  -23.000  -22.939  -22.874  -22.835  -22.832  -22.842  -22.812  -22.738  -22.628  -22.538  -22.509  -22.555  -22.642  -22.727  -22.772  -22.781  -22.795  -22.877  -23.043  -23.286  -23.517  -23.688
 -12.041  -11.852  -11.794  -11.762  -11.742  -11.736  -11.727  -11.719  -11.703  -11.685  -11.673  -11.667  -11.666  -11.661  -11.652  -11.640  -11.630  -11.616  -11.592  -11.535  -11.441  -11.298  -11.095  -10.848  -10.572  -10.312  -10.144  -10.126  -10.274  -10.561  -10.871  -11.115  -11.247  -11.279  -11.265  -11.245  -11.235  -11.246  -11.273  -11.309  -11.360  -11.409  -11.452  -11.470  -11.446  -11.347  -11.124  -10.716  -10.062   -9.098   -7.845   -6.466   -5.316   -4.822   -5.264   -6.670   -8.852  -11.512  -14.342  -17.026  -19.287  -20.947  -21.985  -22.525  -22.744  -22.810  -22.827  -22.840  -22.865  -22.895  -22.924  -22.941  -22.948  -22.957  -22.965  -22.973  -22.974  -22.966  -22.947  -22.918  -22.888  -22.868  -22.870  -22.874  -22.847  -22.783  -22.696  -22.625  -22.595  -22.612  -22.652  -22.692  -22.716  -22.725  -22.753  -22.819  -22.941  -23.111  -23.277  -23.421
 -12.036  -11.845  -11.794  -11.763  -11.742  -11.727  -11.716  -11.707  -11.696  -11.678  -11.663  -11.661  -11.661  -11.662  -11.645  -11.630  -11.622  -11.617  -11.610  -11.589  -11.540  -11.456  -11.352  -11.219  -11.070  -10.917  -10.803  -10.776  -10.854  -11.027  -11.238  -11.417  -11.525  -11.562  -11.562  -11.540  -11.522  -11.504  -11.498  -11.495  -11.506  -11.506  -11.495  -11.458  -11.354  -11.147  -10.802  -10.265   -9.495   -8.458   -7.185   -5.841   -4.735   -4.240   -4.632   -5.996   -8.192  -10.954  -13.971  -16.864  -19.305  -21.073  -22.144  -22.668  -22.858  -22.894  -22.901  -22.918  -22.942  -22.961  -22.962  -22.944  -22.916  -22.887  -22.868  -22.861  -22.855  -22.859  -22.862  -22.865  -22.862  -22.851  -22.846  -22.847  -22.845  -22.826  -22.802  -22.775  -22.758  -22.756  -22.749  -22.745  -22.738  -22.746  -22.776  -22.835  -22.926  -23.041  -23.161  -23.277
 -12.015  -11.822  -11.771  -11.740  -11.719  -11.710  -11.707  -11.697  -11.685  -11.664  -11.652  -11.648  -11.645  -11.638  -11.624  -11.601  -11.582  -11.574  -11.576  -11.567  -11.544  -11.506  -11.465  -11.406  -11.346  -11.275  -11.216  -11.197  -11.241  -11.342  -11.469  -11.584  -11.662  -11.683  -11.675  -11.650  -11.624  -11.600  -11.578  -11.562  -11.548  -11.520  -11.459  -11.339  -11.127  -10.767  -10.231   -9.484   -8.533   -7.394   -6.122   -4.858   -3.861   -3.427   -3.808   -5.112   -7.285  -10.133  -13.334  -16.459  -19.109  -21.021  -22.170  -22.707  -22.875  -22.891  -22.890  -22.910  -22.940  -22.957  -22.942  -22.905  -22.855  -22.813  -22.791  -22.781  -22.779  -22.788  -22.801  -22.815  -22.817  -22.806  -22.796  -22.790  -22.809  -22.846  -22.890  -22.925  -22.946  -22.941  -22.913  -22.874  -22.841  -22.831  -22.850  -22.894  -22.952  -23.031  -23.120  -23.216
 -12.000  -11.803  -11.752  -11.727  -11.713  -11.704  -11.697  -11.694  -11.678  -11.659  -11.640  -11.628  -11.621  -11.611  -11.589  -11.563  -11.540  -11.533  -11.531  -11.539  -11.535  -11.530  -11.515  -11.495  -11.473  -11.442  -11.413  -11.406  -11.440  -11.496  -11.566  -11.640  -11.684  -11.688  -11.676  -11.653  -11.628  -11.606  -11.591  -11.571  -11.536  -11.467  -11.341  -11.107  -10.733  -10.170   -9.394   -8.418   -7.282   -6.063   -4.857   -3.755   -2.954   -2.652   -3.048   -4.291   -6.409   -9.300  -12.633  -15.947  -18.781  -20.835  -22.063  -22.626  -22.785  -22.786  -22.778  -22.805  -22.846  -22.862  -22.849  -22.806  -22.769  -22.749  -22.750  -22.755  -22.756  -22.757  -22.755  -22.763  -22.763  -22.746  -22.724  -22.711  -22.740  -22.801  -22.892  -22.983  -23.052  -23.072  -23.056  -23.019  -22.976  -22.948  -22.941  -22.953  -22.981  -23.027  -23.093  -23.174
 -12.031  -11.833  -11.788  -11.769  -11.756  -11.750  -11.747  -11.744  -11.732  -11.706  -11.679  -11.654  -11.640  -11.619  -11.595  -11.570  -11.554  -11.558  -11.568  -11.585  -11.595  -11.598  -11.590  -11.574  -11.545  -11.517  -11.489  -11.476  -11.492  -11.524  -11.566  -11.612  -11.634  -11.635  -11.625  -11.610  -11.596  -11.583  -11.574  -11.546  -11.479  -11.348  -11.112  -10.721  -10.131   -9.329   -8.312   -7.140   -5.901   -4.710   -3.656   -2.807   -2.260   -2.131   -2.573   -3.767   -5.816   -8.673  -12.054  -15.471  -18.413  -20.563  -21.854  -22.446  -22.606  -22.596  -22.581  -22.607  -22.649  -22.668  -22.652  -22.630  -22.623  -22.644  -22.684  -22.713  -22.716  -22.697  -22.674  -22.665  -22.662  -22.642  -22.617  -22.591  -22.602  -22.661  -22.763  -22.874  -22.974  -23.043  -23.070  -23.067  -23.047  -23.022  -22.996  -22.974  -22.961  -22.971  -23.005  -23.068
 -12.238  -12.031  -11.992  -11.968  -11.961  -11.947  -11.946  -11.941  -11.930  -11.902  -11.868  -11.833  -11.810  -11.786  -11.765  -11.749  -11.756  -11.767  -11.798  -11.822  -11.840  -11.837  -11.817  -11.771  -11.702  -11.633  -11.566  -11.517  -11.496  -11.507  -11.535  -11.561  -11.578  -11.580  -11.575  -11.570  -11.567  -11.564  -11.548  -11.494  -11.368  -11.127  -10.729  -10.134   -9.307   -8.259   -7.055   -5.793   -4.589   -3.559   -2.760   -2.218   -1.944   -1.993   -2.498   -3.645   -5.610   -8.389  -11.715  -15.116  -18.070  -20.244  -21.564  -22.174  -22.337  -22.316  -22.285  -22.295  -22.323  -22.333  -22.319  -22.316  -22.335  -22.392  -22.463  -22.513  -22.516  -22.487  -22.447  -22.424  -22.421  -22.414  -22.393  -22.362  -22.351  -22.380  -22.450  -22.546  -22.651  -22.751  -22.829  -22.879  -22.907  -22.909  -22.885  -22.844  -22.800  -22.767  -22.769  -22.820
 -12.775  -12.566  -12.516  -12.486  -12.473  -12.456  -12.444  -12.435  -12.423  -12.396  -12.365  -12.334  -12.302  -12.286  -12.278  -12.279  -12.295  -12.322  -12.358  -12.390  -12.406  -12.391  -12.338  -12.228  -12.077  -11.909  -11.747  -11.621  -11.544  -11.519  -11.520  -11.539  -11.553  -11.562  -11.564  -11.561  -11.564  -11.559  -11.514  -11.395  -11.156  -10.756  -10.157   -9.324   -8.260   -7.037   -5.752   -4.529   -3.502   -2.752   -2.295   -2.089   -2.087   -2.306   -2.867   -3.974   -5.824   -8.456  -11.628  -14.879  -17.725  -19.834  -21.126  -21.734  -21.896  -21.864  -21.812  -21.790  -21.787  -21.777  -21.761  -21.762  -21.796  -21.861  -21.933  -21.981  -21.987  -21.956  -21.922  -21.906  -21.913  -21.926  -21.919  -21.891  -21.861  -21.850  -21.870  -21.925  -22.007  -22.105  -22.213  -22.305  -22.378  -22.420  -22.422  -22.387  -22.331  -22.280  -22.264  -22.302
 -13.786  -13.567  -13.506  -13.466  -13.435  -13.406  -13.391  -13.381  -13.370  -13.347  -13.328  -13.304  -13.288  -13.279  -13.274  -13.287  -13.307  -13.341  -13.376  -13.406  -13.411  -13.375  -13.265  -13.056  -12.771  -12.438  -12.110  -11.849  -11.672  -11.586  -11.562  -11.566  -11.579  -11.588  -11.593  -11.589  -11.587  -11.552  -11.455  -11.232  -10.838  -10.234   -9.398   -8.341   -7.117   -5.820   -4.575   -3.517   -2.761   -2.346   -2.252   -2.392   -2.671   -3.073   -3.697   -4.750   -6.438   -8.821  -11.700  -14.657  -17.255  -19.190  -20.383  -20.941  -21.090  -21.059  -20.996  -20.944  -20.907  -20.879  -20.855  -20.851  -20.878  -20.920  -20.966  -20.997  -21.003  -20.984  -20.960  -20.962  -20.992  -21.017  -21.026  -21.002  -20.960  -20.918  -20.898  -20.906  -20.949  -21.031  -21.130  -21.235  -21.333  -21.406  -21.443  -21.434  -21.393  -21.355  -21.342  -21.391
 -15.286  -15.068  -14.996  -14.942  -14.891  -14.860  -14.838  -14.828  -14.825  -14.817  -14.808  -14.798  -14.791  -14.785  -14.784  -14.798  -14.814  -14.844  -14.874  -14.894  -14.887  -14.810  -14.620  -14.278  -13.795  -13.224  -12.654  -12.188  -11.866  -11.694  -11.623  -11.610  -11.617  -11.625  -11.628  -11.623  -11.605  -11.540  -11.371  -11.028  -10.448   -9.618   -8.566   -7.348   -6.061   -4.819   -3.731   -2.905   -2.424   -2.313   -2.544   -3.007   -3.574   -4.182   -4.898   -5.886   -7.348   -9.367  -11.800  -14.311  -16.519  -18.166  -19.183  -19.657  -19.781  -19.751  -19.693  -19.642  -19.593  -19.551  -19.519  -19.507  -19.510  -19.524  -19.537  -19.550  -19.550  -19.537  -19.535  -19.547  -19.577  -19.609  -19.619  -19.602  -19.558  -19.506  -19.466  -19.451  -19.465  -19.518  -19.590  -19.677  -19.772  -19.854  -19.911  -19.931  -19.927  -19.918  -19.929  -20.015
 -17.106  -16.910  -16.832  -16.771  -16.722  -16.686  -16.670  -16.667  -16.675  -16.682  -16.678  -16.670  -16.662  -16.654  -16.651  -16.657  -16.672  -16.693  -16.715  -16.721  -16.689  -16.566  -16.277  -15.767  -15.038  -14.168  -13.302  -12.580  -12.078  -11.793  -11.673  -11.638  -11.633  -11.636  -11.636  -11.629  -11.606  -11.517  -11.281  -10.820  -10.082   -9.067   -7.856   -6.572   -5.342   -4.251   -3.382   -2.784   -2.506   -2.603   -3.059   -3.773   -4.607   -5.432   -6.240   -7.147   -8.338   -9.919  -11.806  -13.763  -15.488  -16.773  -17.554  -17.907  -17.996  -17.977  -17.944  -17.915  -17.883  -17.842  -17.809  -17.790  -17.778  -17.775  -17.766  -17.767  -17.758  -17.752  -17.753  -17.765  -17.786  -17.803  -17.805  -17.788  -17.752  -17.708  -17.676  -17.663  -17.669  -17.700  -17.745  -17.805  -17.868  -17.931  -17.984  -18.018  -18.039  -18.067  -18.113  -18.242
 -18.979  -18.812  -18.740  -18.682  -18.641  -18.619  -18.607  -18.609  -18.623  -18.634  -18.634  -18.622  -18.606  -18.586  -18.578  -18.585  -18.598  -18.615  -18.628  -18.623  -18.568  -18.387  -17.989  -17.301  -16.317  -15.142  -13.960  -12.962  -12.263  -11.860  -11.682  -11.628  -11.615  -11.613  -11.618  -11.614  -11.585  -11.479  -11.208  -10.684   -9.851   -8.742   -7.491   -6.248   -5.162   -4.275   -3.612   -3.181   -3.017   -3.200   -3.757   -4.610   -5.622   -6.601   -7.474   -8.286   -9.201  -10.334  -11.673  -13.066  -14.292  -15.193  -15.724  -15.941  -15.990  -15.983  -15.984  -15.998  -16.002  -15.988  -15.968  -15.948  -15.934  -15.927  -15.919  -15.918  -15.906  -15.896  -15.889  -15.891  -15.889  -15.886  -15.871  -15.848  -15.824  -15.801  -15.791  -15.792  -15.807  -15.834  -15.860  -15.890  -15.916  -15.942  -15.970  -15.997  -16.032  -16.079  -16.147  -16.325
 -20.629  -20.486  -20.421  -20.377  -20.347  -20.334  -20.327  -20.335  -20.345  -20.352  -20.348  -20.326  -20.299  -20.272  -20.261  -20.266  -20.278  -20.298  -20.315  -20.299  -20.220  -19.987  -19.490  -18.646  -17.439  -15.992  -14.529  -13.287  -12.407  -11.901  -11.672  -11.601  -11.587  -11.588  -11.597  -11.601  -11.575  -11.468  -11.190  -10.653   -9.829   -8.765   -7.603   -6.509   -5.603   -4.908   -4.402   -4.077   -3.968   -4.153   -4.684   -5.540   -6.580   -7.602   -8.468   -9.173   -9.842  -10.596  -11.469  -12.376  -13.164  -13.724  -14.029  -14.133  -14.140  -14.134  -14.172  -14.227  -14.279  -14.306  -14.306  -14.295  -14.291  -14.293  -14.293  -14.294  -14.284  -14.269  -14.256  -14.247  -14.229  -14.200  -14.170  -14.141  -14.124  -14.121  -14.127  -14.148  -14.177  -14.202  -14.218  -14.220  -14.211  -14.203  -14.206  -14.223  -14.254  -14.303  -14.375  -14.584
 -21.875  -21.743  -21.681  -21.648  -21.630  -21.619  -21.618  -21.621  -21.626  -21.621  -21.607  -21.575  -21.541  -21.507  -21.492  -21.496  -21.512  -21.540  -21.558  -21.540  -21.445  -21.174  -20.605  -19.640  -18.272  -16.622  -14.948  -13.524  -12.512  -11.928  -11.665  -11.587  -11.585  -11.601  -11.615  -11.619  -11.595  -11.495  -11.245  -10.764  -10.042   -9.132   -8.166   -7.276   -6.556   -6.014   -5.623   -5.375   -5.289   -5.437   -5.884   -6.629   -7.560   -8.495   -9.276   -9.853  -10.325  -10.805  -11.332  -11.875  -12.330  -12.630  -12.759  -12.774  -12.749  -12.749  -12.799  -12.883  -12.966  -13.024  -13.051  -13.052  -13.051  -13.064  -13.074  -13.082  -13.075  -13.061  -13.050  -13.038  -13.018  -12.981  -12.942  -12.908  -12.896  -12.898  -12.914  -12.949  -12.979  -13.003  -13.006  -12.982  -12.950  -12.925  -12.916  -12.926  -12.949  -12.992  -13.060  -13.282
 -22.678  -22.543  -22.490  -22.458  -22.437  -22.428  -22.421  -22.421  -22.415  -22.404  -22.377  -22.341  -22.298  -22.261  -22.237  -22.241  -22.256  -22.291  -22.313  -22.300  -22.196  -21.904  -21.296  -20.254  -18.784  -17.013  -15.211  -13.666  -12.573  -11.944  -11.679  -11.621  -11.635  -11.664  -11.686  -11.693  -11.669  -11.573  -11.361  -10.977  -10.417   -9.732   -9.008   -8.336   -7.776   -7.345   -7.039   -6.857   -6.810   -6.939   -7.285   -7.862   -8.594   -9.347   -9.971  -10.416  -10.739  -11.031  -11.341  -11.644  -11.878  -12.015  -12.037  -12.005  -11.960  -11.947  -11.975  -12.047  -12.127  -12.199  -12.241  -12.255  -12.262  -12.278  -12.293  -12.303  -12.292  -12.290  -12.287  -12.293  -12.287  -12.259  -12.219  -12.180  -12.159  -12.158  -12.182  -12.219  -12.256  -12.272  -12.255  -12.220  -12.175  -12.153  -12.148  -12.163  -12.188  -12.225  -12.287  -12.504
 -23.123  -22.984  -22.928  -22.888  -22.865  -22.853  -22.842  -22.831  -22.820  -22.804  -22.774  -22.730  -22.682  -22.641  -22.615  -22.609  -22.624  -22.655  -22.680  -22.675  -22.573  -22.273  -21.644  -20.569  -19.047  -17.212  -15.344  -13.741  -12.603  -11.956  -11.701  -11.677  -11.724  -11.771  -11.797  -11.792  -11.758  -11.667  -11.493  -11.215  -10.840  -10.392   -9.906   -9.430   -8.999   -8.649   -8.403   -8.285   -8.289   -8.428   -8.701   -9.107   -9.611  -10.134  -10.572  -10.879  -11.095  -11.278  -11.461  -11.636  -11.758  -11.817  -11.803  -11.748  -11.686  -11.640  -11.619  -11.637  -11.680  -11.741  -11.784  -11.805  -11.825  -11.844  -11.858  -11.858  -11.855  -11.859  -11.881  -11.905  -11.911  -11.896  -11.854  -11.811  -11.783  -11.785  -11.819  -11.869  -11.911  -11.921  -11.890  -11.844  -11.797  -11.786  -11.803  -11.833  -11.870  -11.914  -11.969  -12.173
 -23.336  -23.184  -23.127  -23.082  -23.057  -23.039  -23.024  -23.013  -23.001  -22.984  -22.953  -22.908  -22.863  -22.818  -22.783  -22.770  -22.779  -22.804  -22.833  -22.828  -22.728  -22.430  -21.791  -20.705  -19.159  -17.298  -15.402  -13.765  -12.606  -11.956  -11.717  -11.719  -11.797  -11.866  -11.894  -11.875  -11.815  -11.718  -11.577  -11.398  -11.187  -10.948  -10.665  -10.351  -10.021   -9.735   -9.536   -9.463   -9.520   -9.676   -9.900  -10.179  -10.484  -10.783  -11.029  -11.212  -11.345  -11.472  -11.609  -11.736  -11.831  -11.872  -11.864  -11.819  -11.740  -11.651  -11.569  -11.515  -11.505  -11.530  -11.557  -11.580  -11.610  -11.636  -11.650  -11.646  -11.632  -11.638  -11.671  -11.712  -11.730  -11.728  -11.693  -11.641  -11.608  -11.612  -11.664  -11.739  -11.794  -11.812  -11.775  -11.719  -11.671  -11.667  -11.694  -11.752  -11.808  -11.863  -11.917  -12.109
 -23.435  -23.268  -23.204  -23.162  -23.137  -23.119  -23.107  -23.105  -23.096  -23.078  -23.056  -23.019  -22.979  -22.934  -22.895  -22.868  -22.870  -22.887  -22.910  -22.905  -22.808  -22.507  -21.865  -20.771  -19.215  -17.344  -15.431  -13.783  -12.607  -11.950  -11.711  -11.719  -11.813  -11.889  -11.906  -11.865  -11.779  -11.671  -11.557  -11.461  -11.391  -11.314  -11.191  -11.004  -10.766  -10.542  -10.386  -10.344  -10.424  -10.592  -10.797  -10.997  -11.157  -11.277  -11.360  -11.429  -11.501  -11.598  -11.712  -11.829  -11.923  -11.979  -11.995  -11.971  -11.895  -11.781  -11.656  -11.550  -11.487  -11.461  -11.458  -11.473  -11.505  -11.536  -11.548  -11.536  -11.516  -11.513  -11.548  -11.595  -11.630  -11.634  -11.604  -11.558  -11.530  -11.544  -11.610  -11.709  -11.783  -11.805  -11.768  -11.701  -11.647  -11.638  -11.674  -11.745  -11.818  -11.878  -11.937  -12.129
 -23.487  -23.304  -23.233  -23.200  -23.179  -23.168  -23.163  -23.165  -23.166  -23.162  -23.150  -23.129  -23.096  -23.058  -23.017  -22.980  -22.965  -22.972  -22.984  -22.967  -22.866  -22.562  -21.918  -20.820  -19.259  -17.385  -15.468  -13.811  -12.623  -11.948  -11.687  -11.673  -11.745  -11.804  -11.801  -11.742  -11.645  -11.537  -11.452  -11.421  -11.449  -11.489  -11.487  -11.405  -11.259  -11.104  -10.992  -10.971  -11.057  -11.220  -11.414  -11.576  -11.648  -11.650  -11.612  -11.582  -11.590  -11.641  -11.731  -11.827  -11.917  -11.986  -12.031  -12.032  -11.984  -11.886  -11.769  -11.646  -11.543  -11.459  -11.407  -11.394  -11.419  -11.453  -11.472  -11.458  -11.433  -11.433  -11.467  -11.527  -11.575  -11.591  -11.572  -11.533  -11.508  -11.530  -11.599  -11.704  -11.780  -11.803  -11.763  -11.687  -11.620  -11.601  -11.633  -11.695  -11.767  -11.833  -11.895  -12.093
 -23.516  -23.319  -23.254  -23.225  -23.208  -23.203  -23.205  -23.215  -23.224  -23.238  -23.244  -23.242  -23.220  -23.186  -23.144  -23.094  -23.062  -23.042  -23.036  -23.013  -22.908  -22.602  -21.956  -20.852  -19.290  -17.418  -15.507  -13.849  -12.652  -11.956  -11.653  -11.587  -11.611  -11.632  -11.609  -11.549  -11.464  -11.383  -11.336  -11.353  -11.436  -11.537  -11.603  -11.604  -11.543  -11.463  -11.400  -11.399  -11.480  -11.633  -11.808  -11.936  -11.974  -11.908  -11.788  -11.679  -11.615  -11.613  -11.654  -11.710  -11.778  -11.851  -11.916  -11.955  -11.953  -11.912  -11.831  -11.721  -11.593  -11.461  -11.354  -11.296  -11.303  -11.336  -11.359  -11.367  -11.365  -11.396  -11.454  -11.529  -11.586  -11.610  -11.590  -11.558  -11.531  -11.543  -11.595  -11.675  -11.735  -11.743  -11.700  -11.621  -11.548  -11.518  -11.528  -11.575  -11.631  -11.682  -11.741  -11.951
 -23.557  -23.342  -23.278  -23.245  -23.229  -23.229  -23.230  -23.242  -23.257  -23.286  -23.310  -23.319  -23.308  -23.281  -23.228  -23.167  -23.112  -23.073  -23.051  -23.019  -22.908  -22.600  -21.953  -20.850  -19.291  -17.420  -15.517  -13.874  -12.686  -11.971  -11.624  -11.501  -11.470  -11.457  -11.422  -11.385  -11.339  -11.312  -11.303  -11.339  -11.429  -11.537  -11.625  -11.671  -11.674  -11.653  -11.631  -11.653  -11.725  -11.849  -11.998  -12.101  -12.113  -12.016  -11.852  -11.690  -11.577  -11.528  -11.517  -11.536  -11.577  -11.643  -11.719  -11.791  -11.835  -11.846  -11.810  -11.719  -11.589  -11.431  -11.285  -11.200  -11.185  -11.212  -11.253  -11.284  -11.328  -11.413  -11.514  -11.608  -11.662  -11.678  -11.643  -11.595  -11.550  -11.536  -11.561  -11.605  -11.635  -11.630  -11.588  -11.522  -11.459  -11.428  -11.424  -11.447  -11.469  -11.497  -11.537  -11.762
 -23.640  -23.403  -23.326  -23.288  -23.269  -23.261  -23.257  -23.261  -23.269  -23.298  -23.323  -23.342  -23.339  -23.306  -23.249  -23.184  -23.115  -23.071  -23.043  -23.003  -22.888  -22.579  -21.932  -20.828  -19.272  -17.407  -15.518  -13.896  -12.719  -11.996  -11.626  -11.463  -11.392  -11.354  -11.334  -11.333  -11.358  -11.381  -11.402  -11.433  -11.492  -11.569  -11.636  -11.683  -11.705  -11.713  -11.723  -11.749  -11.804  -11.899  -12.003  -12.069  -12.056  -11.947  -11.771  -11.600  -11.479  -11.410  -11.383  -11.385  -11.407  -11.472  -11.557  -11.643  -11.709  -11.742  -11.721  -11.644  -11.521  -11.375  -11.249  -11.169  -11.154  -11.178  -11.213  -11.257  -11.335  -11.456  -11.598  -11.699  -11.746  -11.734  -11.674  -11.599  -11.533  -11.489  -11.485  -11.502  -11.514  -11.512  -11.496  -11.469  -11.438  -11.439  -11.442  -11.446  -11.438  -11.431  -11.456  -11.686
 -23.827  -23.564  -23.474  -23.430  -23.398  -23.376  -23.357  -23.346  -23.337  -23.349  -23.361  -23.376  -23.375  -23.348  -23.298  -23.234  -23.174  -23.135  -23.111  -23.070  -22.952  -22.637  -21.983  -20.876  -19.316  -17.461  -15.584  -13.978  -12.809  -12.076  -11.688  -11.499  -11.413  -11.371  -11.381  -11.436  -11.525  -11.603  -11.653  -11.675  -11.692  -11.711  -11.721  -11.721  -11.718  -11.717  -11.722  -11.743  -11.784  -11.833  -11.879  -11.888  -11.834  -11.720  -11.562  -11.420  -11.333  -11.291  -11.283  -11.288  -11.316  -11.390  -11.479  -11.565  -11.627  -11.639  -11.608  -11.534  -11.445  -11.359  -11.297  -11.268  -11.265  -11.271  -11.265  -11.283  -11.355  -11.483  -11.629  -11.732  -11.764  -11.726  -11.651  -11.562  -11.471  -11.410  -11.385  -11.401  -11.437  -11.487  -11.541  -11.598  -11.655  -11.727  -11.781  -11.800  -11.778  -11.749  -11.767  -11.995
 -24.236  -23.948  -23.846  -23.789  -23.747  -23.709  -23.672  -23.641  -23.610  -23.597  -23.595  -23.595  -23.590  -23.567  -23.529  -23.485  -23.449  -23.432  -23.420  -23.388  -23.267  -22.942  -22.276  -21.158  -19.593  -17.737  -15.860  -14.251  -13.062  -12.302  -11.872  -11.649  -11.541  -11.514  -11.563  -11.683  -11.848  -11.998  -12.093  -12.124  -12.100  -12.037  -11.952  -11.860  -11.779  -11.732  -11.724  -11.741  -11.754  -11.747  -11.714  -11.649  -11.553  -11.428  -11.303  -11.213  -11.186  -11.198  -11.223  -11.249  -11.292  -11.372  -11.468  -11.549  -11.592  -11.585  -11.532  -11.465  -11.423  -11.420  -11.450  -11.485  -11.496  -11.457  -11.385  -11.338  -11.366  -11.473  -11.600  -11.685  -11.699  -11.666  -11.595  -11.508  -11.419  -11.354  -11.337  -11.381  -11.489  -11.644  -11.841  -12.064  -12.307  -12.544  -12.733  -12.835  -12.847  -12.825  -12.828  -13.062
 -25.003  -24.692  -24.583  -24.520  -24.467  -24.422  -24.374  -24.324  -24.275  -24.235  -24.216  -24.204  -24.193  -24.173  -24.144  -24.122  -24.114  -24.120  -24.129  -24.104  -23.981  -23.647  -22.970  -21.842  -20.273  -18.407  -16.503  -14.844  -13.585  -12.741  -12.227  -11.942  -11.803  -11.784  -11.888  -12.103  -12.376  -12.632  -12.808  -12.868  -12.799  -12.627  -12.394  -12.142  -11.942  -11.822  -11.782  -11.786  -11.773  -11.706  -11.588  -11.453  -11.316  -11.192  -11.097  -11.063  -11.097  -11.165  -11.226  -11.269  -11.315  -11.389  -11.481  -11.553  -11.585  -11.572  -11.521  -11.477  -11.493  -11.562  -11.665  -11.743  -11.743  -11.661  -11.521  -11.409  -11.389  -11.447  -11.540  -11.600  -11.602  -11.568  -11.516  -11.456  -11.398  -11.363  -11.389  -11.494  -11.711  -12.033  -12.477  -13.015  -13.605  -14.177  -14.642  -14.926  -15.039  -15.051  -15.053  -15.267
 -26.215  -25.892  -25.786  -25.720  -25.670  -25.623  -25.567  -25.504  -25.444  -25.391  -25.355  -25.333  -25.313  -25.289  -25.270  -25.255  -25.263  -25.289  -25.310  -25.292  -25.171  -24.836  -24.162  -23.032  -21.455  -19.566  -17.609  -15.852  -14.452  -13.452  -12.790  -12.383  -12.185  -12.179  -12.370  -12.728  -13.170  -13.590  -13.879  -13.966  -13.823  -13.489  -13.040  -12.581  -12.215  -11.991  -11.902  -11.886  -11.851  -11.737  -11.560  -11.362  -11.206  -11.089  -11.028  -11.033  -11.120  -11.230  -11.319  -11.361  -11.381  -11.421  -11.480  -11.542  -11.583  -11.587  -11.574  -11.568  -11.619  -11.736  -11.863  -11.952  -11.938  -11.821  -11.648  -11.501  -11.437  -11.453  -11.497  -11.512  -11.493  -11.459  -11.432  -11.413  -11.412  -11.430  -11.516  -11.707  -12.067  -12.637  -13.465  -14.511  -15.679  -16.799  -17.701  -18.292  -18.572  -18.651  -18.662  -18.827
 -27.880  -27.552  -27.448  -27.388  -27.343  -27.294  -27.227  -27.158  -27.087  -27.025  -26.981  -26.949  -26.919  -26.891  -26.865  -26.849  -26.856  -26.881  -26.904  -26.896  -26.782  -26.459  -25.794  -24.673  -23.088  -21.165  -19.122  -17.214  -15.618  -14.396  -13.525  -12.960  -12.679  -12.692  -13.002  -13.563  -14.238  -14.864  -15.281  -15.374  -15.107  -14.536  -13.805  -13.086  -12.525  -12.177  -12.030  -11.993  -11.948  -11.809  -11.591  -11.374  -11.213  -11.125  -11.102  -11.140  -11.249  -11.370  -11.455  -11.480  -11.456  -11.444  -11.466  -11.514  -11.578  -11.619  -11.643  -11.672  -11.733  -11.846  -11.963  -12.040  -12.015  -11.900  -11.742  -11.603  -11.518  -11.497  -11.488  -11.451  -11.402  -11.357  -11.358  -11.384  -11.436  -11.512  -11.662  -11.947  -12.476  -13.371  -14.717  -16.471  -18.426  -20.292  -21.780  -22.769  -23.279  -23.447  -23.474  -23.556
 -29.903  -29.579  -29.482  -29.430  -29.379  -29.310  -29.216  -29.114  -29.011  -28.933  -28.881  -28.842  -28.810  -28.775  -28.737  -28.710  -28.707  -28.715  -28.732  -28.723  -28.618  -28.308  -27.656  -26.545  -24.952  -22.981  -20.832  -18.751  -16.928  -15.449  -14.338  -13.593  -13.222  -13.264  -13.726  -14.531  -15.475  -16.321  -16.859  -16.928  -16.486  -15.632  -14.571  -13.557  -12.777  -12.302  -12.092  -12.031  -11.983  -11.843  -11.623  -11.407  -11.274  -11.234  -11.259  -11.323  -11.423  -11.522  -11.581  -11.569  -11.505  -11.450  -11.438  -11.486  -11.561  -11.632  -11.680  -11.715  -11.766  -11.840  -11.923  -11.972  -11.951  -11.872  -11.768  -11.673  -11.601  -11.551  -11.503  -11.432  -11.365  -11.325  -11.342  -11.405  -11.488  -11.595  -11.774  -12.130  -12.835  -14.102  -16.065  -18.644  -21.507  -24.206  -26.348  -27.771  -28.532  -28.821  -28.871  -28.857
 -32.294  -31.973  -31.887  -31.824  -31.738  -31.597  -31.394  -31.175  -30.979  -30.842  -30.761  -30.718  -30.684  -30.644  -30.599  -30.555  -30.534  -30.529  -30.532  -30.513  -30.409  -30.103  -29.459  -28.349  -26.740  -24.713  -22.457  -20.205  -18.155  -16.433  -15.098  -14.182  -13.735  -13.825  -14.451  -15.495  -16.697  -17.741  -18.366  -18.390  -17.765  -16.620  -15.232  -13.913  -12.901  -12.284  -12.005  -11.933  -11.891  -11.774  -11.583  -11.412  -11.338  -11.367  -11.444  -11.522  -11.584  -11.627  -11.638  -11.600  -11.518  -11.445  -11.420  -11.458  -11.534  -11.608  -11.653  -11.668  -11.686  -11.718  -11.760  -11.786  -11.778  -11.748  -11.711  -11.676  -11.645  -11.601  -11.544  -11.477  -11.423  -11.411  -11.457  -11.522  -11.595  -11.679  -11.835  -12.214  -13.072  -14.711  -17.299  -20.707  -24.463  -27.956  -30.707  -32.540  -33.546  -33.965  -34.052  -33.940
 -35.394  -35.087  -35.013  -34.919  -34.702  -34.329  -33.830  -33.299  -32.849  -32.544  -32.376  -32.300  -32.262  -32.223  -32.174  -32.124  -32.090  -32.073  -32.062  -32.033  -31.920  -31.608  -30.957  -29.833  -28.195  -26.111  -23.753  -21.347  -19.107  -17.185  -15.676  -14.642  -14.162  -14.320  -15.107  -16.356  -17.749  -18.931  -19.601  -19.559  -18.776  -17.389  -15.714  -14.118  -12.886  -12.126  -11.783  -11.710  -11.703  -11.631  -11.499  -11.392  -11.394  -11.490  -11.603  -11.667  -11.681  -11.666  -11.632  -11.588  -11.523  -11.456  -11.423  -11.444  -11.502  -11.557  -11.582  -11.574  -11.558  -11.556  -11.567  -11.583  -11.587  -11.596  -11.615  -11.639  -11.656  -11.641  -11.606  -11.567  -11.557  -11.594  -11.664  -11.724  -11.752  -11.763  -11.842  -12.213  -13.189  -15.144  -18.288  -22.408  -26.906  -31.055  -34.307  -36.481  -37.688  -38.216  -38.341  -38.141
 -40.055  -39.800  -39.747  -39.536  -38.991  -38.075  -36.892  -35.673  -34.657  -33.980  -33.614  -33.456  -33.393  -33.351  -33.308  -33.263  -33.228  -33.207  -33.191  -33.152  -33.022  -32.694  -32.022  -30.871  -29.190  -27.038  -24.589  -22.057  -19.680  -17.625  -16.027  -14.958  -14.520  -14.781  -15.702  -17.087  -18.581  -19.809  -20.462  -20.350  -19.441  -17.884  -16.004  -14.202  -12.793  -11.920  -11.546  -11.491  -11.541  -11.530  -11.457  -11.409  -11.456  -11.575  -11.681  -11.715  -11.683  -11.635  -11.603  -11.580  -11.539  -11.486  -11.443  -11.439  -11.476  -11.515  -11.530  -11.510  -11.475  -11.454  -11.454  -11.473  -11.495  -11.528  -11.571  -11.623  -11.651  -11.652  -11.641  -11.653  -11.712  -11.805  -11.898  -11.936  -11.897  -11.821  -11.829  -12.172  -13.232  -15.437  -18.996  -23.646  -28.680  -33.291  -36.896  -39.306  -40.653  -41.250  -41.396  -41.136
 -47.484  -47.352  -47.271  -46.748  -45.514  -43.543  -41.095  -38.627  -36.597  -35.242  -34.508  -34.196  -34.086  -34.036  -34.000  -33.969  -33.943  -33.929  -33.912  -33.868  -33.724  -33.374  -32.666  -31.473  -29.731  -27.507  -24.969  -22.341  -19.877  -17.775  -16.184  -15.199  -14.896  -15.292  -16.324  -17.758  -19.245  -20.416  -20.985  -20.780  -19.773  -18.117  -16.133  -14.212  -12.701  -11.774  -11.399  -11.391  -11.499  -11.547  -11.514  -11.480  -11.520  -11.609  -11.671  -11.667  -11.624  -11.582  -11.572  -11.570  -11.547  -11.498  -11.449  -11.434  -11.471  -11.524  -11.552  -11.531  -11.483  -11.458  -11.470  -11.510  -11.554  -11.587  -11.618  -11.633  -11.622  -11.607  -11.619  -11.694  -11.825  -11.974  -12.078  -12.087  -11.994  -11.859  -11.821  -12.153  -13.278  -15.648  -19.468  -24.431  -29.782  -34.661  -38.469  -41.005  -42.417  -43.038  -43.181  -42.889
 -58.467  -58.510  -58.221  -57.043  -54.637  -51.031  -46.684  -42.358  -38.817  -36.456  -35.185  -34.640  -34.454  -34.395  -34.368  -34.349  -34.336  -34.330  -34.317  -34.271  -34.115  -33.741  -32.992  -31.739  -29.926  -27.618  -24.991  -22.292  -19.793  -17.729  -16.265  -15.477  -15.395  -15.973  -17.082  -18.480  -19.855  -20.878  -21.303  -20.981  -19.894  -18.191  -16.171  -14.227  -12.689  -11.750  -11.396  -11.417  -11.567  -11.642  -11.613  -11.563  -11.568  -11.610  -11.626  -11.603  -11.566  -11.534  -11.530  -11.530  -11.504  -11.445  -11.394  -11.404  -11.473  -11.570  -11.625  -11.615  -11.562  -11.538  -11.570  -11.635  -11.694  -11.716  -11.700  -11.635  -11.548  -11.496  -11.527  -11.657  -11.854  -12.044  -12.152  -12.141  -12.023  -11.869  -11.831  -12.186  -13.357  -15.807  -19.739  -24.827  -30.291  -35.261  -39.130  -41.693  -43.107  -43.711  -43.836  -43.532
 -72.353  -72.534  -71.727  -69.478  -65.471  -59.825  -53.181  -46.616  -41.248  -37.673  -35.755  -34.934  -34.655  -34.579  -34.556  -34.543  -34.534  -34.524  -34.515  -34.468  -34.309  -33.914  -33.129  -31.812  -29.910  -27.506  -24.800  -22.064  -19.595  -17.655  -16.409  -15.904  -16.095  -16.854  -17.999  -19.296  -20.489  -21.311  -21.566  -21.127  -19.982  -18.267  -16.266  -14.338  -12.809  -11.865  -11.493  -11.499  -11.627  -11.696  -11.669  -11.612  -11.599  -11.621  -11.631  -11.610  -11.568  -11.525  -11.486  -11.449  -11.392  -11.318  -11.276  -11.318  -11.438  -11.585  -11.674  -11.675  -11.626  -11.601  -11.634  -11.712  -11.781  -11.794  -11.736  -11.605  -11.454  -11.365  -11.397  -11.557  -11.782  -11.975  -12.076  -12.064  -11.952  -11.831  -11.834  -12.231  -13.432  -15.894  -19.796  -24.831  -30.241  -35.151  -38.962  -41.475  -42.843  -43.411  -43.515  -43.211
 -87.002  -87.182  -85.571  -81.936  -76.101  -68.318  -59.390  -50.644  -43.508  -38.770  -36.241  -35.165  -34.801  -34.705  -34.679  -34.660  -34.636  -34.614  -34.590  -34.543  -34.396  -34.000  -33.187  -31.811  -29.824  -27.326  -24.559  -21.832  -19.467  -17.719  -16.744  -16.548  -16.996  -17.883  -18.997  -20.143  -21.121  -21.741  -21.843  -21.323  -20.162  -18.472  -16.508  -14.607  -13.076  -12.095  -11.650  -11.561  -11.614  -11.645  -11.621  -11.604  -11.631  -11.692  -11.733  -11.719  -11.639  -11.535  -11.436  -11.351  -11.265  -11.181  -11.141  -11.194  -11.346  -11.524  -11.640  -11.643  -11.587  -11.545  -11.565  -11.642  -11.727  -11.764  -11.713  -11.571  -11.396  -11.275  -11.282  -11.415  -11.609  -11.777  -11.861  -11.851  -11.783  -11.720  -11.792  -12.237  -13.441  -15.825  -19.576  -24.410  -29.598  -34.312  -37.964  -40.360  -41.652  -42.178  -42.267  -41.988
-100.252 -100.198  -97.594  -92.357  -84.583  -74.776  -63.906  -53.459  -45.042  -39.513  -36.586  -35.348  -34.934  -34.827  -34.798  -34.761  -34.714  -34.667  -34.635  -34.600  -34.481  -34.109  -33.285  -31.851  -29.779  -27.203  -24.409  -21.746  -19.544  -18.050  -17.359  -17.427  -18.045  -18.969  -19.981  -20.924  -21.669  -22.095  -22.079  -21.520  -20.387  -18.754  -16.847  -14.972  -13.435  -12.388  -11.820  -11.583  -11.512  -11.494  -11.502  -11.560  -11.682  -11.814  -11.883  -11.838  -11.698  -11.537  -11.397  -11.299  -11.214  -11.123  -11.076  -11.119  -11.253  -11.420  -11.525  -11.519  -11.443  -11.378  -11.381  -11.462  -11.585  -11.685  -11.702  -11.605  -11.438  -11.295  -11.241  -11.294  -11.403  -11.510  -11.564  -11.567  -11.545  -11.554  -11.694  -12.171  -13.322  -15.535  -18.998  -23.471  -28.283  -32.661  -36.051  -38.272  -39.463  -39.943  -40.022  -39.789
-111.032 -110.347 -106.420  -99.318  -89.571  -77.980  -65.681  -54.288  -45.390  -39.678  -36.699  -35.455  -35.051  -34.960  -34.944  -34.915  -34.864  -34.820  -34.811  -34.826  -34.770  -34.436  -33.593  -32.079  -29.893  -27.236  -24.442  -21.897  -19.912  -18.684  -18.250  -18.501  -19.188  -20.059  -20.905  -21.610  -22.104  -22.317  -22.172  -21.578  -20.484  -18.928  -17.094  -15.265  -13.723  -12.619  -11.937  -11.568  -11.394  -11.342  -11.393  -11.538  -11.745  -11.918  -11.975  -11.879  -11.693  -11.523  -11.430  -11.397  -11.353  -11.267  -11.192  -11.186  -11.263  -11.376  -11.435  -11.397  -11.294  -11.215  -11.215  -11.320  -11.503  -11.691  -11.792  -11.748  -11.591  -11.411  -11.291  -11.255  -11.275  -11.312  -11.322  -11.329  -11.336  -11.393  -11.567  -12.023  -13.048  -14.986  -18.020  -21.953  -26.216  -30.109  -33.130  -35.111  -36.166  -36.589  -36.664  -36.499
-118.424 -116.628 -110.949 -101.906  -90.422  -77.441  -64.346  -52.898  -44.424  -39.190  -36.527  -35.445  -35.140  -35.145  -35.235  -35.315  -35.367  -35.426  -35.536  -35.685  -35.734  -35.424  -34.485  -32.765  -30.348  -27.523  -24.696  -22.274  -20.530  -19.563  -19.339  -19.687  -20.365  -21.129  -21.790  -22.257  -22.487  -22.455  -22.132  -21.451  -20.361  -18.865  -17.111  -15.348  -13.830  -12.705  -11.977  -11.543  -11.327  -11.281  -11.387  -11.601  -11.838  -11.993  -11.985  -11.826  -11.643  -11.558  -11.610  -11.706  -11.743  -11.681  -11.578  -11.510  -11.507  -11.537  -11.524  -11.438  -11.318  -11.239  -11.260  -11.388  -11.602  -11.837  -11.976  -11.948  -11.787  -11.578  -11.419  -11.332  -11.297  -11.283  -11.265  -11.246  -11.247  -11.299  -11.443  -11.822  -12.651  -14.222  -16.689  -19.919  -23.442  -26.690  -29.223  -30.885  -31.764  -32.102  -32.160  -32.088
-120.692 -117.751 -110.481  -99.995  -87.274  -73.416  -60.283  -49.693  -42.423  -38.172  -36.098  -35.335  -35.276  -35.570  -36.012  -36.474  -36.912  -37.339  -37.785  -38.195  -38.361  -37.946  -36.654  -34.408  -31.434  -28.197  -25.205  -22.838  -21.286  -20.540  -20.468  -20.858  -21.480  -22.127  -22.634  -22.901  -22.896  -22.617  -22.079  -21.262  -20.126  -18.670  -16.988  -15.299  -13.825  -12.719  -11.998  -11.593  -11.422  -11.443  -11.603  -11.836  -12.036  -12.106  -12.003  -11.808  -11.683  -11.757  -12.005  -12.272  -12.408  -12.375  -12.249  -12.123  -12.042  -11.987  -11.904  -11.784  -11.668  -11.606  -11.636  -11.744  -11.911  -12.085  -12.174  -12.123  -11.957  -11.764  -11.613  -11.534  -11.495  -11.463  -11.422  -11.374  -11.346  -11.345  -11.419  -11.669  -12.251  -13.388  -15.197  -17.586  -20.215  -22.659  -24.577  -25.824  -26.461  -26.679  -26.694  -26.723
-116.746 -113.280 -105.368  -94.231  -80.830  -66.811  -54.551  -45.579  -39.943  -36.861  -35.486  -35.196  -35.645  -36.636  -37.958  -39.405  -40.815  -42.113  -43.240  -44.041  -44.199  -43.310  -41.112  -37.696  -33.566  -29.454  -25.995  -23.527  -22.071  -21.470  -21.483  -21.862  -22.407  -22.940  -23.326  -23.461  -23.302  -22.849  -22.140  -21.201  -20.019  -18.588  -16.976  -15.358  -13.935  -12.870  -12.208  -11.894  -11.834  -11.948  -12.147  -12.342  -12.449  -12.403  -12.216  -12.011  -11.981  -12.231  -12.672  -13.095  -13.319  -13.320  -13.184  -13.027  -12.890  -12.777  -12.658  -12.543  -12.446  -12.393  -12.379  -12.390  -12.422  -12.454  -12.444  -12.366  -12.228  -12.093  -12.000  -11.962  -11.943  -11.914  -11.870  -11.795  -11.726  -11.671  -11.661  -11.774  -12.113  -12.800  -13.910  -15.381  -17.016  -18.530  -19.705  -20.442  -20.772  -20.820  -20.765  -20.870
-107.941 -104.500  -96.719  -85.519  -72.198  -59.078  -48.567  -41.559  -37.506  -35.454  -34.737  -35.094  -36.493  -38.893  -42.015  -45.421  -48.685  -51.508  -53.661  -54.837  -54.629  -52.628  -48.702  -43.222  -37.091  -31.436  -27.085  -24.276  -22.792  -22.246  -22.274  -22.598  -23.032  -23.440  -23.722  -23.788  -23.580  -23.090  -22.350  -21.393  -20.218  -18.834  -17.302  -15.766  -14.418  -13.430  -12.859  -12.665  -12.727  -12.910  -13.104  -13.211  -13.194  -13.036  -12.790  -12.611  -12.678  -13.062  -13.639  -14.160  -14.454  -14.501  -14.394  -14.242  -14.101  -13.981  -13.875  -13.796  -13.727  -13.655  -13.563  -13.433  -13.300  -13.195  -13.107  -13.037  -12.966  -12.905  -12.872  -12.862  -12.862  -12.842  -12.797  -12.716  -12.613  -12.514  -12.453  -12.466  -12.592  -12.870  -13.311  -13.879  -14.485  -15.008  -15.361  -15.502  -15.445  -15.263  -15.095  -15.244
 -96.741  -93.273  -85.854  -75.244  -63.139  -51.982  -43.624  -38.352  -35.411  -34.006  -33.821  -35.036  -38.002  -42.778  -48.833  -55.238  -61.099  -65.816  -68.995  -70.262  -69.209  -65.504  -59.166  -50.848  -41.924  -34.059  -28.376  -25.002  -23.375  -22.819  -22.815  -23.046  -23.342  -23.602  -23.775  -23.809  -23.649  -23.275  -22.670  -21.829  -20.756  -19.469  -18.046  -16.632  -15.413  -14.549  -14.099  -14.013  -14.154  -14.349  -14.476  -14.471  -14.333  -14.092  -13.837  -13.700  -13.839  -14.290  -14.932  -15.515  -15.879  -16.000  -15.970  -15.879  -15.790  -15.713  -15.664  -15.640  -15.609  -15.518  -15.349  -15.126  -14.905  -14.734  -14.646  -14.612  -14.602  -14.593  -14.580  -14.567  -14.565  -14.553  -14.512  -14.428  -14.307  -14.195  -14.118  -14.080  -14.053  -13.985  -13.835  -13.580  -13.219  -12.777  -12.288  -11.772  -11.249  -10.776  -10.446  -10.586
 -85.259  -81.777  -75.196  -66.135  -56.197  -47.309  -40.673  -36.351  -33.766  -32.489  -32.656  -34.956  -40.148  -48.231  -58.048  -67.866  -76.281  -82.536  -86.284  -87.259  -85.124  -79.587  -70.730  -59.373  -47.308  -36.867  -29.614  -25.568  -23.765  -23.185  -23.142  -23.279  -23.432  -23.541  -23.607  -23.623  -23.562  -23.374  -23.002  -22.376  -21.485  -20.361  -19.107  -17.879  -16.854  -16.152  -15.825  -15.816  -15.969  -16.117  -16.144  -16.032  -15.810  -15.538  -15.305  -15.223  -15.410  -15.909  -16.595  -17.250  -17.717  -17.963  -18.060  -18.079  -18.077  -18.083  -18.110  -18.145  -18.145  -18.060  -17.890  -17.666  -17.466  -17.331  -17.290  -17.307  -17.327  -17.322  -17.296  -17.265  -17.252  -17.257  -17.227  -17.139  -17.008  -16.889  -16.817  -16.752  -16.610  -16.272  -15.647  -14.715  -13.545  -12.259  -10.968   -9.778   -8.739   -7.924   -7.395   -7.485
 -77.332  -74.308  -69.137  -62.034  -54.063  -46.535  -40.374  -35.815  -32.675  -30.944  -31.230  -34.762  -42.627  -54.453  -68.022  -80.716  -90.937  -98.100 -102.048 -102.596  -99.370  -92.110  -81.037  -67.013  -52.051  -39.156  -30.437  -25.826  -23.927  -23.369  -23.319  -23.393  -23.435  -23.425  -23.398  -23.392  -23.407  -23.386  -23.231  -22.838  -22.167  -21.265  -20.240  -19.250  -18.442  -17.915  -17.686  -17.697  -17.807  -17.882  -17.831  -17.653  -17.409  -17.158  -16.985  -16.976  -17.237  -17.808  -18.589  -19.379  -20.016  -20.444  -20.700  -20.850  -20.948  -21.026  -21.105  -21.181  -21.218  -21.171  -21.056  -20.917  -20.813  -20.776  -20.795  -20.842  -20.870  -20.850  -20.800  -20.769  -20.781  -20.821  -20.808  -20.722  -20.578  -20.450  -20.368  -20.276  -20.041  -19.504  -18.545  -17.142  -15.392  -13.455  -11.515   -9.714   -8.178   -6.998   -6.260   -6.274
 -77.250  -75.031  -71.021  -65.086  -57.767  -50.025  -42.837  -36.829  -32.279  -29.560  -29.692  -34.372  -44.873  -60.096  -76.581  -91.205 -102.710 -110.737 -115.003 -115.065 -110.454 -101.298  -88.296  -72.235  -55.043  -40.286  -30.572  -25.706  -23.870  -23.414  -23.407  -23.457  -23.444  -23.368  -23.280  -23.246  -23.278  -23.329  -23.293  -23.068  -22.603  -21.938  -21.170  -20.428  -19.826  -19.436  -19.259  -19.249  -19.297  -19.307  -19.212  -19.030  -18.813  -18.633  -18.550  -18.653  -19.045  -19.767  -20.727  -21.743  -22.616  -23.251  -23.672  -23.930  -24.092  -24.210  -24.310  -24.393  -24.440  -24.440  -24.400  -24.363  -24.366  -24.419  -24.494  -24.568  -24.603  -24.586  -24.554  -24.559  -24.632  -24.724  -24.743  -24.658  -24.505  -24.363  -24.262  -24.139  -23.835  -23.177  -22.038  -20.400  -18.350  -16.050  -13.691  -11.468   -9.547   -8.085   -7.176   -7.119
 -83.989  -82.513  -78.913  -73.055  -65.219  -56.190  -47.089  -38.963  -32.536  -28.528  -28.261  -33.735  -46.189  -63.738  -81.959  -97.743 -110.397 -119.469 -124.069 -123.337 -116.996 -105.970  -91.505  -74.129  -55.613  -39.942  -29.968  -25.259  -23.676  -23.394  -23.461  -23.521  -23.490  -23.395  -23.283  -23.222  -23.223  -23.257  -23.239  -23.089  -22.773  -22.309  -21.770  -21.245  -20.810  -20.507  -20.346  -20.296  -20.281  -20.243  -20.140  -19.992  -19.839  -19.746  -19.771  -20.011  -20.583  -21.526  -22.739  -24.021  -25.150  -25.994  -26.548  -26.877  -27.065  -27.181  -27.266  -27.329  -27.371  -27.387  -27.399  -27.432  -27.502  -27.610  -27.724  -27.819  -27.878  -27.897  -27.918  -27.989  -28.127  -28.273  -28.332  -28.267  -28.120  -27.979  -27.870  -27.727  -27.391  -26.705  -25.552  -23.912  -21.848  -19.510  -17.065  -14.705  -12.627  -11.033  -10.037   -9.910
 -92.456  -91.414  -87.698  -81.338  -72.589  -62.161  -51.238  -41.169  -33.059  -27.894  -27.114  -32.767  -45.939  -64.321  -83.100  -99.256 -112.327 -121.682 -126.046 -124.481 -117.085 -105.266  -90.242  -72.343  -53.576  -38.169  -28.781  -24.639  -23.444  -23.359  -23.501  -23.585  -23.563  -23.470  -23.365  -23.291  -23.254  -23.231  -23.178  -23.043  -22.809  -22.490  -22.122  -21.759  -21.442  -21.204  -21.049  -20.959  -20.899  -20.830  -20.733  -20.626  -20.536  -20.515  -20.644  -21.025  -21.776  -22.941  -24.407  -25.948  -27.303  -28.316  -28.968  -29.332  -29.518  -29.608  -29.661  -29.693  -29.715  -29.730  -29.757  -29.809  -29.896  -30.012  -30.132  -30.242  -30.328  -30.390  -30.463  -30.587  -30.772  -30.951  -31.038  -31.002  -30.886  -30.770  -30.680  -30.542  -30.232  -29.615  -28.601  -27.169  -25.376  -23.320  -21.133  -18.963  -17.009  -15.468  -14.487  -14.309
 -98.736  -97.742  -93.620  -86.570  -76.977  -65.557  -53.504  -42.318  -33.298  -27.501  -26.268  -31.402  -43.806  -61.370  -79.563  -95.173 -107.394 -115.727 -119.285 -117.458 -110.446  -99.233  -84.522  -66.945  -49.170  -35.273  -27.252  -23.982  -23.230  -23.327  -23.532  -23.628  -23.614  -23.541  -23.455  -23.378  -23.318  -23.258  -23.175  -23.043  -22.858  -22.634  -22.388  -22.140  -21.918  -21.732  -21.593  -21.488  -21.403  -21.320  -21.235  -21.151  -21.101  -21.138  -21.335  -21.821  -22.709  -24.040  -25.690  -27.409  -28.923  -30.053  -30.771  -31.152  -31.324  -31.393  -31.416  -31.423  -31.425  -31.426  -31.442  -31.477  -31.539  -31.630  -31.733  -31.835  -31.927  -32.009  -32.106  -32.243  -32.425  -32.594  -32.685  -32.675  -32.601  -32.528  -32.471  -32.377  -32.146  -31.679  -30.929  -29.895  -28.625  -27.161  -25.556  -23.878  -22.268  -20.925  -20.024  -19.799
-100.631  -99.444  -94.912  -87.360  -77.274  -65.435  -53.116  -41.851  -32.888  -27.130  -25.601  -29.637  -39.974  -55.140  -71.523  -85.874  -96.767 -103.758 -106.547 -104.902  -98.827  -88.606  -74.706  -58.483  -43.034  -31.704  -25.578  -23.337  -23.012  -23.254  -23.488  -23.585  -23.577  -23.526  -23.461  -23.396  -23.337  -23.275  -23.193  -23.082  -22.943  -22.793  -22.643  -22.491  -22.351  -22.228  -22.120  -22.026  -21.943  -21.862  -21.783  -21.718  -21.690  -21.748  -21.982  -22.518  -23.471  -24.878  -26.613  -28.420  -30.019  -31.214  -31.973  -32.373  -32.546  -32.603  -32.612  -32.605  -32.592  -32.582  -32.579  -32.585  -32.612  -32.662  -32.730  -32.808  -32.881  -32.950  -33.031  -33.132  -33.264  -33.383  -33.449  -33.442  -33.402  -33.365  -33.346  -33.311  -33.199  -32.963  -32.606  -32.167  -31.682  -31.126  -30.406  -29.458  -28.338  -27.253  -26.442  -26.166
 -97.969  -96.539  -91.790  -84.081  -73.940  -62.283  -50.497  -40.017  -31.844  -26.590  -24.880  -27.534  -35.066  -46.666  -59.960  -72.259  -81.814  -87.903  -90.281  -88.805  -83.372  -74.112  -61.757  -48.162  -36.145  -27.945  -23.866  -22.623  -22.668  -23.006  -23.247  -23.343  -23.347  -23.316  -23.276  -23.239  -23.201  -23.164  -23.116  -23.049  -22.971  -22.895  -22.826  -22.764  -22.703  -22.644  -22.582  -22.528  -22.465  -22.400  -22.342  -22.288  -22.273  -22.337  -22.572  -23.102  -24.054  -25.453  -27.185  -29.003  -30.627  -31.863  -32.662  -33.096  -33.294  -33.363  -33.373  -33.364  -33.346  -33.328  -33.307  -33.293  -33.287  -33.302  -33.336  -33.383  -33.431  -33.472  -33.512  -33.559  -33.615  -33.663  -33.681  -33.663  -33.633  -33.618  -33.628  -33.660  -33.703  -33.783  -33.979  -34.391  -35.037  -35.761  -36.256  -36.255  -35.724  -34.910  -34.160  -33.785
 -92.369  -90.691  -85.894  -78.313  -68.538  -57.609  -46.894  -37.597  -30.429  -25.743  -23.836  -25.107  -29.809  -37.524  -46.898  -56.132  -63.720  -68.763  -70.787  -69.537  -64.940  -57.308  -47.629  -37.679  -29.503  -24.350  -22.094  -21.678  -21.995  -22.382  -22.625  -22.724  -22.746  -22.742  -22.740  -22.746  -22.766  -22.786  -22.796  -22.798  -22.796  -22.802  -22.813  -22.830  -22.843  -22.845  -22.844  -22.838  -22.824  -22.801  -22.775  -22.741  -22.725  -22.780  -22.988  -23.473  -24.359  -25.682  -27.353  -29.134  -30.761  -32.037  -32.898  -33.400  -33.655  -33.766  -33.797  -33.792  -33.774  -33.753  -33.725  -33.700  -33.678  -33.676  -33.686  -33.711  -33.736  -33.755  -33.763  -33.764  -33.764  -33.749  -33.723  -33.683  -33.650  -33.641  -33.680  -33.789  -34.031  -34.538  -35.503  -37.092  -39.272  -41.681  -43.716  -44.876  -45.057  -44.572  -43.891  -43.333
 -85.610  -83.768  -79.133  -72.002  -63.000  -53.142  -43.613  -35.369  -28.935  -24.544  -22.320  -22.393  -24.781  -29.177  -34.816  -40.630  -45.626  -49.085  -50.520  -49.634  -46.375  -41.106  -34.716  -28.513  -23.754  -21.051  -20.154  -20.302  -20.776  -21.184  -21.424  -21.534  -21.583  -21.619  -21.665  -21.734  -21.834  -21.948  -22.058  -22.162  -22.261  -22.367  -22.473  -22.567  -22.642  -22.706  -22.767  -22.834  -22.893  -22.940  -22.963  -22.957  -22.941  -22.966  -23.110  -23.508  -24.272  -25.470  -27.036  -28.759  -30.389  -31.724  -32.684  -33.300  -33.653  -33.834  -33.904  -33.917  -33.904  -33.880  -33.855  -33.835  -33.815  -33.810  -33.819  -33.834  -33.854  -33.871  -33.878  -33.867  -33.840  -33.800  -33.756  -33.715  -33.686  -33.687  -33.752  -33.954  -34.449  -35.491  -37.410  -40.430  -44.418  -48.729  -52.453  -54.905  -55.956  -55.977  -55.480  -54.678
 -79.126  -77.296  -73.047  -66.640  -58.635  -49.882  -41.324  -33.740  -27.606  -23.157  -20.489  -19.604  -20.376  -22.468  -25.367  -28.427  -31.075  -32.905  -33.619  -33.027  -31.099  -28.095  -24.584  -21.347  -19.062  -17.999  -17.932  -18.379  -18.912  -19.307  -19.546  -19.674  -19.753  -19.823  -19.917  -20.060  -20.263  -20.505  -20.757  -21.000  -21.240  -21.473  -21.685  -21.861  -22.005  -22.125  -22.261  -22.411  -22.569  -22.710  -22.803  -22.830  -22.808  -22.780  -22.834  -23.094  -23.702  -24.735  -26.159  -27.805  -29.438  -30.855  -31.949  -32.714  -33.203  -33.479  -33.606  -33.644  -33.643  -33.627  -33.613  -33.610  -33.617  -33.634  -33.664  -33.705  -33.757  -33.810  -33.854  -33.875  -33.874  -33.855  -33.830  -33.810  -33.803  -33.824  -33.921  -34.226  -34.979  -36.561  -39.424  -43.830  -49.503  -55.525  -60.763  -64.460  -66.495  -67.235  -67.126  -66.120
 -73.692  -72.008  -68.246  -62.627  -55.602  -47.819  -40.002  -32.803  -26.704  -22.014  -18.874  -17.261  -16.984  -17.697  -18.944  -20.278  -21.363  -22.010  -22.117  -21.633  -20.580  -19.109  -17.497  -16.129  -15.309  -15.143  -15.468  -16.002  -16.509  -16.883  -17.130  -17.284  -17.376  -17.445  -17.548  -17.744  -18.049  -18.429  -18.845  -19.258  -19.666  -20.047  -20.380  -20.644  -20.848  -21.028  -21.232  -21.475  -21.739  -21.980  -22.149  -22.218  -22.188  -22.097  -22.037  -22.140  -22.564  -23.406  -24.669  -26.213  -27.830  -29.320  -30.548  -31.469  -32.099  -32.477  -32.666  -32.736  -32.752  -32.754  -32.773  -32.813  -32.876  -32.954  -33.056  -33.178  -33.322  -33.473  -33.613  -33.727  -33.808  -33.855  -33.886  -33.909  -33.936  -33.983  -34.116  -34.494  -35.421  -37.369  -40.861  -46.184  -52.968  -60.139  -66.480  -71.228  -74.257  -75.864  -76.320  -75.283
 -69.276  -67.761  -64.447  -59.532  -53.366  -46.443  -39.310  -32.504  -26.494  -21.642  -18.146  -16.018  -15.072  -14.956  -15.264  -15.632  -15.836  -15.788  -15.483  -14.972  -14.316  -13.595  -12.938  -12.477  -12.336  -12.534  -12.955  -13.451  -13.914  -14.294  -14.578  -14.760  -14.826  -14.828  -14.868  -15.041  -15.394  -15.884  -16.443  -17.014  -17.578  -18.100  -18.542  -18.882  -19.133  -19.347  -19.597  -19.907  -20.253  -20.580  -20.829  -20.942  -20.917  -20.769  -20.604  -20.553  -20.793  -21.444  -22.530  -23.942  -25.499  -27.008  -28.313  -29.343  -30.067  -30.519  -30.756  -30.860  -30.900  -30.943  -31.021  -31.139  -31.295  -31.491  -31.736  -32.017  -32.342  -32.681  -33.013  -33.302  -33.536  -33.704  -33.824  -33.908  -33.974  -34.043  -34.186  -34.574  -35.519  -37.502  -41.071  -46.552  -53.603  -61.180  -68.088  -73.585  -77.513  -80.038  -81.200  -80.393
 -65.488  -64.096  -61.137  -56.800  -51.395  -45.308  -38.954  -32.761  -27.123  -22.388  -18.778  -16.350  -14.944  -14.263  -13.955  -13.733  -13.413  -12.948  -12.363  -11.717  -11.088  -10.554  -10.176   -9.996  -10.042  -10.283  -10.660  -11.106  -11.574  -12.025  -12.398  -12.612  -12.619  -12.475  -12.344  -12.394  -12.692  -13.201  -13.827  -14.488  -15.141  -15.739  -16.243  -16.614  -16.874  -17.088  -17.337  -17.661  -18.035  -18.411  -18.711  -18.872  -18.865  -18.690  -18.449  -18.282  -18.373  -18.854  -19.754  -21.002  -22.432  -23.861  -25.135  -26.162  -26.902  -27.365  -27.618  -27.741  -27.824  -27.929  -28.088  -28.316  -28.617  -28.994  -29.452  -29.992  -30.602  -31.243  -31.874  -32.441  -32.902  -33.251  -33.492  -33.652  -33.755  -33.840  -33.969  -34.292  -35.079  -36.759  -39.841  -44.683  -51.112  -58.286  -65.143  -70.965  -75.548  -78.896  -80.806  -80.465
 -62.078  -60.754  -58.062  -54.204  -49.484  -44.239  -38.780  -33.416  -28.446  -24.143  -20.701  -18.176  -16.460  -15.337  -14.542  -13.862  -13.162  -12.376  -11.526  -10.648   -9.822   -9.132   -8.649   -8.392   -8.362   -8.515   -8.809   -9.236   -9.778  -10.369  -10.889  -11.169  -11.105  -10.780  -10.416  -10.250  -10.400  -10.813  -11.391  -12.023  -12.651  -13.230  -13.699  -14.024  -14.236  -14.405  -14.605  -14.875  -15.213  -15.575  -15.884  -16.074  -16.080  -15.906  -15.631  -15.397  -15.381  -15.718  -16.438  -17.480  -18.701  -19.942  -21.066  -21.977  -22.627  -23.033  -23.262  -23.399  -23.524  -23.699  -23.961  -24.324  -24.796  -25.394  -26.127  -26.999  -27.975  -29.014  -30.041  -30.965  -31.721  -32.288  -32.677  -32.915  -33.057  -33.143  -33.232  -33.438  -33.970  -35.147  -37.387  -41.049  -46.140  -52.151  -58.282  -63.912  -68.774  -72.695  -75.237  -75.479
 -59.017  -57.734  -55.243  -51.773  -47.659  -43.207  -38.653  -34.202  -30.044  -26.358  -23.269  -20.815  -18.928  -17.468  -16.269  -15.194  -14.145  -13.064  -11.936  -10.781   -9.665   -8.693   -7.953   -7.480   -7.274   -7.300   -7.523   -7.955   -8.584   -9.336  -10.012  -10.383  -10.306   -9.856   -9.302   -8.929   -8.883   -9.132   -9.561  -10.054  -10.536  -10.959  -11.287  -11.493  -11.607  -11.687  -11.795  -11.967  -12.209  -12.488  -12.744  -12.910  -12.911  -12.737  -12.454  -12.193  -12.104  -12.313  -12.845  -13.646  -14.595  -15.572  -16.453  -17.159  -17.654  -17.954  -18.136  -18.271  -18.433  -18.673  -19.027  -19.510  -20.152  -20.970  -21.977  -23.179  -24.537  -25.989  -27.429  -28.731  -29.800  -30.584  -31.104  -31.412  -31.576  -31.648  -31.684  -31.764  -32.027  -32.692  -34.050  -36.396  -39.852  -44.205  -49.005  -53.842  -58.462  -62.545  -65.464  -66.279
 -56.250  -55.011  -52.674  -49.520  -45.904  -42.126  -38.370  -34.755  -31.376  -28.315  -25.636  -23.341  -21.387  -19.699  -18.175  -16.753  -15.385  -14.032  -12.665  -11.284   -9.946   -8.747   -7.794   -7.153   -6.809   -6.721   -6.874   -7.283   -7.948   -8.781   -9.559  -10.016   -9.994   -9.559   -8.966   -8.496   -8.309   -8.390   -8.629   -8.920   -9.189   -9.392   -9.508   -9.542   -9.527   -9.508   -9.507   -9.562   -9.666   -9.815   -9.962  -10.050  -10.013   -9.830   -9.547   -9.258   -9.097   -9.166   -9.496  -10.042  -10.718  -11.415  -12.037  -12.516  -12.832  -13.019  -13.132  -13.252  -13.424  -13.695  -14.095  -14.650  -15.396  -16.363  -17.557  -18.977  -20.595  -22.345  -24.095  -25.682  -26.974  -27.907  -28.508  -28.851  -29.014  -29.057  -29.029  -28.991  -29.042  -29.306  -29.972  -31.232  -33.218  -35.894  -39.101  -42.667  -46.456  -50.122  -52.974  -54.178
 -53.474  -52.284  -50.087  -47.200  -43.996  -40.763  -37.648  -34.706  -31.959  -29.429  -27.115  -25.000  -23.049  -21.211  -19.453  -17.753  -16.123  -14.563  -13.062  -11.612  -10.238   -9.032   -8.081   -7.426   -7.055   -6.928   -7.037   -7.390   -7.990   -8.762   -9.501   -9.977  -10.043   -9.722   -9.233   -8.811   -8.591   -8.571   -8.670   -8.784   -8.854   -8.850   -8.759   -8.629   -8.487   -8.376   -8.292   -8.235   -8.214   -8.220   -8.235   -8.226   -8.137   -7.936   -7.640   -7.320   -7.071   -6.985   -7.121   -7.455   -7.909   -8.400   -8.826   -9.128   -9.299   -9.378   -9.420   -9.487   -9.621   -9.853  -10.219  -10.755  -11.499  -12.467  -13.663  -15.085  -16.714  -18.492  -20.285  -21.919  -23.237  -24.170  -24.753  -25.080  -25.218  -25.219  -25.125  -24.990  -24.894  -24.914  -25.154  -25.701  -26.645  -28.022  -29.821  -32.050  -34.687  -37.465  -39.790  -41.065
 -50.185  -49.039  -47.008  -44.391  -41.563  -38.784  -36.176  -33.751  -31.489  -29.368  -27.359  -25.426  -23.535  -21.653  -19.772  -17.934  -16.182  -14.570  -13.120  -11.825  -10.690   -9.755   -9.054   -8.610   -8.399   -8.376   -8.523   -8.831   -9.301   -9.872  -10.417  -10.766  -10.814  -10.578  -10.207   -9.874   -9.673   -9.624   -9.643   -9.654   -9.597   -9.448   -9.216   -8.945   -8.705   -8.508   -8.345   -8.197   -8.066   -7.958   -7.880   -7.809   -7.693   -7.497   -7.216   -6.876   -6.548   -6.342   -6.332   -6.545   -6.909   -7.320   -7.657   -7.866   -7.948   -7.940   -7.904   -7.886   -7.917   -8.033   -8.277   -8.704   -9.330  -10.150  -11.135  -12.287  -13.605  -15.047  -16.508  -17.820  -18.855  -19.569  -20.009  -20.249  -20.333  -20.295  -20.154  -19.965  -19.797  -19.703  -19.735  -19.913  -20.267  -20.838  -21.692  -22.919  -24.547  -26.404  -28.048  -29.182
 -46.007  -44.897  -43.084  -40.797  -38.369  -36.019  -33.846  -31.843  -29.963  -28.170  -26.432  -24.711  -22.971  -21.210  -19.433  -17.706  -16.106  -14.730  -13.620  -12.776  -12.173  -11.788  -11.606  -11.619  -11.792  -12.074  -12.425  -12.805  -13.173  -13.496  -13.696  -13.712  -13.503  -13.117  -12.657  -12.254  -11.989  -11.862  -11.810  -11.748  -11.620  -11.378  -11.030  -10.628  -10.234   -9.880   -9.565   -9.274   -9.007   -8.783   -8.624   -8.530   -8.443   -8.316   -8.102   -7.799   -7.457   -7.203   -7.157   -7.364   -7.762   -8.208   -8.564   -8.755   -8.796   -8.736   -8.626   -8.506   -8.419   -8.395   -8.488   -8.762   -9.216   -9.799  -10.462  -11.173  -11.932  -12.719  -13.465  -14.079  -14.495  -14.737  -14.869  -14.939  -14.951  -14.881  -14.727  -14.535  -14.365  -14.272  -14.259  -14.314  -14.423  -14.636  -15.042  -15.765  -16.842  -18.133  -19.319  -20.294
 -41.072  -40.010  -38.498  -36.624  -34.651  -32.754  -31.001  -29.380  -27.855  -26.387  -24.962  -23.556  -22.166  -20.794  -19.468  -18.257  -17.255  -16.539  -16.164  -16.104  -16.311  -16.726  -17.304  -18.018  -18.822  -19.672  -20.473  -21.129  -21.546  -21.664  -21.445  -20.901  -20.096  -19.132  -18.169  -17.336  -16.718  -16.318  -16.072  -15.877  -15.639  -15.279  -14.754  -14.110  -13.404  -12.691  -11.998  -11.355  -10.777  -10.320  -10.003   -9.823   -9.736   -9.667   -9.536   -9.311   -9.032   -8.819   -8.823   -9.098   -9.579  -10.099  -10.495  -10.702  -10.737  -10.656  -10.505  -10.327  -10.158  -10.042  -10.050  -10.228  -10.554  -10.954  -11.331  -11.624  -11.815  -11.870  -11.756  -11.455  -11.034  -10.615  -10.304  -10.128  -10.021   -9.911   -9.772   -9.619   -9.508   -9.492   -9.555   -9.651   -9.765   -9.932  -10.271  -10.926  -11.911  -13.085  -14.135  -15.041
 -36.177  -35.205  -34.057  -32.668  -31.206  -29.806  -28.512  -27.323  -26.223  -25.192  -24.237  -23.375  -22.633  -22.041  -21.632  -21.460  -21.568  -21.995  -22.737  -23.761  -24.993  -26.379  -27.879  -29.475  -31.129  -32.773  -34.260  -35.419  -36.075  -36.114  -35.493  -34.257  -32.553  -30.595  -28.629  -26.881  -25.490  -24.489  -23.808  -23.305  -22.821  -22.204  -21.361  -20.286  -19.038  -17.683  -16.300  -14.967  -13.772  -12.786  -12.042  -11.546  -11.249  -11.061  -10.890  -10.665  -10.414  -10.230  -10.263  -10.561  -11.047  -11.563  -11.949  -12.138  -12.162  -12.071  -11.919  -11.743  -11.577  -11.471  -11.505  -11.701  -12.019  -12.361  -12.614  -12.699  -12.563  -12.134  -11.370  -10.313   -9.122   -8.053   -7.269   -6.788   -6.516   -6.334   -6.175   -6.057   -6.029   -6.121   -6.337   -6.604   -6.882   -7.192   -7.657   -8.440   -9.559  -10.837  -11.946  -12.830
 -32.375  -31.560  -30.802  -29.924  -29.015  -28.169  -27.439  -26.830  -26.338  -25.969  -25.760  -25.764  -26.051  -26.669  -27.653  -28.974  -30.590  -32.444  -34.481  -36.656  -38.924  -41.267  -43.687  -46.198  -48.769  -51.290  -53.563  -55.333  -56.364  -56.481  -55.608  -53.789  -51.188  -48.100  -44.885  -41.893  -39.384  -37.459  -36.060  -35.005  -34.066  -33.018  -31.708  -30.069  -28.128  -25.958  -23.669  -21.404  -19.279  -17.402  -15.840  -14.611  -13.675  -12.968  -12.394  -11.874  -11.395  -11.043  -10.913  -11.034  -11.337  -11.680  -11.922  -12.025  -12.001  -11.891  -11.752  -11.615  -11.506  -11.484  -11.603  -11.886  -12.279  -12.680  -12.988  -13.123  -13.008  -12.526  -11.601  -10.262   -8.713   -7.260   -6.138   -5.396   -4.925   -4.612   -4.387   -4.247   -4.265   -4.482   -4.899   -5.426   -5.952   -6.463   -7.061   -7.914   -9.078  -10.373  -11.480  -12.304
 -30.321  -29.691  -29.317  -28.957  -28.649  -28.460  -28.444  -28.610  -28.959  -29.503  -30.300  -31.436  -33.019  -35.112  -37.684  -40.623  -43.752  -46.921  -50.044  -53.102  -56.124  -59.170  -62.304  -65.568  -68.920  -72.200  -75.151  -77.474  -78.902  -79.245  -78.407  -76.399  -73.362  -69.577  -65.443  -61.402  -57.824  -54.914  -52.664  -50.894  -49.344  -47.744  -45.896  -43.696  -41.123  -38.240  -35.150  -31.984  -28.871  -25.921  -23.226  -20.839  -18.764  -16.983  -15.433  -14.063  -12.862  -11.895  -11.213  -10.818  -10.647  -10.585  -10.527  -10.432  -10.295  -10.144   -9.990   -9.863   -9.794   -9.837  -10.032  -10.383  -10.834  -11.306  -11.739  -12.077  -12.236  -12.088  -11.490  -10.425   -9.048   -7.654   -6.480   -5.615   -4.994   -4.522   -4.171   -3.965   -3.997   -4.337   -4.976   -5.785   -6.567   -7.226   -7.828   -8.547   -9.480  -10.523  -11.424  -12.098
 -30.190  -29.748  -29.741  -29.895  -30.229  -30.789  -31.600  -32.661  -33.954  -35.486  -37.324  -39.590  -42.407  -45.818  -49.733  -53.924  -58.124  -62.130  -65.865  -69.378  -72.787  -76.229  -79.820  -83.609  -87.524  -91.360  -94.813  -97.570  -99.370 -100.037  -99.481  -97.711  -94.841  -91.100  -86.835  -82.465  -78.389  -74.880  -71.997  -69.609  -67.476  -65.345  -63.019  -60.387  -57.410  -54.114  -50.565  -46.838  -43.010  -39.151  -35.330  -31.617  -28.078  -24.757  -21.672  -18.838  -16.304  -14.135  -12.376  -11.017  -10.015   -9.283   -8.739   -8.328   -7.999   -7.741   -7.525   -7.355   -7.266   -7.292   -7.456   -7.763   -8.178   -8.649   -9.155   -9.675  -10.151  -10.468  -10.449  -10.007   -9.196   -8.234   -7.315   -6.529   -5.855   -5.277   -4.819   -4.557   -4.602   -5.043   -5.853   -6.866   -7.815   -8.505   -8.955   -9.336   -9.807  -10.366  -10.872  -11.346
 -32.378  -32.111  -32.428  -33.048  -33.979  -35.235  -36.807  -38.657  -40.738  -43.044  -45.654  -48.703  -52.319  -56.521  -61.169  -65.983  -70.656  -74.985  -78.931  -82.593  -86.156  -89.806  -93.693  -97.865 -102.232 -106.554 -110.505 -113.749 -116.005 -117.085 -116.911 -115.522 -113.071 -109.790 -105.982 -101.979  -98.108  -94.609  -91.562  -88.886  -86.404  -83.920  -81.277  -78.386  -75.221  -71.787  -68.104  -64.183  -60.021  -55.614  -50.976  -46.156  -41.228  -36.299  -31.470  -26.852  -22.565  -18.725  -15.422  -12.685  -10.505   -8.829   -7.607   -6.748   -6.147   -5.729   -5.410   -5.158   -4.988   -4.914   -4.959   -5.137   -5.417   -5.789   -6.242   -6.803   -7.443   -8.088   -8.571   -8.754   -8.605   -8.223   -7.713   -7.159   -6.580   -6.017   -5.542   -5.277   -5.344   -5.821   -6.687   -7.746   -8.676   -9.255   -9.458   -9.445   -9.420   -9.462   -9.562   -9.840
 -37.733  -37.660  -38.202  -39.127  -40.437  -42.127  -44.149  -46.420  -48.885  -51.526  -54.423  -57.712  -61.514  -65.848  -70.564  -75.385  -80.024  -84.298  -88.186  -91.809  -95.372  -99.089 -103.124 -107.539 -112.246 -117.016 -121.523 -125.404 -128.319 -130.023 -130.419 -129.558 -127.637 -124.940 -121.775 -118.428 -115.138 -112.060 -109.238 -106.608 -104.047 -101.419  -98.622  -95.604  -92.354  -88.878  -85.170  -81.200  -76.907  -72.227  -67.115  -61.573  -55.658  -49.482  -43.199  -36.975  -31.003  -25.453  -20.472  -16.155  -12.569   -9.738   -7.653   -6.210   -5.253   -4.614   -4.158   -3.808   -3.545   -3.375   -3.307   -3.340   -3.479   -3.693   -4.015   -4.473   -5.079   -5.786   -6.485   -7.034   -7.358   -7.444   -7.339   -7.074   -6.682   -6.236   -5.846   -5.639   -5.724   -6.163   -6.922   -7.806   -8.537   -8.892   -8.844   -8.552   -8.214   -7.940   -7.804   -7.980
 -46.486  -46.695  -47.335  -48.327  -49.700  -51.440  -53.476  -55.718  -58.098  -60.603  -63.300  -66.314  -69.753  -73.645  -77.872  -82.207  -86.410  -90.323  -93.928  -97.335 -100.730 -104.316 -108.248 -112.590 -117.274 -122.105 -126.804 -131.046 -134.519 -136.989 -138.323 -138.517 -137.700 -136.074 -133.907 -131.463 -128.951 -126.483 -124.081 -121.682 -119.203 -116.552 -113.679 -110.567 -107.225 -103.665  -99.877  -95.811  -91.387  -86.510  -81.106  -75.143  -68.657  -61.747  -54.570  -47.313  -40.165  -33.316  -26.927  -21.156  -16.154  -12.076   -8.979   -6.796   -5.340   -4.386   -3.743   -3.287   -2.964   -2.755   -2.647   -2.619   -2.668   -2.765   -2.954   -3.257   -3.708   -4.301   -4.958   -5.576   -6.072   -6.398   -6.544   -6.509   -6.324   -6.043   -5.789   -5.651   -5.716   -6.023   -6.525   -7.078   -7.479   -7.570   -7.353   -6.982   -6.600   -6.323   -6.187   -6.380
 -57.076  -57.684  -58.362  -59.278  -60.500  -62.017  -63.769  -65.672  -67.666  -69.738  -71.940  -74.374  -77.134  -80.255  -83.667  -87.215  -90.722  -94.066  -97.226 -100.275 -103.345 -106.586 -110.119 -113.992 -118.151 -122.441 -126.652 -130.576 -134.056 -136.995 -139.325 -140.976 -141.903 -142.091 -141.608 -140.596 -139.215 -137.581 -135.748 -133.695 -131.372 -128.749 -125.813 -122.579 -119.083 -115.352 -111.382 -107.127 -102.510  -97.432  -91.818  -85.630  -78.895  -71.707  -64.211  -56.570  -48.940  -41.448  -34.215  -27.397  -21.216  -15.923  -11.710   -8.600   -6.433   -4.988   -4.052   -3.459   -3.097   -2.921   -2.853   -2.850   -2.865   -2.884   -2.943   -3.096   -3.401   -3.840   -4.383   -4.930   -5.421   -5.801   -6.033   -6.118   -6.058   -5.923   -5.770   -5.673   -5.677   -5.789   -5.966   -6.129   -6.166   -6.009   -5.720   -5.427   -5.248   -5.197   -5.248   -5.545
 -66.803  -67.856  -68.611  -69.465  -70.525  -71.790  -73.215  -74.733  -76.292  -77.886  -79.554  -81.376  -83.428  -85.749  -88.312  -91.032  -93.796  -96.523  -99.182 -101.803 -104.448 -107.193 -110.104 -113.207 -116.464 -119.783 -123.051 -126.198 -129.223 -132.176 -135.086 -137.912 -140.517 -142.709 -144.290 -145.167 -145.332 -144.847 -143.785 -142.201 -140.120 -137.562 -134.566 -131.181 -127.480 -123.509 -119.289 -114.801 -109.983 -104.758  -99.056  -92.850  -86.169  -79.102  -71.779  -64.328  -56.841  -49.357  -41.915  -34.603  -27.644  -21.358  -16.045  -11.851   -8.744   -6.578   -5.157   -4.318   -3.911   -3.787   -3.822   -3.878   -3.876   -3.783   -3.666   -3.643   -3.794   -4.136   -4.609   -5.115   -5.580   -5.951   -6.193   -6.294   -6.279   -6.203   -6.094   -5.990   -5.902   -5.809   -5.685   -5.495   -5.222   -4.890   -4.599   -4.490   -4.616   -4.908   -5.234   -5.669
 -73.522  -74.931  -75.817  -76.703  -77.712  -78.846  -80.066  -81.322  -82.575  -83.819  -85.088  -86.446  -87.958  -89.666  -91.574  -93.646  -95.818  -98.035 -100.262 -102.482 -104.701 -106.922 -109.146 -111.368 -113.566 -115.717 -117.836 -119.997 -122.344 -125.021 -128.113 -131.582 -135.284 -138.964 -142.314 -145.026 -146.873 -147.759 -147.687 -146.747 -145.026 -142.618 -139.609 -136.098 -132.187 -127.967 -123.508 -118.826 -113.892 -108.651 -103.052  -97.072  -90.738  -84.131  -77.351  -70.483  -63.554  -56.530  -49.362  -42.069  -34.815  -27.914  -21.718  -16.480  -12.326   -9.256   -7.185   -5.979   -5.439   -5.347   -5.466   -5.564   -5.480   -5.183   -4.796   -4.493   -4.449   -4.683   -5.117   -5.628   -6.120   -6.492   -6.716   -6.789   -6.755   -6.668   -6.555   -6.417   -6.238   -5.978   -5.642   -5.231   -4.782   -4.400   -4.218   -4.371   -4.852   -5.521   -6.152   -6.733
 -76.247  -77.826  -78.853  -79.852  -80.927  -82.069  -83.239  -84.398  -85.514  -86.589  -87.650  -88.753  -89.963  -91.328  -92.872  -94.581  -96.422  -98.348 -100.311 -102.266 -104.171 -105.981 -107.645 -109.112 -110.351 -111.377 -112.294 -113.321 -114.753 -116.869 -119.814 -123.539 -127.828 -132.378 -136.849 -140.878 -144.116 -146.300 -147.312 -147.168 -145.983 -143.873 -140.969 -137.413 -133.358 -128.964 -124.346 -119.576 -114.661 -109.573 -104.271  -98.730  -92.968  -87.036  -80.995  -74.879  -68.665  -62.275  -55.618  -48.666  -41.525  -34.460  -27.792  -21.826  -16.794  -12.859  -10.084   -8.395   -7.607   -7.435   -7.535   -7.590   -7.353   -6.782   -6.024   -5.359   -5.019   -5.059   -5.399   -5.891   -6.378   -6.750   -6.943   -6.965   -6.883   -6.753   -6.616   -6.447   -6.212   -5.875   -5.457   -4.997   -4.583   -4.343   -4.435   -4.955   -5.849   -6.902   -7.829   -8.527
 -75.090  -76.630  -77.761  -78.898  -80.098  -81.332  -82.559  -83.744  -84.865  -85.920  -86.939  -87.978  -89.106  -90.383  -91.840  -93.481  -95.272  -97.162  -99.087 -100.976 -102.761 -104.368 -105.714 -106.709 -107.293 -107.473 -107.385 -107.321 -107.695 -108.935 -111.317 -114.861 -119.322 -124.309 -129.400 -134.197 -138.329 -141.467 -143.394 -144.039 -143.462 -141.770 -139.102 -135.630 -131.562 -127.109 -122.456 -117.723 -112.965 -108.173 -103.312  -98.345  -93.261  -88.070  -82.785  -77.398  -71.856  -66.073  -59.957  -53.468  -46.688  -39.820  -33.135  -26.899  -21.390  -16.861  -13.487  -11.288  -10.115   -9.669   -9.587   -9.475   -9.036   -8.176   -7.071   -6.036   -5.356   -5.118   -5.251   -5.592   -5.984   -6.291   -6.430   -6.401   -6.273   -6.111   -5.950   -5.771   -5.539   -5.226   -4.879   -4.562   -4.387   -4.493   -5.010   -5.988   -7.301   -8.702   -9.869  -10.646
 -71.234  -72.577  -73.742  -74.981  -76.291  -77.624  -78.939  -80.201  -81.391  -82.510  -83.586  -84.682  -85.879  -87.249  -88.830  -90.623  -92.586  -94.650  -96.731  -98.741 -100.594 -102.203 -103.467 -104.279 -104.546 -104.254 -103.525 -102.658 -102.109 -102.387 -103.894 -106.790 -110.933 -115.944 -121.324 -126.570 -131.241 -134.975 -137.516 -138.750 -138.687 -137.401 -135.024 -131.736 -127.764 -123.374 -118.798 -114.212 -109.708 -105.299 -100.943  -96.581  -92.160  -87.648  -83.015  -78.222  -73.216  -67.924  -62.276  -56.248  -49.914  -43.445  -37.048  -30.941  -25.364  -20.576  -16.809  -14.148  -12.501  -11.637  -11.222  -10.843  -10.184   -9.105   -7.752   -6.445   -5.472   -4.933   -4.775   -4.863   -5.058   -5.228   -5.285   -5.216   -5.066   -4.896   -4.735   -4.579   -4.407   -4.218   -4.060   -4.024   -4.220   -4.771   -5.760   -7.158   -8.806  -10.434  -11.712  -12.518
 -66.606  -67.725  -68.861  -70.122  -71.470  -72.847  -74.211  -75.529  -76.782  -77.970  -79.125  -80.317  -81.636  -83.167  -84.952  -86.981  -89.196  -91.512  -93.824  -96.029  -98.032  -99.744 -101.060 -101.861 -102.045 -101.574 -100.550  -99.247  -98.103  -97.636  -98.300 -100.368 -103.846 -108.472 -113.772 -119.173 -124.130 -128.213 -131.127 -132.740 -133.029 -132.059 -129.944 -126.862 -123.062 -118.821 -114.415 -110.056 -105.866 -101.865  -98.000  -94.182  -90.323  -86.353  -82.217  -77.865  -73.250  -68.325  -63.049  -57.415  -51.501  -45.455  -39.441  -33.630  -28.209  -23.410  -19.448  -16.438  -14.354  -13.048  -12.250  -11.614  -10.775   -9.568   -8.092   -6.642   -5.477   -4.706   -4.277   -4.108   -4.078   -4.087   -4.063   -3.970   -3.825   -3.667   -3.531   -3.420   -3.346   -3.308   -3.370   -3.626   -4.187   -5.120   -6.464   -8.145   -9.976  -11.677  -12.977  -13.782
 -62.961  -63.983  -65.062  -66.273  -67.575  -68.916  -70.256  -71.564  -72.821  -74.028  -75.217  -76.460  -77.853  -79.486  -81.393  -83.561  -85.921  -88.377  -90.816  -93.128  -95.219  -96.998  -98.362  -99.194  -99.387  -98.898  -97.812  -96.379  -94.998  -94.149  -94.280  -95.702  -98.514 -102.566 -107.472 -112.692 -117.654 -121.869 -124.994 -126.840 -127.358 -126.598 -124.671 -121.768 -118.146 -114.107 -109.932 -105.853 -101.988  -98.360  -94.903  -91.510  -88.072  -84.501  -80.732  -76.713  -72.410  -67.791  -62.832  -57.539  -51.983  -46.298  -40.621  -35.091  -29.860  -25.131  -21.114  -17.925  -15.584  -13.998  -12.958  -12.137  -11.190   -9.929   -8.431   -6.940   -5.696   -4.798   -4.222   -3.887   -3.724   -3.632   -3.552   -3.446   -3.310   -3.167   -3.050   -2.977   -2.961   -3.028   -3.224   -3.656   -4.399   -5.530   -7.035   -8.828  -10.697  -12.389  -13.680  -14.566
