DSAA
 100 100
 0.0 400.0
 0.0 400.0
 -146.655 -0.2632269
 -15.888  -16.052  -16.294  -16.658  -17.147  -17.732  -18.352  -18.936  -19.380  -19.589  -19.457  -18.853  -17.672  -15.912  -13.740  -11.505   -9.634   -8.435   -7.970   -8.100   -8.634   -9.415  -10.378  -11.478  -12.626  -13.646  -14.324  -14.493  -14.117  -13.248  -11.970  -10.419   -8.793   -7.371   -6.411   -5.986   -5.990   -6.210   -6.445   -6.572   -6.557   -6.425   -6.235   -6.067   -5.965   -5.962   -6.055   -6.211   -6.391   -6.586   -6.800   -7.042   -7.288   -7.442   -7.362   -6.907   -6.004   -4.764   -3.415   -2.232   -1.380   -0.859   -0.580   -0.452   -0.404   -0.375   -0.367   -0.359   -0.352   -0.344   -0.339   -0.339   -0.340   -0.342   -0.344   -0.347   -0.340   -0.339   -0.343   -0.357   -0.367   -0.373   -0.383   -0.403   -0.430   -0.476   -0.549   -0.669   -0.854   -1.132   -1.538   -2.062   -2.703   -3.442   -4.299   -5.318   -6.489   -7.688   -8.681   -9.329
 -15.728  -15.869  -16.080  -16.393  -16.814  -17.323  -17.879  -18.398  -18.797  -18.983  -18.852  -18.290  -17.176  -15.504  -13.423  -11.268   -9.436   -8.231   -7.726   -7.801   -8.262   -8.978   -9.879  -10.925  -12.030  -13.033  -13.745  -14.016  -13.801  -13.124  -12.043  -10.643   -9.122   -7.739   -6.726   -6.173   -6.009   -6.073   -6.211   -6.298   -6.284   -6.177   -6.024   -5.887   -5.818   -5.836   -5.941   -6.098   -6.271   -6.453   -6.658   -6.892   -7.139   -7.320   -7.292   -6.917   -6.120   -4.979   -3.699   -2.532   -1.641   -1.060   -0.730   -0.563   -0.482   -0.446   -0.422   -0.405   -0.385   -0.370   -0.355   -0.344   -0.342   -0.341   -0.335   -0.337   -0.337   -0.341   -0.346   -0.353   -0.361   -0.378   -0.394   -0.431   -0.488   -0.584   -0.736   -0.970   -1.303   -1.773   -2.401   -3.182   -4.071   -5.031   -6.076   -7.225   -8.483   -9.728  -10.721  -11.311
 -15.282  -15.390  -15.535  -15.749  -16.038  -16.398  -16.805  -17.191  -17.481  -17.601  -17.468  -16.980  -16.032  -14.592  -12.773  -10.846   -9.154   -7.981   -7.413   -7.372   -7.693   -8.261   -9.014   -9.912  -10.877  -11.791  -12.515  -12.939  -13.007  -12.691  -11.986  -10.944   -9.696   -8.452   -7.405   -6.642   -6.159   -5.907   -5.819   -5.809   -5.809   -5.781   -5.737   -5.712   -5.746   -5.837   -5.962   -6.091   -6.204   -6.327   -6.473   -6.670   -6.896   -7.096   -7.148   -6.928   -6.352   -5.445   -4.346   -3.257   -2.338   -1.662   -1.228   -0.974   -0.842   -0.771   -0.721   -0.676   -0.621   -0.563   -0.524   -0.494   -0.478   -0.470   -0.466   -0.459   -0.454   -0.457   -0.463   -0.475   -0.496   -0.523   -0.565   -0.649   -0.792   -1.039   -1.402   -1.909   -2.578   -3.441   -4.505   -5.732   -7.033   -8.319   -9.578  -10.845  -12.125  -13.315  -14.234  -14.696
 -14.454  -14.514  -14.575  -14.660  -14.779  -14.954  -15.180  -15.408  -15.568  -15.602  -15.457  -15.059  -14.323  -13.206  -11.764  -10.182   -8.734   -7.659   -7.064   -6.906   -7.061   -7.436   -7.979   -8.657   -9.404  -10.149  -10.822  -11.355  -11.695  -11.774  -11.535  -10.972  -10.150   -9.186   -8.185   -7.223   -6.378   -5.737   -5.350   -5.203   -5.215   -5.326   -5.506   -5.745   -6.023   -6.283   -6.462   -6.526   -6.490   -6.428   -6.410   -6.478   -6.630   -6.813   -6.943   -6.904   -6.592   -6.000   -5.184   -4.274   -3.411   -2.696   -2.172   -1.835   -1.636   -1.529   -1.440   -1.347   -1.224   -1.094   -0.985   -0.919   -0.883   -0.868   -0.853   -0.831   -0.812   -0.804   -0.813   -0.847   -0.890   -0.952   -1.056   -1.238   -1.560   -2.079   -2.816   -3.769   -4.921   -6.274   -7.807   -9.439  -11.044  -12.513  -13.821  -15.024  -16.152  -17.158  -17.898  -18.180
 -13.176  -13.168  -13.135  -13.077  -13.023  -13.018  -13.071  -13.143  -13.181  -13.137  -12.984  -12.687  -12.189  -11.440  -10.446   -9.303   -8.195   -7.319   -6.770   -6.546   -6.564   -6.749   -7.054   -7.462   -7.927   -8.419   -8.937   -9.460   -9.960  -10.368  -10.609  -10.623  -10.368   -9.816   -8.950   -7.853   -6.684   -5.664   -4.966   -4.657   -4.681   -4.989   -5.511   -6.187   -6.894   -7.477   -7.790   -7.778   -7.500   -7.113   -6.783   -6.597   -6.566   -6.646   -6.782   -6.872   -6.818   -6.554   -6.082   -5.458   -4.773   -4.137   -3.613   -3.244   -3.025   -2.898   -2.792   -2.644   -2.435   -2.201   -2.010   -1.891   -1.838   -1.812   -1.781   -1.735   -1.690   -1.674   -1.696   -1.764   -1.861   -1.989   -2.184   -2.532   -3.124   -4.033   -5.245   -6.698   -8.327  -10.080  -11.905  -13.708  -15.341  -16.711  -17.818  -18.754  -19.583  -20.298  -20.804  -20.902
 -11.513  -11.432  -11.294  -11.097  -10.879  -10.710  -10.616  -10.569  -10.514  -10.416  -10.275  -10.084   -9.830   -9.462   -8.943   -8.294   -7.608   -7.020   -6.619   -6.411   -6.353   -6.388   -6.484   -6.618   -6.768   -6.950   -7.202   -7.572   -8.079   -8.712   -9.416  -10.082  -10.506  -10.458   -9.811   -8.640   -7.220   -5.882   -4.894   -4.385   -4.377   -4.861   -5.777   -6.986   -8.266   -9.317   -9.887   -9.879   -9.385   -8.650   -7.926   -7.359   -6.996   -6.836   -6.852   -6.971   -7.095   -7.116   -6.980   -6.679   -6.274   -5.832   -5.424   -5.118   -4.943   -4.850   -4.765   -4.604   -4.343   -4.043   -3.789   -3.639   -3.582   -3.561   -3.526   -3.464   -3.404   -3.383   -3.427   -3.541   -3.709   -3.936   -4.266   -4.814   -5.703   -6.989   -8.612  -10.436  -12.353  -14.283  -16.165  -17.882  -19.293  -20.321  -21.028  -21.550  -22.009  -22.418  -22.701  -22.656
  -9.724   -9.560   -9.315   -8.983   -8.625   -8.325   -8.125   -7.998   -7.897   -7.779   -7.657   -7.566   -7.537   -7.538   -7.496   -7.358   -7.131   -6.892   -6.712   -6.608   -6.547   -6.503   -6.445   -6.356   -6.223   -6.082   -6.009   -6.105   -6.471   -7.199   -8.302   -9.605  -10.717  -11.201  -10.830   -9.693   -8.146   -6.606   -5.372   -4.609   -4.431   -4.936   -6.126   -7.825   -9.678  -11.250  -12.194  -12.356  -11.840  -10.921   -9.889   -8.923   -8.125   -7.578   -7.337   -7.377   -7.575   -7.778   -7.883   -7.863   -7.731   -7.525   -7.303   -7.131   -7.060   -7.059   -7.054   -6.955   -6.730   -6.451   -6.214   -6.093   -6.070   -6.081   -6.068   -6.019   -5.966   -5.960   -6.035   -6.202   -6.453   -6.787   -7.256   -7.985   -9.085  -10.595  -12.408  -14.353  -16.312  -18.220  -20.002  -21.511  -22.573  -23.138  -23.331  -23.383  -23.465  -23.608  -23.716  -23.567
  -8.167   -7.923   -7.566   -7.105   -6.632   -6.248   -5.994   -5.842   -5.737   -5.623   -5.527   -5.523   -5.687   -6.013   -6.408   -6.751   -6.978   -7.103   -7.173   -7.209   -7.210   -7.151   -7.021   -6.788   -6.456   -6.052   -5.662   -5.425   -5.535   -6.197   -7.504   -9.244  -10.881  -11.839  -11.800  -10.882   -9.465   -7.947   -6.575   -5.508   -4.959   -5.210   -6.397   -8.345  -10.610  -12.642  -14.006  -14.500  -14.207  -13.380  -12.274  -11.054   -9.859   -8.885   -8.323   -8.208   -8.391   -8.660   -8.878   -9.000   -9.040   -9.015   -8.961   -8.928   -8.973   -9.091   -9.209   -9.241   -9.149   -8.980   -8.851   -8.820   -8.870   -8.936   -8.962   -8.950   -8.931   -8.957   -9.071   -9.290   -9.613  -10.038  -10.616  -11.446  -12.625  -14.156  -15.919  -17.755  -19.580  -21.357  -23.001  -24.293  -25.012  -25.101  -24.767  -24.347  -24.082  -24.000  -23.976  -23.759
  -7.172   -6.853   -6.373   -5.778   -5.216   -4.782   -4.529   -4.406   -4.333   -4.254   -4.194   -4.265   -4.593   -5.189   -5.946   -6.695   -7.313   -7.755   -8.056   -8.232   -8.301   -8.267   -8.115   -7.827   -7.389   -6.819   -6.184   -5.623   -5.391   -5.789   -6.991   -8.805  -10.659  -11.927  -12.283  -11.828  -10.882   -9.724   -8.430   -7.094   -6.022   -5.708   -6.524   -8.394  -10.823  -13.166  -14.896  -15.779  -15.859  -15.331  -14.377  -13.114  -11.710  -10.453   -9.659   -9.418   -9.550   -9.795   -9.985  -10.094  -10.155  -10.190  -10.217  -10.281  -10.427  -10.664  -10.922  -11.114  -11.193  -11.192  -11.205  -11.281  -11.403  -11.505  -11.549  -11.555  -11.569  -11.636  -11.793  -12.060  -12.440  -12.928  -13.559  -14.405  -15.534  -16.940  -18.502  -20.102  -21.704  -23.315  -24.820  -25.927  -26.350  -26.028  -25.236  -24.407  -23.843  -23.569  -23.434  -23.163
  -6.872   -6.472   -5.862   -5.130   -4.472   -4.024   -3.799   -3.736   -3.733   -3.719   -3.726   -3.904   -4.378   -5.189   -6.214   -7.258   -8.150   -8.820   -9.270   -9.539   -9.651   -9.633   -9.480   -9.184   -8.708   -8.049   -7.243   -6.412   -5.810   -5.774   -6.558   -8.046   -9.764  -11.156  -11.926  -12.134  -11.964  -11.468  -10.513   -9.058   -7.465   -6.439   -6.613   -8.102  -10.436  -12.890  -14.852  -16.034  -16.446  -16.247  -15.556  -14.445  -13.088  -11.826  -11.016  -10.764  -10.863  -11.027  -11.098  -11.082  -11.040  -11.015  -11.042  -11.152  -11.380  -11.723  -12.121  -12.472  -12.713  -12.858  -12.978  -13.122  -13.260  -13.329  -13.321  -13.278  -13.283  -13.385  -13.596  -13.922  -14.345  -14.857  -15.465  -16.230  -17.214  -18.409  -19.714  -21.033  -22.378  -23.793  -25.143  -26.084  -26.272  -25.648  -24.525  -23.399  -22.599  -22.148  -21.890  -21.580
  -7.193   -6.729   -5.985   -5.120   -4.377   -3.910   -3.722   -3.720   -3.785   -3.845   -3.969   -4.286   -4.928   -5.900   -7.083   -8.276   -9.310  -10.086  -10.595  -10.872  -10.974  -10.939  -10.774  -10.467   -9.982   -9.277   -8.354   -7.302   -6.353   -5.834   -6.022   -6.928   -8.253   -9.597  -10.728  -11.643  -12.347  -12.641  -12.181  -10.821   -8.905   -7.258   -6.748   -7.702   -9.742  -12.105  -14.099  -15.386  -15.966  -15.987  -15.560  -14.744  -13.689  -12.707  -12.110  -11.960  -12.049  -12.115  -12.045  -11.880  -11.700  -11.574  -11.551  -11.667  -11.952  -12.388  -12.905  -13.392  -13.758  -13.984  -14.131  -14.247  -14.304  -14.246  -14.084  -13.910  -13.851  -13.967  -14.246  -14.633  -15.076  -15.543  -16.035  -16.622  -17.377  -18.311  -19.337  -20.372  -21.454  -22.643  -23.808  -24.579  -24.597  -23.802  -22.520  -21.241  -20.284  -19.662  -19.260  -18.934
  -7.951   -7.447   -6.614   -5.652   -4.843   -4.345   -4.162   -4.179   -4.265   -4.404   -4.664   -5.165   -5.979   -7.066   -8.299   -9.504  -10.531  -11.283  -11.744  -11.950  -11.977  -11.873  -11.661  -11.329  -10.824  -10.082   -9.079   -7.872   -6.648   -5.707   -5.338   -5.640   -6.500   -7.679   -9.036  -10.499  -11.915  -12.886  -12.941  -11.839   -9.894   -7.936   -6.930   -7.363   -8.990  -11.079  -12.908  -14.111  -14.689  -14.814  -14.625  -14.193  -13.618  -13.118  -12.871  -12.877  -12.956  -12.931  -12.761  -12.500  -12.233  -12.032  -11.956  -12.059  -12.360  -12.845  -13.430  -13.987  -14.398  -14.618  -14.695  -14.678  -14.558  -14.288  -13.899  -13.537  -13.371  -13.482  -13.803  -14.219  -14.628  -14.968  -15.258  -15.579  -16.046  -16.692  -17.446  -18.223  -19.059  -20.009  -20.958  -21.562  -21.482  -20.671  -19.421  -18.154  -17.128  -16.366  -15.819  -15.486
  -8.910   -8.418   -7.571   -6.588   -5.747   -5.207   -4.968   -4.926   -4.995   -5.184   -5.589   -6.289   -7.268   -8.424   -9.613  -10.714  -11.606  -12.219  -12.530  -12.587  -12.468  -12.249  -11.953  -11.565  -11.024  -10.258   -9.215   -7.925   -6.552   -5.361   -4.623   -4.508   -4.997   -5.982   -7.363   -9.053  -10.814  -12.178  -12.623  -11.881  -10.186   -8.279   -7.076   -7.122   -8.311  -10.016  -11.567  -12.596  -13.104  -13.279  -13.307  -13.271  -13.226  -13.247  -13.356  -13.498  -13.557  -13.477  -13.285  -13.046  -12.804  -12.595  -12.491  -12.557  -12.816  -13.249  -13.775  -14.269  -14.616  -14.740  -14.663  -14.440  -14.088  -13.584  -12.972  -12.426  -12.144  -12.197  -12.489  -12.858  -13.152  -13.309  -13.347  -13.386  -13.565  -13.956  -14.490  -15.077  -15.715  -16.445  -17.166  -17.607  -17.497  -16.808  -15.759  -14.655  -13.661  -12.814  -12.162  -11.826
  -9.839   -9.396   -8.622   -7.701   -6.871   -6.279   -5.932   -5.780   -5.786   -6.012   -6.550   -7.437   -8.553   -9.739  -10.843  -11.766  -12.444  -12.833  -12.922  -12.768  -12.458  -12.080  -11.667  -11.195  -10.611   -9.836   -8.804   -7.535   -6.163   -4.936   -4.114   -3.852   -4.163   -4.962   -6.168   -7.702   -9.374  -10.777  -11.437  -11.074   -9.824   -8.255   -7.132   -6.975   -7.790   -9.117  -10.395  -11.273  -11.740  -11.968  -12.157  -12.420  -12.778  -13.189  -13.551  -13.760  -13.783  -13.687  -13.573  -13.481  -13.377  -13.245  -13.148  -13.159  -13.308  -13.566  -13.880  -14.162  -14.314  -14.254  -13.979  -13.542  -12.987  -12.320  -11.586  -10.938  -10.560  -10.511  -10.694  -10.918  -11.035  -10.985  -10.803  -10.621  -10.604  -10.833  -11.247  -11.741  -12.266  -12.812  -13.308  -13.577  -13.461  -12.943  -12.166  -11.286  -10.397   -9.553   -8.872   -8.550
 -10.495  -10.140   -9.492   -8.695   -7.912   -7.264   -6.805   -6.531   -6.482   -6.749   -7.417   -8.441   -9.650  -10.831  -11.834  -12.582  -13.046  -13.201  -13.053  -12.667  -12.145  -11.592  -11.041  -10.489   -9.869   -9.109   -8.154   -7.017   -5.808   -4.754   -4.084   -3.922   -4.226   -4.851   -5.716   -6.790   -8.008   -9.131   -9.808   -9.764   -9.020   -7.924   -7.049   -6.856   -7.445   -8.521   -9.633  -10.460  -10.941  -11.193  -11.425  -11.786  -12.300  -12.865  -13.309  -13.502  -13.469  -13.379  -13.396  -13.511  -13.604  -13.598  -13.526  -13.480  -13.489  -13.519  -13.539  -13.521  -13.407  -13.130  -12.665  -12.068  -11.416  -10.733  -10.052   -9.456   -9.071   -8.939   -8.971   -9.017   -8.944   -8.718   -8.397   -8.110   -8.009   -8.166   -8.537   -9.003   -9.458   -9.846  -10.120  -10.193  -10.010   -9.597   -9.021   -8.335   -7.584   -6.828   -6.204   -5.934
 -10.687  -10.420   -9.919   -9.260   -8.558   -7.901   -7.366   -7.033   -6.983   -7.316   -8.076   -9.174  -10.409  -11.555  -12.472  -13.100  -13.415  -13.403  -13.082  -12.521  -11.834  -11.131  -10.469   -9.842   -9.216   -8.520   -7.712   -6.798   -5.873   -5.125   -4.753   -4.827   -5.202   -5.664   -6.095   -6.540   -7.087   -7.705   -8.199   -8.324   -7.976   -7.321   -6.745   -6.651   -7.191   -8.191   -9.278  -10.140  -10.648  -10.876  -11.018  -11.270  -11.697  -12.195  -12.558  -12.651  -12.530  -12.424  -12.522  -12.791  -13.040  -13.127  -13.078  -12.991  -12.896  -12.753  -12.544  -12.280  -11.954  -11.511  -10.925  -10.280   -9.668   -9.149   -8.710   -8.362   -8.135   -8.031   -7.971   -7.855   -7.616   -7.260   -6.866   -6.543   -6.401   -6.495   -6.790   -7.174   -7.513   -7.725   -7.764   -7.615   -7.297   -6.876   -6.382   -5.837   -5.240   -4.638   -4.153   -3.968
 -10.305  -10.097   -9.719   -9.197   -8.595   -7.993   -7.489   -7.186   -7.209   -7.633   -8.453   -9.556  -10.737  -11.823  -12.687  -13.273  -13.548  -13.500  -13.131  -12.519  -11.767  -10.995  -10.279   -9.637   -9.039   -8.455   -7.837   -7.189   -6.582   -6.174   -6.117   -6.415   -6.856   -7.150   -7.154   -6.966   -6.808   -6.827   -6.962   -7.026   -6.853   -6.486   -6.179   -6.259   -6.894   -7.955   -9.113  -10.038  -10.557  -10.702  -10.674  -10.708  -10.920  -11.225  -11.423  -11.371  -11.139  -10.952  -11.006  -11.265  -11.522  -11.608  -11.546  -11.446  -11.338  -11.184  -10.940  -10.623  -10.244   -9.766   -9.186   -8.606   -8.160   -7.927   -7.879   -7.930   -8.021   -8.072   -8.003   -7.749   -7.334   -6.843   -6.375   -6.013   -5.807   -5.768   -5.871   -6.041   -6.161   -6.150   -5.959   -5.608   -5.157   -4.686   -4.242   -3.808   -3.379   -2.976   -2.669   -2.581
  -9.381   -9.199   -8.894   -8.482   -7.998   -7.519   -7.139   -6.973   -7.127   -7.649   -8.487   -9.530  -10.615  -11.622  -12.464  -13.091  -13.446  -13.493  -13.231  -12.717  -12.039  -11.315  -10.629  -10.021   -9.500   -9.044   -8.613   -8.193   -7.844   -7.691   -7.845   -8.267   -8.701   -8.831   -8.502   -7.838   -7.122   -6.584   -6.278   -6.090   -5.879   -5.639   -5.544   -5.837   -6.630   -7.805   -9.035   -9.980  -10.440  -10.444  -10.208  -10.000   -9.970  -10.065  -10.100   -9.935   -9.605   -9.299   -9.192   -9.268   -9.362   -9.343   -9.235   -9.162   -9.159   -9.176   -9.137   -9.012   -8.779   -8.419   -7.958   -7.531   -7.298   -7.367   -7.704   -8.169   -8.591   -8.800   -8.687   -8.249   -7.609   -6.940   -6.387   -5.988   -5.704   -5.490   -5.332   -5.201   -5.057   -4.817   -4.452   -3.982   -3.478   -3.021   -2.650   -2.342   -2.089   -1.876   -1.727   -1.720
  -8.137   -7.939   -7.658   -7.303   -6.939   -6.627   -6.440   -6.469   -6.780   -7.377   -8.186   -9.115  -10.069  -10.987  -11.829  -12.550  -13.071  -13.333  -13.309  -13.023  -12.550  -11.983  -11.410  -10.892  -10.463  -10.112   -9.803   -9.517   -9.293   -9.241   -9.442   -9.837  -10.179  -10.169   -9.658   -8.762   -7.746   -6.857   -6.194   -5.726   -5.398   -5.223   -5.328   -5.843   -6.810   -8.065   -9.282  -10.119  -10.395  -10.152   -9.632   -9.142   -8.864   -8.767   -8.678   -8.456   -8.089   -7.696   -7.408   -7.250   -7.120   -6.961   -6.827   -6.841   -7.047   -7.388   -7.725   -7.953   -7.997   -7.845   -7.566   -7.302   -7.233   -7.483   -8.029   -8.710   -9.274   -9.492   -9.228   -8.541   -7.648   -6.817   -6.199   -5.790   -5.470   -5.137   -4.770   -4.403   -4.041   -3.654   -3.212   -2.738   -2.286   -1.923   -1.668   -1.493   -1.371   -1.301   -1.266   -1.319
  -6.967   -6.723   -6.400   -6.052   -5.771   -5.621   -5.644   -5.866   -6.306   -6.920   -7.636   -8.400   -9.182   -9.988  -10.821  -11.649  -12.377  -12.923  -13.220  -13.263  -13.088  -12.761  -12.368  -11.976  -11.633  -11.331  -11.048  -10.761  -10.515  -10.403  -10.487  -10.716  -10.891  -10.763  -10.217   -9.329   -8.313   -7.364   -6.583   -6.015   -5.678   -5.652   -6.008   -6.785   -7.916   -9.181  -10.251  -10.813  -10.727  -10.080   -9.158   -8.300   -7.712   -7.385   -7.169   -6.911   -6.565   -6.158   -5.785   -5.475   -5.210   -4.991   -4.896   -5.067   -5.555   -6.271   -7.023   -7.619   -7.954   -8.022   -7.911   -7.766   -7.752   -7.988   -8.478   -9.075   -9.511   -9.534   -9.018   -8.082   -7.008   -6.100   -5.495   -5.126   -4.819   -4.453   -4.003   -3.533   -3.088   -2.671   -2.273   -1.897   -1.583   -1.360   -1.230   -1.162   -1.138   -1.148   -1.176   -1.258
  -6.324   -6.011   -5.598   -5.190   -4.935   -4.901   -5.080   -5.437   -5.918   -6.462   -7.008   -7.536   -8.089   -8.729   -9.502  -10.397  -11.321  -12.157  -12.814  -13.241  -13.426  -13.407  -13.240  -12.997  -12.720  -12.415  -12.062  -11.666  -11.274  -10.968  -10.813  -10.781  -10.739  -10.516  -10.023   -9.313   -8.525   -7.786   -7.172   -6.762   -6.643   -6.911   -7.600   -8.671   -9.957  -11.181  -12.010  -12.181  -11.618  -10.462   -9.048   -7.732   -6.753   -6.128   -5.726   -5.403   -5.069   -4.701   -4.338   -4.008   -3.744   -3.580   -3.623   -4.000   -4.763   -5.795   -6.870   -7.746   -8.303   -8.541   -8.564   -8.496   -8.459   -8.543   -8.768   -9.039   -9.135   -8.832   -8.054   -6.956   -5.831   -4.956   -4.416   -4.106   -3.839   -3.502   -3.076   -2.639   -2.241   -1.905   -1.623   -1.398   -1.252   -1.184   -1.162   -1.169   -1.200   -1.249   -1.304   -1.395
  -6.502   -6.122   -5.588   -5.079   -4.791   -4.791   -5.036   -5.414   -5.829   -6.198   -6.483   -6.701   -6.950   -7.353   -7.991   -8.866   -9.906  -10.988  -11.998  -12.824  -13.405  -13.738  -13.845  -13.774  -13.559  -13.213  -12.744  -12.173  -11.565  -11.000  -10.550  -10.215   -9.942   -9.625   -9.216   -8.747   -8.289   -7.912   -7.664   -7.614   -7.861   -8.498   -9.528  -10.852  -12.246  -13.402  -13.994  -13.805  -12.811  -11.217   -9.373   -7.645   -6.274   -5.317   -4.683   -4.233   -3.862   -3.517   -3.193   -2.922   -2.734   -2.700   -2.913   -3.493   -4.456   -5.673   -6.904   -7.909   -8.573   -8.925   -9.063   -9.078   -9.021   -8.942   -8.857   -8.723   -8.407   -7.772   -6.803   -5.656   -4.594   -3.810   -3.332   -3.046   -2.798   -2.509   -2.170   -1.841   -1.569   -1.362   -1.222   -1.158   -1.163   -1.213   -1.273   -1.322   -1.373   -1.437   -1.503   -1.591
  -7.433   -7.012   -6.387   -5.780   -5.428   -5.407   -5.628   -5.928   -6.177   -6.278   -6.230   -6.078   -5.980   -6.077   -6.494   -7.257   -8.305   -9.536  -10.816  -12.004  -12.981  -13.680  -14.085  -14.208  -14.072  -13.697  -13.108  -12.359  -11.527  -10.702   -9.967   -9.361   -8.871   -8.465   -8.123   -7.866   -7.736   -7.751   -7.916   -8.267   -8.870   -9.786  -11.009  -12.429  -13.815  -14.869  -15.278  -14.866  -13.660  -11.883   -9.878   -7.971   -6.382   -5.181   -4.324   -3.718   -3.255   -2.880   -2.574   -2.355   -2.262   -2.357   -2.726   -3.432   -4.466   -5.692   -6.888   -7.851   -8.503   -8.894   -9.131   -9.254   -9.246   -9.080   -8.764   -8.292   -7.638   -6.763   -5.707   -4.606   -3.645   -2.936   -2.479   -2.184   -1.951   -1.717   -1.489   -1.291   -1.151   -1.077   -1.060   -1.112   -1.211   -1.320   -1.410   -1.459   -1.502   -1.561   -1.618   -1.704
  -8.700   -8.294   -7.652   -7.015   -6.637   -6.591   -6.754   -6.927   -6.957   -6.756   -6.346   -5.833   -5.382   -5.178   -5.337   -5.905   -6.843   -8.085   -9.507  -10.946  -12.235  -13.247  -13.920  -14.235  -14.202  -13.840  -13.185  -12.309  -11.302  -10.275   -9.323   -8.514   -7.876   -7.399   -7.096   -6.992   -7.119   -7.461   -7.971   -8.624   -9.421  -10.406  -11.574  -12.854  -14.059  -14.918  -15.177  -14.702  -13.547  -11.932  -10.137   -8.406   -6.880   -5.628   -4.651   -3.905   -3.338   -2.911   -2.597   -2.418   -2.402   -2.594   -3.039   -3.760   -4.714   -5.773   -6.753   -7.512   -8.021   -8.371   -8.658   -8.893   -8.972   -8.798   -8.360   -7.691   -6.840   -5.858   -4.817   -3.827   -2.977   -2.335   -1.897   -1.603   -1.396   -1.238   -1.117   -1.037   -1.011   -1.035   -1.111   -1.222   -1.352   -1.461   -1.517   -1.528   -1.529   -1.556   -1.596   -1.671
  -9.873   -9.530   -8.976   -8.419   -8.092   -8.048   -8.162   -8.217   -8.042   -7.576   -6.877   -6.073   -5.354   -4.902   -4.834   -5.181   -5.941   -7.060   -8.452   -9.952  -11.369  -12.545  -13.377  -13.837  -13.904  -13.597  -12.945  -12.022  -10.931   -9.788   -8.714   -7.798   -7.082   -6.581   -6.309   -6.307   -6.604   -7.161   -7.888   -8.685   -9.500  -10.345  -11.244  -12.170  -13.009  -13.569  -13.678  -13.249  -12.357  -11.177   -9.895   -8.632   -7.438   -6.343   -5.378   -4.574   -3.940   -3.471   -3.163   -3.016   -3.046   -3.264   -3.689   -4.300   -5.038   -5.784   -6.418   -6.856   -7.130   -7.357   -7.633   -7.920   -8.064   -7.916   -7.442   -6.711   -5.824   -4.884   -3.975   -3.155   -2.465   -1.920   -1.531   -1.274   -1.124   -1.048   -1.014   -1.029   -1.083   -1.178   -1.300   -1.434   -1.549   -1.610   -1.596   -1.532   -1.468   -1.447   -1.459   -1.531
 -10.712  -10.475  -10.089   -9.715   -9.506   -9.507   -9.598   -9.576   -9.277   -8.653   -7.784   -6.828   -5.970   -5.382   -5.166   -5.339   -5.896   -6.802   -7.991   -9.322  -10.625  -11.739  -12.560  -13.047  -13.178  -12.939  -12.347  -11.460  -10.369   -9.201   -8.093   -7.147   -6.424   -5.939   -5.715   -5.787   -6.177   -6.837   -7.640   -8.446   -9.168   -9.786  -10.334  -10.834  -11.239  -11.464  -11.424  -11.108  -10.578   -9.949   -9.289   -8.601   -7.848   -7.030   -6.189   -5.403   -4.749   -4.271   -3.971   -3.841   -3.859   -4.021   -4.316   -4.702   -5.120   -5.488   -5.734   -5.837   -5.858   -5.933   -6.136   -6.408   -6.559   -6.431   -5.995   -5.329   -4.565   -3.807   -3.127   -2.543   -2.052   -1.658   -1.366   -1.180   -1.098   -1.083   -1.113   -1.179   -1.281   -1.410   -1.552   -1.680   -1.760   -1.756   -1.667   -1.519   -1.385   -1.313   -1.302   -1.364
 -11.222  -11.105  -10.939  -10.789  -10.746  -10.823  -10.918  -10.867  -10.527   -9.874   -8.976   -8.006   -7.136   -6.525   -6.248   -6.315   -6.693   -7.351   -8.215   -9.190  -10.150  -10.980  -11.608  -11.996  -12.117  -11.933  -11.428  -10.627   -9.606   -8.492   -7.419   -6.499   -5.805   -5.358   -5.177   -5.292   -5.705   -6.364   -7.133   -7.872   -8.473   -8.908   -9.193   -9.367   -9.443   -9.427   -9.326   -9.174   -9.010   -8.866   -8.717   -8.502   -8.133   -7.579   -6.885   -6.153   -5.496   -4.994   -4.664   -4.474   -4.404   -4.427   -4.516   -4.623   -4.711   -4.736   -4.666   -4.523   -4.375   -4.333   -4.457   -4.663   -4.789   -4.689   -4.355   -3.864   -3.337   -2.861   -2.465   -2.140   -1.854   -1.611   -1.426   -1.324   -1.293   -1.317   -1.375   -1.457   -1.560   -1.686   -1.806   -1.890   -1.914   -1.852   -1.706   -1.513   -1.340   -1.243   -1.209   -1.269
 -11.498  -11.508  -11.558  -11.645  -11.772  -11.929  -12.048  -12.006  -11.699  -11.103  -10.284   -9.387   -8.581   -8.002   -7.715   -7.712   -7.955   -8.367   -8.869   -9.402   -9.899  -10.318  -10.642  -10.852  -10.900  -10.740  -10.321   -9.636   -8.739   -7.740   -6.755   -5.896   -5.236   -4.802   -4.620   -4.711   -5.072   -5.642   -6.306   -6.943   -7.454   -7.799   -7.977   -8.026   -7.992   -7.941   -7.933   -8.004   -8.151   -8.343   -8.504   -8.547   -8.396   -8.002   -7.394   -6.683   -5.993   -5.416   -4.980   -4.658   -4.424   -4.260   -4.127   -3.998   -3.842   -3.653   -3.432   -3.207   -3.029   -2.967   -3.048   -3.197   -3.298   -3.261   -3.074   -2.814   -2.558   -2.358   -2.217   -2.095   -1.973   -1.853   -1.767   -1.735   -1.753   -1.804   -1.867   -1.933   -1.993   -2.037   -2.061   -2.053   -2.001   -1.891   -1.730   -1.546   -1.388   -1.300   -1.268   -1.321
 -11.631  -11.744  -11.978  -12.268  -12.546  -12.774  -12.908  -12.879  -12.625  -12.125  -11.431  -10.655   -9.940   -9.395   -9.089   -9.020   -9.126   -9.314   -9.492   -9.608   -9.662   -9.684   -9.703   -9.726   -9.705   -9.567   -9.239   -8.694   -7.970   -7.142   -6.303   -5.522   -4.872   -4.395   -4.134   -4.109   -4.321   -4.728   -5.230   -5.734   -6.170   -6.489   -6.679   -6.771   -6.822   -6.928   -7.150   -7.490   -7.899   -8.291   -8.589   -8.721   -8.629   -8.270   -7.670   -6.925   -6.164   -5.479   -4.893   -4.401   -3.991   -3.657   -3.365   -3.101   -2.850   -2.625   -2.424   -2.263   -2.169   -2.178   -2.277   -2.424   -2.539   -2.582   -2.551   -2.484   -2.429   -2.419   -2.430   -2.428   -2.403   -2.383   -2.404   -2.460   -2.546   -2.633   -2.700   -2.726   -2.686   -2.580   -2.437   -2.265   -2.095   -1.937   -1.791   -1.660   -1.561   -1.515   -1.506   -1.569
 -11.655  -11.833  -12.192  -12.618  -12.988  -13.243  -13.359  -13.312  -13.087  -12.675  -12.105  -11.458  -10.831  -10.318   -9.977   -9.817   -9.776   -9.761   -9.673   -9.478   -9.217   -8.958   -8.772   -8.680   -8.637   -8.557   -8.357   -8.003   -7.511   -6.925   -6.281   -5.616   -4.972   -4.399   -3.962   -3.719   -3.692   -3.854   -4.131   -4.461   -4.793   -5.082   -5.311   -5.507   -5.733   -6.072   -6.564   -7.160   -7.770   -8.287   -8.636   -8.775   -8.662   -8.275   -7.636   -6.844   -6.019   -5.249   -4.559   -3.950   -3.429   -2.997   -2.649   -2.375   -2.166   -2.027   -1.950   -1.927   -1.967   -2.067   -2.229   -2.408   -2.573   -2.707   -2.794   -2.842   -2.879   -2.932   -2.984   -3.020   -3.057   -3.137   -3.287   -3.483   -3.684   -3.839   -3.919   -3.890   -3.718   -3.419   -3.041   -2.664   -2.343   -2.108   -1.962   -1.876   -1.844   -1.853   -1.887   -1.968
 -11.567  -11.782  -12.204  -12.684  -13.068  -13.282  -13.308  -13.176  -12.916  -12.539  -12.067  -11.539  -11.015  -10.547  -10.180   -9.922   -9.731   -9.535   -9.260   -8.882   -8.463   -8.083   -7.820   -7.709   -7.709   -7.749   -7.744   -7.652   -7.470   -7.203   -6.826   -6.334   -5.717   -5.027   -4.361   -3.822   -3.477   -3.324   -3.320   -3.419   -3.590   -3.804   -4.038   -4.312   -4.681   -5.205   -5.885   -6.647   -7.370   -7.949   -8.322   -8.453   -8.311   -7.893   -7.232   -6.428   -5.601   -4.838   -4.162   -3.561   -3.047   -2.633   -2.325   -2.132   -2.043   -2.047   -2.113   -2.218   -2.359   -2.539   -2.743   -2.960   -3.180   -3.383   -3.526   -3.598   -3.624   -3.643   -3.666   -3.701   -3.790   -3.994   -4.316   -4.703   -5.060   -5.312   -5.421   -5.339   -5.042   -4.556   -3.951   -3.351   -2.841   -2.470   -2.264   -2.173   -2.166   -2.205   -2.270   -2.368
 -11.410  -11.631  -12.060  -12.523  -12.846  -12.933  -12.786  -12.483  -12.103  -11.691  -11.270  -10.847  -10.437  -10.046   -9.690   -9.365   -9.056   -8.726   -8.346   -7.908   -7.460   -7.082   -6.846   -6.783   -6.880   -7.079   -7.325   -7.564   -7.767   -7.886   -7.851   -7.586   -7.049   -6.280   -5.407   -4.573   -3.897   -3.405   -3.088   -2.917   -2.883   -2.976   -3.165   -3.454   -3.876   -4.449   -5.155   -5.913   -6.619   -7.181   -7.539   -7.664   -7.521   -7.110   -6.477   -5.730   -4.992   -4.347   -3.814   -3.360   -2.977   -2.688   -2.513   -2.459   -2.529   -2.668   -2.848   -3.029   -3.218   -3.414   -3.620   -3.841   -4.079   -4.292   -4.422   -4.449   -4.390   -4.327   -4.296   -4.333   -4.495   -4.848   -5.371   -5.971   -6.498   -6.861   -7.001   -6.888   -6.506   -5.879   -5.098   -4.288   -3.570   -3.024   -2.674   -2.488   -2.440   -2.469   -2.540   -2.644
 -11.265  -11.473  -11.881  -12.283  -12.488  -12.381  -11.990  -11.434  -10.849  -10.332   -9.904   -9.557   -9.262   -8.974   -8.669   -8.333   -7.968   -7.581   -7.173   -6.758   -6.365   -6.055   -5.880   -5.884   -6.075   -6.439   -6.945   -7.539   -8.155   -8.694   -9.025   -9.033   -8.644   -7.893   -6.910   -5.874   -4.941   -4.169   -3.568   -3.144   -2.914   -2.875   -2.995   -3.241   -3.608   -4.082   -4.632   -5.196   -5.711   -6.131   -6.407   -6.506   -6.378   -6.021   -5.483   -4.869   -4.302   -3.862   -3.560   -3.352   -3.213   -3.135   -3.154   -3.287   -3.505   -3.760   -4.004   -4.209   -4.381   -4.537   -4.700   -4.882   -5.071   -5.232   -5.283   -5.204   -5.045   -4.897   -4.832   -4.899   -5.156   -5.660   -6.370   -7.152   -7.825   -8.275   -8.445   -8.314   -7.883   -7.172   -6.269   -5.289   -4.375   -3.635   -3.116   -2.801   -2.653   -2.637   -2.691   -2.800
 -11.204  -11.401  -11.776  -12.105  -12.170  -11.852  -11.189  -10.334   -9.491   -8.799   -8.309   -8.000   -7.798   -7.615   -7.391   -7.101   -6.751   -6.377   -6.012   -5.665   -5.356   -5.121   -4.997   -5.046   -5.299   -5.783   -6.501   -7.407   -8.398   -9.316   -9.992  -10.279  -10.098   -9.470   -8.521   -7.440   -6.389   -5.453   -4.671   -4.080   -3.714   -3.576   -3.623   -3.787   -4.020   -4.276   -4.517   -4.729   -4.899   -5.043   -5.148   -5.168   -5.054   -4.789   -4.402   -3.989   -3.651   -3.473   -3.456   -3.548   -3.692   -3.873   -4.120   -4.441   -4.794   -5.123   -5.375   -5.549   -5.673   -5.770   -5.861   -5.968   -6.077   -6.147   -6.097   -5.916   -5.671   -5.472   -5.411   -5.532   -5.885   -6.494   -7.306   -8.166   -8.897   -9.360   -9.512   -9.354   -8.891   -8.133   -7.154   -6.061   -5.017   -4.144   -3.493   -3.066   -2.838   -2.768   -2.811   -2.921
 -11.229  -11.424  -11.776  -12.046  -11.994  -11.494  -10.581   -9.438   -8.317   -7.422   -6.833   -6.519   -6.376   -6.280   -6.140   -5.925   -5.649   -5.351   -5.065   -4.803   -4.572   -4.390   -4.303   -4.365   -4.632   -5.173   -6.016   -7.129   -8.390   -9.598  -10.554  -11.096  -11.143  -10.718   -9.932   -8.946   -7.922   -6.969   -6.142   -5.497   -5.079   -4.885   -4.864   -4.921   -4.967   -4.934   -4.800   -4.576   -4.325   -4.114   -3.980   -3.880   -3.767   -3.597   -3.391   -3.215   -3.147   -3.252   -3.532   -3.926   -4.361   -4.804   -5.262   -5.734   -6.171   -6.516   -6.741   -6.869   -6.932   -6.971   -7.010   -7.057   -7.100   -7.087   -6.969   -6.735   -6.465   -6.275   -6.248   -6.414   -6.796   -7.399   -8.156   -8.935   -9.564   -9.922   -9.980   -9.750   -9.242   -8.463   -7.459   -6.341   -5.275   -4.383   -3.712   -3.257   -2.999   -2.925   -2.968   -3.089
 -11.211  -11.407  -11.757  -12.007  -11.890  -11.269  -10.173   -8.802   -7.443   -6.350   -5.645   -5.306   -5.195   -5.166   -5.106   -4.984   -4.808   -4.613   -4.421   -4.241   -4.070   -3.925   -3.858   -3.917   -4.165   -4.684   -5.548   -6.753   -8.162   -9.556  -10.707  -11.453  -11.720  -11.526  -10.956  -10.151   -9.259   -8.401   -7.647   -7.052   -6.651   -6.429   -6.327   -6.250   -6.083   -5.753   -5.246   -4.611   -3.969   -3.431   -3.065   -2.851   -2.730   -2.647   -2.607   -2.654   -2.852   -3.234   -3.785   -4.444   -5.133   -5.797   -6.419   -6.979   -7.440   -7.761   -7.940   -8.018   -8.041   -8.059   -8.081   -8.106   -8.121   -8.089   -7.972   -7.770   -7.552   -7.412   -7.415   -7.574   -7.882   -8.320   -8.841   -9.342   -9.705   -9.837   -9.717   -9.368   -8.804   -8.027   -7.073   -6.047   -5.091   -4.312   -3.736   -3.350   -3.141   -3.094   -3.157   -3.298
 -10.893  -11.100  -11.467  -11.725  -11.604  -10.947   -9.764   -8.262   -6.750   -5.514   -4.724   -4.359   -4.268   -4.284   -4.293   -4.255   -4.189   -4.113   -4.014   -3.902   -3.776   -3.666   -3.615   -3.661   -3.864   -4.316   -5.125   -6.313   -7.764   -9.238  -10.505  -11.397  -11.841  -11.851  -11.492  -10.887  -10.177   -9.477   -8.868   -8.384   -8.032   -7.792   -7.602   -7.375   -6.999   -6.396   -5.578   -4.634   -3.720   -2.987   -2.504   -2.240   -2.127   -2.111   -2.189   -2.402   -2.805   -3.401   -4.167   -5.028   -5.903   -6.724   -7.444   -8.033   -8.465   -8.739   -8.877   -8.928   -8.944   -8.962   -8.999   -9.041   -9.072   -9.064   -9.005   -8.887   -8.762   -8.688   -8.702   -8.795   -8.937   -9.099   -9.245   -9.340   -9.323   -9.148   -8.801   -8.318   -7.701   -6.967   -6.148   -5.321   -4.591   -4.025   -3.628   -3.370   -3.241   -3.250   -3.342   -3.498
 -10.049  -10.253  -10.638  -10.940  -10.868  -10.252   -9.089   -7.579   -6.037   -4.768   -3.950   -3.576   -3.494   -3.533   -3.584   -3.616   -3.644   -3.656   -3.643   -3.591   -3.515   -3.445   -3.410   -3.442   -3.594   -3.969   -4.687   -5.791   -7.187   -8.652   -9.954  -10.925  -11.485  -11.643  -11.458  -11.034  -10.513  -10.001   -9.564   -9.209   -8.916   -8.656   -8.378   -8.012   -7.453   -6.643   -5.615   -4.502   -3.486   -2.726   -2.266   -2.055   -1.997   -2.035   -2.185   -2.494   -3.005   -3.722   -4.597   -5.562   -6.532   -7.430   -8.186   -8.757   -9.135   -9.359   -9.466   -9.507   -9.525   -9.559   -9.617   -9.687   -9.745   -9.784   -9.791   -9.767   -9.730   -9.700   -9.700   -9.701   -9.655   -9.522   -9.286   -8.964   -8.557   -8.071   -7.518   -6.920   -6.294   -5.654   -5.025   -4.449   -3.988   -3.663   -3.461   -3.357   -3.332   -3.393   -3.520   -3.685
  -8.642   -8.819   -9.211   -9.558   -9.574   -9.075   -8.039   -6.648   -5.209   -4.024   -3.260   -2.906   -2.823   -2.852   -2.914   -2.976   -3.045   -3.113   -3.157   -3.164   -3.138   -3.120   -3.112   -3.146   -3.272   -3.586   -4.204   -5.184   -6.441   -7.802   -9.056  -10.030  -10.645  -10.890  -10.821  -10.555  -10.212   -9.892   -9.624   -9.393   -9.159   -8.878   -8.522   -8.036   -7.352   -6.426   -5.315   -4.180   -3.219   -2.569   -2.242   -2.155   -2.196   -2.305   -2.497   -2.837   -3.369   -4.087   -4.958   -5.910   -6.872   -7.761   -8.488   -9.007   -9.321   -9.494   -9.572   -9.601   -9.617   -9.660   -9.730   -9.815   -9.895   -9.967  -10.022  -10.058  -10.070  -10.061  -10.033   -9.951   -9.763   -9.413   -8.899   -8.268   -7.581   -6.881   -6.200   -5.561   -4.978   -4.469   -4.043   -3.710   -3.488   -3.366   -3.335   -3.361   -3.438   -3.568   -3.721   -3.909
  -6.902   -7.034   -7.409   -7.782   -7.899   -7.561   -6.734   -5.568   -4.348   -3.350   -2.704   -2.391   -2.292   -2.291   -2.319   -2.368   -2.437   -2.514   -2.584   -2.641   -2.683   -2.726   -2.773   -2.843   -2.978   -3.260   -3.787   -4.602   -5.658   -6.826   -7.937   -8.840   -9.436   -9.708   -9.711   -9.563   -9.377   -9.229   -9.111   -8.983   -8.790   -8.495   -8.086   -7.533   -6.791   -5.853   -4.789   -3.761   -2.953   -2.480   -2.324   -2.380   -2.530   -2.711   -2.942   -3.269   -3.740   -4.363   -5.113   -5.948   -6.800   -7.590   -8.233   -8.671   -8.917   -9.035   -9.080   -9.089   -9.092   -9.121   -9.186   -9.273   -9.358   -9.441   -9.514   -9.571   -9.595   -9.583   -9.528   -9.401   -9.145   -8.701   -8.070   -7.313   -6.516   -5.746   -5.055   -4.466   -3.991   -3.629   -3.387   -3.240   -3.187   -3.203   -3.281   -3.409   -3.583   -3.780   -3.975   -4.182
  -5.276   -5.351   -5.680   -6.052   -6.243   -6.069   -5.471   -4.580   -3.643   -2.878   -2.380   -2.116   -2.000   -1.955   -1.936   -1.945   -1.987   -2.049   -2.134   -2.231   -2.342   -2.460   -2.580   -2.712   -2.876   -3.148   -3.594   -4.248   -5.075   -5.996   -6.893   -7.647   -8.160   -8.407   -8.441   -8.375   -8.310   -8.292   -8.279   -8.210   -8.038   -7.743   -7.323   -6.768   -6.056   -5.209   -4.302   -3.472   -2.863   -2.561   -2.531   -2.675   -2.898   -3.134   -3.386   -3.686   -4.052   -4.501   -5.042   -5.659   -6.306   -6.922   -7.427   -7.765   -7.940   -8.003   -8.014   -7.994   -7.977   -7.985   -8.034   -8.112   -8.195   -8.269   -8.336   -8.383   -8.388   -8.360   -8.295   -8.167   -7.914   -7.493   -6.889   -6.177   -5.430   -4.738   -4.151   -3.690   -3.363   -3.157   -3.058   -3.040   -3.076   -3.160   -3.297   -3.481   -3.719   -3.975   -4.204   -4.420
  -4.236   -4.242   -4.489   -4.807   -5.016   -4.949   -4.551   -3.922   -3.257   -2.714   -2.354   -2.137   -2.000   -1.905   -1.845   -1.815   -1.830   -1.889   -1.985   -2.120   -2.288   -2.471   -2.663   -2.848   -3.052   -3.334   -3.735   -4.273   -4.914   -5.602   -6.270   -6.830   -7.218   -7.404   -7.438   -7.430   -7.453   -7.507   -7.532   -7.462   -7.295   -7.026   -6.651   -6.171   -5.580   -4.910   -4.227   -3.633   -3.220   -3.037   -3.055   -3.206   -3.431   -3.677   -3.927   -4.173   -4.406   -4.644   -4.909   -5.229   -5.592   -5.963   -6.279   -6.490   -6.586   -6.601   -6.577   -6.535   -6.505   -6.497   -6.536   -6.605   -6.677   -6.742   -6.788   -6.803   -6.781   -6.737   -6.679   -6.578   -6.386   -6.049   -5.573   -5.007   -4.427   -3.906   -3.492   -3.201   -3.029   -2.967   -2.987   -3.046   -3.131   -3.233   -3.373   -3.567   -3.816   -4.087   -4.324   -4.554
  -4.035   -3.981   -4.122   -4.321   -4.469   -4.422   -4.133   -3.688   -3.232   -2.857   -2.587   -2.385   -2.224   -2.094   -2.002   -1.956   -1.964   -2.026   -2.146   -2.309   -2.513   -2.737   -2.964   -3.182   -3.424   -3.728   -4.141   -4.656   -5.223   -5.782   -6.280   -6.674   -6.939   -7.065   -7.109   -7.156   -7.237   -7.308   -7.303   -7.196   -7.017   -6.793   -6.520   -6.180   -5.772   -5.325   -4.889   -4.524   -4.280   -4.170   -4.176   -4.271   -4.429   -4.636   -4.846   -5.011   -5.096   -5.091   -5.040   -5.005   -5.012   -5.070   -5.141   -5.190   -5.195   -5.162   -5.107   -5.054   -5.023   -5.016   -5.053   -5.119   -5.185   -5.244   -5.271   -5.256   -5.211   -5.160   -5.120   -5.062   -4.945   -4.726   -4.406   -4.021   -3.644   -3.324   -3.096   -2.977   -2.958   -3.007   -3.110   -3.221   -3.331   -3.430   -3.541   -3.691   -3.904   -4.142   -4.358   -4.588
  -4.691   -4.579   -4.606   -4.658   -4.662   -4.523   -4.222   -3.839   -3.475   -3.177   -2.941   -2.733   -2.546   -2.396   -2.295   -2.251   -2.270   -2.348   -2.480   -2.659   -2.869   -3.093   -3.317   -3.537   -3.800   -4.158   -4.659   -5.264   -5.897   -6.471   -6.929   -7.252   -7.452   -7.570   -7.660   -7.772   -7.886   -7.938   -7.875   -7.708   -7.518   -7.351   -7.199   -7.022   -6.808   -6.579   -6.374   -6.219   -6.120   -6.057   -6.026   -6.036   -6.113   -6.248   -6.387   -6.459   -6.387   -6.138   -5.759   -5.324   -4.922   -4.601   -4.376   -4.229   -4.120   -4.034   -3.960   -3.898   -3.868   -3.867   -3.906   -3.973   -4.038   -4.095   -4.114   -4.090   -4.041   -4.001   -3.982   -3.970   -3.924   -3.812   -3.634   -3.417   -3.216   -3.067   -2.998   -3.012   -3.100   -3.240   -3.402   -3.553   -3.678   -3.767   -3.845   -3.941   -4.100   -4.293   -4.482   -4.718
  -6.056   -5.907   -5.843   -5.745   -5.552   -5.209   -4.754   -4.284   -3.879   -3.557   -3.297   -3.074   -2.886   -2.746   -2.659   -2.633   -2.666   -2.748   -2.869   -3.029   -3.206   -3.391   -3.570   -3.771   -4.048   -4.484   -5.123   -5.912   -6.737   -7.468   -8.023   -8.387   -8.616   -8.783   -8.950   -9.126   -9.258   -9.280   -9.164   -8.961   -8.774   -8.655   -8.594   -8.545   -8.485   -8.437   -8.419   -8.431   -8.442   -8.427   -8.373   -8.329   -8.343   -8.411   -8.482   -8.460   -8.248   -7.796   -7.125   -6.316   -5.491   -4.768   -4.223   -3.859   -3.632   -3.485   -3.392   -3.323   -3.283   -3.278   -3.310   -3.373   -3.441   -3.499   -3.535   -3.533   -3.508   -3.488   -3.493   -3.512   -3.518   -3.489   -3.412   -3.313   -3.234   -3.201   -3.230   -3.322   -3.474   -3.661   -3.872   -4.067   -4.228   -4.332   -4.404   -4.475   -4.595   -4.766   -4.939   -5.187
  -7.903   -7.755   -7.642   -7.416   -7.011   -6.403   -5.680   -4.980   -4.405   -3.974   -3.653   -3.419   -3.253   -3.155   -3.098   -3.084   -3.114   -3.167   -3.245   -3.340   -3.448   -3.554   -3.671   -3.831   -4.118   -4.630   -5.419   -6.426   -7.498   -8.466   -9.219   -9.723  -10.047  -10.298  -10.537  -10.752  -10.886  -10.885  -10.754  -10.558  -10.388  -10.300  -10.278  -10.295  -10.331  -10.398  -10.498  -10.614  -10.707  -10.733  -10.691  -10.640  -10.631  -10.665  -10.685  -10.597  -10.300   -9.721   -8.853   -7.762   -6.590   -5.527   -4.708   -4.169   -3.852   -3.667   -3.553   -3.471   -3.422   -3.406   -3.427   -3.471   -3.538   -3.610   -3.670   -3.711   -3.733   -3.748   -3.782   -3.828   -3.871   -3.894   -3.878   -3.844   -3.813   -3.810   -3.858   -3.963   -4.129   -4.350   -4.609   -4.881   -5.119   -5.291   -5.392   -5.461   -5.561   -5.718   -5.882   -6.146
  -9.997   -9.860   -9.724   -9.411   -8.814   -7.935   -6.900   -5.901   -5.083   -4.484   -4.079   -3.828   -3.690   -3.623   -3.586   -3.565   -3.564   -3.563   -3.567   -3.577   -3.581   -3.595   -3.633   -3.737   -4.010   -4.569   -5.467   -6.651   -7.959   -9.187  -10.174  -10.859  -11.314  -11.645  -11.928  -12.150  -12.272  -12.263  -12.151  -11.994  -11.860  -11.784  -11.776  -11.813  -11.888  -11.998  -12.139  -12.295  -12.419  -12.474  -12.467  -12.444  -12.452  -12.490  -12.492  -12.379  -12.057  -11.443  -10.496   -9.264   -7.912   -6.670   -5.720   -5.119   -4.787   -4.609   -4.502   -4.427   -4.374   -4.354   -4.369   -4.413   -4.478   -4.569   -4.664   -4.762   -4.855   -4.934   -5.006   -5.079   -5.150   -5.203   -5.207   -5.174   -5.116   -5.059   -5.036   -5.086   -5.232   -5.485   -5.829   -6.227   -6.597   -6.877   -7.025   -7.085   -7.139   -7.243   -7.372   -7.632
 -12.131  -11.995  -11.832  -11.440  -10.694   -9.593   -8.279   -6.987   -5.901   -5.104   -4.586   -4.288   -4.146   -4.078   -4.033   -3.987   -3.936   -3.874   -3.799   -3.721   -3.637   -3.561   -3.516   -3.561   -3.800   -4.360   -5.307   -6.602   -8.082   -9.524  -10.729  -11.603  -12.185  -12.583  -12.875  -13.078  -13.174  -13.171  -13.103  -13.011  -12.927  -12.880  -12.879  -12.921  -12.998  -13.099  -13.219  -13.345  -13.456  -13.518  -13.543  -13.562  -13.611  -13.673  -13.687  -13.579  -13.276  -12.692  -11.779  -10.578   -9.254   -8.058   -7.184   -6.672   -6.429   -6.327   -6.279   -6.238   -6.208   -6.203   -6.242   -6.309   -6.395   -6.510   -6.647   -6.815   -7.001   -7.182   -7.334   -7.454   -7.556   -7.625   -7.632   -7.554   -7.394   -7.185   -6.999   -6.920   -7.017   -7.316   -7.794   -8.373   -8.929   -9.339   -9.538   -9.564   -9.531   -9.537   -9.592   -9.853
 -14.388  -14.220  -13.987  -13.488  -12.597  -11.312   -9.768   -8.206   -6.844   -5.820   -5.146   -4.763   -4.572   -4.475   -4.407   -4.330   -4.237   -4.128   -4.003   -3.867   -3.723   -3.593   -3.499   -3.500   -3.705   -4.238   -5.177   -6.506   -8.081   -9.665  -11.029  -12.058  -12.753  -13.200  -13.485  -13.651  -13.725  -13.741  -13.733  -13.723  -13.721  -13.732  -13.768  -13.828  -13.897  -13.969  -14.033  -14.096  -14.150  -14.191  -14.226  -14.278  -14.362  -14.450  -14.488  -14.411  -14.160  -13.668  -12.893  -11.884  -10.799   -9.866   -9.255   -8.976   -8.920   -8.955   -8.992   -9.008   -9.017   -9.052   -9.125   -9.230   -9.347   -9.484   -9.662   -9.910  -10.223  -10.551  -10.833  -11.050  -11.216  -11.326  -11.347  -11.218  -10.920  -10.492  -10.061   -9.792   -9.818  -10.187  -10.847  -11.673  -12.484  -13.091  -13.394  -13.436  -13.383  -13.382  -13.448  -13.783
 -17.350  -17.102  -16.723  -16.031  -14.936  -13.438  -11.645   -9.784   -8.103   -6.790   -5.894   -5.366   -5.088   -4.953   -4.864   -4.773   -4.661   -4.530   -4.389   -4.239   -4.090   -3.949   -3.853   -3.852   -4.044   -4.547   -5.451   -6.757   -8.345   -9.982  -11.440  -12.573  -13.350  -13.831  -14.102  -14.237  -14.299  -14.346  -14.415  -14.514  -14.636  -14.767  -14.899  -15.019  -15.112  -15.165  -15.178  -15.166  -15.147  -15.139  -15.152  -15.202  -15.291  -15.397  -15.473  -15.467  -15.328  -15.006  -14.488  -13.820  -13.136  -12.618  -12.388  -12.424  -12.608  -12.798  -12.923  -12.986  -13.024  -13.083  -13.169  -13.273  -13.381  -13.510  -13.710  -14.046  -14.522  -15.049  -15.528  -15.913  -16.218  -16.457  -16.569  -16.467  -16.078  -15.465  -14.806  -14.368  -14.361  -14.867  -15.806  -17.009  -18.222  -19.218  -19.866  -20.244  -20.551  -20.930  -21.320  -21.913
 -21.908  -21.575  -20.959  -19.956  -18.538  -16.719  -14.577  -12.308  -10.183   -8.456   -7.238   -6.489   -6.080   -5.879   -5.768   -5.673   -5.562   -5.437   -5.306   -5.179   -5.062   -4.973   -4.926   -4.961   -5.166   -5.642   -6.494   -7.739   -9.268  -10.888  -12.361  -13.541  -14.363  -14.861  -15.118  -15.229  -15.293  -15.379  -15.542  -15.793  -16.114  -16.462  -16.788  -17.052  -17.226  -17.303  -17.288  -17.211  -17.112  -17.027  -16.978  -16.979  -17.038  -17.153  -17.302  -17.437  -17.508  -17.479  -17.342  -17.136  -16.960  -16.935  -17.131  -17.507  -17.930  -18.267  -18.465  -18.554  -18.597  -18.634  -18.670  -18.700  -18.728  -18.804  -19.018  -19.456  -20.122  -20.902  -21.653  -22.316  -22.903  -23.425  -23.799  -23.889  -23.613  -23.040  -22.410  -22.062  -22.278  -23.154  -24.599  -26.405  -28.293  -30.015  -31.462  -32.727  -33.990  -35.275  -36.324  -37.186
 -28.567  -28.211  -27.327  -25.940  -24.103  -21.846  -19.227  -16.406  -13.682  -11.388   -9.717   -8.643   -8.031   -7.714   -7.551   -7.442   -7.327   -7.206   -7.089   -7.002   -6.946   -6.935   -6.978   -7.097   -7.339   -7.791   -8.567   -9.698  -11.116  -12.649  -14.080  -15.251  -16.082  -16.579  -16.817  -16.906  -16.970  -17.106  -17.388  -17.843  -18.446  -19.126  -19.771  -20.288  -20.622  -20.765  -20.747  -20.615  -20.429  -20.248  -20.100  -20.013  -20.013  -20.144  -20.412  -20.779  -21.182  -21.570  -21.922  -22.252  -22.615  -23.086  -23.698  -24.398  -25.050  -25.534  -25.821  -25.962  -26.026  -26.045  -26.020  -25.960  -25.912  -25.969  -26.252  -26.854  -27.763  -28.845  -29.946  -31.000  -32.019  -32.993  -33.821  -34.364  -34.554  -34.490  -34.447  -34.772  -35.728  -37.381  -39.615  -42.210  -44.913  -47.520  -49.959  -52.298  -54.589  -56.654  -58.069  -58.647
 -36.723  -36.478  -35.388  -33.660  -31.422  -28.721  -25.594  -22.178  -18.794  -15.854  -13.634  -12.150  -11.255  -10.759  -10.496  -10.334  -10.185  -10.040   -9.919   -9.853   -9.864   -9.952  -10.120  -10.347  -10.643  -11.074  -11.745  -12.721  -13.973  -15.362  -16.707  -17.841  -18.660  -19.143  -19.351  -19.408  -19.460  -19.645  -20.059  -20.754  -21.705  -22.797  -23.847  -24.694  -25.243  -25.483  -25.469  -25.285  -25.024  -24.748  -24.502  -24.321  -24.270  -24.439  -24.873  -25.541  -26.350  -27.212  -28.075  -28.926  -29.789  -30.701  -31.680  -32.668  -33.548  -34.223  -34.682  -34.980  -35.183  -35.313  -35.379  -35.408  -35.478  -35.709  -36.232  -37.118  -38.336  -39.749  -41.222  -42.701  -44.186  -45.663  -47.046  -48.237  -49.221  -50.123  -51.185  -52.670  -54.722  -57.316  -60.305  -63.494  -66.708  -69.828  -72.814  -75.668  -78.306  -80.426  -81.527  -81.165
 -44.877  -44.861  -43.696  -41.766  -39.261  -36.243  -32.735  -28.857  -24.943  -21.458  -18.747  -16.869  -15.678  -14.973  -14.564  -14.305  -14.079  -13.865  -13.686  -13.606  -13.660  -13.854  -14.164  -14.525  -14.895  -15.313  -15.879  -16.687  -17.747  -18.976  -20.223  -21.318  -22.129  -22.596  -22.765  -22.773  -22.801  -23.016  -23.548  -24.469  -25.749  -27.230  -28.667  -29.826  -30.579  -30.915  -30.916  -30.707  -30.402  -30.081  -29.787  -29.569  -29.521  -29.775  -30.407  -31.386  -32.586  -33.879  -35.176  -36.443  -37.689  -38.941  -40.207  -41.440  -42.556  -43.486  -44.234  -44.850  -45.390  -45.879  -46.327  -46.772  -47.287  -47.980  -48.951  -50.235  -51.783  -53.485  -55.247  -57.032  -58.849  -60.695  -62.533  -64.329  -66.113  -67.999  -70.145  -72.673  -75.600  -78.834  -82.229  -85.644  -88.974  -92.153  -95.148  -97.885 -100.171 -101.630 -101.729 -100.161
 -51.544  -51.785  -50.658  -48.677  -46.075  -42.931  -39.260  -35.184  -31.033  -27.282  -24.304  -22.181  -20.773  -19.883  -19.330  -18.951  -18.614  -18.283  -18.000  -17.845  -17.897  -18.178  -18.632  -19.148  -19.627  -20.071  -20.568  -21.241  -22.150  -23.262  -24.455  -25.552  -26.387  -26.860  -27.000  -26.963  -26.956  -27.178  -27.774  -28.832  -30.316  -32.037  -33.710  -35.064  -35.947  -36.357  -36.392  -36.204  -35.929  -35.650  -35.408  -35.259  -35.311  -35.716  -36.563  -37.810  -39.312  -40.910  -42.495  -44.025  -45.506  -46.968  -48.425  -49.853  -51.202  -52.438  -53.573  -54.655  -55.726  -56.804  -57.894  -59.013  -60.204  -61.526  -63.026  -64.708  -66.526  -68.409  -70.306  -72.209  -74.143  -76.136  -78.201  -80.359  -82.657  -85.171  -87.967  -91.053  -94.355  -97.744 -101.086 -104.277 -107.256 -109.982 -112.398 -114.372 -115.699 -116.069 -114.930 -113.630
 -55.775  -56.213  -55.176  -53.248  -50.690  -47.594  -43.988  -39.998  -35.943  -32.272  -29.328  -27.181  -25.701  -24.715  -24.060  -23.573  -23.119  -22.651  -22.222  -21.947  -21.952  -22.282  -22.869  -23.553  -24.184  -24.716  -25.226  -25.858  -26.721  -27.826  -29.066  -30.254  -31.179  -31.713  -31.876  -31.833  -31.811  -32.019  -32.612  -33.672  -35.160  -36.890  -38.575  -39.948  -40.860  -41.310  -41.407  -41.304  -41.139  -40.995  -40.913  -40.948  -41.206  -41.827  -42.888  -44.337  -46.019  -47.772  -49.485  -51.119  -52.689  -54.234  -55.786  -57.350  -58.912  -60.469  -62.041  -63.663  -65.359  -67.123  -68.936  -70.776  -72.640  -74.539  -76.479  -78.449  -80.419  -82.354  -84.240  -86.096  -87.966  -89.905  -91.963  -94.190  -96.631  -99.316 -102.237 -105.328 -108.485 -111.593 -114.575 -117.389 -120.010 -122.407 -124.527 -126.289 -127.558 -128.016 -126.655 -129.048
 -57.168  -57.686  -56.733  -54.909  -52.486  -49.571  -46.214  -42.547  -38.870  -35.571  -32.924  -30.963  -29.567  -28.592  -27.905  -27.354  -26.812  -26.227  -25.658  -25.258  -25.189  -25.539  -26.239  -27.098  -27.916  -28.613  -29.256  -29.998  -30.979  -32.236  -33.667  -35.062  -36.178  -36.871  -37.155  -37.192  -37.210  -37.414  -37.948  -38.887  -40.198  -41.719  -43.205  -44.432  -45.274  -45.731  -45.900  -45.921  -45.914  -45.958  -46.095  -46.378  -46.895  -47.754  -49.001  -50.571  -52.317  -54.090  -55.793  -57.400  -58.939  -60.465  -62.033  -63.677  -65.416  -67.269  -69.259  -71.400  -73.681  -76.064  -78.488  -80.896  -83.248  -85.525  -87.714  -89.806  -91.788  -93.656  -95.420  -97.123  -98.822 -100.588 -102.493 -104.599 -106.951 -109.568 -112.428 -115.484 -118.666 -121.898 -125.097 -128.176 -131.057 -133.657 -135.943 -137.827 -139.138 -139.425 -137.376 -143.382
 -55.748  -56.212  -55.304  -53.592  -51.348  -48.694  -45.707  -42.524  -39.406  -36.660  -34.470  -32.831  -31.632  -30.768  -30.125  -29.579  -29.011  -28.373  -27.732  -27.255  -27.143  -27.516  -28.325  -29.368  -30.425  -31.388  -32.312  -33.352  -34.654  -36.256  -38.044  -39.784  -41.220  -42.198  -42.730  -42.963  -43.104  -43.339  -43.800  -44.554  -45.584  -46.770  -47.933  -48.908  -49.605  -50.025  -50.241  -50.361  -50.482  -50.677  -50.993  -51.481  -52.211  -53.248  -54.603  -56.198  -57.901  -59.585  -61.177  -62.668  -64.102  -65.551  -67.088  -68.770  -70.640  -72.728  -75.049  -77.590  -80.300  -83.100  -85.900  -88.621  -91.210  -93.636  -95.890  -97.967  -99.872 -101.615 -103.224 -104.745 -106.248 -107.811 -109.517 -111.438 -113.627 -116.107 -118.867 -121.858 -125.001 -128.198 -131.324 -134.284 -136.990 -139.377 -141.371 -142.841 -143.572 -143.093 -140.097 -146.019
 -51.894  -52.186  -51.271  -49.651  -47.589  -45.230  -42.670  -40.043  -37.553  -35.415  -33.731  -32.470  -31.535  -30.846  -30.319  -29.851  -29.342  -28.759  -28.166  -27.735  -27.681  -28.152  -29.123  -30.411  -31.799  -33.172  -34.571  -36.131  -37.976  -40.118  -42.418  -44.625  -46.488  -47.862  -48.748  -49.271  -49.606  -49.915  -50.321  -50.894  -51.633  -52.468  -53.281  -53.970  -54.474  -54.795  -54.977  -55.093  -55.222  -55.432  -55.781  -56.323  -57.112  -58.180  -59.505  -61.005  -62.564  -64.079  -65.498  -66.831  -68.136  -69.495  -70.989  -72.683  -74.629  -76.855  -79.361  -82.105  -85.004  -87.955  -90.857  -93.627  -96.217  -98.603 -100.776 -102.736 -104.492 -106.061 -107.475 -108.783 -110.052 -111.365 -112.807 -114.447 -116.337 -118.489 -120.882 -123.450 -126.114 -128.782 -131.380 -133.872 -136.197 -138.331 -140.151 -141.521 -142.182 -141.674 -138.840 -142.162
 -46.314  -46.357  -45.393  -43.834  -41.934  -39.859  -37.719  -35.629  -33.732  -32.158  -30.945  -30.050  -29.399  -28.927  -28.574  -28.262  -27.925  -27.537  -27.169  -26.981  -27.185  -27.929  -29.219  -30.904  -32.796  -34.780  -36.870  -39.152  -41.703  -44.494  -47.360  -50.059  -52.364  -54.147  -55.408  -56.238  -56.781  -57.179  -57.550  -57.972  -58.466  -58.998  -59.502  -59.913  -60.196  -60.344  -60.380  -60.354  -60.332  -60.384  -60.575  -60.970  -61.614  -62.521  -63.654  -64.932  -66.255  -67.542  -68.761  -69.934  -71.122  -72.404  -73.855  -75.533  -77.479  -79.711  -82.210  -84.917  -87.735  -90.560  -93.294  -95.869  -98.244 -100.401 -102.338 -104.058 -105.574 -106.907 -108.089 -109.169 -110.210 -111.285 -112.473 -113.840 -115.430 -117.260 -119.313 -121.547 -123.895 -126.294 -128.692 -131.043 -133.304 -135.404 -137.252 -138.689 -139.500 -139.250 -136.989 -137.613
 -39.998  -39.782  -38.758  -37.240  -35.478  -33.651  -31.876  -30.239  -28.830  -27.711  -26.884  -26.311  -25.933  -25.705  -25.582  -25.524  -25.491  -25.483  -25.567  -25.885  -26.622  -27.916  -29.777  -32.092  -34.695  -37.458  -40.348  -43.393  -46.611  -49.943  -53.232  -56.271  -58.877  -60.949  -62.482  -63.542  -64.240  -64.699  -65.033  -65.327  -65.621  -65.910  -66.155  -66.316  -66.364  -66.286  -66.095  -65.830  -65.548  -65.322  -65.223  -65.321  -65.662  -66.256  -67.068  -68.026  -69.049  -70.079  -71.093  -72.117  -73.203  -74.415  -75.805  -77.411  -79.253  -81.335  -83.625  -86.061  -88.554  -91.013  -93.360  -95.545  -97.541  -99.342 -100.951 -102.376 -103.630 -104.734 -105.716 -106.617 -107.489 -108.396 -109.405 -110.575 -111.951 -113.556 -115.387 -117.417 -119.603 -121.896 -124.245 -126.595 -128.887 -131.037 -132.947 -134.450 -135.350 -135.270 -133.488 -132.279
 -34.096  -33.684  -32.637  -31.183  -29.561  -27.955  -26.476  -25.189  -24.142  -23.358  -22.834  -22.535  -22.421  -22.464  -22.645  -22.950  -23.375  -23.935  -24.692  -25.757  -27.273  -29.345  -31.975  -35.057  -38.420  -41.909  -45.444  -49.006  -52.589  -56.139  -59.540  -62.641  -65.311  -67.470  -69.109  -70.270  -71.036  -71.506  -71.786  -71.964  -72.092  -72.180  -72.209  -72.147  -71.968  -71.660  -71.228  -70.711  -70.160  -69.646  -69.240  -69.011  -69.008  -69.243  -69.691  -70.298  -71.008  -71.778  -72.594  -73.473  -74.452  -75.567  -76.844  -78.294  -79.919  -81.707  -83.625  -85.618  -87.617  -89.557  -91.387  -93.079  -94.625  -96.026  -97.288  -98.420  -99.429 -100.333 -101.152 -101.919 -102.674 -103.467 -104.354 -105.386 -106.603 -108.028 -109.663 -111.497 -113.500 -115.640 -117.878 -120.166 -122.448 -124.638 -126.621 -128.226 -129.238 -129.337 -127.970 -125.830
 -29.713  -29.220  -28.238  -26.925  -25.501  -24.133  -22.920  -21.910  -21.133  -20.604  -20.322  -20.268  -20.421  -20.764  -21.302  -22.049  -23.021  -24.231  -25.718  -27.552  -29.832  -32.624  -35.919  -39.595  -43.466  -47.354  -51.156  -54.838  -58.399  -61.818  -65.029  -67.940  -70.459  -72.528  -74.127  -75.278  -76.036  -76.478  -76.696  -76.772  -76.762  -76.688  -76.539  -76.293  -75.925  -75.423  -74.798  -74.086  -73.337  -72.615  -71.985  -71.508  -71.229  -71.164  -71.299  -71.602  -72.035  -72.569  -73.196  -73.922  -74.764  -75.732  -76.828  -78.043  -79.364  -80.770  -82.232  -83.708  -85.154  -86.533  -87.820  -89.010  -90.107  -91.117  -92.047  -92.902  -93.691  -94.423  -95.114  -95.786  -96.469  -97.200  -98.021  -98.974 -100.088 -101.383 -102.863 -104.520 -106.339 -108.299 -110.374 -112.528 -114.714 -116.857 -118.843 -120.514 -121.649 -121.949 -120.968 -118.619
 -27.641  -27.209  -26.415  -25.367  -24.245  -23.187  -22.261  -21.509  -20.950  -20.611  -20.505  -20.645  -21.013  -21.613  -22.459  -23.579  -24.988  -26.679  -28.650  -30.941  -33.617  -36.736  -40.284  -44.137  -48.102  -51.994  -55.697  -59.179  -62.449  -65.518  -68.366  -70.944  -73.195  -75.071  -76.547  -77.627  -78.340  -78.743  -78.910  -78.914  -78.809  -78.622  -78.350  -77.976  -77.480  -76.858  -76.124  -75.314  -74.476  -73.665  -72.936  -72.337  -71.906  -71.656  -71.584  -71.669  -71.891  -72.233  -72.686  -73.250  -73.925  -74.704  -75.572  -76.510  -77.496  -78.510  -79.524  -80.513  -81.451  -82.326  -83.137  -83.893  -84.606  -85.286  -85.938  -86.564  -87.170  -87.764  -88.358  -88.967  -89.612  -90.316  -91.111  -92.025  -93.082  -94.294  -95.663  -97.184  -98.846 -100.633 -102.529 -104.507 -106.529 -108.535 -110.428 -112.064 -113.244 -113.693 -113.027 -110.874
 -28.127  -27.889  -27.391  -26.721  -26.010  -25.335  -24.733  -24.214  -23.803  -23.536  -23.464  -23.626  -24.026  -24.681  -25.604  -26.823  -28.338  -30.119  -32.132  -34.395  -36.974  -39.934  -43.278  -46.895  -50.599  -54.201  -57.577  -60.688  -63.550  -66.193  -68.627  -70.834  -72.782  -74.435  -75.765  -76.761  -77.435  -77.823  -77.982  -77.972  -77.841  -77.616  -77.299  -76.882  -76.351  -75.706  -74.968  -74.171  -73.361  -72.582  -71.874  -71.276  -70.811  -70.492  -70.318  -70.278  -70.362  -70.561  -70.867  -71.277  -71.780  -72.361  -72.997  -73.668  -74.351  -75.025  -75.672  -76.274  -76.822  -77.318  -77.775  -78.213  -78.647  -79.086  -79.533  -79.989  -80.456  -80.943  -81.460  -82.018  -82.631  -83.316  -84.092  -84.981  -85.999  -87.154  -88.445  -89.862  -91.396  -93.033  -94.758  -96.554  -98.390 -100.219 -101.961 -103.496 -104.649 -105.174 -104.735 -102.902
 -30.663  -30.708  -30.528  -30.251  -29.952  -29.652  -29.336  -28.977  -28.577  -28.196  -27.923  -27.840  -27.988  -28.392  -29.072  -30.043  -31.291  -32.769  -34.428  -36.274  -38.378  -40.824  -43.640  -46.742  -49.956  -53.096  -56.030  -58.709  -61.145  -63.372  -65.416  -67.281  -68.953  -70.408  -71.620  -72.569  -73.253  -73.690  -73.919  -73.986  -73.929  -73.772  -73.520  -73.169  -72.713  -72.157  -71.524  -70.848  -70.166  -69.511  -68.913  -68.398  -67.982  -67.675  -67.477  -67.385  -67.393  -67.501  -67.701  -67.988  -68.347  -68.760  -69.205  -69.662  -70.114  -70.543  -70.936  -71.280  -71.575  -71.830  -72.065  -72.303  -72.559  -72.841  -73.149  -73.483  -73.846  -74.246  -74.693  -75.198  -75.771  -76.425  -77.174  -78.034  -79.018  -80.131  -81.367  -82.711  -84.147  -85.662  -87.243  -88.877  -90.545  -92.209  -93.808  -95.239  -96.351  -96.927  -96.666  -95.151
 -34.049  -34.367  -34.415  -34.395  -34.362  -34.295  -34.127  -33.786  -33.253  -32.590  -31.921  -31.375  -31.038  -30.954  -31.142  -31.614  -32.347  -33.284  -34.369  -35.600  -37.046  -38.805  -40.928  -43.363  -45.965  -48.556  -51.004  -53.250  -55.292  -57.162  -58.888  -60.482  -61.947  -63.271  -64.436  -65.416  -66.199  -66.786  -67.197  -67.462  -67.605  -67.643  -67.578  -67.409  -67.136  -66.767  -66.328  -65.845  -65.348  -64.862  -64.409  -64.007  -63.672  -63.414  -63.236  -63.138  -63.122  -63.188  -63.334  -63.552  -63.823  -64.130  -64.452  -64.774  -65.084  -65.368  -65.616  -65.818  -65.976  -66.102  -66.217  -66.342  -66.492  -66.674  -66.888  -67.134  -67.414  -67.738  -68.116  -68.561  -69.083  -69.694  -70.409  -71.243  -72.207  -73.301  -74.510  -75.813  -77.185  -78.610  -80.078  -81.584  -83.118  -84.659  -86.155  -87.522  -88.623  -89.263  -89.166  -87.940
 -36.840  -37.318  -37.403  -37.405  -37.392  -37.336  -37.134  -36.675  -35.910  -34.892  -33.764  -32.695  -31.808  -31.163  -30.785  -30.676  -30.815  -31.146  -31.613  -32.208  -32.987  -34.049  -35.457  -37.190  -39.142  -41.164  -43.133  -44.984  -46.706  -48.313  -49.824  -51.254  -52.616  -53.911  -55.127  -56.243  -57.233  -58.085  -58.798  -59.379  -59.835  -60.172  -60.387  -60.478  -60.451  -60.317  -60.098  -59.818  -59.499  -59.163  -58.830  -58.521  -58.256  -58.048  -57.905  -57.831  -57.830  -57.906  -58.057  -58.270  -58.526  -58.801  -59.076  -59.341  -59.587  -59.806  -59.989  -60.129  -60.227  -60.294  -60.350  -60.415  -60.500  -60.613  -60.758  -60.933  -61.143  -61.396  -61.704  -62.082  -62.545  -63.113  -63.804  -64.633  -65.608  -66.722  -67.949  -69.251  -70.593  -71.958  -73.339  -74.745  -76.181  -77.637  -79.077  -80.424  -81.551  -82.273  -82.336  -81.369
 -37.884  -38.331  -38.236  -38.000  -37.748  -37.476  -37.075  -36.404  -35.380  -34.042  -32.533  -31.044  -29.716  -28.618  -27.771  -27.173  -26.803  -26.620  -26.575  -26.652  -26.896  -27.389  -28.193  -29.307  -30.669  -32.173  -33.729  -35.279  -36.797  -38.272  -39.708  -41.112  -42.499  -43.876  -45.243  -46.577  -47.850  -49.032  -50.103  -51.045  -51.847  -52.498  -52.993  -53.333  -53.527  -53.589  -53.540  -53.402  -53.194  -52.939  -52.665  -52.401  -52.173  -52.002  -51.899  -51.870  -51.920  -52.053  -52.263  -52.533  -52.834  -53.138  -53.426  -53.687  -53.918  -54.114  -54.274  -54.391  -54.467  -54.511  -54.539  -54.569  -54.612  -54.676  -54.765  -54.880  -55.025  -55.209  -55.441  -55.747  -56.151  -56.682  -57.370  -58.231  -59.268  -60.459  -61.757  -63.104  -64.453  -65.781  -67.095  -68.419  -69.776  -71.173  -72.585  -73.940  -75.114  -75.928  -76.138  -75.401
 -36.586  -36.799  -36.337  -35.648  -34.940  -34.270  -33.549  -32.623  -31.386  -29.850  -28.152  -26.474  -24.958  -23.663  -22.595  -21.739  -21.082  -20.596  -20.252  -20.032  -19.968  -20.114  -20.520  -21.199  -22.129  -23.260  -24.545  -25.940  -27.408  -28.911  -30.425  -31.942  -33.466  -35.006  -36.559  -38.113  -39.637  -41.093  -42.445  -43.658  -44.703  -45.563  -46.232  -46.716  -47.027  -47.186  -47.212  -47.123  -46.940  -46.693  -46.422  -46.162  -45.951  -45.812  -45.759  -45.796  -45.925  -46.146  -46.448  -46.801  -47.172  -47.526  -47.841  -48.108  -48.329  -48.506  -48.642  -48.740  -48.801  -48.832  -48.846  -48.856  -48.873  -48.904  -48.953  -49.020  -49.107  -49.220  -49.374  -49.603  -49.944  -50.447  -51.154  -52.085  -53.235  -54.559  -55.982  -57.419  -58.807  -60.124  -61.388  -62.640  -63.926  -65.273  -66.665  -68.035  -69.259  -70.158  -70.499  -69.962
 -32.952  -32.800  -31.874  -30.625  -29.350  -28.189  -27.100  -25.944  -24.601  -23.061  -21.440  -19.882  -18.501  -17.321  -16.331  -15.508  -14.836  -14.310  -13.907  -13.628  -13.483  -13.508  -13.738  -14.189  -14.884  -15.823  -17.003  -18.399  -19.962  -21.626  -23.332  -25.047  -26.759  -28.464  -30.159  -31.836  -33.476  -35.043  -36.494  -37.789  -38.895  -39.796  -40.491  -40.990  -41.313  -41.477  -41.501  -41.401  -41.200  -40.933  -40.653  -40.403  -40.223  -40.137  -40.153  -40.271  -40.487  -40.789  -41.161  -41.568  -41.971  -42.336  -42.640  -42.878  -43.053  -43.175  -43.258  -43.312  -43.342  -43.354  -43.357  -43.360  -43.369  -43.389  -43.418  -43.455  -43.495  -43.541  -43.615  -43.761  -44.039  -44.519  -45.259  -46.285  -47.581  -49.076  -50.660  -52.220  -53.678  -55.006  -56.233  -57.421  -58.636  -59.928  -61.294  -62.673  -63.938  -64.907  -65.358  -64.995
 -27.596  -27.071  -25.753  -24.037  -22.286  -20.710  -19.335  -18.051  -16.753  -15.415  -14.113  -12.927  -11.918  -11.071  -10.366   -9.774   -9.281   -8.892   -8.603   -8.409   -8.323   -8.362   -8.554   -8.926   -9.520  -10.389  -11.563  -13.038  -14.757  -16.626  -18.548  -20.465  -22.338  -24.151  -25.897  -27.573  -29.176  -30.682  -32.059  -33.268  -34.286  -35.105  -35.733  -36.187  -36.481  -36.632  -36.651  -36.553  -36.364  -36.122  -35.884  -35.697  -35.598  -35.600  -35.703  -35.895  -36.165  -36.494  -36.860  -37.229  -37.572  -37.858  -38.073  -38.213  -38.283  -38.301  -38.289  -38.265  -38.241  -38.222  -38.211  -38.213  -38.231  -38.262  -38.296  -38.324  -38.335  -38.328  -38.328  -38.396  -38.612  -39.073  -39.852  -40.983  -42.438  -44.118  -45.878  -47.576  -49.115  -50.463  -51.656  -52.775  -53.908  -55.127  -56.448  -57.818  -59.108  -60.134  -60.677  -60.460
 -21.666  -20.915  -19.455  -17.585  -15.674  -13.958  -12.492  -11.230  -10.093   -9.060   -8.148   -7.376   -6.751   -6.246   -5.831   -5.485   -5.204   -4.993   -4.847   -4.770   -4.767   -4.851   -5.042   -5.372   -5.909   -6.726   -7.888   -9.410  -11.233  -13.246  -15.325  -17.376  -19.336  -21.174  -22.883  -24.468  -25.939  -27.288  -28.497  -29.547  -30.429  -31.143  -31.709  -32.140  -32.449  -32.644  -32.731  -32.719  -32.630  -32.507  -32.400  -32.352  -32.383  -32.496  -32.680  -32.908  -33.165  -33.430  -33.683  -33.903  -34.074  -34.185  -34.228  -34.206  -34.126  -34.007  -33.875  -33.753  -33.656  -33.595  -33.567  -33.572  -33.609  -33.664  -33.722  -33.760  -33.761  -33.722  -33.670  -33.680  -33.858  -34.318  -35.154  -36.406  -38.024  -39.884  -41.810  -43.628  -45.225  -46.569  -47.702  -48.723  -49.744  -50.858  -52.102  -53.436  -54.730  -55.798  -56.417  -56.321
 -16.556  -15.786  -14.457  -12.763  -11.009   -9.402   -8.016   -6.861   -5.903   -5.129   -4.516   -4.039   -3.657   -3.350   -3.093   -2.897   -2.748   -2.645   -2.594   -2.586   -2.630   -2.729   -2.894   -3.176   -3.628   -4.351   -5.421   -6.877   -8.674  -10.700  -12.811  -14.884  -16.837  -18.621  -20.233  -21.682  -22.992  -24.168  -25.207  -26.111  -26.888  -27.552  -28.120  -28.602  -29.011  -29.345  -29.599  -29.776  -29.891  -29.980  -30.081  -30.221  -30.404  -30.620  -30.844  -31.049  -31.216  -31.330  -31.380  -31.363  -31.286  -31.157  -30.985  -30.776  -30.541  -30.292  -30.051  -29.842  -29.681  -29.578  -29.535  -29.547  -29.599  -29.678  -29.759  -29.817  -29.826  -29.783  -29.722  -29.728  -29.923  -30.439  -31.385  -32.790  -34.583  -36.605  -38.646  -40.521  -42.107  -43.378  -44.390  -45.259  -46.120  -47.090  -48.222  -49.488  -50.762  -51.850  -52.524  -52.528
 -13.247  -12.573  -11.460  -10.019   -8.468   -6.986   -5.684   -4.619   -3.806   -3.224   -2.819   -2.518   -2.261   -2.018   -1.805   -1.641   -1.531   -1.466   -1.444   -1.458   -1.504   -1.586   -1.710   -1.916   -2.264   -2.831   -3.723   -4.981   -6.594   -8.464  -10.454  -12.421  -14.270  -15.940  -17.424  -18.733  -19.896  -20.931  -21.850  -22.665  -23.400  -24.076  -24.711  -25.315  -25.891  -26.431  -26.924  -27.357  -27.741  -28.091  -28.428  -28.761  -29.078  -29.362  -29.580  -29.710  -29.736  -29.649  -29.454  -29.172  -28.832  -28.466  -28.092  -27.724  -27.372  -27.037  -26.735  -26.481  -26.287  -26.165  -26.117  -26.132  -26.195  -26.290  -26.391  -26.476  -26.515  -26.507  -26.496  -26.573  -26.877  -27.548  -28.683  -30.286  -32.250  -34.377  -36.443  -38.260  -39.722  -40.821  -41.633  -42.296  -42.961  -43.757  -44.755  -45.928  -47.155  -48.237  -48.945  -49.027
 -11.701  -11.124  -10.133   -8.796   -7.298   -5.820   -4.519   -3.497   -2.795   -2.373   -2.133   -1.960   -1.772   -1.551   -1.336   -1.162   -1.040   -0.967   -0.941   -0.948   -0.983   -1.034   -1.117   -1.253   -1.480   -1.878   -2.528   -3.496   -4.790   -6.361   -8.083   -9.821  -11.474  -12.981  -14.321  -15.501  -16.554  -17.497  -18.346  -19.127  -19.867  -20.589  -21.317  -22.057  -22.808  -23.560  -24.293  -24.987  -25.633  -26.228  -26.776  -27.268  -27.684  -28.000  -28.187  -28.226  -28.103  -27.825  -27.412  -26.907  -26.361  -25.819  -25.314  -24.859  -24.459  -24.109  -23.810  -23.567  -23.387  -23.279  -23.246  -23.276  -23.354  -23.468  -23.596  -23.716  -23.811  -23.884  -23.989  -24.222  -24.729  -25.645  -27.035  -28.854  -30.939  -33.070  -35.025  -36.648  -37.865  -38.701  -39.259  -39.688  -40.151  -40.779  -41.641  -42.713  -43.874  -44.927  -45.643  -45.783
 -10.987  -10.472   -9.516   -8.186   -6.654   -5.123   -3.795   -2.809   -2.197   -1.900   -1.788   -1.711   -1.580   -1.389   -1.180   -0.998   -0.858   -0.772   -0.738   -0.733   -0.752   -0.780   -0.836   -0.911   -1.051   -1.296   -1.712   -2.365   -3.293   -4.468   -5.815   -7.228   -8.616   -9.907  -11.083  -12.148  -13.114  -13.994  -14.808  -15.582  -16.334  -17.098  -17.893  -18.727  -19.596  -20.493  -21.394  -22.275  -23.108  -23.877  -24.569  -25.167  -25.647  -25.981  -26.143  -26.118  -25.896  -25.496  -24.957  -24.334  -23.693  -23.092  -22.561  -22.116  -21.751  -21.460  -21.226  -21.049  -20.930  -20.877  -20.890  -20.962  -21.076  -21.226  -21.397  -21.571  -21.746  -21.934  -22.196  -22.645  -23.417  -24.617  -26.267  -28.248  -30.357  -32.361  -34.075  -35.388  -36.276  -36.806  -37.099  -37.313  -37.605  -38.098  -38.851  -39.833  -40.920  -41.923  -42.623  -42.798
 -10.038   -9.578   -8.687   -7.429   -5.961   -4.487   -3.212   -2.297   -1.758   -1.542   -1.494   -1.473   -1.388   -1.243   -1.069   -0.906   -0.775   -0.688   -0.641   -0.634   -0.643   -0.662   -0.698   -0.742   -0.815   -0.948   -1.189   -1.577   -2.167   -2.951   -3.903   -4.946   -6.011   -7.053   -8.040   -8.971   -9.844  -10.666  -11.448  -12.212  -12.969  -13.742  -14.550  -15.397  -16.286  -17.213  -18.160  -19.095  -19.994  -20.827  -21.577  -22.220  -22.732  -23.087  -23.258  -23.232  -23.005  -22.600  -22.068  -21.473  -20.883  -20.354  -19.914  -19.569  -19.315  -19.137  -19.015  -18.947  -18.930  -18.970  -19.066  -19.209  -19.391  -19.601  -19.832  -20.075  -20.335  -20.645  -21.079  -21.751  -22.779  -24.230  -26.061  -28.098  -30.107  -31.875  -33.262  -34.215  -34.761  -35.002  -35.073  -35.126  -35.304  -35.711  -36.388  -37.292  -38.301  -39.239  -39.901  -40.091
  -8.332   -7.943   -7.221   -6.188   -4.971   -3.736   -2.662   -1.872   -1.409   -1.222   -1.187   -1.180   -1.134   -1.036   -0.914   -0.796   -0.696   -0.626   -0.589   -0.584   -0.593   -0.609   -0.632   -0.652   -0.685   -0.753   -0.875   -1.090   -1.423   -1.898   -2.499   -3.197   -3.944   -4.713   -5.489   -6.253   -7.011   -7.753   -8.487   -9.223   -9.971  -10.728  -11.502  -12.287  -13.096  -13.929  -14.780  -15.630  -16.457  -17.239  -17.954  -18.585  -19.103  -19.487  -19.714  -19.761  -19.634  -19.356  -18.973  -18.548  -18.140  -17.793  -17.529  -17.349  -17.247  -17.205  -17.218  -17.279  -17.390  -17.552  -17.757  -17.998  -18.263  -18.548  -18.843  -19.146  -19.480  -19.892  -20.469  -21.316  -22.532  -24.133  -26.022  -27.992  -29.807  -31.283  -32.329  -32.947  -33.207  -33.228  -33.151  -33.117  -33.243  -33.606  -34.227  -35.060  -35.990  -36.853  -37.467  -37.655
  -6.061   -5.761   -5.278   -4.582   -3.745   -2.873   -2.085   -1.487   -1.115   -0.946   -0.903   -0.889   -0.866   -0.812   -0.747   -0.676   -0.612   -0.570   -0.556   -0.566   -0.578   -0.592   -0.606   -0.610   -0.626   -0.653   -0.706   -0.813   -0.989   -1.246   -1.598   -2.024   -2.498   -3.019   -3.571   -4.156   -4.759   -5.394   -6.063   -6.761   -7.486   -8.215   -8.924   -9.603  -10.262  -10.913  -11.567  -12.222  -12.873  -13.506  -14.116  -14.681  -15.186  -15.609  -15.925  -16.114  -16.174  -16.122  -15.995  -15.839  -15.690  -15.584  -15.533  -15.533  -15.586  -15.682  -15.824  -16.011  -16.250  -16.532  -16.849  -17.185  -17.530  -17.876  -18.213  -18.554  -18.928  -19.402  -20.062  -21.006  -22.303  -23.932  -25.765  -27.579  -29.158  -30.351  -31.108  -31.469  -31.531  -31.424  -31.282  -31.227  -31.348  -31.699  -32.282  -33.052  -33.906  -34.696  -35.264  -35.445
  -3.835   -3.637   -3.379   -3.001   -2.528   -2.013   -1.522   -1.124   -0.864   -0.726   -0.683   -0.667   -0.661   -0.639   -0.608   -0.576   -0.548   -0.537   -0.548   -0.570   -0.595   -0.608   -0.614   -0.603   -0.593   -0.598   -0.617   -0.664   -0.747   -0.881   -1.073   -1.307   -1.586   -1.904   -2.263   -2.659   -3.109   -3.615   -4.198   -4.844   -5.534   -6.214   -6.841   -7.399   -7.883   -8.324   -8.743   -9.160   -9.590  -10.033  -10.495  -10.971  -11.452  -11.915  -12.337  -12.699  -12.992  -13.213  -13.381  -13.521  -13.649  -13.791  -13.947  -14.118  -14.311  -14.527  -14.775  -15.064  -15.399  -15.770  -16.160  -16.554  -16.938  -17.304  -17.646  -17.985  -18.357  -18.838  -19.515  -20.471  -21.751  -23.308  -25.010  -26.638  -27.998  -28.970  -29.526  -29.727  -29.687  -29.532  -29.388  -29.358  -29.506  -29.868  -30.433  -31.159  -31.957  -32.696  -33.231  -33.415
  -2.190   -2.066   -1.956   -1.788   -1.567   -1.305   -1.044   -0.817   -0.655   -0.569   -0.543   -0.537   -0.547   -0.545   -0.533   -0.525   -0.518   -0.535   -0.570   -0.615   -0.648   -0.656   -0.641   -0.616   -0.584   -0.564   -0.561   -0.579   -0.616   -0.686   -0.779   -0.901   -1.050   -1.226   -1.435   -1.686   -1.983   -2.364   -2.839   -3.399   -4.016   -4.613   -5.140   -5.565   -5.890   -6.145   -6.361   -6.565   -6.789   -7.052   -7.374   -7.758   -8.209   -8.702   -9.226   -9.756  -10.271  -10.753  -11.194  -11.602  -11.988  -12.358  -12.707  -13.040  -13.359  -13.676  -14.003  -14.356  -14.736  -15.136  -15.535  -15.921  -16.277  -16.605  -16.905  -17.195  -17.530  -17.978  -18.616  -19.519  -20.713  -22.152  -23.699  -25.162  -26.362  -27.194  -27.643  -27.779  -27.710  -27.565  -27.458  -27.470  -27.663  -28.051  -28.622  -29.339  -30.115  -30.836  -31.365  -31.564
  -1.238   -1.154   -1.120   -1.051   -0.952   -0.836   -0.714   -0.600   -0.516   -0.479   -0.469   -0.476   -0.493   -0.504   -0.505   -0.507   -0.522   -0.569   -0.629   -0.682   -0.713   -0.705   -0.669   -0.618   -0.570   -0.542   -0.526   -0.527   -0.543   -0.571   -0.616   -0.678   -0.756   -0.842   -0.952   -1.093   -1.281   -1.540   -1.891   -2.328   -2.818   -3.292   -3.690   -3.992   -4.189   -4.311   -4.383   -4.450   -4.531   -4.666   -4.873   -5.179   -5.587   -6.094   -6.685   -7.337   -8.014   -8.686   -9.335   -9.966  -10.574  -11.154  -11.691  -12.181  -12.621  -13.028  -13.412  -13.792  -14.165  -14.531  -14.868  -15.171  -15.440  -15.681  -15.898  -16.119  -16.395  -16.788  -17.369  -18.196  -19.287  -20.601  -22.012  -23.350  -24.459  -25.233  -25.662  -25.807  -25.771  -25.673  -25.620  -25.687  -25.925  -26.350  -26.947  -27.678  -28.467  -29.198  -29.739  -29.957
  -0.789   -0.722   -0.700   -0.676   -0.630   -0.575   -0.523   -0.470   -0.441   -0.423   -0.423   -0.445   -0.473   -0.487   -0.498   -0.509   -0.544   -0.613   -0.701   -0.769   -0.786   -0.745   -0.679   -0.607   -0.545   -0.511   -0.492   -0.486   -0.490   -0.504   -0.525   -0.558   -0.592   -0.635   -0.691   -0.765   -0.871   -1.032   -1.258   -1.555   -1.893   -2.218   -2.487   -2.676   -2.784   -2.829   -2.837   -2.833   -2.842   -2.904   -3.034   -3.267   -3.620   -4.096   -4.689   -5.375   -6.111   -6.882   -7.659   -8.446   -9.234  -10.004  -10.727  -11.376  -11.947  -12.444  -12.877  -13.258  -13.595  -13.881  -14.116  -14.301  -14.452  -14.584  -14.710  -14.866  -15.090  -15.445  -15.984  -16.752  -17.760  -18.970  -20.276  -21.531  -22.593  -23.366  -23.831  -24.043  -24.086  -24.069  -24.086  -24.212  -24.496  -24.957  -25.585  -26.343  -27.153  -27.901  -28.452  -28.679
  -0.604   -0.540   -0.523   -0.506   -0.479   -0.455   -0.429   -0.405   -0.396   -0.389   -0.400   -0.418   -0.444   -0.465   -0.479   -0.499   -0.552   -0.648   -0.757   -0.828   -0.825   -0.756   -0.658   -0.567   -0.506   -0.474   -0.455   -0.448   -0.456   -0.458   -0.472   -0.492   -0.509   -0.533   -0.556   -0.599   -0.653   -0.740   -0.869   -1.040   -1.231   -1.425   -1.575   -1.680   -1.736   -1.753   -1.741   -1.720   -1.713   -1.744   -1.826   -1.991   -2.266   -2.660   -3.177   -3.796   -4.493   -5.242   -6.051   -6.914   -7.824   -8.751   -9.645  -10.458  -11.166  -11.761  -12.246  -12.634  -12.935  -13.145  -13.278  -13.356  -13.405  -13.452  -13.522  -13.642  -13.853  -14.204  -14.733  -15.472  -16.427  -17.551  -18.763  -19.947  -20.969  -21.755  -22.279  -22.583  -22.735  -22.826  -22.932  -23.129  -23.460  -23.958  -24.612  -25.385  -26.204  -26.953  -27.501  -27.714
  -0.518   -0.459   -0.451   -0.429   -0.412   -0.399   -0.386   -0.371   -0.366   -0.370   -0.375   -0.387   -0.409   -0.425   -0.442   -0.473   -0.537   -0.642   -0.759   -0.832   -0.821   -0.733   -0.616   -0.522   -0.464   -0.432   -0.421   -0.419   -0.418   -0.423   -0.433   -0.444   -0.458   -0.469   -0.489   -0.508   -0.537   -0.581   -0.647   -0.727   -0.824   -0.913   -0.991   -1.043   -1.068   -1.078   -1.071   -1.062   -1.055   -1.074   -1.125   -1.233   -1.417   -1.700   -2.079   -2.556   -3.119   -3.766   -4.508   -5.357   -6.309   -7.330   -8.351   -9.308  -10.149  -10.851  -11.409  -11.828  -12.117  -12.292  -12.372  -12.393  -12.395  -12.414  -12.478  -12.611  -12.848  -13.224  -13.768  -14.489  -15.384  -16.410  -17.509  -18.584  -19.536  -20.307  -20.872  -21.257  -21.522  -21.729  -21.939  -22.216  -22.612  -23.149  -23.826  -24.605  -25.414  -26.145  -26.674  -26.857
  -0.477   -0.421   -0.406   -0.392   -0.381   -0.368   -0.360   -0.354   -0.349   -0.345   -0.353   -0.358   -0.372   -0.381   -0.397   -0.428   -0.490   -0.589   -0.704   -0.770   -0.752   -0.664   -0.561   -0.472   -0.421   -0.395   -0.391   -0.386   -0.391   -0.399   -0.407   -0.415   -0.424   -0.433   -0.442   -0.456   -0.475   -0.495   -0.523   -0.563   -0.605   -0.642   -0.677   -0.700   -0.720   -0.723   -0.726   -0.725   -0.731   -0.742   -0.774   -0.831   -0.938   -1.106   -1.347   -1.659   -2.046   -2.526   -3.124   -3.869   -4.766   -5.777   -6.843   -7.883   -8.830   -9.636  -10.276  -10.751  -11.077  -11.270  -11.360  -11.398  -11.418  -11.468  -11.576  -11.767  -12.056  -12.469  -13.016  -13.692  -14.485  -15.373  -16.309  -17.220  -18.048  -18.746  -19.303  -19.735  -20.080  -20.383  -20.690  -21.053  -21.513  -22.100  -22.802  -23.587  -24.381  -25.087  -25.592  -25.753
  -0.455   -0.401   -0.387   -0.374   -0.363   -0.355   -0.347   -0.341   -0.336   -0.332   -0.329   -0.338   -0.343   -0.344   -0.357   -0.385   -0.432   -0.512   -0.595   -0.647   -0.640   -0.571   -0.492   -0.424   -0.386   -0.367   -0.361   -0.363   -0.370   -0.377   -0.384   -0.391   -0.399   -0.407   -0.414   -0.422   -0.431   -0.443   -0.461   -0.476   -0.496   -0.510   -0.528   -0.542   -0.552   -0.559   -0.564   -0.572   -0.573   -0.585   -0.603   -0.637   -0.690   -0.775   -0.900   -1.074   -1.303   -1.610   -2.032   -2.597   -3.338   -4.234   -5.231   -6.260   -7.236   -8.097   -8.800   -9.340   -9.727   -9.984  -10.143  -10.249  -10.345  -10.478  -10.674  -10.944  -11.302  -11.741  -12.256  -12.842  -13.493  -14.188  -14.907  -15.610  -16.261  -16.832  -17.320  -17.740  -18.112  -18.468  -18.839  -19.262  -19.777  -20.394  -21.115  -21.896  -22.674  -23.362  -23.859  -24.024
  -0.439   -0.388   -0.374   -0.361   -0.351   -0.342   -0.335   -0.330   -0.325   -0.321   -0.318   -0.316   -0.318   -0.323   -0.327   -0.344   -0.376   -0.425   -0.479   -0.515   -0.513   -0.469   -0.421   -0.372   -0.351   -0.345   -0.342   -0.347   -0.352   -0.358   -0.364   -0.370   -0.377   -0.384   -0.390   -0.397   -0.404   -0.412   -0.419   -0.429   -0.438   -0.453   -0.461   -0.471   -0.480   -0.486   -0.492   -0.499   -0.507   -0.515   -0.524   -0.539   -0.567   -0.606   -0.661   -0.743   -0.857   -1.029   -1.285   -1.658   -2.192   -2.880   -3.699   -4.590   -5.484   -6.308   -7.013   -7.584   -8.026   -8.360   -8.610   -8.812   -9.018   -9.265   -9.585   -9.964  -10.395  -10.852  -11.315  -11.778  -12.253  -12.726  -13.198  -13.664  -14.103  -14.504  -14.874  -15.224  -15.564  -15.913  -16.289  -16.724  -17.242  -17.854  -18.554  -19.307  -20.052  -20.717  -21.208  -21.403
  -0.425   -0.375   -0.362   -0.350   -0.340   -0.332   -0.325   -0.320   -0.316   -0.312   -0.309   -0.306   -0.304   -0.304   -0.308   -0.316   -0.333   -0.355   -0.387   -0.404   -0.404   -0.385   -0.360   -0.341   -0.330   -0.323   -0.327   -0.332   -0.337   -0.342   -0.347   -0.352   -0.358   -0.364   -0.370   -0.376   -0.382   -0.388   -0.394   -0.401   -0.407   -0.414   -0.421   -0.427   -0.434   -0.440   -0.447   -0.454   -0.460   -0.467   -0.474   -0.486   -0.501   -0.517   -0.544   -0.574   -0.627   -0.710   -0.841   -1.057   -1.384   -1.838   -2.415   -3.082   -3.789   -4.471   -5.094   -5.626   -6.078   -6.450   -6.772   -7.072   -7.394   -7.782   -8.239   -8.752   -9.267   -9.747  -10.156  -10.495  -10.783  -11.031  -11.262  -11.477  -11.687  -11.899  -12.116  -12.349  -12.611  -12.897  -13.222  -13.609  -14.072  -14.612  -15.230  -15.892  -16.563  -17.173  -17.637  -17.872
  -0.413   -0.364   -0.352   -0.340   -0.331   -0.323   -0.317   -0.312   -0.307   -0.304   -0.301   -0.298   -0.297   -0.295   -0.294   -0.295   -0.307   -0.317   -0.327   -0.341   -0.341   -0.331   -0.322   -0.316   -0.309   -0.312   -0.316   -0.319   -0.323   -0.327   -0.332   -0.337   -0.342   -0.347   -0.352   -0.357   -0.363   -0.368   -0.374   -0.380   -0.385   -0.391   -0.396   -0.402   -0.408   -0.414   -0.421   -0.426   -0.432   -0.438   -0.444   -0.451   -0.457   -0.466   -0.479   -0.495   -0.517   -0.552   -0.616   -0.723   -0.894   -1.151   -1.491   -1.910   -2.381   -2.864   -3.324   -3.752   -4.138   -4.494   -4.839   -5.202   -5.622   -6.133   -6.724   -7.357   -7.960   -8.459   -8.822   -9.054   -9.175   -9.228   -9.231   -9.221   -9.210   -9.230   -9.294   -9.401   -9.558   -9.755   -9.996  -10.287  -10.642  -11.060  -11.541  -12.054  -12.587  -13.086  -13.480  -13.737
  -0.402   -0.355   -0.343   -0.332   -0.323   -0.316   -0.310   -0.304   -0.300   -0.297   -0.294   -0.292   -0.290   -0.288   -0.288   -0.287   -0.288   -0.293   -0.301   -0.305   -0.305   -0.305   -0.299   -0.297   -0.299   -0.302   -0.305   -0.308   -0.312   -0.316   -0.319   -0.324   -0.328   -0.332   -0.337   -0.341   -0.346   -0.351   -0.356   -0.361   -0.366   -0.371   -0.376   -0.382   -0.387   -0.392   -0.397   -0.402   -0.408   -0.413   -0.419   -0.425   -0.430   -0.436   -0.442   -0.450   -0.464   -0.479   -0.509   -0.553   -0.632   -0.754   -0.926   -1.149   -1.407   -1.691   -1.979   -2.256   -2.541   -2.826   -3.135   -3.502   -3.958   -4.527   -5.191   -5.884   -6.519   -7.020   -7.339   -7.487   -7.490   -7.394   -7.230   -7.039   -6.852   -6.721   -6.651   -6.658   -6.724   -6.836   -6.991   -7.187   -7.426   -7.710   -8.032   -8.379   -8.745   -9.096   -9.382   -9.631
  -0.393   -0.347   -0.336   -0.325   -0.316   -0.309   -0.303   -0.298   -0.294   -0.291   -0.288   -0.286   -0.284   -0.283   -0.282   -0.281   -0.281   -0.281   -0.281   -0.282   -0.283   -0.285   -0.286   -0.289   -0.291   -0.294   -0.296   -0.299   -0.302   -0.305   -0.309   -0.312   -0.316   -0.320   -0.324   -0.328   -0.332   -0.336   -0.341   -0.345   -0.350   -0.354   -0.359   -0.363   -0.368   -0.373   -0.378   -0.383   -0.387   -0.392   -0.397   -0.402   -0.407   -0.412   -0.418   -0.424   -0.430   -0.437   -0.451   -0.473   -0.501   -0.554   -0.628   -0.730   -0.847   -0.984   -1.131   -1.291   -1.458   -1.650   -1.889   -2.202   -2.621   -3.151   -3.780   -4.424   -5.010   -5.457   -5.714   -5.803   -5.741   -5.566   -5.317   -5.030   -4.758   -4.544   -4.409   -4.354   -4.365   -4.422   -4.515   -4.640   -4.802   -4.987   -5.202   -5.434   -5.669   -5.894   -6.086   -6.297
  -0.386   -0.341   -0.330   -0.319   -0.311   -0.304   -0.298   -0.293   -0.289   -0.286   -0.283   -0.281   -0.279   -0.278   -0.277   -0.276   -0.276   -0.276   -0.276   -0.277   -0.278   -0.279   -0.280   -0.282   -0.284   -0.286   -0.288   -0.291   -0.294   -0.297   -0.300   -0.303   -0.306   -0.310   -0.313   -0.317   -0.320   -0.324   -0.328   -0.332   -0.336   -0.340   -0.344   -0.348   -0.352   -0.356   -0.361   -0.365   -0.369   -0.374   -0.379   -0.383   -0.388   -0.393   -0.398   -0.403   -0.408   -0.413   -0.419   -0.428   -0.445   -0.466   -0.493   -0.529   -0.580   -0.636   -0.699   -0.775   -0.860   -0.973   -1.128   -1.353   -1.675   -2.088   -2.576   -3.080   -3.533   -3.871   -4.059   -4.100   -4.021   -3.847   -3.594   -3.314   -3.054   -2.843   -2.709   -2.641   -2.626   -2.658   -2.718   -2.815   -2.937   -3.098   -3.283   -3.479   -3.676   -3.857   -4.002   -4.184
  -0.381   -0.336   -0.325   -0.314   -0.306   -0.300   -0.294   -0.289   -0.286   -0.282   -0.280   -0.277   -0.276   -0.274   -0.273   -0.272   -0.272   -0.272   -0.272   -0.273   -0.273   -0.274   -0.275   -0.277   -0.278   -0.280   -0.282   -0.284   -0.287   -0.289   -0.292   -0.295   -0.298   -0.301   -0.304   -0.308   -0.311   -0.314   -0.318   -0.321   -0.325   -0.328   -0.332   -0.336   -0.339   -0.343   -0.347   -0.351   -0.355   -0.359   -0.363   -0.367   -0.371   -0.375   -0.380   -0.385   -0.390   -0.395   -0.400   -0.405   -0.410   -0.419   -0.435   -0.448   -0.467   -0.489   -0.512   -0.546   -0.586   -0.646   -0.731   -0.867   -1.068   -1.339   -1.647   -1.969   -2.259   -2.470   -2.582   -2.601   -2.539   -2.407   -2.225   -2.022   -1.833   -1.683   -1.584   -1.530   -1.520   -1.539   -1.591   -1.676   -1.804   -1.983   -2.194   -2.428   -2.661   -2.866   -3.021   -3.187
  -0.377   -0.332   -0.322   -0.311   -0.303   -0.297   -0.291   -0.287   -0.283   -0.280   -0.277   -0.275   -0.273   -0.272   -0.271   -0.270   -0.270   -0.269   -0.269   -0.270   -0.270   -0.271   -0.272   -0.273   -0.274   -0.276   -0.278   -0.280   -0.282   -0.284   -0.286   -0.289   -0.291   -0.294   -0.297   -0.300   -0.303   -0.306   -0.309   -0.312   -0.316   -0.319   -0.322   -0.325   -0.329   -0.332   -0.336   -0.339   -0.343   -0.347   -0.350   -0.354   -0.358   -0.362   -0.366   -0.370   -0.374   -0.379   -0.383   -0.388   -0.393   -0.398   -0.403   -0.411   -0.417   -0.433   -0.441   -0.458   -0.473   -0.502   -0.548   -0.615   -0.723   -0.858   -1.022   -1.190   -1.339   -1.451   -1.506   -1.519   -1.482   -1.405   -1.305   -1.190   -1.087   -1.003   -0.955   -0.929   -0.925   -0.943   -0.987   -1.069   -1.198   -1.391   -1.639   -1.921   -2.208   -2.462   -2.655   -2.830
  -0.375   -0.331   -0.320   -0.310   -0.302   -0.296   -0.290   -0.286   -0.282   -0.279   -0.277   -0.274   -0.273   -0.271   -0.270   -0.269   -0.269   -0.268   -0.268   -0.268   -0.269   -0.269   -0.270   -0.271   -0.272   -0.274   -0.275   -0.277   -0.278   -0.280   -0.282   -0.285   -0.287   -0.289   -0.292   -0.294   -0.297   -0.300   -0.303   -0.305   -0.308   -0.312   -0.315   -0.318   -0.321   -0.324   -0.327   -0.330   -0.334   -0.337   -0.340   -0.344   -0.347   -0.351   -0.355   -0.358   -0.362   -0.366   -0.370   -0.374   -0.379   -0.383   -0.388   -0.393   -0.398   -0.403   -0.408   -0.416   -0.427   -0.442   -0.461   -0.492   -0.539   -0.595   -0.671   -0.745   -0.804   -0.857   -0.880   -0.885   -0.867   -0.840   -0.799   -0.750   -0.709   -0.677   -0.656   -0.645   -0.649   -0.667   -0.700   -0.768   -0.888   -1.077   -1.324   -1.613   -1.930   -2.232   -2.460   -2.646
  -0.376   -0.332   -0.321   -0.311   -0.303   -0.297   -0.291   -0.287   -0.283   -0.280   -0.278   -0.276   -0.274   -0.272   -0.271   -0.270   -0.270   -0.269   -0.269   -0.269   -0.269   -0.270   -0.270   -0.271   -0.272   -0.273   -0.275   -0.276   -0.277   -0.279   -0.281   -0.283   -0.285   -0.287   -0.289   -0.292   -0.294   -0.296   -0.299   -0.302   -0.304   -0.307   -0.310   -0.312   -0.315   -0.318   -0.322   -0.325   -0.328   -0.331   -0.334   -0.337   -0.340   -0.343   -0.347   -0.350   -0.354   -0.357   -0.361   -0.365   -0.369   -0.373   -0.377   -0.381   -0.385   -0.390   -0.394   -0.399   -0.404   -0.410   -0.423   -0.436   -0.455   -0.477   -0.506   -0.530   -0.556   -0.575   -0.581   -0.587   -0.588   -0.580   -0.569   -0.558   -0.547   -0.535   -0.528   -0.533   -0.537   -0.551   -0.574   -0.624   -0.718   -0.867   -1.080   -1.351   -1.659   -1.967   -2.218   -2.416
  -0.381   -0.333   -0.323   -0.313   -0.305   -0.298   -0.293   -0.288   -0.285   -0.282   -0.279   -0.277   -0.275   -0.274   -0.272   -0.271   -0.271   -0.270   -0.270   -0.270   -0.270   -0.270   -0.271   -0.272   -0.272   -0.273   -0.274   -0.276   -0.277   -0.278   -0.280   -0.282   -0.283   -0.285   -0.287   -0.289   -0.292   -0.294   -0.296   -0.298   -0.301   -0.303   -0.306   -0.308   -0.311   -0.314   -0.316   -0.319   -0.322   -0.325   -0.328   -0.331   -0.334   -0.337   -0.340   -0.343   -0.346   -0.350   -0.353   -0.357   -0.360   -0.364   -0.367   -0.371   -0.375   -0.379   -0.383   -0.387   -0.392   -0.396   -0.400   -0.407   -0.418   -0.428   -0.436   -0.450   -0.460   -0.464   -0.469   -0.474   -0.479   -0.483   -0.479   -0.478   -0.480   -0.482   -0.478   -0.480   -0.485   -0.498   -0.518   -0.551   -0.613   -0.722   -0.883   -1.119   -1.402   -1.706   -1.959   -2.168
  -0.487   -0.371   -0.357   -0.346   -0.337   -0.331   -0.325   -0.321   -0.317   -0.314   -0.311   -0.308   -0.306   -0.305   -0.303   -0.302   -0.302   -0.301   -0.300   -0.300   -0.300   -0.300   -0.301   -0.301   -0.302   -0.303   -0.303   -0.304   -0.306   -0.307   -0.308   -0.310   -0.311   -0.313   -0.315   -0.317   -0.318   -0.320   -0.323   -0.325   -0.327   -0.329   -0.332   -0.334   -0.336   -0.339   -0.341   -0.344   -0.347   -0.349   -0.353   -0.356   -0.358   -0.361   -0.364   -0.367   -0.371   -0.374   -0.377   -0.380   -0.384   -0.387   -0.391   -0.395   -0.398   -0.402   -0.406   -0.410   -0.414   -0.418   -0.423   -0.427   -0.431   -0.436   -0.442   -0.449   -0.464   -0.469   -0.474   -0.479   -0.483   -0.478   -0.479   -0.483   -0.486   -0.490   -0.495   -0.500   -0.504   -0.509   -0.529   -0.552   -0.600   -0.690   -0.830   -1.033   -1.306   -1.598   -1.857   -2.152
