DSAA
 100 100
 0.0 400.0
 0.0 400.0
 -225.4547 -0.4046638
 -24.424  -24.677  -25.050  -25.609  -26.361  -27.258  -28.213  -29.110  -29.793  -30.114  -29.912  -28.983  -27.167  -24.461  -21.123  -17.687  -14.811  -12.967  -12.253  -12.452  -13.272  -14.474  -15.954  -17.646  -19.410  -20.979  -22.020  -22.281  -21.703  -20.367  -18.401  -16.016  -13.518  -11.332   -9.855   -9.202   -9.209   -9.547   -9.908  -10.104  -10.080   -9.877   -9.585   -9.327   -9.169   -9.165   -9.308   -9.549   -9.824  -10.126  -10.454  -10.826  -11.204  -11.441  -11.317  -10.618   -9.230   -7.322   -5.250   -3.431   -2.122   -1.321   -0.891   -0.694   -0.621   -0.578   -0.565   -0.552   -0.542   -0.528   -0.521   -0.521   -0.523   -0.525   -0.529   -0.533   -0.523   -0.521   -0.527   -0.549   -0.564   -0.574   -0.589   -0.620   -0.661   -0.733   -0.844   -1.027   -1.312   -1.739   -2.365   -3.170   -4.156   -5.291   -6.610   -8.175   -9.975  -11.819  -13.346  -14.341
 -24.179  -24.395  -24.719  -25.201  -25.848  -26.630  -27.484  -28.283  -28.896  -29.182  -28.982  -28.117  -26.404  -23.834  -20.634  -17.322  -14.506  -12.653  -11.878  -11.992  -12.701  -13.802  -15.187  -16.795  -18.495  -20.036  -21.131  -21.547  -21.216  -20.176  -18.514  -16.362  -14.023  -11.897  -10.341   -9.490   -9.237   -9.336   -9.549   -9.682   -9.659   -9.496   -9.261   -9.050   -8.943   -8.972   -9.132   -9.375   -9.640   -9.921  -10.235  -10.596  -10.975  -11.254  -11.211  -10.634   -9.409   -7.654   -5.687   -3.892   -2.522   -1.629   -1.122   -0.865   -0.741   -0.684   -0.649   -0.622   -0.592   -0.568   -0.546   -0.528   -0.527   -0.524   -0.514   -0.517   -0.519   -0.525   -0.531   -0.542   -0.554   -0.582   -0.605   -0.663   -0.750   -0.898   -1.133   -1.492   -2.003   -2.726   -3.692   -4.892   -6.258   -7.734   -9.341  -11.107  -13.041  -14.954  -16.482  -17.388
 -23.493  -23.659  -23.882  -24.212  -24.654  -25.208  -25.835  -26.428  -26.874  -27.059  -26.853  -26.105  -24.646  -22.432  -19.637  -16.673  -14.072  -12.268  -11.396  -11.334  -11.827  -12.699  -13.858  -15.237  -16.721  -18.127  -19.240  -19.892  -19.995  -19.509  -18.427  -16.824  -14.905  -12.993  -11.384  -10.211   -9.468   -9.081   -8.946   -8.931   -8.931   -8.887   -8.819   -8.781   -8.832   -8.973   -9.165   -9.364   -9.538   -9.726   -9.950  -10.253  -10.601  -10.909  -10.988  -10.650   -9.766   -8.370   -6.681   -5.006   -3.593   -2.554   -1.888   -1.498   -1.294   -1.186   -1.109   -1.040   -0.955   -0.866   -0.806   -0.760   -0.734   -0.721   -0.716   -0.706   -0.699   -0.703   -0.711   -0.731   -0.763   -0.803   -0.869   -0.998   -1.217   -1.597   -2.155   -2.934   -3.963   -5.290   -6.926   -8.813  -10.811  -12.788  -14.724  -16.672  -18.638  -20.469  -21.881  -22.593
 -22.219  -22.312  -22.407  -22.537  -22.719  -22.988  -23.337  -23.687  -23.932  -23.985  -23.762  -23.150  -22.018  -20.302  -18.085  -15.653  -13.428  -11.774  -10.860  -10.618  -10.855  -11.431  -12.266  -13.309  -14.458  -15.602  -16.637  -17.457  -17.979  -18.100  -17.733  -16.868  -15.603  -14.122  -12.582  -11.105   -9.805   -8.820   -8.224   -7.999   -8.017   -8.187   -8.465   -8.832   -9.260   -9.659   -9.934  -10.032   -9.977   -9.881   -9.854   -9.959  -10.193  -10.473  -10.674  -10.613  -10.134   -9.224   -7.969   -6.569   -5.244   -4.144   -3.339   -2.821   -2.515   -2.350   -2.215   -2.071   -1.881   -1.682   -1.514   -1.412   -1.358   -1.334   -1.311   -1.278   -1.248   -1.236   -1.251   -1.302   -1.367   -1.463   -1.624   -1.902   -2.399   -3.197   -4.328   -5.795   -7.565   -9.645  -12.001  -14.510  -16.978  -19.236  -21.246  -23.097  -24.829  -26.377  -27.514  -27.948
 -20.256  -20.243  -20.193  -20.103  -20.021  -20.013  -20.094  -20.205  -20.262  -20.196  -19.960  -19.504  -18.738  -17.587  -16.058  -14.301  -12.598  -11.253  -10.408  -10.064  -10.090  -10.375  -10.845  -11.471  -12.186  -12.942  -13.739  -14.543  -15.311  -15.940  -16.310  -16.332  -15.940  -15.090  -13.759  -12.073  -10.277   -8.708   -7.635   -7.159   -7.197   -7.669   -8.471   -9.511  -10.598  -11.495  -11.976  -11.956  -11.530  -10.935  -10.428  -10.141  -10.094  -10.218  -10.426  -10.564  -10.481  -10.076   -9.349   -8.390   -7.338   -6.359   -5.554   -4.987   -4.649   -4.454   -4.293   -4.065   -3.743   -3.384   -3.090   -2.907   -2.826   -2.786   -2.738   -2.666   -2.599   -2.574   -2.607   -2.712   -2.860   -3.058   -3.357   -3.893   -4.802   -6.200   -8.063  -10.297  -12.800  -15.497  -18.301  -21.074  -23.585  -25.689  -27.392  -28.832  -30.105  -31.205  -31.983  -32.133
 -17.698  -17.574  -17.362  -17.060  -16.725  -16.465  -16.320  -16.248  -16.164  -16.012  -15.796  -15.502  -15.111  -14.545  -13.749  -12.750  -11.695  -10.792  -10.175   -9.856   -9.767   -9.820   -9.968  -10.172  -10.403  -10.685  -11.072  -11.640  -12.420  -13.393  -14.476  -15.500  -16.151  -16.078  -15.083  -13.283  -11.098   -9.042   -7.523   -6.741   -6.730   -7.472   -8.880  -10.740  -12.708  -14.324  -15.200  -15.188  -14.428  -13.299  -12.184  -11.313  -10.755  -10.509  -10.533  -10.718  -10.906  -10.939  -10.730  -10.268   -9.645   -8.965   -8.338   -7.867   -7.598   -7.455   -7.326   -7.077   -6.677   -6.214   -5.826   -5.594   -5.506   -5.475   -5.421   -5.325   -5.233   -5.200   -5.269   -5.444   -5.701   -6.052   -6.558   -7.401   -8.768  -10.744  -13.240  -16.044  -18.990  -21.957  -24.850  -27.490  -29.660  -31.239  -32.325  -33.129  -33.835  -34.464  -34.899  -34.830
 -14.948  -14.697  -14.319  -13.811  -13.260  -12.797  -12.490  -12.296  -12.139  -11.959  -11.772  -11.632  -11.587  -11.588  -11.524  -11.311  -10.962  -10.595  -10.319  -10.158  -10.065   -9.997   -9.909   -9.771   -9.567   -9.350   -9.238   -9.385   -9.948  -11.067  -12.763  -14.766  -16.474  -17.220  -16.649  -14.902  -12.523  -10.156   -8.259   -7.085   -6.812   -7.589   -9.417  -12.029  -14.878  -17.295  -18.746  -18.995  -18.202  -16.788  -15.201  -13.717  -12.491  -11.650  -11.280  -11.341  -11.645  -11.957  -12.118  -12.087  -11.885  -11.569  -11.228  -10.963  -10.853  -10.852  -10.844  -10.692  -10.346   -9.916   -9.552   -9.367   -9.332   -9.348   -9.329   -9.252   -9.172   -9.163   -9.278   -9.535   -9.920  -10.433  -11.155  -12.277  -13.967  -16.288  -19.074  -22.065  -25.076  -28.010  -30.748  -33.068  -34.701  -35.571  -35.868  -35.948  -36.074  -36.292  -36.458  -36.230
 -12.556  -12.181  -11.632  -10.922  -10.196   -9.605   -9.215   -8.982   -8.819   -8.645   -8.497   -8.490   -8.742   -9.243   -9.852  -10.379  -10.727  -10.919  -11.027  -11.083  -11.084  -10.995  -10.793  -10.436   -9.925   -9.304   -8.705   -8.340   -8.509   -9.525  -11.536  -14.211  -16.728  -18.200  -18.142  -16.730  -14.551  -12.216  -10.108   -8.467   -7.624   -8.008   -9.833  -12.828  -16.310  -19.434  -21.532  -22.290  -21.841  -20.569  -18.869  -16.993  -15.156  -13.659  -12.794  -12.618  -12.901  -13.312  -13.648  -13.836  -13.898  -13.859  -13.776  -13.725  -13.794  -13.976  -14.157  -14.207  -14.065  -13.806  -13.606  -13.558  -13.636  -13.738  -13.778  -13.760  -13.730  -13.769  -13.944  -14.282  -14.779  -15.431  -16.320  -17.595  -19.409  -21.762  -24.473  -27.295  -30.100  -32.832  -35.360  -37.347  -38.451  -38.588  -38.075  -37.428  -37.021  -36.896  -36.860  -36.524
 -11.026  -10.536   -9.798   -8.882   -8.018   -7.352   -6.961   -6.775   -6.661   -6.541   -6.448   -6.557   -7.060   -7.978   -9.141  -10.293  -11.242  -11.923  -12.384  -12.655  -12.761  -12.710  -12.475  -12.034  -11.359  -10.483   -9.506   -8.644   -8.288   -8.899  -10.748  -13.535  -16.386  -18.336  -18.883  -18.183  -16.730  -14.949  -12.960  -10.906   -9.257   -8.774  -10.029  -12.905  -16.638  -20.240  -22.901  -24.258  -24.380  -23.568  -22.102  -20.161  -18.003  -16.070  -14.849  -14.479  -14.682  -15.057  -15.351  -15.518  -15.612  -15.665  -15.706  -15.805  -16.030  -16.393  -16.790  -17.085  -17.208  -17.206  -17.226  -17.343  -17.529  -17.688  -17.755  -17.763  -17.784  -17.888  -18.130  -18.540  -19.123  -19.875  -20.845  -22.144  -23.881  -26.042  -28.444  -30.904  -33.367  -35.842  -38.156  -39.858  -40.508  -40.014  -38.796  -37.521  -36.653  -36.233  -36.026  -35.609
 -10.565   -9.950   -9.011   -7.886   -6.876   -6.185   -5.840   -5.745   -5.739   -5.716   -5.728   -6.001   -6.730   -7.976   -9.552  -11.158  -12.529  -13.559  -14.251  -14.665  -14.837  -14.809  -14.574  -14.118  -13.387  -12.375  -11.135   -9.857   -8.932   -8.877  -10.082  -12.369  -15.010  -17.151  -18.334  -18.653  -18.393  -17.631  -16.162  -13.925  -11.475   -9.898  -10.165  -12.455  -16.043  -19.816  -22.832  -24.650  -25.283  -24.977  -23.914  -22.207  -20.121  -18.180  -16.936  -16.547  -16.700  -16.951  -17.062  -17.036  -16.971  -16.934  -16.976  -17.144  -17.495  -18.021  -18.633  -19.175  -19.544  -19.767  -19.952  -20.173  -20.385  -20.492  -20.478  -20.412  -20.421  -20.576  -20.901  -21.403  -22.052  -22.840  -23.775  -24.951  -26.463  -28.301  -30.305  -32.334  -34.402  -36.577  -38.653  -40.099  -40.388  -39.430  -37.703  -35.971  -34.742  -34.049  -33.652  -33.175
 -11.058  -10.345   -9.201   -7.871   -6.728   -6.011   -5.722   -5.718   -5.819   -5.911   -6.102   -6.588   -7.576   -9.071  -10.888  -12.723  -14.312  -15.505  -16.287  -16.713  -16.872  -16.816  -16.563  -16.091  -15.345  -14.262  -12.843  -11.225   -9.766   -8.969   -9.257  -10.651  -12.689  -14.753  -16.492  -17.898  -18.981  -19.433  -18.727  -16.635  -13.690  -11.158  -10.374  -11.841  -14.977  -18.610  -21.674  -23.653  -24.544  -24.577  -23.920  -22.667  -21.044  -19.535  -18.617  -18.387  -18.523  -18.625  -18.517  -18.263  -17.987  -17.793  -17.758  -17.935  -18.374  -19.044  -19.839  -20.588  -21.150  -21.498  -21.723  -21.902  -21.990  -21.900  -21.652  -21.385  -21.293  -21.471  -21.900  -22.495  -23.177  -23.894  -24.651  -25.553  -26.714  -28.150  -29.727  -31.318  -32.982  -34.810  -36.601  -37.786  -37.813  -36.592  -34.620  -32.655  -31.182  -30.227  -29.609  -29.108
 -12.224  -11.449  -10.167   -8.689   -7.445   -6.679   -6.399   -6.423   -6.557   -6.771   -7.170   -7.941   -9.191  -10.863  -12.759  -14.611  -16.189  -17.347  -18.055  -18.371  -18.412  -18.253  -17.927  -17.416  -16.641  -15.499  -13.958  -12.101  -10.220   -8.773   -8.207   -8.671   -9.993  -11.806  -13.891  -16.139  -18.317  -19.810  -19.895  -18.201  -15.210  -12.200  -10.654  -11.320  -13.820  -17.032  -19.844  -21.694  -22.582  -22.774  -22.483  -21.820  -20.935  -20.168  -19.787  -19.796  -19.917  -19.879  -19.618  -19.216  -18.806  -18.497  -18.379  -18.538  -19.001  -19.746  -20.646  -21.503  -22.134  -22.473  -22.591  -22.563  -22.380  -21.965  -21.367  -20.810  -20.556  -20.726  -21.220  -21.860  -22.488  -23.010  -23.456  -23.950  -24.668  -25.660  -26.819  -28.015  -29.300  -30.759  -32.220  -33.148  -33.023  -31.778  -29.856  -27.909  -26.332  -25.159  -24.319  -23.806
 -13.698  -12.941  -11.638  -10.128   -8.835   -8.005   -7.637   -7.573   -7.679   -7.969   -8.593   -9.669  -11.173  -12.950  -14.778  -16.472  -17.842  -18.784  -19.263  -19.350  -19.168  -18.831  -18.376  -17.779  -16.947  -15.771  -14.167  -12.183  -10.073   -8.241   -7.107   -6.931   -7.683   -9.197  -11.320  -13.917  -16.624  -18.721  -19.405  -18.264  -15.659  -12.727  -10.878  -10.949  -12.776  -15.398  -17.782  -19.364  -20.144  -20.414  -20.457  -20.402  -20.333  -20.364  -20.532  -20.751  -20.841  -20.719  -20.422  -20.056  -19.684  -19.363  -19.203  -19.305  -19.702  -20.368  -21.177  -21.936  -22.469  -22.660  -22.542  -22.199  -21.658  -20.882  -19.943  -19.102  -18.669  -18.751  -19.199  -19.767  -20.219  -20.459  -20.519  -20.579  -20.853  -21.455  -22.277  -23.178  -24.159  -25.281  -26.389  -27.067  -26.899  -25.840  -24.228  -22.528  -21.001  -19.699  -18.697  -18.180
 -15.125  -14.444  -13.255  -11.839  -10.562   -9.653   -9.119   -8.885   -8.895   -9.243  -10.070  -11.433  -13.148  -14.972  -16.669  -18.088  -19.130  -19.730  -19.865  -19.628  -19.152  -18.571  -17.936  -17.211  -16.312  -15.121  -13.535  -11.585   -9.474   -7.588   -6.323   -5.921   -6.400   -7.628   -9.482  -11.840  -14.410  -16.569  -17.582  -17.024  -15.103  -12.691  -10.964  -10.723  -11.976  -14.015  -15.981  -17.331  -18.048  -18.398  -18.689  -19.093  -19.644  -20.275  -20.832  -21.154  -21.189  -21.041  -20.866  -20.725  -20.565  -20.362  -20.213  -20.230  -20.458  -20.855  -21.337  -21.772  -22.006  -21.914  -21.491  -20.819  -19.965  -18.939  -17.811  -16.815  -16.233  -16.159  -16.440  -16.784  -16.965  -16.888  -16.607  -16.329  -16.302  -16.653  -17.290  -18.050  -18.856  -19.695  -20.459  -20.872  -20.694  -19.898  -18.703  -17.351  -15.983  -14.686  -13.640  -13.143
 -16.134  -15.588  -14.592  -13.367  -12.163  -11.168  -10.461  -10.041   -9.966  -10.376  -11.402  -12.977  -14.835  -16.651  -18.193  -19.343  -20.055  -20.294  -20.066  -19.473  -18.672  -17.819  -16.975  -16.124  -15.171  -14.003  -12.536  -10.786   -8.929   -7.308   -6.279   -6.030   -6.496   -7.457   -8.787  -10.439  -12.310  -14.037  -15.077  -15.011  -13.866  -12.182  -10.836  -10.540  -11.445  -13.100  -14.809  -16.081  -16.820  -17.206  -17.565  -18.119  -18.909  -19.777  -20.461  -20.756  -20.707  -20.568  -20.594  -20.770  -20.914  -20.904  -20.795  -20.723  -20.738  -20.783  -20.814  -20.786  -20.612  -20.185  -19.469  -18.552  -17.550  -16.500  -15.453  -14.538  -13.944  -13.743  -13.792  -13.861  -13.749  -13.403  -12.909  -12.469  -12.312  -12.554  -13.124  -13.842  -14.540  -15.136  -15.557  -15.669  -15.389  -14.755  -13.868  -12.814  -11.659  -10.497   -9.537   -9.123
 -16.428  -16.019  -15.248  -14.237  -13.156  -12.146  -11.324  -10.812  -10.734  -11.247  -12.416  -14.104  -16.001  -17.763  -19.172  -20.138  -20.623  -20.605  -20.111  -19.249  -18.192  -17.112  -16.093  -15.130  -14.168  -13.098  -11.855  -10.451   -9.029   -7.879   -7.307   -7.421   -7.998   -8.708   -9.370  -10.054  -10.896  -11.845  -12.605  -12.797  -12.261  -11.254  -10.369  -10.225  -11.056  -12.592  -14.264  -15.588  -16.369  -16.720  -16.939  -17.326  -17.983  -18.747  -19.306  -19.449  -19.263  -19.100  -19.251  -19.665  -20.046  -20.180  -20.105  -19.970  -19.824  -19.606  -19.284  -18.878  -18.377  -17.695  -16.796  -15.803  -14.862  -14.065  -13.390  -12.854  -12.506  -12.347  -12.254  -12.076  -11.709  -11.161  -10.556  -10.058   -9.840   -9.984  -10.439  -11.029  -11.550  -11.876  -11.935  -11.706  -11.218  -10.570   -9.812   -8.973   -8.056   -7.131   -6.385   -6.100
 -15.842  -15.522  -14.940  -14.138  -13.214  -12.289  -11.513  -11.048  -11.083  -11.733  -12.994  -14.691  -16.507  -18.176  -19.504  -20.404  -20.828  -20.753  -20.186  -19.245  -18.089  -16.903  -15.802  -14.815  -13.895  -12.998  -12.049  -11.052  -10.119   -9.491   -9.403   -9.860  -10.540  -10.991  -10.998  -10.708  -10.466  -10.495  -10.702  -10.801  -10.536   -9.971   -9.499   -9.623  -10.598  -12.230  -14.009  -15.431  -16.229  -16.452  -16.410  -16.461  -16.788  -17.256  -17.560  -17.480  -17.124  -16.836  -16.919  -17.318  -17.713  -17.845  -17.750  -17.597  -17.431  -17.193  -16.818  -16.331  -15.748  -15.014  -14.121  -13.231  -12.545  -12.187  -12.112  -12.191  -12.331  -12.410  -12.303  -11.913  -11.274  -10.519   -9.800   -9.243   -8.928   -8.867   -9.026   -9.286   -9.473   -9.454   -9.160   -8.621   -7.927   -7.204   -6.520   -5.855   -5.195   -4.575   -4.104   -3.967
 -14.423  -14.142  -13.672  -13.039  -12.295  -11.559  -10.976  -10.720  -10.956  -11.759  -13.047  -14.650  -16.319  -17.867  -19.161  -20.124  -20.672  -20.744  -20.340  -19.550  -18.508  -17.396  -16.339  -15.405  -14.605  -13.903  -13.241  -12.595  -12.060  -11.823  -12.060  -12.709  -13.375  -13.576  -13.071  -12.050  -10.949  -10.121   -9.651   -9.362   -9.038   -8.670   -8.523   -8.973  -10.192  -11.999  -13.890  -15.343  -16.050  -16.057  -15.693  -15.372  -15.327  -15.472  -15.527  -15.272  -14.766  -14.295  -14.130  -14.247  -14.393  -14.363  -14.198  -14.086  -14.080  -14.107  -14.046  -13.854  -13.497  -12.942  -12.234  -11.577  -11.220  -11.325  -11.843  -12.558  -13.207  -13.529  -13.355  -12.682  -11.697  -10.669   -9.819   -9.204   -8.769   -8.439   -8.197   -7.996   -7.774   -7.406   -6.844   -6.122   -5.347   -4.644   -4.073   -3.601   -3.211   -2.884   -2.655   -2.644
 -12.509  -12.204  -11.772  -11.226  -10.668  -10.188   -9.900   -9.945  -10.423  -11.341  -12.585  -14.013  -15.479  -16.891  -18.186  -19.293  -20.095  -20.497  -20.460  -20.020  -19.292  -18.421  -17.541  -16.744  -16.085  -15.545  -15.070  -14.631  -14.287  -14.206  -14.516  -15.122  -15.647  -15.632  -14.848  -13.469  -11.908  -10.542   -9.523   -8.803   -8.298   -8.030   -8.191   -8.984  -10.470  -12.399  -14.270  -15.556  -15.981  -15.607  -14.808  -14.053  -13.627  -13.478  -13.340  -12.999  -12.435  -11.832  -11.389  -11.145  -10.945  -10.702  -10.495  -10.516  -10.834  -11.358  -11.877  -12.227  -12.294  -12.060  -11.631  -11.226  -11.120  -11.504  -12.343  -13.389  -14.257  -14.591  -14.187  -13.130  -11.756  -10.479   -9.530   -8.901   -8.409   -7.898   -7.333   -6.768   -6.212   -5.617   -4.938   -4.210   -3.514   -2.956   -2.564   -2.295   -2.107   -1.999   -1.946   -2.028
 -10.710  -10.335   -9.838   -9.304   -8.871   -8.640   -8.677   -9.018   -9.694  -10.638  -11.740  -12.912  -14.116  -15.356  -16.636  -17.908  -19.028  -19.867  -20.323  -20.390  -20.120  -19.618  -19.013  -18.411  -17.882  -17.419  -16.983  -16.543  -16.164  -15.993  -16.122  -16.474  -16.743  -16.547  -15.706  -14.342  -12.779  -11.321  -10.121   -9.246   -8.729   -8.688   -9.236  -10.430  -12.169  -14.114  -15.759  -16.623  -16.491  -15.497  -14.079  -12.759  -11.856  -11.353  -11.021  -10.626  -10.092   -9.466   -8.894   -8.417   -8.009   -7.673   -7.527   -7.790   -8.540   -9.641  -10.797  -11.713  -12.228  -12.333  -12.162  -11.938  -11.917  -12.279  -13.033  -13.951  -14.621  -14.656  -13.863  -12.425  -10.775   -9.377   -8.447   -7.880   -7.409   -6.846   -6.154   -5.431   -4.747   -4.107   -3.494   -2.917   -2.433   -2.091   -1.890   -1.785   -1.750   -1.764   -1.808   -1.934
  -9.721   -9.241   -8.606   -7.979   -7.586   -7.535   -7.809   -8.358   -9.099   -9.933  -10.774  -11.585  -12.435  -13.420  -14.608  -15.983  -17.404  -18.689  -19.698  -20.355  -20.640  -20.611  -20.355  -19.980  -19.554  -19.086  -18.542  -17.934  -17.331  -16.861  -16.623  -16.573  -16.509  -16.165  -15.409  -14.317  -13.107  -11.970  -11.025  -10.395  -10.212  -10.624  -11.685  -13.330  -15.307  -17.189  -18.463  -18.726  -17.860  -16.083  -13.909  -11.887  -10.381   -9.420   -8.802   -8.306   -7.792   -7.227   -6.669   -6.161   -5.756   -5.503   -5.569   -6.149   -7.322   -8.909  -10.561  -11.908  -12.764  -13.130  -13.165  -13.061  -13.004  -13.133  -13.479  -13.897  -14.043  -13.578  -12.381  -10.693   -8.964   -7.619   -6.789   -6.313   -5.902   -5.383   -4.729   -4.057   -3.445   -2.929   -2.494   -2.149   -1.924   -1.820   -1.787   -1.798   -1.846   -1.920   -2.004   -2.145
  -9.996   -9.412   -8.591   -7.808   -7.365   -7.366   -7.741   -8.322   -8.960   -9.529   -9.966  -10.301  -10.684  -11.305  -12.284  -13.630  -15.227  -16.893  -18.445  -19.714  -20.607  -21.120  -21.285  -21.174  -20.845  -20.313  -19.591  -18.715  -17.778  -16.910  -16.219  -15.704  -15.284  -14.797  -14.169  -13.446  -12.743  -12.163  -11.782  -11.704  -12.085  -13.064  -14.647  -16.684  -18.825  -20.603  -21.513  -21.223  -19.695  -17.243  -14.408  -11.752   -9.645   -8.175   -7.199   -6.508   -5.937   -5.408   -4.909   -4.491   -4.203   -4.152   -4.478   -5.371   -6.851   -8.721  -10.614  -12.158  -13.180  -13.720  -13.932  -13.955  -13.869  -13.747  -13.617  -13.409  -12.924  -11.948  -10.457   -8.695   -7.062   -5.857   -5.123   -4.683   -4.301   -3.858   -3.336   -2.831   -2.413   -2.093   -1.878   -1.781   -1.787   -1.864   -1.957   -2.032   -2.110   -2.210   -2.311   -2.447
 -11.426  -10.780   -9.818   -8.886   -8.344   -8.313   -8.652   -9.113   -9.496   -9.651   -9.576   -9.344   -9.193   -9.343   -9.984  -11.156  -12.767  -14.659  -16.626  -18.454  -19.957  -21.030  -21.653  -21.841  -21.634  -21.056  -20.151  -19.000  -17.720  -16.453  -15.322  -14.390  -13.638  -13.013  -12.488  -12.093  -11.893  -11.916  -12.170  -12.710  -13.636  -15.045  -16.925  -19.107  -21.238  -22.858  -23.487  -22.853  -21.000  -18.268  -15.186  -12.253   -9.812   -7.965   -6.647   -5.716   -5.003   -4.428   -3.957   -3.620   -3.477   -3.624   -4.191   -5.276   -6.866   -8.750  -10.589  -12.069  -13.072  -13.673  -14.037  -14.226  -14.214  -13.959  -13.473  -12.747  -11.741  -10.397   -8.773   -7.081   -5.603   -4.513   -3.812   -3.358   -2.999   -2.639   -2.289   -1.985   -1.769   -1.656   -1.630   -1.710   -1.862   -2.029   -2.167   -2.243   -2.309   -2.400   -2.487   -2.619
 -13.373  -12.751  -11.764  -10.786  -10.204  -10.131  -10.382  -10.649  -10.695  -10.386   -9.756   -8.967   -8.273   -7.960   -8.205   -9.077  -10.521  -12.430  -14.615  -16.829  -18.810  -20.365  -21.400  -21.884  -21.833  -21.276  -20.269  -18.923  -17.375  -15.796  -14.333  -13.090  -12.108  -11.374  -10.909  -10.749  -10.944  -11.470  -12.254  -13.259  -14.483  -15.997  -17.793  -19.762  -21.613  -22.934  -23.333  -22.602  -20.827  -18.343  -15.584  -12.923  -10.576   -8.651   -7.150   -6.004   -5.131   -4.474   -3.993   -3.719   -3.692   -3.987   -4.672   -5.781   -7.247   -8.876  -10.383  -11.548  -12.331  -12.870  -13.310  -13.671  -13.793  -13.526  -12.852  -11.822  -10.516   -9.006   -7.405   -5.883   -4.576   -3.590   -2.917   -2.465   -2.146   -1.904   -1.718   -1.594   -1.555   -1.591   -1.708   -1.878   -2.078   -2.245   -2.332   -2.349   -2.351   -2.392   -2.454   -2.568
 -15.178  -14.651  -13.800  -12.942  -12.440  -12.373  -12.547  -12.632  -12.364  -11.647  -10.572   -9.336   -8.231   -7.536   -7.431   -7.965   -9.133  -10.854  -12.993  -15.299  -17.478  -19.285  -20.564  -21.272  -21.376  -20.902  -19.900  -18.482  -16.806  -15.047  -13.396  -11.988  -10.888  -10.117   -9.699   -9.696  -10.152  -11.009  -12.126  -13.351  -14.604  -15.903  -17.284  -18.710  -19.999  -20.860  -21.027  -20.368  -18.996  -17.182  -15.212  -13.270  -11.435   -9.752   -8.268   -7.032   -6.058   -5.337   -4.861   -4.637   -4.683   -5.018   -5.670   -6.610   -7.745   -8.892   -9.866  -10.539  -10.961  -11.310  -11.733  -12.176  -12.396  -12.169  -11.440  -10.316   -8.953   -7.509   -6.110   -4.850   -3.790   -2.952   -2.354   -1.958   -1.728   -1.611   -1.560   -1.582   -1.664   -1.811   -1.999   -2.205   -2.382   -2.475   -2.454   -2.355   -2.258   -2.223   -2.243   -2.353
 -16.467  -16.103  -15.511  -14.935  -14.613  -14.616  -14.756  -14.722  -14.261  -13.301  -11.967  -10.496   -9.177   -8.274   -7.942   -8.208   -9.065  -10.457  -12.284  -14.331  -16.334  -18.046  -19.308  -20.057  -20.259  -19.892  -18.982  -17.617  -15.940  -14.146  -12.441  -10.987   -9.875   -9.130   -8.786   -8.897   -9.496  -10.510  -11.745  -12.983  -14.094  -15.044  -15.887  -16.656  -17.278  -17.624  -17.562  -17.076  -16.262  -15.294  -14.280  -13.221  -12.066  -10.807   -9.514   -8.306   -7.301   -6.566   -6.104   -5.905   -5.932   -6.181   -6.635   -7.229   -7.871   -8.437   -8.815   -8.973   -9.006   -9.121   -9.433   -9.852  -10.083   -9.887   -9.217   -8.194   -7.017   -5.853   -4.808   -3.910   -3.154   -2.548   -2.099   -1.815   -1.688   -1.665   -1.710   -1.813   -1.969   -2.168   -2.386   -2.584   -2.705   -2.699   -2.562   -2.335   -2.129   -2.018   -2.001   -2.097
 -17.251  -17.071  -16.818  -16.587  -16.521  -16.638  -16.784  -16.706  -16.183  -15.178  -13.799  -12.308  -10.969  -10.030   -9.605   -9.709  -10.290  -11.300  -12.630  -14.127  -15.604  -16.880  -17.844  -18.442  -18.628  -18.344  -17.569  -16.337  -14.768  -13.055  -11.405   -9.990   -8.924   -8.237   -7.959   -8.135   -8.770   -9.783  -10.965  -12.102  -13.025  -13.695  -14.132  -14.400  -14.517  -14.492  -14.336  -14.104  -13.851  -13.631  -13.400  -13.070  -12.504  -11.651  -10.584   -9.459   -8.450   -7.679   -7.170   -6.877   -6.770   -6.806   -6.944   -7.107   -7.242   -7.280   -7.173   -6.954   -6.726   -6.661   -6.852   -7.168   -7.362   -7.209   -6.695   -5.940   -5.130   -4.398   -3.790   -3.290   -2.850   -2.478   -2.193   -2.035   -1.987   -2.024   -2.114   -2.240   -2.399   -2.591   -2.777   -2.906   -2.942   -2.846   -2.622   -2.325   -2.060   -1.911   -1.858   -1.951
 -17.676  -17.691  -17.767  -17.903  -18.098  -18.339  -18.522  -18.457  -17.984  -17.070  -15.810  -14.431  -13.192  -12.302  -11.861  -11.856  -12.230  -12.863  -13.634  -14.455  -15.218  -15.862  -16.360  -16.682  -16.757  -16.511  -15.867  -14.813  -13.434  -11.898  -10.385   -9.064   -8.049   -7.382   -7.102   -7.243   -7.796   -8.674   -9.695  -10.675  -11.459  -11.989  -12.263  -12.338  -12.286  -12.208  -12.196  -12.305  -12.531  -12.826  -13.073  -13.140  -12.908  -12.302  -11.367  -10.274   -9.214   -8.326   -7.656   -7.161   -6.801   -6.548   -6.344   -6.145   -5.907   -5.616   -5.276   -4.930   -4.657   -4.561   -4.686   -4.915   -5.070   -5.012   -4.725   -4.326   -3.932   -3.625   -3.408   -3.220   -3.033   -2.848   -2.716   -2.667   -2.695   -2.773   -2.870   -2.972   -3.064   -3.131   -3.168   -3.156   -3.076   -2.907   -2.660   -2.376   -2.133   -1.999   -1.950   -2.031
 -17.882  -18.055  -18.414  -18.860  -19.286  -19.637  -19.843  -19.798  -19.408  -18.641  -17.573  -16.380  -15.280  -14.442  -13.973  -13.867  -14.030  -14.319  -14.592  -14.772  -14.853  -14.888  -14.917  -14.952  -14.919  -14.708  -14.204  -13.365  -12.252  -10.980   -9.690   -8.489   -7.489   -6.757   -6.356   -6.316   -6.643   -7.268   -8.041   -8.815   -9.485   -9.975  -10.268  -10.409  -10.488  -10.651  -10.991  -11.515  -12.143  -12.745  -13.204  -13.407  -13.266  -12.713  -11.790  -10.645   -9.476   -8.424   -7.522   -6.766   -6.136   -5.622   -5.173   -4.767   -4.381   -4.035   -3.726   -3.479   -3.334   -3.348   -3.500   -3.727   -3.903   -3.969   -3.921   -3.818   -3.735   -3.718   -3.735   -3.733   -3.695   -3.664   -3.695   -3.782   -3.914   -4.048   -4.150   -4.190   -4.130   -3.966   -3.746   -3.482   -3.221   -2.977   -2.753   -2.553   -2.400   -2.329   -2.315   -2.412
 -17.917  -18.191  -18.743  -19.398  -19.967  -20.359  -20.536  -20.464  -20.118  -19.486  -18.610  -17.614  -16.650  -15.863  -15.337  -15.091  -15.030  -15.006  -14.870  -14.572  -14.169  -13.771  -13.486  -13.344  -13.278  -13.154  -12.848  -12.303  -11.547  -10.646   -9.655   -8.633   -7.644   -6.763   -6.091   -5.716   -5.675   -5.924   -6.350   -6.858   -7.369   -7.813   -8.165   -8.466   -8.814   -9.335  -10.091  -11.008  -11.946  -12.739  -13.276  -13.490  -13.316  -12.722  -11.739  -10.521   -9.254   -8.070   -7.008   -6.072   -5.272   -4.608   -4.072   -3.651   -3.329   -3.116   -2.998   -2.962   -3.024   -3.178   -3.426   -3.702   -3.956   -4.161   -4.296   -4.369   -4.426   -4.507   -4.588   -4.642   -4.700   -4.822   -5.053   -5.354   -5.663   -5.901   -6.025   -5.980   -5.715   -5.256   -4.675   -4.096   -3.601   -3.240   -3.016   -2.884   -2.834   -2.850   -2.901   -3.025
 -17.783  -18.112  -18.761  -19.499  -20.090  -20.418  -20.458  -20.256  -19.857  -19.276  -18.550  -17.739  -16.933  -16.214  -15.649  -15.254  -14.959  -14.659  -14.236  -13.655  -13.010  -12.426  -12.021  -11.850  -11.851  -11.913  -11.905  -11.764  -11.484  -11.073  -10.495   -9.738   -8.790   -7.728   -6.705   -5.876   -5.345   -5.109   -5.104   -5.256   -5.520   -5.848   -6.208   -6.629   -7.197   -8.002   -9.048  -10.218  -11.331  -12.220  -12.794  -12.996  -12.777  -12.134  -11.118   -9.882   -8.610   -7.439   -6.398   -5.475   -4.684   -4.047   -3.574   -3.277   -3.141   -3.147   -3.249   -3.410   -3.626   -3.903   -4.217   -4.550   -4.889   -5.200   -5.419   -5.532   -5.571   -5.600   -5.636   -5.690   -5.827   -6.140   -6.636   -7.231   -7.778   -8.167   -8.334   -8.208   -7.750   -7.004   -6.074   -5.152   -4.367   -3.798   -3.479   -3.340   -3.329   -3.391   -3.490   -3.640
 -17.540  -17.880  -18.540  -19.253  -19.749  -19.882  -19.656  -19.190  -18.606  -17.972  -17.325  -16.675  -16.044  -15.444  -14.896  -14.397  -13.922  -13.415  -12.831  -12.156  -11.468  -10.887  -10.525  -10.428  -10.576  -10.882  -11.261  -11.629  -11.940  -12.123  -12.070  -11.663  -10.837   -9.654   -8.312   -7.030   -5.991   -5.235   -4.747   -4.484   -4.432   -4.575   -4.866   -5.311   -5.958   -6.840   -7.926   -9.091  -10.175  -11.040  -11.590  -11.781  -11.562  -10.929   -9.957   -8.809   -7.675   -6.683   -5.864   -5.166   -4.577   -4.132   -3.863   -3.781   -3.887   -4.102   -4.378   -4.656   -4.948   -5.248   -5.565   -5.905   -6.270   -6.599   -6.798   -6.840   -6.750   -6.652   -6.604   -6.661   -6.910   -7.453   -8.257   -9.180   -9.990  -10.547  -10.763  -10.588  -10.003   -9.037   -7.837   -6.592   -5.489   -4.649   -4.111   -3.825   -3.750   -3.795   -3.904   -4.064
 -17.317  -17.638  -18.264  -18.884  -19.198  -19.034  -18.433  -17.578  -16.679  -15.883  -15.225  -14.692  -14.238  -13.795  -13.327  -12.811  -12.249  -11.654  -11.027  -10.389   -9.785   -9.308   -9.040   -9.046   -9.338   -9.899  -10.676  -11.590  -12.536  -13.366  -13.875  -13.887  -13.289  -12.133  -10.623   -9.030   -7.596   -6.409   -5.484   -4.834   -4.480   -4.420   -4.604   -4.983   -5.546   -6.275   -7.121   -7.987   -8.779   -9.426   -9.849  -10.001   -9.806   -9.257   -8.429   -7.485   -6.612   -5.937   -5.473   -5.153   -4.940   -4.819   -4.850   -5.053   -5.388   -5.781   -6.156   -6.471   -6.735   -6.975   -7.226   -7.505   -7.795   -8.043   -8.122   -7.999   -7.755   -7.528   -7.428   -7.531   -7.927   -8.701   -9.793  -10.995  -12.030  -12.721  -12.982  -12.781  -12.118  -11.025   -9.637   -8.131   -6.725   -5.588   -4.790   -4.306   -4.078   -4.054   -4.137   -4.304
 -17.224  -17.527  -18.103  -18.609  -18.709  -18.220  -17.201  -15.887  -14.591  -13.526  -12.774  -12.298  -11.988  -11.707  -11.362  -10.916  -10.378   -9.803   -9.242   -8.710   -8.233   -7.873   -7.681   -7.757   -8.147   -8.890   -9.993  -11.387  -12.911  -14.322  -15.361  -15.801  -15.524  -14.557  -13.100  -11.437   -9.822   -8.384   -7.182   -6.272   -5.710   -5.498   -5.569   -5.822   -6.181   -6.573   -6.944   -7.270   -7.532   -7.753   -7.913   -7.945   -7.769   -7.362   -6.768   -6.132   -5.614   -5.339   -5.314   -5.455   -5.675   -5.955   -6.334   -6.827   -7.370   -7.876   -8.264   -8.530   -8.721   -8.870   -9.010   -9.175   -9.343   -9.451   -9.373   -9.095   -8.718   -8.413   -8.318   -8.504   -9.046   -9.983  -11.231  -12.554  -13.677  -14.389  -14.623  -14.380  -13.668  -12.504  -10.997   -9.318   -7.712   -6.370   -5.369   -4.713   -4.362   -4.255   -4.321   -4.491
 -17.262  -17.562  -18.104  -18.518  -18.439  -17.670  -16.267  -14.508  -12.786  -11.409  -10.503  -10.022   -9.801   -9.654   -9.439   -9.109   -8.684   -8.226   -7.787   -7.384   -7.029   -6.749   -6.616   -6.709   -7.122   -7.953   -9.249  -10.959  -12.898  -14.755  -16.225  -17.058  -17.130  -16.477  -15.269  -13.751  -12.177  -10.713   -9.442   -8.450   -7.808   -7.510   -7.477   -7.565   -7.636   -7.585   -7.379   -7.034   -6.649   -6.325   -6.118   -5.964   -5.791   -5.530   -5.213   -4.943   -4.838   -4.999   -5.430   -6.035   -6.703   -7.385   -8.089   -8.814   -9.486  -10.017  -10.363  -10.560  -10.656  -10.717  -10.777  -10.849  -10.915  -10.896  -10.713  -10.353   -9.938   -9.647   -9.605   -9.860  -10.448  -11.375  -12.538  -13.736  -14.703  -15.253  -15.342  -14.988  -14.208  -13.010  -11.467   -9.747   -8.109   -6.738   -5.706   -5.007   -4.610   -4.497   -4.562   -4.749
 -17.233  -17.536  -18.074  -18.458  -18.279  -17.324  -15.638  -13.533  -11.442   -9.761   -8.678   -8.156   -7.987   -7.943   -7.850   -7.661   -7.392   -7.092   -6.797   -6.520   -6.257   -6.034   -5.932   -6.022   -6.402   -7.201   -8.529  -10.381  -12.547  -14.690  -16.459  -17.606  -18.018  -17.718  -16.843  -15.606  -14.235  -12.914  -11.756  -10.840  -10.225   -9.883   -9.727   -9.609   -9.352   -8.845   -8.065   -7.090   -6.102   -5.275   -4.712   -4.383   -4.197   -4.069   -4.008   -4.080   -4.384   -4.972   -5.818   -6.832   -7.892   -8.911   -9.869  -10.730  -11.437  -11.931  -12.207  -12.327  -12.362  -12.389  -12.424  -12.461  -12.485  -12.436  -12.255  -11.944  -11.609  -11.394  -11.399  -11.644  -12.117  -12.792  -13.592  -14.362  -14.919  -15.122  -14.938  -14.402  -13.533  -12.339  -10.873   -9.296   -7.826   -6.629   -5.744   -5.150   -4.828   -4.756   -4.853   -5.071
 -16.746  -17.065  -17.628  -18.024  -17.840  -16.829  -15.011  -12.701  -10.378   -8.477   -7.262   -6.701   -6.561   -6.586   -6.600   -6.541   -6.441   -6.322   -6.171   -5.998   -5.805   -5.635   -5.558   -5.628   -5.940   -6.635   -7.879   -9.704  -11.936  -14.202  -16.149  -17.522  -18.204  -18.219  -17.666  -16.737  -15.645  -14.570  -13.632  -12.889  -12.347  -11.978  -11.686  -11.337  -10.760   -9.832   -8.575   -7.124   -5.719   -4.592   -3.850   -3.444   -3.269   -3.246   -3.365   -3.693   -4.312   -5.228   -6.406   -7.729   -9.074  -10.337  -11.443  -12.350  -13.014  -13.435  -13.647  -13.725  -13.749  -13.777  -13.834  -13.899  -13.947  -13.934  -13.843  -13.663  -13.470  -13.356  -13.378  -13.522  -13.740  -13.988  -14.212  -14.358  -14.333  -14.062  -13.530  -12.787  -11.839  -10.710   -9.451   -8.180   -7.058   -6.188   -5.576   -5.181   -4.983   -4.995   -5.136   -5.376
 -15.448  -15.761  -16.353  -16.819  -16.708  -15.761  -13.972  -11.652   -9.281   -7.329   -6.072   -5.498   -5.372   -5.431   -5.509   -5.559   -5.602   -5.621   -5.601   -5.521   -5.404   -5.296   -5.241   -5.291   -5.524   -6.101   -7.206   -8.903  -11.050  -13.300  -15.303  -16.796  -17.656  -17.900  -17.614  -16.963  -16.162  -15.374  -14.702  -14.157  -13.707  -13.307  -12.880  -12.317  -11.457  -10.212   -8.632   -6.922   -5.359   -4.190   -3.485   -3.159   -3.070   -3.129   -3.359   -3.835   -4.620   -5.721   -7.067   -8.551  -10.041  -11.423  -12.584  -13.463  -14.045  -14.387  -14.552  -14.615  -14.642  -14.694  -14.785  -14.892  -14.981  -15.041  -15.053  -15.015  -14.959  -14.911  -14.911  -14.912  -14.842  -14.638  -14.276  -13.780  -13.155  -12.407  -11.557  -10.638   -9.675   -8.693   -7.726   -6.840   -6.131   -5.631   -5.320   -5.160   -5.122   -5.216   -5.411   -5.665
 -13.286  -13.557  -14.160  -14.693  -14.718  -13.951  -12.359  -10.220   -8.009   -6.186   -5.012   -4.468   -4.339   -4.385   -4.480   -4.576   -4.681   -4.786   -4.853   -4.864   -4.825   -4.796   -4.784   -4.837   -5.029   -5.511   -6.463   -7.970   -9.902  -11.994  -13.921  -15.420  -16.364  -16.741  -16.636  -16.227  -15.699  -15.207  -14.795  -14.440  -14.080  -13.648  -13.102  -12.354  -11.303   -9.879   -8.171   -6.426   -4.949   -3.949   -3.446   -3.313   -3.376   -3.544   -3.839   -4.360   -5.180   -6.284   -7.622   -9.085  -10.565  -11.932  -13.049  -13.846  -14.330  -14.595  -14.715  -14.760  -14.784  -14.850  -14.958  -15.089  -15.211  -15.322  -15.408  -15.463  -15.481  -15.467  -15.424  -15.298  -15.009  -14.471  -13.681  -12.710  -11.654  -10.578   -9.531   -8.549   -7.652   -6.871   -6.216   -5.703   -5.363   -5.175   -5.127   -5.168   -5.285   -5.485   -5.721   -6.010
 -10.610  -10.813  -11.390  -11.963  -12.143  -11.624  -10.351   -8.560   -6.685   -5.150   -4.156   -3.675   -3.523   -3.522   -3.565   -3.640   -3.747   -3.865   -3.973   -4.060   -4.124   -4.190   -4.263   -4.371   -4.578   -5.011   -5.821   -7.075   -8.698  -10.493  -12.201  -13.589  -14.506  -14.924  -14.929  -14.701  -14.415  -14.188  -14.006  -13.810  -13.514  -13.060  -12.431  -11.581  -10.440   -8.998   -7.362   -5.782   -4.540   -3.813   -3.572   -3.659   -3.890   -4.168   -4.523   -5.026   -5.751   -6.707   -7.861   -9.144  -10.454  -11.668  -12.656  -13.329  -13.708  -13.889  -13.959  -13.972  -13.978  -14.022  -14.122  -14.256  -14.386  -14.514  -14.626  -14.713  -14.751  -14.731  -14.647  -14.452  -14.059  -13.376  -12.407  -11.242  -10.018   -8.834   -7.771   -6.866   -6.136   -5.580   -5.207   -4.982   -4.899   -4.923   -5.045   -5.240   -5.508   -5.812   -6.111   -6.430
  -8.112   -8.226   -8.731   -9.304   -9.597   -9.330   -8.410   -7.041   -5.600   -4.424   -3.659   -3.254   -3.074   -3.005   -2.976   -2.990   -3.054   -3.151   -3.281   -3.430   -3.600   -3.782   -3.968   -4.169   -4.421   -4.839   -5.525   -6.531   -7.802   -9.217  -10.597  -11.756  -12.544  -12.924  -12.977  -12.874  -12.775  -12.748  -12.727  -12.621  -12.357  -11.904  -11.258  -10.405   -9.310   -8.009   -6.613   -5.338   -4.401   -3.938   -3.891   -4.112   -4.455   -4.818   -5.206   -5.667   -6.228   -6.919   -7.751   -8.699   -9.694  -10.641  -11.418  -11.937  -12.206  -12.303  -12.320  -12.289  -12.263  -12.275  -12.350  -12.470  -12.598  -12.712  -12.815  -12.887  -12.896  -12.852  -12.753  -12.555  -12.166  -11.519  -10.590   -9.496   -8.347   -7.283   -6.380   -5.672   -5.169   -4.855   -4.701   -4.674   -4.728   -4.857   -5.069   -5.352   -5.717   -6.111   -6.462   -6.795
  -6.511   -6.521   -6.900   -7.390   -7.710   -7.608   -6.996   -6.029   -5.007   -4.172   -3.619   -3.285   -3.076   -2.929   -2.836   -2.790   -2.814   -2.903   -3.050   -3.258   -3.517   -3.799   -4.094   -4.379   -4.692   -5.126   -5.742   -6.569   -7.554   -8.611   -9.639  -10.500  -11.097  -11.382  -11.435  -11.423  -11.457  -11.541  -11.579  -11.472  -11.215  -10.801  -10.224   -9.487   -8.578   -7.549   -6.498   -5.585   -4.950   -4.669   -4.697   -4.928   -5.275   -5.654   -6.038   -6.415   -6.774   -7.140   -7.547   -8.038   -8.596   -9.168   -9.653   -9.978  -10.124  -10.147  -10.111  -10.046  -10.000   -9.988  -10.048  -10.155  -10.264  -10.365  -10.436  -10.458  -10.425  -10.357  -10.267  -10.113   -9.818   -9.299   -8.567   -7.697   -6.805   -6.005   -5.369   -4.921   -4.657   -4.561   -4.591   -4.683   -4.813   -4.970   -5.185   -5.484   -5.866   -6.283   -6.647   -7.001
  -6.204   -6.120   -6.337   -6.643   -6.871   -6.799   -6.355   -5.669   -4.969   -4.391   -3.976   -3.667   -3.419   -3.219   -3.078   -3.006   -3.019   -3.115   -3.298   -3.550   -3.863   -4.207   -4.557   -4.892   -5.263   -5.731   -6.366   -7.157   -8.029   -8.890   -9.655  -10.261  -10.666  -10.861  -10.929  -11.000  -11.125  -11.235  -11.227  -11.062  -10.787  -10.443  -10.022   -9.501   -8.874   -8.186   -7.516   -6.954   -6.580   -6.410   -6.420   -6.566   -6.810   -7.127   -7.449   -7.703   -7.834   -7.827   -7.749   -7.694   -7.705   -7.794   -7.904   -7.978   -7.986   -7.935   -7.851   -7.769   -7.722   -7.711   -7.768   -7.869   -7.971   -8.062   -8.103   -8.081   -8.011   -7.932   -7.872   -7.781   -7.602   -7.265   -6.774   -6.182   -5.602   -5.109   -4.760   -4.578   -4.546   -4.623   -4.781   -4.951   -5.120   -5.274   -5.444   -5.675   -6.001   -6.366   -6.699   -7.053
  -7.211   -7.040   -7.081   -7.161   -7.167   -6.953   -6.491   -5.903   -5.342   -4.884   -4.521   -4.201   -3.914   -3.684   -3.529   -3.460   -3.490   -3.609   -3.813   -4.087   -4.411   -4.755   -5.100   -5.437   -5.841   -6.393   -7.163   -8.092   -9.065   -9.947  -10.652  -11.148  -11.456  -11.637  -11.775  -11.948  -12.123  -12.203  -12.106  -11.850  -11.557  -11.301  -11.069  -10.794  -10.466  -10.115   -9.800   -9.561   -9.408   -9.312   -9.264   -9.280   -9.397   -9.605   -9.818   -9.930   -9.818   -9.436   -8.854   -8.185   -7.566   -7.074   -6.728   -6.501   -6.334   -6.201   -6.088   -5.992   -5.947   -5.945   -6.004   -6.108   -6.208   -6.296   -6.324   -6.287   -6.213   -6.150   -6.121   -6.104   -6.032   -5.861   -5.586   -5.253   -4.944   -4.716   -4.608   -4.630   -4.766   -4.980   -5.230   -5.462   -5.655   -5.791   -5.910   -6.058   -6.302   -6.599   -6.890   -7.253
  -9.309   -9.080   -8.982   -8.832   -8.535   -8.008   -7.308   -6.586   -5.963   -5.468   -5.068   -4.726   -4.436   -4.222   -4.087   -4.048   -4.099   -4.223   -4.410   -4.657   -4.928   -5.214   -5.489   -5.797   -6.224   -6.894   -7.875   -9.088  -10.357  -11.480  -12.334  -12.893  -13.245  -13.502  -13.759  -14.029  -14.232  -14.266  -14.088  -13.776  -13.488  -13.305  -13.211  -13.135  -13.045  -12.970  -12.942  -12.960  -12.978  -12.955  -12.872  -12.805  -12.826  -12.930  -13.040  -13.006  -12.680  -11.984  -10.953   -9.709   -8.442   -7.330   -6.493   -5.932   -5.583   -5.358   -5.215   -5.108   -5.047   -5.040   -5.088   -5.185   -5.289   -5.378   -5.434   -5.431   -5.393   -5.362   -5.370   -5.399   -5.407   -5.364   -5.245   -5.094   -4.972   -4.921   -4.965   -5.106   -5.340   -5.629   -5.953   -6.251   -6.499   -6.660   -6.769   -6.879   -7.064   -7.328   -7.592   -7.974
 -12.150  -11.922  -11.749  -11.401  -10.777   -9.843   -8.733   -7.655   -6.772   -6.109   -5.616   -5.256   -5.002   -4.849   -4.762   -4.740   -4.788   -4.868   -4.989   -5.135   -5.300   -5.463   -5.643   -5.889   -6.330   -7.118   -8.331   -9.879  -11.527  -13.015  -14.172  -14.947  -15.445  -15.830  -16.198  -16.529  -16.735  -16.734  -16.533  -16.230  -15.969  -15.834  -15.801  -15.827  -15.883  -15.984  -16.139  -16.316  -16.459  -16.500  -16.436  -16.358  -16.344  -16.395  -16.427  -16.291  -15.834  -14.945  -13.610  -11.932  -10.131   -8.496   -7.238   -6.410   -5.921   -5.637   -5.462   -5.336   -5.261   -5.236   -5.269   -5.335   -5.439   -5.550   -5.642   -5.705   -5.739   -5.762   -5.814   -5.884   -5.951   -5.986   -5.962   -5.910   -5.862   -5.856   -5.930   -6.092   -6.347   -6.687   -7.086   -7.504   -7.869   -8.134   -8.290   -8.396   -8.549   -8.790   -9.043   -9.449
 -15.369  -15.157  -14.948  -14.468  -13.549  -12.200  -10.606   -9.072   -7.814   -6.894   -6.270   -5.886   -5.672   -5.569   -5.512   -5.481   -5.478   -5.477   -5.484   -5.498   -5.505   -5.526   -5.585   -5.745   -6.164   -7.024   -8.404  -10.226  -12.236  -14.123  -15.641  -16.694  -17.393  -17.902  -18.336  -18.678  -18.866  -18.852  -18.680  -18.439  -18.233  -18.116  -18.103  -18.160  -18.275  -18.445  -18.661  -18.901  -19.092  -19.176  -19.166  -19.130  -19.143  -19.201  -19.204  -19.030  -18.535  -17.591  -16.136  -14.241  -12.163  -10.254   -8.794   -7.870   -7.359   -7.085   -6.922   -6.806   -6.724   -6.693   -6.716   -6.784   -6.884   -7.024   -7.170   -7.321   -7.463   -7.586   -7.696   -7.808   -7.917   -7.998   -8.005   -7.954   -7.864   -7.777   -7.742   -7.819   -8.042   -8.432   -8.962   -9.573  -10.141  -10.572  -10.799  -10.891  -10.974  -11.134  -11.334  -11.732
 -18.650  -18.440  -18.189  -17.587  -16.441  -14.747  -12.728  -10.742   -9.071   -7.846   -7.050   -6.592   -6.374   -6.269   -6.201   -6.130   -6.051   -5.956   -5.841   -5.721   -5.592   -5.474   -5.405   -5.473   -5.843   -6.703   -8.159  -10.149  -12.425  -14.642  -16.493  -17.837  -18.732  -19.344  -19.792  -20.104  -20.253  -20.248  -20.144  -20.003  -19.873  -19.801  -19.799  -19.863  -19.982  -20.138  -20.322  -20.516  -20.686  -20.782  -20.820  -20.850  -20.924  -21.021  -21.041  -20.875  -20.409  -19.511  -18.108  -16.262  -14.226  -12.387  -11.043  -10.257   -9.882   -9.727   -9.653   -9.590   -9.544   -9.536   -9.596   -9.699   -9.831  -10.008  -10.218  -10.476  -10.763  -11.042  -11.274  -11.459  -11.616  -11.722  -11.732  -11.613  -11.366  -11.046  -10.760  -10.638  -10.788  -11.247  -11.981  -12.872  -13.726  -14.358  -14.663  -14.702  -14.652  -14.661  -14.746  -15.147
 -22.119  -21.860  -21.502  -20.735  -19.365  -17.390  -15.017  -12.615  -10.521   -8.948   -7.912   -7.322   -7.028   -6.879   -6.774   -6.657   -6.514   -6.346   -6.154   -5.945   -5.723   -5.524   -5.379   -5.381   -5.695   -6.516   -7.959  -10.002  -12.422  -14.858  -16.956  -18.536  -19.605  -20.292  -20.731  -20.987  -21.100  -21.125  -21.112  -21.097  -21.093  -21.110  -21.167  -21.259  -21.364  -21.474  -21.574  -21.669  -21.753  -21.815  -21.869  -21.950  -22.079  -22.215  -22.272  -22.155  -21.769  -21.012  -19.821  -18.270  -16.602  -15.168  -14.227  -13.798  -13.713  -13.766  -13.824  -13.847  -13.862  -13.915  -14.028  -14.190  -14.370  -14.580  -14.853  -15.235  -15.717  -16.220  -16.654  -16.988  -17.243  -17.412  -17.444  -17.245  -16.787  -16.130  -15.468  -15.053  -15.093  -15.661  -16.675  -17.945  -19.191  -20.124  -20.591  -20.656  -20.574  -20.572  -20.673  -21.189
 -26.672  -26.291  -25.708  -24.644  -22.961  -20.658  -17.902  -15.041  -12.457  -10.438   -9.062   -8.249   -7.822   -7.614   -7.478   -7.337   -7.165   -6.964   -6.746   -6.517   -6.287   -6.070   -5.923   -5.922   -6.217   -6.990   -8.380  -10.387  -12.830  -15.346  -17.587  -19.328  -20.523  -21.263  -21.679  -21.887  -21.983  -22.054  -22.160  -22.313  -22.500  -22.701  -22.905  -23.090  -23.232  -23.312  -23.333  -23.314  -23.286  -23.273  -23.293  -23.370  -23.507  -23.670  -23.787  -23.778  -23.564  -23.070  -22.272  -21.245  -20.194  -19.398  -19.044  -19.100  -19.383  -19.674  -19.866  -19.963  -20.022  -20.113  -20.245  -20.405  -20.571  -20.769  -21.077  -21.593  -22.325  -23.135  -23.872  -24.464  -24.932  -25.300  -25.473  -25.314  -24.717  -23.773  -22.760  -22.089  -22.077  -22.855  -24.300  -26.149  -28.013  -29.543  -30.540  -31.121  -31.594  -32.176  -32.777  -33.687
 -33.679  -33.168  -32.220  -30.679  -28.499  -25.702  -22.410  -18.921  -15.655  -13.000  -11.128   -9.976   -9.348   -9.038   -8.868   -8.722   -8.551   -8.359   -8.157   -7.961   -7.782   -7.644   -7.573   -7.627   -7.941   -8.673   -9.982  -11.898  -14.248  -16.737  -19.002  -20.817  -22.081  -22.845  -23.241  -23.411  -23.510  -23.642  -23.893  -24.279  -24.772  -25.307  -25.809  -26.215  -26.482  -26.599  -26.578  -26.459  -26.306  -26.176  -26.101  -26.102  -26.194  -26.370  -26.598  -26.805  -26.916  -26.870  -26.661  -26.344  -26.073  -26.034  -26.336  -26.913  -27.564  -28.082  -28.386  -28.523  -28.589  -28.646  -28.702  -28.747  -28.791  -28.908  -29.236  -29.910  -30.934  -32.132  -33.288  -34.306  -35.210  -36.013  -36.586  -36.724  -36.301  -35.419  -34.451  -33.917  -34.249  -35.594  -37.816  -40.592  -43.494  -46.144  -48.366  -50.311  -52.254  -54.229  -55.841  -57.166
 -43.917  -43.370  -42.010  -39.878  -37.054  -33.584  -29.558  -25.221  -21.034  -17.506  -14.938  -13.288  -12.346  -11.859  -11.608  -11.440  -11.264  -11.078  -10.899  -10.765  -10.678  -10.660  -10.728  -10.910  -11.282  -11.977  -13.171  -14.908  -17.089  -19.445  -21.645  -23.446  -24.723  -25.487  -25.853  -25.990  -26.088  -26.297  -26.732  -27.430  -28.357  -29.403  -30.394  -31.188  -31.703  -31.923  -31.895  -31.691  -31.406  -31.128  -30.899  -30.767  -30.766  -30.968  -31.379  -31.944  -32.563  -33.161  -33.700  -34.208  -34.767  -35.490  -36.432  -37.507  -38.510  -39.253  -39.694  -39.911  -40.011  -40.039  -40.002  -39.909  -39.835  -39.923  -40.357  -41.282  -42.680  -44.343  -46.036  -47.657  -49.222  -50.720  -51.992  -52.828  -53.121  -53.023  -52.955  -53.456  -54.924  -57.466  -60.901  -64.890  -69.045  -73.053  -76.803  -80.399  -83.920  -87.095  -89.270  -90.159
 -56.455  -56.078  -54.403  -51.747  -48.305  -44.153  -39.347  -34.093  -28.892  -24.372  -20.960  -18.678  -17.303  -16.540  -16.135  -15.886  -15.658  -15.434  -15.249  -15.147  -15.164  -15.300  -15.557  -15.907  -16.362  -17.024  -18.056  -19.556  -21.481  -23.617  -25.683  -27.428  -28.686  -29.429  -29.748  -29.836  -29.916  -30.200  -30.836  -31.906  -33.367  -35.046  -36.661  -37.962  -38.806  -39.175  -39.153  -38.872  -38.469  -38.046  -37.667  -37.388  -37.310  -37.570  -38.237  -39.265  -40.508  -41.834  -43.160  -44.468  -45.794  -47.198  -48.702  -50.221  -51.574  -52.611  -53.317  -53.775  -54.087  -54.287  -54.388  -54.433  -54.541  -54.895  -55.700  -57.062  -58.935  -61.106  -63.372  -65.644  -67.928  -70.198  -72.325  -74.155  -75.668  -77.054  -78.687  -80.970  -84.125  -88.113  -92.707  -97.610 -102.551 -107.348 -111.938 -116.325 -120.381 -123.640 -125.332 -124.776
 -68.990  -68.965  -67.174  -64.208  -60.356  -55.716  -50.323  -44.362  -38.346  -32.989  -28.820  -25.934  -24.102  -23.019  -22.389  -21.991  -21.644  -21.315  -21.041  -20.916  -21.000  -21.298  -21.775  -22.329  -22.898  -23.540  -24.411  -25.653  -27.283  -29.172  -31.089  -32.772  -34.020  -34.738  -34.997  -35.009  -35.052  -35.383  -36.201  -37.617  -39.584  -41.861  -44.070  -45.852  -47.010  -47.526  -47.528  -47.205  -46.738  -46.244  -45.792  -45.456  -45.383  -45.774  -46.745  -48.250  -50.095  -52.082  -54.076  -56.024  -57.939  -59.865  -61.811  -63.707  -65.422  -66.853  -68.001  -68.948  -69.779  -70.530  -71.220  -71.902  -72.694  -73.761  -75.253  -77.227  -79.606  -82.223  -84.932  -87.676  -90.469  -93.308  -96.133  -98.894 -101.636 -104.536 -107.835 -111.721 -116.222 -121.193 -126.412 -131.662 -136.781 -141.669 -146.271 -150.480 -153.994 -156.236 -156.390 -153.979
 -79.239  -79.610  -77.877  -74.832  -70.832  -65.998  -60.355  -54.089  -47.707  -41.941  -37.363  -34.098  -31.935  -30.566  -29.715  -29.133  -28.616  -28.107  -27.671  -27.433  -27.514  -27.945  -28.644  -29.436  -30.173  -30.855  -31.620  -32.654  -34.051  -35.761  -37.594  -39.282  -40.565  -41.292  -41.508  -41.450  -41.440  -41.781  -42.698  -44.325  -46.605  -49.250  -51.823  -53.904  -55.263  -55.892  -55.946  -55.657  -55.235  -54.805  -54.433  -54.204  -54.284  -54.907  -56.209  -58.127  -60.435  -62.891  -65.328  -67.680  -69.957  -72.204  -74.445  -76.639  -78.713  -80.614  -82.359  -84.022  -85.668  -87.325  -89.001  -90.721  -92.552  -94.584  -96.890  -99.476 -102.270 -105.166 -108.082 -111.008 -113.981 -117.044 -120.219 -123.537 -127.070 -130.934 -135.232 -139.976 -145.053 -150.263 -155.400 -160.306 -164.886 -169.077 -172.791 -175.826 -177.866 -178.435 -176.683 -174.686
 -85.744  -86.417  -84.822  -81.858  -77.926  -73.166  -67.624  -61.489  -55.255  -49.612  -45.085  -41.785  -39.511  -37.994  -36.988  -36.238  -35.541  -34.822  -34.161  -33.740  -33.747  -34.254  -35.157  -36.208  -37.178  -37.995  -38.780  -39.752  -41.079  -42.777  -44.684  -46.510  -47.931  -48.753  -49.004  -48.937  -48.903  -49.223  -50.135  -51.764  -54.053  -56.712  -59.302  -61.413  -62.815  -63.507  -63.655  -63.497  -63.244  -63.022  -62.897  -62.950  -63.347  -64.301  -65.933  -68.159  -70.746  -73.442  -76.074  -78.586  -81.000  -83.375  -85.760  -88.164  -90.567  -92.960  -95.377  -97.871 -100.477 -103.190 -105.976 -108.805 -111.671 -114.590 -117.572 -120.601 -123.629 -126.604 -129.504 -132.356 -135.231 -138.212 -141.377 -144.800 -148.552 -152.680 -157.171 -161.923 -166.775 -171.553 -176.138 -180.464 -184.494 -188.177 -191.437 -194.146 -196.096 -196.801 -194.709 -198.387
 -87.886  -88.681  -87.216  -84.413  -80.688  -76.207  -71.045  -65.408  -59.754  -54.684  -50.614  -47.600  -45.452  -43.955  -42.898  -42.051  -41.219  -40.319  -39.444  -38.830  -38.724  -39.261  -40.338  -41.658  -42.915  -43.987  -44.976  -46.117  -47.625  -49.558  -51.757  -53.901  -55.617  -56.683  -57.120  -57.177  -57.204  -57.518  -58.338  -59.781  -61.797  -64.134  -66.421  -68.306  -69.601  -70.303  -70.563  -70.594  -70.584  -70.651  -70.863  -71.297  -72.092  -73.413  -75.330  -77.743  -80.428  -83.154  -85.772  -88.241  -90.607  -92.954  -95.364  -97.891 -100.564 -103.413 -106.472 -109.764 -113.271 -116.935 -120.661 -124.362 -127.978 -131.478 -134.844 -138.060 -141.107 -143.978 -146.691 -149.308 -151.920 -154.635 -157.564 -160.802 -164.417 -168.439 -172.837 -177.535 -182.426 -187.395 -192.313 -197.048 -201.475 -205.473 -208.988 -211.883 -213.898 -214.339 -211.190 -220.423
 -85.703  -86.416  -85.020  -82.389  -78.937  -74.858  -70.266  -65.374  -60.580  -56.358  -52.991  -50.472  -48.629  -47.300  -46.312  -45.472  -44.598  -43.618  -42.633  -41.899  -41.727  -42.300  -43.545  -45.148  -46.773  -48.252  -49.673  -51.273  -53.273  -55.737  -58.486  -61.160  -63.368  -64.872  -65.689  -66.048  -66.264  -66.625  -67.334  -68.494  -70.076  -71.900  -73.688  -75.187  -76.259  -76.905  -77.237  -77.420  -77.607  -77.906  -78.392  -79.143  -80.265  -81.860  -83.942  -86.393  -89.011  -91.601  -94.048  -96.340  -98.545 -100.773 -103.136 -105.722 -108.595 -111.805 -115.374 -119.280 -123.447 -127.752 -132.056 -136.239 -140.218 -143.948 -147.413 -150.606 -153.534 -156.214 -158.687 -161.027 -163.336 -165.740 -168.363 -171.315 -174.680 -178.492 -182.735 -187.334 -192.166 -197.081 -201.886 -206.437 -210.596 -214.266 -217.332 -219.592 -220.716 -219.978 -215.372 -224.477
 -79.778  -80.226  -78.820  -76.329  -73.159  -69.533  -65.598  -61.558  -57.729  -54.444  -51.855  -49.916  -48.479  -47.420  -46.610  -45.890  -45.108  -44.211  -43.299  -42.637  -42.555  -43.278  -44.772  -46.752  -48.884  -50.995  -53.146  -55.545  -58.380  -61.674  -65.210  -68.602  -71.467  -73.578  -74.941  -75.745  -76.260  -76.735  -77.359  -78.240  -79.377  -80.659  -81.910  -82.968  -83.744  -84.237  -84.516  -84.695  -84.893  -85.216  -85.752  -86.586  -87.799  -89.441  -91.479  -93.785  -96.181  -98.509 -100.691 -102.740 -104.747 -106.836 -109.132 -111.737 -114.728 -118.151 -122.004 -126.222 -130.679 -135.215 -139.675 -143.934 -147.917 -151.584 -154.924 -157.938 -160.637 -163.049 -165.222 -167.233 -169.185 -171.203 -173.420 -175.941 -178.846 -182.155 -185.833 -189.782 -193.876 -197.978 -201.973 -205.802 -209.378 -212.658 -215.457 -217.563 -218.579 -217.797 -213.440 -218.548
 -71.200  -71.266  -69.783  -67.387  -64.465  -61.276  -57.986  -54.772  -51.857  -49.437  -47.572  -46.196  -45.195  -44.470  -43.927  -43.448  -42.930  -42.333  -41.768  -41.479  -41.792  -42.936  -44.918  -47.509  -50.417  -53.467  -56.680  -60.189  -64.111  -68.401  -72.808  -76.957  -80.499  -83.242  -85.179  -86.456  -87.291  -87.903  -88.473  -89.122  -89.881  -90.699  -91.472  -92.105  -92.540  -92.767  -92.823  -92.784  -92.749  -92.828  -93.123  -93.729  -94.720  -96.114  -97.857  -99.821 -101.854 -103.833 -105.708 -107.510 -109.336 -111.307 -113.538 -116.118 -119.110 -122.540 -126.383 -130.543 -134.877 -139.219 -143.423 -147.381 -151.032 -154.348 -157.326 -159.970 -162.301 -164.349 -166.167 -167.827 -169.428 -171.081 -172.907 -175.007 -177.451 -180.265 -183.421 -186.856 -190.465 -194.154 -197.840 -201.454 -204.930 -208.159 -210.999 -213.209 -214.455 -214.070 -210.595 -211.554
 -61.490  -61.157  -59.584  -57.251  -54.541  -51.733  -49.003  -46.487  -44.321  -42.601  -41.329  -40.447  -39.866  -39.516  -39.328  -39.237  -39.188  -39.175  -39.304  -39.794  -40.927  -42.916  -45.776  -49.335  -53.336  -57.585  -62.028  -66.709  -71.656  -76.777  -81.834  -86.506  -90.513  -93.698  -96.053  -97.684  -98.757  -99.462  -99.975 -100.428 -100.881 -101.325 -101.702 -101.949 -102.022 -101.902 -101.610 -101.202 -100.769 -100.420 -100.268 -100.418 -100.943 -101.857 -103.104 -104.576 -106.150 -107.733 -109.293 -110.866 -112.537 -114.399 -116.536 -119.005 -121.838 -125.037 -128.558 -132.303 -136.136 -139.916 -143.525 -146.882 -149.951 -152.720 -155.193 -157.384 -159.311 -161.008 -162.519 -163.904 -165.244 -166.639 -168.190 -169.988 -172.104 -174.571 -177.385 -180.506 -183.867 -187.393 -191.004 -194.616 -198.140 -201.445 -204.381 -206.691 -208.076 -207.952 -205.212 -203.355
 -52.417  -51.783  -50.174  -47.938  -45.444  -42.977  -40.703  -38.724  -37.114  -35.909  -35.103  -34.643  -34.468  -34.535  -34.812  -35.281  -35.934  -36.796  -37.960  -39.598  -41.928  -45.113  -49.156  -53.893  -59.063  -64.427  -69.862  -75.338  -80.846  -86.303  -91.531  -96.300 -100.403 -103.722 -106.242 -108.027 -109.204 -109.926 -110.358 -110.631 -110.827 -110.963 -111.007 -110.913 -110.638 -110.163 -109.501 -108.704 -107.858 -107.067 -106.444 -106.092 -106.087 -106.448 -107.136 -108.070 -109.162 -110.346 -111.600 -112.951 -114.456 -116.171 -118.133 -120.363 -122.861 -125.610 -128.558 -131.621 -134.695 -137.677 -140.491 -143.092 -145.469 -147.622 -149.563 -151.301 -152.853 -154.243 -155.503 -156.682 -157.842 -159.061 -160.424 -162.011 -163.882 -166.072 -168.587 -171.405 -174.485 -177.775 -181.215 -184.734 -188.241 -191.608 -194.655 -197.123 -198.679 -198.832 -196.730 -193.440
 -45.678  -44.920  -43.411  -41.393  -39.203  -37.100  -35.236  -33.682  -32.488  -31.676  -31.242  -31.158  -31.394  -31.920  -32.747  -33.895  -35.390  -37.251  -39.536  -42.357  -45.861  -50.153  -55.219  -60.870  -66.820  -72.798  -78.644  -84.304  -89.779  -95.033  -99.969 -104.445 -108.318 -111.498 -113.956 -115.727 -116.891 -117.571 -117.905 -118.022 -118.007 -117.893 -117.665 -117.287 -116.720 -115.949 -114.989 -113.893 -112.742 -111.632 -110.663 -109.930 -109.501 -109.401 -109.610 -110.075 -110.740 -111.562 -112.525 -113.642 -114.935 -116.424 -118.109 -119.977 -122.007 -124.169 -126.417 -128.686 -130.909 -133.027 -135.007 -136.836 -138.522 -140.075 -141.505 -142.821 -144.032 -145.157 -146.220 -147.253 -148.303 -149.426 -150.690 -152.154 -153.867 -155.857 -158.132 -160.680 -163.478 -166.490 -169.679 -172.992 -176.352 -179.645 -182.699 -185.268 -187.012 -187.473 -185.966 -182.355
 -42.492  -41.829  -40.608  -38.997  -37.273  -35.645  -34.222  -33.066  -32.206  -31.685  -31.523  -31.738  -32.303  -33.227  -34.527  -36.248  -38.414  -41.014  -44.044  -47.566  -51.679  -56.475  -61.929  -67.852  -73.947  -79.930  -85.624  -90.976  -96.003 -100.721 -105.100 -109.064 -112.523 -115.408 -117.677 -119.337 -120.433 -121.052 -121.309 -121.316 -121.155 -120.866 -120.448 -119.873 -119.112 -118.156 -117.027 -115.781 -114.492 -113.246 -112.125 -111.205 -110.542 -110.158 -110.047 -110.178 -110.520 -111.045 -111.741 -112.609 -113.646 -114.843 -116.178 -117.620 -119.137 -120.694 -122.254 -123.774 -125.216 -126.562 -127.808 -128.969 -130.066 -131.111 -132.113 -133.076 -134.007 -134.920 -135.834 -136.771 -137.761 -138.844 -140.066 -141.472 -143.096 -144.959 -147.064 -149.403 -151.957 -154.705 -157.619 -160.661 -163.770 -166.852 -169.761 -172.278 -174.091 -174.782 -173.759 -170.449
 -43.240  -42.874  -42.108  -41.079  -39.985  -38.947  -38.023  -37.225  -36.593  -36.183  -36.072  -36.320  -36.935  -37.942  -39.363  -41.236  -43.565  -46.302  -49.397  -52.877  -56.840  -61.392  -66.531  -72.093  -77.787  -83.324  -88.514  -93.296  -97.697 -101.760 -105.501 -108.894 -111.889 -114.430 -116.475 -118.006 -119.042 -119.638 -119.883 -119.867 -119.666 -119.319 -118.833 -118.191 -117.375 -116.384 -115.249 -114.025 -112.779 -111.581 -110.494 -109.573 -108.859 -108.369 -108.101 -108.040 -108.169 -108.474 -108.946 -109.576 -110.349 -111.241 -112.220 -113.251 -114.300 -115.337 -116.332 -117.257 -118.100 -118.862 -119.565 -120.238 -120.905 -121.580 -122.268 -122.968 -123.686 -124.434 -125.229 -126.087 -127.030 -128.083 -129.276 -130.643 -132.208 -133.983 -135.967 -138.147 -140.504 -143.020 -145.673 -148.433 -151.256 -154.068 -156.746 -159.107 -160.878 -161.686 -161.010 -158.193
 -47.140  -47.207  -46.931  -46.505  -46.046  -45.585  -45.100  -44.547  -43.932  -43.347  -42.927  -42.799  -43.027  -43.647  -44.692  -46.186  -48.103  -50.375  -52.926  -55.765  -59.000  -62.760  -67.089  -71.857  -76.798  -81.625  -86.136  -90.254  -93.999  -97.423 -100.566 -103.432 -106.002 -108.239 -110.101 -111.561 -112.612 -113.284 -113.636 -113.740 -113.652 -113.411 -113.024 -112.483 -111.782 -110.928 -109.954 -108.915 -107.867 -106.860 -105.942 -105.149 -104.509 -104.037 -103.734 -103.592 -103.605 -103.769 -104.078 -104.519 -105.071 -105.705 -106.389 -107.092 -107.786 -108.447 -109.051 -109.580 -110.033 -110.425 -110.787 -111.152 -111.546 -111.979 -112.453 -112.967 -113.525 -114.140 -114.827 -115.603 -116.484 -117.488 -118.640 -119.962 -121.476 -123.187 -125.087 -127.152 -129.361 -131.689 -134.120 -136.632 -139.196 -141.754 -144.211 -146.412 -148.121 -149.008 -148.606 -146.277
 -52.344  -52.834  -52.906  -52.877  -52.825  -52.722  -52.464  -51.940  -51.120  -50.100  -49.072  -48.233  -47.716  -47.585  -47.877  -48.601  -49.727  -51.168  -52.835  -54.729  -56.952  -59.656  -62.920  -66.663  -70.662  -74.646  -78.409  -81.861  -85.002  -87.877  -90.529  -92.980  -95.231  -97.268  -99.057 -100.565 -101.768 -102.670 -103.303 -103.711 -103.931 -103.988 -103.888 -103.627 -103.208 -102.643 -101.967 -101.224 -100.460  -99.713  -99.017  -98.399  -97.885  -97.487  -97.214  -97.063  -97.038  -97.140  -97.364  -97.699  -98.117  -98.588  -99.084  -99.578 -100.054 -100.492 -100.872 -101.183 -101.426 -101.619 -101.796 -101.989 -102.219 -102.499 -102.828 -103.205 -103.637 -104.135 -104.716 -105.400 -106.202 -107.141 -108.240 -109.523 -111.004 -112.686 -114.545 -116.547 -118.657 -120.847 -123.104 -125.419 -127.779 -130.146 -132.447 -134.548 -136.242 -137.225 -137.076 -135.191
 -56.634  -57.369  -57.499  -57.503  -57.483  -57.397  -57.087  -56.381  -55.204  -53.640  -51.907  -50.263  -48.899  -47.907  -47.326  -47.159  -47.371  -47.880  -48.598  -49.513  -50.711  -52.344  -54.508  -57.172  -60.174  -63.281  -66.308  -69.154  -71.801  -74.271  -76.595  -78.794  -80.887  -82.877  -84.748  -86.462  -87.985  -89.294  -90.391  -91.284  -91.986  -92.503  -92.833  -92.974  -92.932  -92.726  -92.389  -91.959  -91.469  -90.952  -90.440  -89.966  -89.558  -89.238  -89.019  -88.905  -88.903  -89.020  -89.251  -89.580  -89.972  -90.395  -90.819  -91.226  -91.604  -91.941  -92.222  -92.437  -92.587  -92.691  -92.778  -92.877  -93.008  -93.182  -93.403  -93.673  -93.996  -94.385  -94.858  -95.438  -96.152  -97.025  -98.086  -99.361 -100.860 -102.573 -104.459 -106.460 -108.524 -110.621 -112.745 -114.907 -117.114 -119.353 -121.566 -123.636 -125.370 -126.480 -126.576 -125.089
 -58.240  -58.926  -58.780  -58.418  -58.030  -57.613  -56.996  -55.964  -54.390  -52.333  -50.014  -47.724  -45.683  -43.994  -42.693  -41.774  -41.204  -40.923  -40.853  -40.973  -41.346  -42.106  -43.341  -45.054  -47.147  -49.460  -51.852  -54.234  -56.568  -58.836  -61.044  -63.203  -65.333  -67.452  -69.552  -71.604  -73.561  -75.377  -77.024  -78.472  -79.704  -80.705  -81.467  -81.990  -82.287  -82.383  -82.308  -82.095  -81.775  -81.384  -80.963  -80.556  -80.206  -79.943  -79.785  -79.741  -79.818  -80.022  -80.345  -80.760  -81.223  -81.691  -82.133  -82.533  -82.888  -83.191  -83.436  -83.616  -83.732  -83.800  -83.845  -83.890  -83.956  -84.054  -84.191  -84.368  -84.591  -84.873  -85.230  -85.701  -86.322  -87.139  -88.195  -89.519  -91.113  -92.944  -94.939  -97.011  -99.084 -101.126 -103.147 -105.181 -107.268 -109.415 -111.586 -113.669 -115.474 -116.725 -117.047 -115.915
 -56.243  -56.573  -55.861  -54.802  -53.714  -52.684  -51.575  -50.151  -48.250  -45.889  -43.279  -40.698  -38.369  -36.378  -34.735  -33.419  -32.409  -31.662  -31.133  -30.796  -30.697  -30.922  -31.545  -32.589  -34.018  -35.759  -37.734  -39.877  -42.135  -44.444  -46.774  -49.105  -51.449  -53.815  -56.202  -58.591  -60.934  -63.173  -65.252  -67.117  -68.722  -70.044  -71.073  -71.817  -72.296  -72.540  -72.579  -72.443  -72.162  -71.783  -71.364  -70.965  -70.641  -70.428  -70.346  -70.403  -70.602  -70.942  -71.404  -71.948  -72.518  -73.062  -73.547  -73.957  -74.297  -74.569  -74.779  -74.929  -75.022  -75.069  -75.092  -75.107  -75.133  -75.181  -75.257  -75.359  -75.493  -75.666  -75.904  -76.254  -76.780  -77.554  -78.640  -80.071  -81.839  -83.874  -86.061  -88.271  -90.405  -92.430  -94.373  -96.297  -98.275 -100.344 -102.485 -104.592 -106.473 -107.854 -108.378 -107.555
 -50.659  -50.424  -49.001  -47.080  -45.120  -43.336  -41.662  -39.884  -37.820  -35.452  -32.961  -30.565  -28.442  -26.628  -25.106  -23.841  -22.808  -21.999  -21.380  -20.951  -20.728  -20.766  -21.119  -21.813  -22.881  -24.325  -26.139  -28.284  -30.688  -33.247  -35.869  -38.506  -41.138  -43.757  -46.364  -48.943  -51.463  -53.872  -56.103  -58.093  -59.794  -61.178  -62.247  -63.015  -63.511  -63.764  -63.801  -63.646  -63.337  -62.928  -62.495  -62.111  -61.835  -61.703  -61.728  -61.908  -62.240  -62.706  -63.277  -63.902  -64.523  -65.083  -65.552  -65.917  -66.185  -66.373  -66.501  -66.584  -66.630  -66.649  -66.653  -66.657  -66.671  -66.703  -66.747  -66.804  -66.865  -66.936  -67.050  -67.274  -67.703  -68.441  -69.576  -71.154  -73.147  -75.445  -77.880  -80.279  -82.520  -84.562  -86.448  -88.273  -90.143  -92.128  -94.228  -96.347  -98.292  -99.783 -100.476  -99.917
 -42.423  -41.618  -39.590  -36.952  -34.260  -31.838  -29.724  -27.750  -25.755  -23.698  -21.696  -19.873  -18.322  -17.019  -15.936  -15.025  -14.268  -13.670  -13.225  -12.928  -12.795  -12.856  -13.150  -13.722  -14.634  -15.971  -17.776  -20.043  -22.686  -25.559  -28.515  -31.462  -34.342  -37.127  -39.811  -42.389  -44.853  -47.168  -49.285  -51.143  -52.709  -53.968  -54.934  -55.631  -56.083  -56.315  -56.344  -56.194  -55.902  -55.531  -55.164  -54.877  -54.724  -54.728  -54.887  -55.182  -55.596  -56.104  -56.665  -57.233  -57.759  -58.200  -58.531  -58.745  -58.853  -58.881  -58.862  -58.825  -58.788  -58.759  -58.742  -58.745  -58.773  -58.821  -58.873  -58.917  -58.933  -58.923  -58.923  -59.027  -59.360  -60.068  -61.265  -63.004  -65.240  -67.823  -70.529  -73.139  -75.505  -77.577  -79.412  -81.131  -82.874  -84.748  -86.778  -88.884  -90.867  -92.445  -93.280  -92.946
 -33.307  -32.153  -29.909  -27.033  -24.096  -21.457  -19.204  -17.264  -15.517  -13.927  -12.525  -11.340  -10.377   -9.601   -8.965   -8.431   -7.999   -7.676   -7.451   -7.332   -7.329   -7.457   -7.750   -8.258   -9.084  -10.339  -12.126  -14.467  -17.270  -20.364  -23.560  -26.712  -29.726  -32.551  -35.178  -37.616  -39.877  -41.949  -43.809  -45.423  -46.779  -47.877  -48.747  -49.409  -49.884  -50.185  -50.318  -50.300  -50.163  -49.973  -49.809  -49.735  -49.783  -49.957  -50.239  -50.590  -50.984  -51.392  -51.781  -52.119  -52.382  -52.553  -52.619  -52.585  -52.462  -52.280  -52.076  -51.888  -51.741  -51.645  -51.604  -51.611  -51.668  -51.753  -51.841  -51.899  -51.902  -51.840  -51.761  -51.777  -52.050  -52.758  -54.044  -55.967  -58.454  -61.315  -64.274  -67.069  -69.527  -71.591  -73.334  -74.903  -76.471  -78.184  -80.097  -82.147  -84.137  -85.779  -86.730  -86.582
 -25.453  -24.268  -22.225  -19.620  -16.924  -14.453  -12.323  -10.547   -9.074   -7.885   -6.942   -6.210   -5.623   -5.151   -4.755   -4.453   -4.224   -4.067   -3.988   -3.975   -4.043   -4.195   -4.450   -4.883   -5.577   -6.688   -8.334  -10.573  -13.335  -16.449  -19.694  -22.882  -25.884  -28.626  -31.104  -33.333  -35.346  -37.153  -38.751  -40.141  -41.336  -42.355  -43.229  -43.971  -44.599  -45.112  -45.503  -45.775  -45.952  -46.088  -46.244  -46.459  -46.740  -47.073  -47.416  -47.732  -47.989  -48.165  -48.241  -48.214  -48.096  -47.898  -47.635  -47.313  -46.951  -46.568  -46.198  -45.876  -45.629  -45.470  -45.405  -45.423  -45.503  -45.625  -45.749  -45.838  -45.852  -45.786  -45.692  -45.701  -46.001  -46.795  -48.249  -50.408  -53.165  -56.272  -59.412  -62.293  -64.732  -66.685  -68.241  -69.577  -70.901  -72.392  -74.133  -76.079  -78.037  -79.709  -80.746  -80.752
 -20.364  -19.329  -17.618  -15.402  -13.019  -10.740   -8.738   -7.100   -5.850   -4.956   -4.333   -3.872   -3.475   -3.102   -2.775   -2.522   -2.355   -2.254   -2.220   -2.241   -2.312   -2.439   -2.629   -2.945   -3.480   -4.352   -5.724   -7.657  -10.137  -13.010  -16.071  -19.096  -21.938  -24.505  -26.786  -28.798  -30.586  -32.178  -33.590  -34.843  -35.973  -37.013  -37.989  -38.917  -39.802  -40.633  -41.390  -42.057  -42.647  -43.184  -43.703  -44.214  -44.703  -45.139  -45.474  -45.674  -45.714  -45.580  -45.280  -44.847  -44.324  -43.760  -43.187  -42.621  -42.079  -41.564  -41.100  -40.709  -40.412  -40.224  -40.150  -40.174  -40.270  -40.416  -40.572  -40.702  -40.762  -40.750  -40.733  -40.851  -41.318  -42.349  -44.095  -46.560  -49.578  -52.848  -56.023  -58.817  -61.065  -62.754  -64.002  -65.022  -66.044  -67.269  -68.802  -70.605  -72.491  -74.155  -75.243  -75.370
 -17.989  -17.101  -15.578  -13.523  -11.218   -8.947   -6.947   -5.376   -4.296   -3.648   -3.279   -3.012   -2.725   -2.384   -2.054   -1.786   -1.599   -1.486   -1.447   -1.457   -1.511   -1.590   -1.716   -1.927   -2.275   -2.888   -3.887   -5.374   -7.363   -9.779  -12.427  -15.098  -17.638  -19.956  -22.016  -23.829  -25.447  -26.897  -28.203  -29.404  -30.541  -31.652  -32.771  -33.909  -35.063  -36.220  -37.345  -38.412  -39.406  -40.321  -41.163  -41.918  -42.559  -43.045  -43.333  -43.392  -43.204  -42.774  -42.140  -41.366  -40.524  -39.691  -38.914  -38.216  -37.602  -37.064  -36.603  -36.231  -35.953  -35.788  -35.736  -35.783  -35.903  -36.077  -36.275  -36.459  -36.605  -36.718  -36.878  -37.237  -38.017  -39.423  -41.562  -44.357  -47.563  -50.838  -53.845  -56.340  -58.210  -59.495  -60.353  -61.013  -61.724  -62.690  -64.015  -65.664  -67.448  -69.067  -70.168  -70.382
 -16.890  -16.098  -14.629  -12.584  -10.229   -7.876   -5.833   -4.319   -3.378   -2.922   -2.749   -2.631   -2.430   -2.136   -1.815   -1.534   -1.319   -1.186   -1.135   -1.127   -1.156   -1.199   -1.285   -1.400   -1.616   -1.992   -2.632   -3.637   -5.063   -6.869   -8.940  -11.111  -13.246  -15.231  -17.038  -18.675  -20.159  -21.512  -22.766  -23.954  -25.111  -26.284  -27.508  -28.789  -30.126  -31.505  -32.890  -34.243  -35.524  -36.706  -37.770  -38.689  -39.427  -39.941  -40.191  -40.152  -39.811  -39.196  -38.367  -37.408  -36.424  -35.499  -34.684  -33.999  -33.439  -32.991  -32.631  -32.358  -32.176  -32.094  -32.115  -32.224  -32.400  -32.631  -32.894  -33.161  -33.431  -33.719  -34.122  -34.812  -36.000  -37.844  -40.380  -43.426  -46.668  -49.749  -52.383  -54.402  -55.769  -56.582  -57.033  -57.361  -57.810  -58.569  -59.727  -61.236  -62.907  -64.449  -65.524  -65.796
 -15.432  -14.725  -13.355  -11.420   -9.163   -6.899   -4.938   -3.532   -2.703   -2.370   -2.297   -2.263   -2.134   -1.911   -1.643   -1.393   -1.192   -1.057   -0.986   -0.975   -0.988   -1.018   -1.073   -1.141   -1.253   -1.458   -1.828   -2.424   -3.331   -4.536   -6.001   -7.604   -9.240  -10.844  -12.361  -13.792  -15.133  -16.396  -17.600  -18.774  -19.938  -21.126  -22.367  -23.670  -25.038  -26.462  -27.917  -29.354  -30.736  -32.017  -33.171  -34.159  -34.946  -35.491  -35.755  -35.716  -35.365  -34.743  -33.925  -33.010  -32.104  -31.291  -30.613  -30.084  -29.693  -29.419  -29.232  -29.128  -29.101  -29.163  -29.311  -29.530  -29.810  -30.133  -30.487  -30.862  -31.262  -31.738  -32.406  -33.437  -35.020  -37.250  -40.063  -43.194  -46.283  -49.002  -51.134  -52.599  -53.439  -53.810  -53.918  -54.000  -54.273  -54.899  -55.939  -57.328  -58.880  -60.323  -61.341  -61.633
 -12.809  -12.211  -11.101   -9.513   -7.643   -5.743   -4.092   -2.879   -2.167   -1.879   -1.825   -1.815   -1.743   -1.593   -1.405   -1.223   -1.069   -0.963   -0.905   -0.899   -0.913   -0.937   -0.971   -1.002   -1.053   -1.157   -1.345   -1.676   -2.188   -2.918   -3.841   -4.914   -6.063   -7.245   -8.438   -9.613  -10.777  -11.920  -13.047  -14.179  -15.328  -16.492  -17.681  -18.889  -20.133  -21.413  -22.720  -24.028  -25.299  -26.502  -27.601  -28.571  -29.367  -29.958  -30.307  -30.379  -30.184  -29.757  -29.167  -28.514  -27.888  -27.353  -26.948  -26.670  -26.514  -26.450  -26.470  -26.565  -26.734  -26.983  -27.298  -27.668  -28.077  -28.514  -28.967  -29.433  -29.947  -30.581  -31.468  -32.770  -34.639  -37.100  -40.004  -43.033  -45.823  -48.092  -49.701  -50.650  -51.050  -51.083  -50.963  -50.910  -51.105  -51.663  -52.617  -53.898  -55.328  -56.654  -57.598  -57.887
  -9.318   -8.857   -8.114   -7.044   -5.757   -4.417   -3.205   -2.285   -1.714   -1.454   -1.388   -1.367   -1.331   -1.248   -1.149   -1.040   -0.941   -0.877   -0.855   -0.870   -0.889   -0.910   -0.932   -0.938   -0.963   -1.003   -1.085   -1.249   -1.520   -1.916   -2.456   -3.111   -3.840   -4.641   -5.490   -6.388   -7.316   -8.293   -9.320  -10.393  -11.508  -12.628  -13.718  -14.762  -15.776  -16.776  -17.782  -18.789  -19.789  -20.763  -21.700  -22.569  -23.345  -23.996  -24.482  -24.772  -24.864  -24.785  -24.590  -24.349  -24.121  -23.958  -23.879  -23.880  -23.959  -24.109  -24.327  -24.614  -24.981  -25.416  -25.902  -26.419  -26.949  -27.481  -27.999  -28.522  -29.098  -29.826  -30.842  -32.292  -34.287  -36.791  -39.608  -42.397  -44.824  -46.658  -47.824  -48.378  -48.474  -48.309  -48.090  -48.006  -48.193  -48.731  -49.627  -50.811  -52.124  -53.338  -54.212  -54.491
  -5.895   -5.590   -5.195   -4.614   -3.886   -3.095   -2.340   -1.728   -1.329   -1.117   -1.049   -1.026   -1.016   -0.983   -0.934   -0.885   -0.844   -0.824   -0.842   -0.877   -0.915   -0.935   -0.944   -0.928   -0.912   -0.920   -0.948   -1.021   -1.149   -1.355   -1.650   -2.009   -2.438   -2.927   -3.479   -4.088   -4.780   -5.558   -6.455   -7.447   -8.507   -9.553  -10.517  -11.375  -12.119  -12.797  -13.441  -14.082  -14.743  -15.424  -16.135  -16.865  -17.605  -18.317  -18.966  -19.522  -19.973  -20.313  -20.572  -20.785  -20.983  -21.201  -21.441  -21.703  -22.000  -22.333  -22.714  -23.159  -23.674  -24.243  -24.843  -25.449  -26.040  -26.602  -27.127  -27.648  -28.220  -28.961  -30.000  -31.470  -33.438  -35.832  -38.448  -40.952  -43.042  -44.536  -45.390  -45.701  -45.638  -45.399  -45.178  -45.132  -45.361  -45.915  -46.784  -47.902  -49.128  -50.264  -51.086  -51.370
  -3.366   -3.177   -3.007   -2.750   -2.409   -2.007   -1.606   -1.255   -1.007   -0.874   -0.835   -0.826   -0.841   -0.838   -0.819   -0.807   -0.795   -0.822   -0.876   -0.945   -0.997   -1.008   -0.986   -0.948   -0.897   -0.867   -0.863   -0.890   -0.947   -1.055   -1.197   -1.386   -1.615   -1.885   -2.206   -2.592   -3.048   -3.635   -4.363   -5.226   -6.175   -7.092   -7.903   -8.556   -9.054   -9.448   -9.778  -10.093  -10.437  -10.841  -11.336  -11.926  -12.619  -13.378  -14.183  -14.998  -15.790  -16.531  -17.209  -17.836  -18.429  -18.999  -19.535  -20.046  -20.537  -21.025  -21.527  -22.070  -22.654  -23.268  -23.882  -24.475  -25.024  -25.526  -25.988  -26.435  -26.949  -27.638  -28.619  -30.007  -31.842  -34.055  -36.432  -38.683  -40.526  -41.805  -42.497  -42.705  -42.600  -42.376  -42.211  -42.231  -42.527  -43.123  -44.002  -45.103  -46.296  -47.404  -48.218  -48.524
  -1.903   -1.774   -1.721   -1.615   -1.464   -1.285   -1.097   -0.923   -0.793   -0.736   -0.721   -0.732   -0.758   -0.775   -0.777   -0.779   -0.802   -0.874   -0.968   -1.048   -1.096   -1.084   -1.028   -0.950   -0.876   -0.833   -0.808   -0.811   -0.834   -0.877   -0.947   -1.042   -1.162   -1.294   -1.463   -1.679   -1.970   -2.367   -2.906   -3.578   -4.332   -5.061   -5.673   -6.138   -6.440   -6.627   -6.738   -6.841   -6.966   -7.173   -7.491   -7.961   -8.589   -9.369  -10.278  -11.280  -12.320  -13.354  -14.352  -15.321  -16.256  -17.148  -17.974  -18.725  -19.403  -20.028  -20.619  -21.201  -21.776  -22.338  -22.857  -23.323  -23.737  -24.105  -24.440  -24.781  -25.203  -25.807  -26.702  -27.972  -29.650  -31.671  -33.840  -35.897  -37.600  -38.791  -39.450  -39.674  -39.618  -39.468  -39.386  -39.488  -39.856  -40.508  -41.425  -42.550  -43.762  -44.887  -45.719  -46.053
  -1.213   -1.109   -1.075   -1.039   -0.969   -0.884   -0.805   -0.723   -0.677   -0.651   -0.651   -0.684   -0.726   -0.749   -0.767   -0.782   -0.836   -0.942   -1.078   -1.183   -1.208   -1.146   -1.044   -0.933   -0.837   -0.785   -0.756   -0.747   -0.753   -0.776   -0.808   -0.857   -0.909   -0.976   -1.063   -1.176   -1.339   -1.587   -1.933   -2.391   -2.910   -3.410   -3.823   -4.115   -4.280   -4.349   -4.362   -4.355   -4.368   -4.463   -4.665   -5.023   -5.566   -6.296   -7.209   -8.263   -9.395  -10.580  -11.775  -12.984  -14.196  -15.379  -16.492  -17.489  -18.366  -19.130  -19.797  -20.382  -20.900  -21.339  -21.700  -21.985  -22.217  -22.420  -22.614  -22.853  -23.198  -23.744  -24.572  -25.752  -27.302  -29.163  -31.172  -33.100  -34.734  -35.921  -36.637  -36.961  -37.028  -37.001  -37.027  -37.221  -37.659  -38.367  -39.332  -40.497  -41.742  -42.893  -43.740  -44.089
  -0.929   -0.831   -0.804   -0.776   -0.736   -0.700   -0.659   -0.623   -0.610   -0.598   -0.616   -0.643   -0.682   -0.714   -0.736   -0.767   -0.848   -0.997   -1.163   -1.274   -1.269   -1.162   -1.012   -0.872   -0.779   -0.728   -0.699   -0.689   -0.701   -0.704   -0.726   -0.755   -0.782   -0.818   -0.856   -0.921   -1.004   -1.137   -1.336   -1.599   -1.893   -2.191   -2.422   -2.583   -2.668   -2.695   -2.676   -2.644   -2.633   -2.681   -2.807   -3.061   -3.484   -4.089   -4.883   -5.836   -6.906   -8.060   -9.302  -10.628  -12.028  -13.454  -14.828  -16.077  -17.167  -18.081  -18.825  -19.423  -19.885  -20.207  -20.412  -20.532  -20.608  -20.680  -20.787  -20.972  -21.296  -21.836  -22.650  -23.786  -25.254  -26.981  -28.845  -30.665  -32.237  -33.444  -34.250  -34.717  -34.950  -35.090  -35.253  -35.556  -36.066  -36.832  -37.838  -39.024  -40.284  -41.436  -42.277  -42.605
  -0.797   -0.705   -0.692   -0.660   -0.634   -0.613   -0.592   -0.571   -0.563   -0.568   -0.575   -0.595   -0.629   -0.653   -0.679   -0.728   -0.826   -0.986   -1.167   -1.278   -1.262   -1.127   -0.947   -0.803   -0.713   -0.665   -0.647   -0.645   -0.643   -0.651   -0.666   -0.682   -0.703   -0.721   -0.752   -0.780   -0.825   -0.893   -0.995   -1.117   -1.266   -1.404   -1.523   -1.603   -1.642   -1.658   -1.647   -1.634   -1.621   -1.650   -1.730   -1.896   -2.179   -2.613   -3.196   -3.929   -4.795   -5.791   -6.930   -8.236   -9.699  -11.269  -12.838  -14.309  -15.602  -16.682  -17.539  -18.184  -18.628  -18.897  -19.020  -19.052  -19.055  -19.085  -19.182  -19.388  -19.751  -20.330  -21.166  -22.275  -23.650  -25.226  -26.917  -28.570  -30.034  -31.217  -32.086  -32.679  -33.086  -33.404  -33.727  -34.153  -34.761  -35.587  -36.629  -37.826  -39.070  -40.193  -41.006  -41.288
  -0.734   -0.647   -0.624   -0.602   -0.585   -0.566   -0.554   -0.544   -0.535   -0.530   -0.541   -0.550   -0.572   -0.586   -0.610   -0.658   -0.753   -0.906   -1.082   -1.184   -1.157   -1.021   -0.862   -0.726   -0.647   -0.607   -0.601   -0.594   -0.600   -0.613   -0.625   -0.639   -0.652   -0.666   -0.680   -0.701   -0.730   -0.761   -0.804   -0.866   -0.930   -0.988   -1.041   -1.077   -1.106   -1.111   -1.116   -1.114   -1.124   -1.141   -1.189   -1.278   -1.442   -1.701   -2.071   -2.551   -3.146   -3.883   -4.802   -5.947   -7.327   -8.881  -10.520  -12.118  -13.574  -14.813  -15.798  -16.528  -17.028  -17.325  -17.464  -17.522  -17.553  -17.629  -17.796  -18.090  -18.534  -19.169  -20.009  -21.048  -22.268  -23.633  -25.072  -26.473  -27.745  -28.818  -29.675  -30.339  -30.868  -31.335  -31.807  -32.365  -33.073  -33.974  -35.055  -36.260  -37.481  -38.566  -39.344  -39.590
  -0.700   -0.616   -0.595   -0.574   -0.558   -0.545   -0.534   -0.525   -0.517   -0.510   -0.506   -0.519   -0.526   -0.528   -0.548   -0.592   -0.664   -0.787   -0.916   -0.994   -0.984   -0.878   -0.757   -0.651   -0.593   -0.564   -0.555   -0.559   -0.569   -0.579   -0.590   -0.601   -0.613   -0.624   -0.637   -0.650   -0.663   -0.680   -0.708   -0.733   -0.763   -0.784   -0.812   -0.833   -0.849   -0.860   -0.867   -0.880   -0.881   -0.900   -0.928   -0.979   -1.060   -1.192   -1.384   -1.651   -2.003   -2.476   -3.124   -3.993   -5.132   -6.508   -8.041   -9.623  -11.124  -12.447  -13.527  -14.359  -14.953  -15.348  -15.593  -15.756  -15.904  -16.108  -16.409  -16.824  -17.375  -18.049  -18.841  -19.743  -20.743  -21.811  -22.916  -23.998  -24.998  -25.875  -26.627  -27.274  -27.844  -28.391  -28.962  -29.612  -30.403  -31.353  -32.461  -33.662  -34.858  -35.915  -36.678  -36.933
  -0.675   -0.595   -0.575   -0.555   -0.540   -0.527   -0.516   -0.508   -0.500   -0.494   -0.489   -0.487   -0.488   -0.498   -0.503   -0.530   -0.578   -0.654   -0.737   -0.791   -0.788   -0.721   -0.647   -0.573   -0.540   -0.530   -0.525   -0.533   -0.542   -0.551   -0.560   -0.569   -0.579   -0.590   -0.600   -0.611   -0.622   -0.633   -0.644   -0.660   -0.673   -0.696   -0.709   -0.723   -0.738   -0.747   -0.755   -0.767   -0.779   -0.791   -0.806   -0.828   -0.871   -0.932   -1.015   -1.141   -1.317   -1.582   -1.976   -2.550   -3.369   -4.427   -5.686   -7.056   -8.432   -9.698  -10.780  -11.658  -12.340  -12.852  -13.237  -13.547  -13.863  -14.243  -14.736  -15.318  -15.980  -16.683  -17.396  -18.107  -18.837  -19.564  -20.290  -21.006  -21.680  -22.297  -22.866  -23.404  -23.927  -24.462  -25.041  -25.710  -26.507  -27.448  -28.523  -29.680  -30.826  -31.848  -32.603  -32.903
  -0.654   -0.577   -0.557   -0.538   -0.523   -0.511   -0.501   -0.492   -0.485   -0.480   -0.475   -0.471   -0.468   -0.466   -0.473   -0.486   -0.512   -0.546   -0.594   -0.622   -0.621   -0.592   -0.553   -0.525   -0.507   -0.497   -0.504   -0.511   -0.518   -0.525   -0.533   -0.542   -0.551   -0.559   -0.568   -0.578   -0.587   -0.597   -0.607   -0.617   -0.627   -0.636   -0.647   -0.657   -0.667   -0.677   -0.687   -0.697   -0.708   -0.718   -0.729   -0.746   -0.770   -0.794   -0.836   -0.883   -0.964   -1.090   -1.292   -1.625   -2.128   -2.826   -3.712   -4.738   -5.824   -6.873   -7.831   -8.649   -9.343   -9.916  -10.410  -10.872  -11.367  -11.963  -12.666  -13.455  -14.247  -14.985  -15.612  -16.134  -16.577  -16.959  -17.313  -17.643  -17.966  -18.293  -18.625  -18.984  -19.386  -19.826  -20.328  -20.921  -21.632  -22.464  -23.413  -24.432  -25.462  -26.401  -27.113  -27.474
  -0.635   -0.560   -0.541   -0.523   -0.508   -0.497   -0.487   -0.479   -0.472   -0.467   -0.462   -0.459   -0.456   -0.454   -0.453   -0.453   -0.472   -0.486   -0.503   -0.524   -0.523   -0.509   -0.496   -0.485   -0.475   -0.479   -0.485   -0.491   -0.497   -0.504   -0.511   -0.518   -0.525   -0.533   -0.542   -0.550   -0.558   -0.566   -0.575   -0.583   -0.592   -0.601   -0.610   -0.619   -0.628   -0.637   -0.646   -0.655   -0.664   -0.673   -0.683   -0.693   -0.703   -0.717   -0.736   -0.761   -0.796   -0.849   -0.947   -1.112   -1.374   -1.770   -2.293   -2.936   -3.661   -4.404   -5.110   -5.768   -6.361   -6.908   -7.438   -7.998   -8.643   -9.428  -10.338  -11.309  -12.238  -13.004  -13.562  -13.918  -14.104  -14.186  -14.192  -14.174  -14.160  -14.190  -14.288  -14.453  -14.693  -14.996  -15.366  -15.815  -16.360  -17.003  -17.743  -18.531  -19.349  -20.119  -20.724  -21.118
  -0.619   -0.546   -0.527   -0.510   -0.496   -0.485   -0.476   -0.468   -0.462   -0.456   -0.452   -0.448   -0.446   -0.443   -0.442   -0.441   -0.442   -0.451   -0.462   -0.468   -0.469   -0.468   -0.459   -0.456   -0.460   -0.464   -0.469   -0.474   -0.479   -0.486   -0.492   -0.498   -0.504   -0.511   -0.518   -0.525   -0.532   -0.540   -0.548   -0.555   -0.563   -0.571   -0.579   -0.587   -0.594   -0.602   -0.610   -0.619   -0.627   -0.635   -0.644   -0.653   -0.661   -0.670   -0.680   -0.692   -0.712   -0.737   -0.782   -0.850   -0.971   -1.159   -1.424   -1.766   -2.163   -2.601   -3.041   -3.468   -3.906   -4.344   -4.819   -5.384   -6.085   -6.959   -7.980   -9.045  -10.021  -10.792  -11.283  -11.510  -11.514  -11.368  -11.114  -10.821  -10.534  -10.332  -10.225  -10.235  -10.338  -10.509  -10.747  -11.050  -11.415  -11.851  -12.349  -12.881  -13.445  -13.982  -14.424  -14.806
  -0.605   -0.534   -0.516   -0.499   -0.486   -0.475   -0.466   -0.459   -0.452   -0.447   -0.443   -0.439   -0.437   -0.434   -0.433   -0.432   -0.432   -0.432   -0.433   -0.434   -0.436   -0.438   -0.441   -0.444   -0.447   -0.451   -0.455   -0.459   -0.464   -0.469   -0.474   -0.481   -0.486   -0.492   -0.498   -0.505   -0.511   -0.517   -0.524   -0.531   -0.538   -0.545   -0.552   -0.559   -0.566   -0.573   -0.580   -0.588   -0.595   -0.603   -0.610   -0.618   -0.626   -0.634   -0.642   -0.651   -0.660   -0.672   -0.692   -0.728   -0.770   -0.852   -0.966   -1.122   -1.302   -1.513   -1.739   -1.985   -2.241   -2.536   -2.904   -3.387   -4.028   -4.843   -5.811   -6.801   -7.701   -8.388   -8.785   -8.921   -8.827   -8.556   -8.174   -7.732   -7.315   -6.986   -6.778   -6.693   -6.710   -6.797   -6.940   -7.133   -7.383   -7.667   -7.997   -8.354   -8.716   -9.060   -9.356   -9.681
  -0.594   -0.524   -0.507   -0.490   -0.477   -0.467   -0.458   -0.451   -0.445   -0.440   -0.436   -0.432   -0.429   -0.427   -0.426   -0.425   -0.424   -0.424   -0.425   -0.425   -0.427   -0.429   -0.431   -0.434   -0.437   -0.440   -0.444   -0.448   -0.452   -0.456   -0.461   -0.465   -0.470   -0.475   -0.482   -0.487   -0.493   -0.499   -0.505   -0.511   -0.517   -0.523   -0.529   -0.535   -0.542   -0.548   -0.555   -0.562   -0.568   -0.575   -0.582   -0.589   -0.596   -0.604   -0.611   -0.619   -0.627   -0.635   -0.644   -0.659   -0.683   -0.717   -0.758   -0.814   -0.892   -0.979   -1.075   -1.192   -1.322   -1.496   -1.734   -2.080   -2.576   -3.209   -3.960   -4.735   -5.431   -5.951   -6.241   -6.302   -6.182   -5.914   -5.525   -5.094   -4.696   -4.372   -4.165   -4.060   -4.037   -4.087   -4.178   -4.327   -4.514   -4.762   -5.047   -5.348   -5.651   -5.930   -6.152   -6.432
  -0.585   -0.516   -0.499   -0.483   -0.471   -0.461   -0.452   -0.445   -0.439   -0.434   -0.430   -0.427   -0.424   -0.422   -0.420   -0.419   -0.418   -0.418   -0.418   -0.419   -0.420   -0.421   -0.423   -0.426   -0.428   -0.431   -0.434   -0.438   -0.441   -0.445   -0.449   -0.454   -0.458   -0.463   -0.467   -0.472   -0.477   -0.483   -0.488   -0.494   -0.499   -0.505   -0.510   -0.516   -0.522   -0.528   -0.534   -0.540   -0.546   -0.552   -0.558   -0.565   -0.571   -0.578   -0.585   -0.592   -0.599   -0.606   -0.614   -0.622   -0.631   -0.644   -0.669   -0.689   -0.718   -0.752   -0.787   -0.839   -0.900   -0.993   -1.123   -1.332   -1.642   -2.058   -2.532   -3.028   -3.473   -3.798   -3.969   -3.999   -3.904   -3.701   -3.421   -3.110   -2.817   -2.586   -2.436   -2.352   -2.337   -2.367   -2.446   -2.578   -2.773   -3.047   -3.373   -3.734   -4.090   -4.406   -4.643   -4.898
  -0.579   -0.511   -0.495   -0.479   -0.466   -0.456   -0.448   -0.441   -0.435   -0.430   -0.426   -0.423   -0.420   -0.418   -0.416   -0.415   -0.414   -0.414   -0.414   -0.415   -0.415   -0.416   -0.418   -0.420   -0.422   -0.425   -0.427   -0.430   -0.434   -0.437   -0.441   -0.444   -0.448   -0.452   -0.457   -0.461   -0.466   -0.470   -0.475   -0.480   -0.485   -0.490   -0.495   -0.500   -0.506   -0.511   -0.516   -0.522   -0.527   -0.533   -0.539   -0.545   -0.550   -0.557   -0.563   -0.569   -0.576   -0.582   -0.589   -0.597   -0.604   -0.612   -0.620   -0.632   -0.642   -0.666   -0.677   -0.703   -0.727   -0.772   -0.843   -0.946   -1.112   -1.319   -1.570   -1.829   -2.058   -2.230   -2.316   -2.335   -2.277   -2.160   -2.006   -1.829   -1.670   -1.541   -1.468   -1.428   -1.422   -1.449   -1.518   -1.643   -1.841   -2.139   -2.519   -2.954   -3.394   -3.785   -4.081   -4.351
  -0.577   -0.509   -0.492   -0.477   -0.465   -0.455   -0.446   -0.440   -0.434   -0.429   -0.425   -0.422   -0.419   -0.417   -0.415   -0.414   -0.413   -0.412   -0.412   -0.413   -0.413   -0.414   -0.415   -0.417   -0.419   -0.421   -0.423   -0.426   -0.428   -0.432   -0.435   -0.438   -0.442   -0.445   -0.449   -0.453   -0.457   -0.461   -0.466   -0.470   -0.474   -0.479   -0.483   -0.488   -0.493   -0.498   -0.503   -0.508   -0.513   -0.518   -0.523   -0.529   -0.534   -0.540   -0.545   -0.551   -0.557   -0.563   -0.570   -0.576   -0.583   -0.590   -0.597   -0.604   -0.611   -0.619   -0.627   -0.639   -0.656   -0.679   -0.709   -0.757   -0.829   -0.915   -1.032   -1.146   -1.236   -1.317   -1.352   -1.360   -1.333   -1.291   -1.228   -1.154   -1.089   -1.040   -1.007   -0.991   -0.997   -1.025   -1.076   -1.180   -1.365   -1.656   -2.035   -2.480   -2.967   -3.432   -3.782   -4.067
  -0.579   -0.510   -0.494   -0.478   -0.466   -0.456   -0.448   -0.441   -0.436   -0.431   -0.427   -0.424   -0.421   -0.419   -0.417   -0.415   -0.414   -0.414   -0.413   -0.414   -0.414   -0.415   -0.416   -0.417   -0.418   -0.420   -0.422   -0.424   -0.427   -0.430   -0.432   -0.435   -0.439   -0.442   -0.445   -0.449   -0.453   -0.456   -0.460   -0.464   -0.468   -0.472   -0.476   -0.481   -0.485   -0.489   -0.494   -0.499   -0.503   -0.508   -0.513   -0.518   -0.523   -0.528   -0.533   -0.538   -0.544   -0.549   -0.555   -0.561   -0.567   -0.573   -0.580   -0.586   -0.593   -0.600   -0.607   -0.614   -0.621   -0.631   -0.649   -0.671   -0.700   -0.733   -0.777   -0.815   -0.855   -0.883   -0.893   -0.902   -0.905   -0.893   -0.876   -0.858   -0.841   -0.823   -0.813   -0.819   -0.825   -0.847   -0.882   -0.959   -1.104   -1.333   -1.660   -2.076   -2.551   -3.023   -3.410   -3.715
  -0.586   -0.512   -0.497   -0.481   -0.468   -0.458   -0.450   -0.444   -0.438   -0.433   -0.429   -0.426   -0.423   -0.421   -0.419   -0.417   -0.416   -0.415   -0.415   -0.415   -0.415   -0.416   -0.416   -0.417   -0.419   -0.420   -0.422   -0.424   -0.426   -0.428   -0.431   -0.433   -0.436   -0.439   -0.442   -0.445   -0.449   -0.452   -0.456   -0.459   -0.463   -0.467   -0.471   -0.474   -0.478   -0.483   -0.487   -0.491   -0.495   -0.500   -0.504   -0.509   -0.513   -0.518   -0.523   -0.528   -0.533   -0.538   -0.543   -0.548   -0.554   -0.559   -0.565   -0.571   -0.577   -0.583   -0.590   -0.596   -0.603   -0.609   -0.616   -0.626   -0.643   -0.658   -0.670   -0.692   -0.707   -0.714   -0.721   -0.728   -0.736   -0.743   -0.736   -0.734   -0.737   -0.741   -0.735   -0.737   -0.746   -0.765   -0.796   -0.846   -0.941   -1.110   -1.358   -1.720   -2.155   -2.623   -3.012   -3.333
  -0.749   -0.571   -0.549   -0.532   -0.519   -0.508   -0.500   -0.493   -0.487   -0.482   -0.478   -0.474   -0.471   -0.469   -0.467   -0.465   -0.464   -0.463   -0.462   -0.462   -0.462   -0.462   -0.462   -0.463   -0.464   -0.465   -0.466   -0.468   -0.470   -0.472   -0.474   -0.476   -0.479   -0.481   -0.484   -0.487   -0.490   -0.493   -0.496   -0.500   -0.503   -0.507   -0.510   -0.514   -0.518   -0.522   -0.525   -0.529   -0.534   -0.538   -0.542   -0.546   -0.551   -0.555   -0.560   -0.565   -0.570   -0.575   -0.580   -0.585   -0.590   -0.596   -0.601   -0.607   -0.613   -0.619   -0.625   -0.631   -0.637   -0.644   -0.650   -0.657   -0.663   -0.670   -0.680   -0.689   -0.713   -0.721   -0.728   -0.735   -0.742   -0.735   -0.735   -0.743   -0.747   -0.754   -0.760   -0.768   -0.774   -0.784   -0.813   -0.849   -0.922   -1.060   -1.276   -1.589   -2.007   -2.456   -2.855   -3.308
