DSAA
 100 100
 0.0 400.0
 0.0 400.0
 -104.9288 -1.354243
  -2.018   -1.793   -1.905   -2.117   -2.423   -2.773   -3.137   -3.445   -3.642   -3.683   -3.530   -3.194   -2.748   -2.284   -1.893   -1.637   -1.565   -1.691   -2.051   -2.619   -3.280   -3.819   -4.034   -3.880   -3.519   -3.196   -3.080   -3.141   -3.234   -3.239   -3.127   -2.944   -2.771   -2.619   -2.500   -2.394   -2.325   -2.337   -2.489   -2.808   -3.263   -3.761   -4.232   -4.634   -4.914   -5.013   -4.905   -4.684   -4.504   -4.447   -4.488   -4.549   -4.575   -4.557   -4.494   -4.370   -4.154   -3.866   -3.579   -3.390   -3.382   -3.490   -3.553   -3.419   -3.056   -2.584   -2.189   -2.006   -2.036   -2.199   -2.375   -2.523   -2.676   -2.843   -2.971   -2.957   -2.775   -2.519   -2.297   -2.179   -2.175   -2.252   -2.386   -2.507   -2.595   -2.672   -2.809   -3.067   -3.468   -3.980   -4.520   -4.975   -5.220   -5.147   -4.726   -4.056   -3.299   -2.623   -2.169   -2.224
  -2.147   -2.060   -2.211   -2.453   -2.769   -3.133   -3.489   -3.780   -3.953   -3.954   -3.760   -3.385   -2.893   -2.383   -1.951   -1.655   -1.549   -1.648   -1.969   -2.491   -3.100   -3.597   -3.790   -3.648   -3.310   -3.005   -2.884   -2.934   -3.034   -3.078   -3.028   -2.910   -2.766   -2.618   -2.483   -2.366   -2.296   -2.305   -2.444   -2.725   -3.116   -3.538   -3.933   -4.263   -4.507   -4.623   -4.594   -4.500   -4.464   -4.545   -4.681   -4.792   -4.829   -4.789   -4.686   -4.507   -4.219   -3.849   -3.467   -3.201   -3.117   -3.169   -3.204   -3.085   -2.767   -2.359   -2.031   -1.893   -1.945   -2.118   -2.291   -2.422   -2.550   -2.709   -2.834   -2.835   -2.674   -2.447   -2.263   -2.176   -2.197   -2.299   -2.431   -2.559   -2.663   -2.780   -2.967   -3.280   -3.745   -4.323   -4.942   -5.485   -5.790   -5.731   -5.256   -4.477   -3.591   -2.802   -2.260   -2.165
  -2.949   -2.895   -3.072   -3.345   -3.681   -4.039   -4.369   -4.613   -4.721   -4.648   -4.384   -3.946   -3.394   -2.810   -2.298   -1.922   -1.735   -1.755   -1.993   -2.402   -2.894   -3.289   -3.445   -3.335   -3.062   -2.810   -2.693   -2.719   -2.820   -2.925   -2.983   -2.972   -2.884   -2.753   -2.609   -2.497   -2.438   -2.457   -2.576   -2.794   -3.077   -3.371   -3.639   -3.863   -4.043   -4.157   -4.227   -4.308   -4.479   -4.738   -4.997   -5.167   -5.209   -5.141   -4.978   -4.714   -4.336   -3.874   -3.404   -3.049   -2.871   -2.836   -2.822   -2.719   -2.486   -2.205   -1.989   -1.915   -1.993   -2.145   -2.292   -2.405   -2.506   -2.641   -2.767   -2.801   -2.699   -2.547   -2.441   -2.425   -2.492   -2.602   -2.724   -2.833   -2.947   -3.118   -3.383   -3.780   -4.317   -4.987   -5.725   -6.410   -6.839   -6.826   -6.318   -5.429   -4.398   -3.476   -2.842   -2.685
  -4.049   -4.022   -4.215   -4.499   -4.827   -5.158   -5.430   -5.611   -5.645   -5.500   -5.172   -4.672   -4.053   -3.391   -2.776   -2.289   -1.981   -1.877   -1.971   -2.227   -2.552   -2.823   -2.940   -2.870   -2.691   -2.510   -2.412   -2.413   -2.505   -2.658   -2.804   -2.884   -2.863   -2.764   -2.649   -2.578   -2.568   -2.620   -2.730   -2.892   -3.089   -3.291   -3.468   -3.619   -3.736   -3.836   -3.937   -4.094   -4.348   -4.674   -4.972   -5.150   -5.181   -5.076   -4.875   -4.574   -4.186   -3.734   -3.296   -2.946   -2.741   -2.649   -2.577   -2.468   -2.302   -2.130   -2.008   -1.982   -2.049   -2.168   -2.292   -2.384   -2.477   -2.604   -2.741   -2.818   -2.804   -2.757   -2.756   -2.821   -2.924   -3.020   -3.095   -3.152   -3.246   -3.429   -3.741   -4.187   -4.773   -5.510   -6.357   -7.187   -7.766   -7.867   -7.411   -6.520   -5.455   -4.490   -3.819   -3.636
  -5.237   -5.221   -5.404   -5.663   -5.945   -6.215   -6.428   -6.537   -6.510   -6.316   -5.951   -5.424   -4.767   -4.052   -3.357   -2.757   -2.304   -2.039   -1.962   -2.029   -2.179   -2.320   -2.395   -2.368   -2.273   -2.163   -2.083   -2.061   -2.129   -2.280   -2.452   -2.572   -2.600   -2.554   -2.510   -2.510   -2.567   -2.665   -2.782   -2.927   -3.091   -3.273   -3.444   -3.583   -3.684   -3.756   -3.826   -3.933   -4.110   -4.338   -4.545   -4.663   -4.658   -4.543   -4.355   -4.105   -3.813   -3.509   -3.224   -2.989   -2.819   -2.686   -2.547   -2.390   -2.236   -2.116   -2.054   -2.048   -2.100   -2.189   -2.291   -2.389   -2.498   -2.629   -2.767   -2.881   -2.957   -3.031   -3.144   -3.284   -3.395   -3.449   -3.446   -3.431   -3.477   -3.646   -3.953   -4.400   -4.990   -5.758   -6.690   -7.642   -8.366   -8.613   -8.306   -7.554   -6.611   -5.734   -5.119   -4.946
  -6.330   -6.309   -6.450   -6.649   -6.864   -7.059   -7.195   -7.244   -7.185   -6.984   -6.622   -6.111   -5.469   -4.752   -4.024   -3.349   -2.785   -2.374   -2.118   -1.999   -1.975   -1.992   -2.016   -2.007   -1.970   -1.907   -1.841   -1.795   -1.821   -1.925   -2.072   -2.188   -2.235   -2.247   -2.269   -2.329   -2.422   -2.537   -2.663   -2.809   -2.976   -3.172   -3.379   -3.558   -3.693   -3.775   -3.819   -3.843   -3.871   -3.921   -3.968   -3.992   -3.951   -3.864   -3.739   -3.597   -3.460   -3.340   -3.227   -3.118   -2.980   -2.797   -2.572   -2.347   -2.168   -2.061   -2.030   -2.047   -2.106   -2.200   -2.324   -2.457   -2.588   -2.714   -2.836   -2.957   -3.098   -3.272   -3.478   -3.656   -3.755   -3.762   -3.711   -3.661   -3.681   -3.837   -4.132   -4.567   -5.161   -5.959   -6.959   -8.013   -8.862   -9.265   -9.134   -8.588   -7.838   -7.103   -6.574   -6.413
  -7.200   -7.163   -7.249   -7.378   -7.514   -7.627   -7.697   -7.705   -7.632   -7.446   -7.127   -6.671   -6.090   -5.429   -4.725   -4.050   -3.435   -2.926   -2.535   -2.266   -2.095   -2.007   -1.968   -1.956   -1.940   -1.902   -1.839   -1.785   -1.770   -1.827   -1.928   -2.027   -2.087   -2.129   -2.157   -2.191   -2.250   -2.323   -2.419   -2.550   -2.708   -2.899   -3.112   -3.318   -3.499   -3.634   -3.701   -3.696   -3.638   -3.558   -3.492   -3.434   -3.392   -3.350   -3.312   -3.275   -3.247   -3.235   -3.207   -3.134   -2.977   -2.741   -2.457   -2.186   -1.994   -1.910   -1.913   -1.973   -2.070   -2.209   -2.381   -2.567   -2.721   -2.832   -2.926   -3.043   -3.222   -3.451   -3.680   -3.842   -3.907   -3.894   -3.850   -3.847   -3.934   -4.133   -4.452   -4.907   -5.525   -6.373   -7.451   -8.602   -9.582  -10.135  -10.187   -9.822   -9.214   -8.560   -8.046   -7.873
  -7.812   -7.752   -7.786   -7.851   -7.908   -7.955   -7.976   -7.955   -7.880   -7.724   -7.454   -7.068   -6.569   -5.999   -5.382   -4.758   -4.155   -3.607   -3.141   -2.767   -2.496   -2.324   -2.242   -2.222   -2.216   -2.189   -2.142   -2.105   -2.101   -2.152   -2.242   -2.337   -2.402   -2.419   -2.387   -2.319   -2.255   -2.216   -2.231   -2.296   -2.393   -2.521   -2.682   -2.869   -3.066   -3.243   -3.362   -3.397   -3.345   -3.234   -3.120   -3.048   -3.028   -3.050   -3.081   -3.102   -3.106   -3.083   -3.032   -2.920   -2.730   -2.469   -2.180   -1.942   -1.801   -1.768   -1.808   -1.906   -2.046   -2.229   -2.451   -2.681   -2.857   -2.973   -3.065   -3.191   -3.385   -3.607   -3.796   -3.897   -3.913   -3.902   -3.939   -4.063   -4.287   -4.599   -4.992   -5.486   -6.146   -7.042   -8.189   -9.443  -10.551  -11.283  -11.517  -11.304  -10.777  -10.122   -9.556   -9.336
  -8.192   -8.113   -8.108   -8.120   -8.130   -8.130   -8.113   -8.074   -8.001   -7.871   -7.644   -7.317   -6.894   -6.413   -5.890   -5.337   -4.778   -4.228   -3.728   -3.295   -2.967   -2.753   -2.659   -2.640   -2.652   -2.660   -2.668   -2.703   -2.784   -2.901   -3.036   -3.149   -3.196   -3.154   -3.008   -2.792   -2.559   -2.376   -2.267   -2.226   -2.230   -2.257   -2.324   -2.435   -2.588   -2.760   -2.906   -2.988   -2.970   -2.884   -2.770   -2.703   -2.708   -2.776   -2.863   -2.912   -2.900   -2.836   -2.731   -2.584   -2.388   -2.164   -1.966   -1.833   -1.791   -1.820   -1.883   -1.971   -2.101   -2.285   -2.516   -2.761   -2.966   -3.121   -3.261   -3.432   -3.634   -3.827   -3.948   -3.980   -3.969   -3.999   -4.147   -4.425   -4.800   -5.220   -5.677   -6.206   -6.884   -7.812   -8.995  -10.328  -11.563  -12.461  -12.890  -12.839  -12.414  -11.781  -11.187  -10.925
  -8.396   -8.303   -8.277   -8.259   -8.246   -8.223   -8.192   -8.152   -8.084   -7.969   -7.769   -7.479   -7.105   -6.680   -6.213   -5.709   -5.169   -4.623   -4.103   -3.643   -3.287   -3.065   -2.982   -2.997   -3.056   -3.139   -3.257   -3.434   -3.665   -3.925   -4.150   -4.277   -4.283   -4.145   -3.866   -3.499   -3.124   -2.816   -2.599   -2.460   -2.360   -2.289   -2.254   -2.264   -2.334   -2.445   -2.563   -2.642   -2.634   -2.543   -2.419   -2.335   -2.333   -2.418   -2.527   -2.600   -2.601   -2.543   -2.448   -2.328   -2.193   -2.075   -2.016   -2.032   -2.102   -2.168   -2.204   -2.229   -2.280   -2.407   -2.603   -2.827   -3.043   -3.248   -3.458   -3.691   -3.928   -4.116   -4.213   -4.239   -4.269   -4.380   -4.644   -5.028   -5.477   -5.936   -6.395   -6.911   -7.577   -8.499   -9.691  -11.060  -12.369  -13.397  -13.995  -14.137  -13.887  -13.394  -12.888  -12.641
  -8.485   -8.385   -8.346   -8.324   -8.302   -8.281   -8.261   -8.230   -8.174   -8.073   -7.891   -7.621   -7.270   -6.855   -6.388   -5.880   -5.322   -4.752   -4.199   -3.714   -3.351   -3.146   -3.095   -3.163   -3.316   -3.527   -3.809   -4.173   -4.594   -5.007   -5.312   -5.442   -5.375   -5.121   -4.721   -4.246   -3.789   -3.414   -3.135   -2.923   -2.753   -2.610   -2.493   -2.422   -2.398   -2.427   -2.476   -2.502   -2.455   -2.320   -2.135   -1.991   -1.942   -2.000   -2.115   -2.223   -2.290   -2.312   -2.304   -2.282   -2.261   -2.278   -2.368   -2.517   -2.666   -2.743   -2.714   -2.636   -2.590   -2.638   -2.775   -2.961   -3.163   -3.381   -3.637   -3.929   -4.214   -4.454   -4.618   -4.739   -4.881   -5.105   -5.443   -5.853   -6.275   -6.673   -7.058   -7.509   -8.136   -9.030  -10.208  -11.560  -12.893  -13.982  -14.694  -15.002  -14.968  -14.710  -14.401  -14.233
  -8.518   -8.407   -8.373   -8.345   -8.328   -8.320   -8.311   -8.301   -8.262   -8.183   -8.023   -7.773   -7.426   -7.006   -6.507   -5.942   -5.323   -4.691   -4.088   -3.573   -3.202   -3.013   -3.010   -3.167   -3.442   -3.817   -4.287   -4.842   -5.430   -5.947   -6.285   -6.385   -6.231   -5.873   -5.387   -4.866   -4.400   -4.023   -3.713   -3.453   -3.223   -3.031   -2.880   -2.764   -2.688   -2.656   -2.642   -2.605   -2.488   -2.277   -2.012   -1.783   -1.663   -1.676   -1.781   -1.931   -2.080   -2.212   -2.326   -2.423   -2.530   -2.680   -2.883   -3.114   -3.300   -3.354   -3.264   -3.120   -3.030   -3.058   -3.183   -3.344   -3.517   -3.707   -3.957   -4.272   -4.608   -4.931   -5.221   -5.486   -5.762   -6.077   -6.433   -6.793   -7.116   -7.384   -7.660   -8.024   -8.595   -9.439  -10.565  -11.874  -13.174  -14.266  -15.028  -15.449  -15.593  -15.559  -15.459  -15.387
  -8.514   -8.405   -8.370   -8.343   -8.330   -8.329   -8.335   -8.340   -8.321   -8.262   -8.136   -7.916   -7.592   -7.164   -6.631   -5.998   -5.302   -4.588   -3.921   -3.369   -2.986   -2.811   -2.851   -3.091   -3.492   -4.024   -4.660   -5.353   -6.030   -6.580   -6.907   -6.953   -6.730   -6.310   -5.800   -5.305   -4.887   -4.527   -4.193   -3.870   -3.578   -3.348   -3.198   -3.097   -3.026   -2.985   -2.939   -2.854   -2.679   -2.402   -2.073   -1.777   -1.599   -1.570   -1.662   -1.838   -2.045   -2.264   -2.475   -2.675   -2.888   -3.130   -3.402   -3.668   -3.855   -3.894   -3.807   -3.704   -3.702   -3.827   -4.022   -4.202   -4.353   -4.495   -4.705   -4.996   -5.355   -5.745   -6.128   -6.497   -6.848   -7.189   -7.512   -7.790   -7.990   -8.137   -8.299   -8.580   -9.080   -9.843  -10.876  -12.091  -13.319  -14.378  -15.150  -15.628  -15.877  -15.980  -16.009  -16.011
  -8.501   -8.390   -8.350   -8.326   -8.313   -8.313   -8.323   -8.332   -8.330   -8.292   -8.202   -8.030   -7.743   -7.332   -6.789   -6.117   -5.353   -4.571   -3.847   -3.250   -2.844   -2.666   -2.722   -3.007   -3.483   -4.111   -4.839   -5.593   -6.288   -6.824   -7.118   -7.122   -6.866   -6.439   -5.971   -5.553   -5.199   -4.869   -4.498   -4.107   -3.759   -3.517   -3.392   -3.343   -3.331   -3.319   -3.285   -3.183   -2.973   -2.653   -2.280   -1.947   -1.734   -1.668   -1.747   -1.928   -2.169   -2.441   -2.707   -2.979   -3.274   -3.591   -3.921   -4.220   -4.427   -4.507   -4.518   -4.574   -4.777   -5.093   -5.415   -5.650   -5.793   -5.903   -6.068   -6.325   -6.660   -7.042   -7.434   -7.802   -8.136   -8.428   -8.679   -8.862   -8.969   -9.025   -9.111   -9.324   -9.739  -10.387  -11.277  -12.349  -13.464  -14.463  -15.226  -15.725  -16.014  -16.162  -16.231  -16.269
  -8.485   -8.370   -8.329   -8.302   -8.287   -8.285   -8.292   -8.299   -8.300   -8.279   -8.219   -8.096   -7.867   -7.501   -6.986   -6.318   -5.543   -4.733   -3.979   -3.351   -2.912   -2.690   -2.707   -2.949   -3.397   -4.013   -4.733   -5.482   -6.168   -6.696   -6.975   -6.970   -6.721   -6.334   -5.938   -5.613   -5.332   -5.026   -4.641   -4.223   -3.867   -3.657   -3.594   -3.626   -3.685   -3.718   -3.696   -3.575   -3.329   -2.967   -2.558   -2.194   -1.951   -1.859   -1.915   -2.100   -2.358   -2.660   -2.985   -3.344   -3.740   -4.169   -4.605   -4.998   -5.296   -5.493   -5.679   -5.956   -6.377   -6.865   -7.295   -7.576   -7.718   -7.823   -7.965   -8.181   -8.457   -8.766   -9.072   -9.357   -9.602   -9.800   -9.964  -10.071  -10.118  -10.128  -10.174  -10.329  -10.654  -11.168  -11.891  -12.776  -13.736  -14.629  -15.349  -15.850  -16.147  -16.296  -16.360  -16.402
  -8.462   -8.346   -8.311   -8.285   -8.272   -8.263   -8.263   -8.261   -8.261   -8.244   -8.209   -8.123   -7.953   -7.663   -7.219   -6.619   -5.891   -5.116   -4.369   -3.727   -3.246   -2.946   -2.845   -2.955   -3.262   -3.753   -4.389   -5.096   -5.785   -6.337   -6.650   -6.669   -6.443   -6.089   -5.753   -5.494   -5.279   -5.026   -4.691   -4.337   -4.065   -3.950   -3.991   -4.112   -4.227   -4.284   -4.243   -4.068   -3.751   -3.315   -2.842   -2.421   -2.127   -1.998   -2.043   -2.240   -2.545   -2.924   -3.360   -3.866   -4.443   -5.068   -5.689   -6.256   -6.715   -7.078   -7.435   -7.869   -8.406   -8.959   -9.402   -9.682   -9.830   -9.935  -10.068  -10.252  -10.456  -10.663  -10.860  -11.031  -11.162  -11.265  -11.346  -11.402  -11.417  -11.417  -11.441  -11.554  -11.794  -12.185  -12.739  -13.428  -14.193  -14.933  -15.560  -16.030  -16.329  -16.485  -16.552  -16.596
  -8.452   -8.334   -8.301   -8.277   -8.264   -8.259   -8.249   -8.238   -8.231   -8.215   -8.191   -8.140   -8.026   -7.820   -7.476   -6.989   -6.372   -5.687   -4.991   -4.361   -3.828   -3.432   -3.182   -3.097   -3.190   -3.485   -3.986   -4.639   -5.340   -5.950   -6.323   -6.386   -6.177   -5.830   -5.504   -5.273   -5.115   -4.947   -4.743   -4.545   -4.441   -4.487   -4.651   -4.853   -5.005   -5.046   -4.948   -4.685   -4.259   -3.711   -3.126   -2.607   -2.235   -2.061   -2.109   -2.357   -2.771   -3.309   -3.958   -4.713   -5.554   -6.431   -7.289   -8.052   -8.671   -9.165   -9.605  -10.067  -10.569  -11.052  -11.426  -11.657  -11.792  -11.896  -12.025  -12.178  -12.332  -12.459  -12.564  -12.630  -12.667  -12.691  -12.714  -12.741  -12.754  -12.753  -12.769  -12.844  -13.017  -13.307  -13.717  -14.226  -14.784  -15.339  -15.836  -16.246  -16.546  -16.729  -16.825  -16.882
  -8.452   -8.334   -8.296   -8.280   -8.267   -8.259   -8.246   -8.229   -8.218   -8.202   -8.189   -8.157   -8.094   -7.961   -7.730   -7.379   -6.907   -6.346   -5.740   -5.144   -4.598   -4.130   -3.744   -3.467   -3.339   -3.420   -3.760   -4.336   -5.045   -5.711   -6.142   -6.241   -6.041   -5.680   -5.336   -5.108   -4.996   -4.937   -4.894   -4.894   -4.987   -5.191   -5.463   -5.727   -5.891   -5.909   -5.744   -5.394   -4.863   -4.191   -3.466   -2.818   -2.348   -2.129   -2.205   -2.570   -3.172   -3.970   -4.912   -5.966   -7.087   -8.206   -9.249  -10.138  -10.834  -11.363  -11.775  -12.154  -12.524  -12.864  -13.124  -13.285  -13.391  -13.487  -13.603  -13.733  -13.855  -13.941  -13.981  -13.981  -13.955  -13.927  -13.921  -13.933  -13.950  -13.959  -13.970  -14.016  -14.129  -14.340  -14.642  -15.005  -15.386  -15.754  -16.107  -16.441  -16.734  -16.959  -17.106  -17.185
  -8.457   -8.338   -8.305   -8.285   -8.272   -8.260   -8.249   -8.231   -8.221   -8.204   -8.196   -8.184   -8.153   -8.086   -7.949   -7.724   -7.398   -6.973   -6.485   -5.967   -5.454   -4.960   -4.503   -4.095   -3.794   -3.689   -3.864   -4.340   -5.009   -5.682   -6.151   -6.286   -6.107   -5.749   -5.403   -5.184   -5.110   -5.145   -5.239   -5.397   -5.634   -5.938   -6.264   -6.541   -6.706   -6.708   -6.520   -6.130   -5.534   -4.769   -3.924   -3.137   -2.556   -2.304   -2.448   -2.978   -3.836   -4.931   -6.187   -7.523   -8.860  -10.124  -11.231  -12.128  -12.790  -13.252  -13.568  -13.817  -14.036  -14.235  -14.392  -14.497  -14.572  -14.648  -14.743  -14.852  -14.950  -15.017  -15.030  -14.992  -14.929  -14.875  -14.853  -14.864  -14.890  -14.901  -14.905  -14.924  -14.993  -15.139  -15.362  -15.619  -15.860  -16.077  -16.296  -16.547  -16.826  -17.086  -17.284  -17.391
  -8.463   -8.342   -8.310   -8.293   -8.284   -8.269   -8.257   -8.244   -8.231   -8.219   -8.215   -8.210   -8.202   -8.177   -8.107   -7.978   -7.771   -7.482   -7.124   -6.715   -6.285   -5.839   -5.379   -4.919   -4.518   -4.279   -4.308   -4.657   -5.237   -5.868   -6.332   -6.501   -6.373   -6.076   -5.775   -5.594   -5.554   -5.636   -5.800   -6.028   -6.307   -6.623   -6.933   -7.182   -7.327   -7.326   -7.149   -6.778   -6.188   -5.391   -4.472   -3.576   -2.899   -2.628   -2.857   -3.572   -4.685   -6.061   -7.571   -9.110  -10.566  -11.855  -12.910  -13.712  -14.262  -14.606  -14.809  -14.942  -15.047  -15.151  -15.243  -15.312  -15.364  -15.422  -15.492  -15.584  -15.667  -15.718  -15.712  -15.655  -15.572  -15.511  -15.489  -15.505  -15.527  -15.534  -15.520  -15.513  -15.547  -15.645  -15.810  -15.995  -16.140  -16.247  -16.362  -16.537  -16.790  -17.065  -17.292  -17.427
  -8.480   -8.358   -8.325   -8.307   -8.293   -8.285   -8.273   -8.261   -8.249   -8.241   -8.237   -8.234   -8.236   -8.230   -8.200   -8.132   -8.015   -7.840   -7.607   -7.328   -7.008   -6.648   -6.245   -5.807   -5.383   -5.073   -4.997   -5.212   -5.663   -6.205   -6.639   -6.840   -6.793   -6.594   -6.378   -6.250   -6.240   -6.332   -6.492   -6.702   -6.944   -7.198   -7.435   -7.626   -7.735   -7.739   -7.594   -7.271   -6.731   -5.959   -5.021   -4.063   -3.325   -3.035   -3.337   -4.212   -5.528   -7.112   -8.804  -10.457  -11.949  -13.188  -14.132  -14.784  -15.193  -15.420  -15.533  -15.593  -15.639  -15.693  -15.757  -15.808  -15.854  -15.900  -15.955  -16.025  -16.086  -16.113  -16.094  -16.028  -15.946  -15.891  -15.874  -15.892  -15.904  -15.890  -15.853  -15.819  -15.823  -15.894  -16.018  -16.147  -16.233  -16.275  -16.320  -16.438  -16.647  -16.909  -17.142  -17.286
  -8.496   -8.370   -8.338   -8.322   -8.308   -8.300   -8.289   -8.281   -8.273   -8.262   -8.257   -8.254   -8.255   -8.251   -8.239   -8.207   -8.152   -8.064   -7.936   -7.766   -7.559   -7.295   -6.980   -6.615   -6.233   -5.922   -5.787   -5.890   -6.205   -6.628   -7.004   -7.219   -7.251   -7.161   -7.043   -6.972   -6.978   -7.045   -7.158   -7.301   -7.468   -7.635   -7.787   -7.907   -7.977   -7.970   -7.852   -7.578   -7.098   -6.382   -5.459   -4.478   -3.698   -3.394   -3.730   -4.704   -6.152   -7.873   -9.677  -11.399  -12.899  -14.074  -14.902  -15.422  -15.710  -15.844  -15.900  -15.927  -15.949  -15.987  -16.036  -16.080  -16.123  -16.163  -16.206  -16.254  -16.288  -16.295  -16.265  -16.203  -16.136  -16.094  -16.087  -16.099  -16.091  -16.052  -15.989  -15.931  -15.919  -15.969  -16.064  -16.155  -16.207  -16.219  -16.231  -16.310  -16.473  -16.695  -16.903  -17.043
  -8.515   -8.386   -8.351   -8.330   -8.317   -8.314   -8.307   -8.300   -8.287   -8.276   -8.271   -8.266   -8.262   -8.258   -8.252   -8.241   -8.218   -8.184   -8.128   -8.041   -7.917   -7.746   -7.521   -7.248   -6.954   -6.695   -6.548   -6.573   -6.770   -7.070   -7.372   -7.580   -7.662   -7.651   -7.603   -7.573   -7.577   -7.611   -7.669   -7.745   -7.833   -7.926   -8.003   -8.063   -8.092   -8.064   -7.945   -7.692   -7.245   -6.566   -5.670   -4.686   -3.881   -3.550   -3.889   -4.894   -6.413   -8.224  -10.122  -11.912  -13.438  -14.590  -15.345  -15.773  -15.974  -16.053  -16.079  -16.094  -16.110  -16.140  -16.176  -16.211  -16.243  -16.272  -16.298  -16.320  -16.336  -16.330  -16.301  -16.258  -16.211  -16.184  -16.182  -16.189  -16.168  -16.115  -16.038  -15.974  -15.953  -15.987  -16.047  -16.107  -16.140  -16.146  -16.155  -16.214  -16.332  -16.503  -16.667  -16.789
  -8.534   -8.401   -8.359   -8.336   -8.322   -8.318   -8.311   -8.306   -8.295   -8.282   -8.273   -8.269   -8.268   -8.264   -8.258   -8.250   -8.242   -8.232   -8.216   -8.175   -8.108   -8.008   -7.864   -7.688   -7.492   -7.309   -7.189   -7.176   -7.281   -7.484   -7.705   -7.878   -7.971   -7.994   -7.984   -7.970   -7.963   -7.970   -7.989   -8.016   -8.051   -8.086   -8.117   -8.129   -8.112   -8.042   -7.884   -7.595   -7.131   -6.448   -5.560   -4.583   -3.767   -3.417   -3.731   -4.727   -6.274   -8.159  -10.165  -12.067  -13.669  -14.846  -15.581  -15.964  -16.120  -16.166  -16.178  -16.188  -16.205  -16.227  -16.247  -16.259  -16.264  -16.270  -16.277  -16.282  -16.282  -16.277  -16.264  -16.243  -16.221  -16.208  -16.209  -16.211  -16.192  -16.147  -16.085  -16.035  -16.014  -16.026  -16.054  -16.082  -16.099  -16.105  -16.126  -16.172  -16.259  -16.380  -16.498  -16.600
  -8.530   -8.395   -8.359   -8.337   -8.322   -8.311   -8.304   -8.297   -8.289   -8.277   -8.266   -8.265   -8.265   -8.265   -8.253   -8.243   -8.237   -8.234   -8.229   -8.214   -8.179   -8.119   -8.045   -7.952   -7.846   -7.737   -7.657   -7.637   -7.693   -7.815   -7.965   -8.092   -8.169   -8.195   -8.194   -8.179   -8.166   -8.153   -8.149   -8.147   -8.154   -8.155   -8.148   -8.121   -8.047   -7.901   -7.656   -7.275   -6.729   -5.994   -5.092   -4.140   -3.355   -3.004   -3.283   -4.249   -5.806   -7.763   -9.902  -11.952  -13.682  -14.935  -15.694  -16.065  -16.200  -16.226  -16.231  -16.243  -16.260  -16.273  -16.274  -16.261  -16.242  -16.221  -16.208  -16.202  -16.198  -16.201  -16.203  -16.206  -16.203  -16.195  -16.192  -16.193  -16.191  -16.178  -16.161  -16.141  -16.130  -16.128  -16.124  -16.120  -16.115  -16.121  -16.143  -16.184  -16.248  -16.330  -16.415  -16.496
  -8.515   -8.379   -8.342   -8.320   -8.306   -8.300   -8.297   -8.290   -8.281   -8.267   -8.259   -8.256   -8.254   -8.249   -8.239   -8.222   -8.209   -8.203   -8.204   -8.198   -8.181   -8.155   -8.125   -8.084   -8.041   -7.992   -7.950   -7.936   -7.967   -8.038   -8.128   -8.210   -8.265   -8.280   -8.275   -8.257   -8.239   -8.222   -8.206   -8.195   -8.185   -8.165   -8.122   -8.036   -7.886   -7.631   -7.251   -6.722   -6.048   -5.240   -4.339   -3.443   -2.737   -2.429   -2.699   -3.623   -5.163   -7.181   -9.451  -11.665  -13.543  -14.898  -15.713  -16.093  -16.213  -16.224  -16.223  -16.238  -16.259  -16.271  -16.259  -16.233  -16.198  -16.169  -16.153  -16.146  -16.144  -16.150  -16.160  -16.170  -16.172  -16.163  -16.156  -16.153  -16.165  -16.192  -16.223  -16.247  -16.263  -16.259  -16.239  -16.212  -16.189  -16.181  -16.195  -16.226  -16.267  -16.324  -16.385  -16.455
  -8.505   -8.365   -8.330   -8.311   -8.302   -8.295   -8.291   -8.287   -8.277   -8.263   -8.250   -8.241   -8.236   -8.229   -8.213   -8.195   -8.179   -8.174   -8.173   -8.178   -8.176   -8.171   -8.161   -8.147   -8.132   -8.109   -8.089   -8.084   -8.108   -8.147   -8.197   -8.250   -8.281   -8.284   -8.276   -8.259   -8.241   -8.225   -8.215   -8.201   -8.176   -8.127   -8.038   -7.872   -7.607   -7.208   -6.658   -5.966   -5.161   -4.297   -3.442   -2.661   -2.094   -1.880   -2.160   -3.042   -4.542   -6.591   -8.953  -11.303  -13.310  -14.767  -15.637  -16.036  -16.148  -16.150  -16.143  -16.163  -16.192  -16.203  -16.193  -16.163  -16.137  -16.123  -16.124  -16.127  -16.128  -16.129  -16.127  -16.133  -16.132  -16.121  -16.105  -16.097  -16.116  -16.159  -16.225  -16.289  -16.338  -16.352  -16.341  -16.314  -16.284  -16.265  -16.259  -16.268  -16.288  -16.321  -16.368  -16.424
  -8.527   -8.386   -8.355   -8.341   -8.332   -8.328   -8.325   -8.323   -8.315   -8.296   -8.277   -8.260   -8.250   -8.235   -8.217   -8.200   -8.189   -8.192   -8.198   -8.211   -8.217   -8.220   -8.214   -8.203   -8.183   -8.163   -8.142   -8.134   -8.145   -8.168   -8.197   -8.229   -8.245   -8.246   -8.239   -8.228   -8.218   -8.209   -8.203   -8.183   -8.135   -8.043   -7.875   -7.599   -7.181   -6.612   -5.891   -5.061   -4.183   -3.338   -2.591   -1.989   -1.601   -1.510   -1.824   -2.670   -4.122   -6.147   -8.543  -10.965  -13.049  -14.574  -15.489  -15.908  -16.022  -16.015  -16.004  -16.023  -16.052  -16.066  -16.054  -16.038  -16.033  -16.049  -16.077  -16.097  -16.100  -16.086  -16.070  -16.064  -16.061  -16.047  -16.029  -16.011  -16.019  -16.061  -16.133  -16.212  -16.283  -16.332  -16.350  -16.349  -16.334  -16.316  -16.298  -16.282  -16.274  -16.281  -16.305  -16.349
  -8.673   -8.527   -8.499   -8.482   -8.477   -8.468   -8.466   -8.463   -8.455   -8.435   -8.411   -8.387   -8.370   -8.353   -8.338   -8.327   -8.332   -8.340   -8.362   -8.379   -8.392   -8.389   -8.375   -8.343   -8.293   -8.245   -8.197   -8.163   -8.148   -8.155   -8.175   -8.194   -8.206   -8.207   -8.203   -8.200   -8.198   -8.196   -8.185   -8.146   -8.057   -7.886   -7.603   -7.182   -6.596   -5.854   -5.000   -4.106   -3.252   -2.522   -1.956   -1.572   -1.378   -1.413   -1.771   -2.583   -3.976   -5.946   -8.303  -10.713  -12.807  -14.347  -15.284  -15.716  -15.831  -15.816  -15.795  -15.802  -15.821  -15.829  -15.818  -15.816  -15.829  -15.870  -15.921  -15.955  -15.958  -15.937  -15.909  -15.893  -15.890  -15.886  -15.871  -15.849  -15.841  -15.862  -15.912  -15.979  -16.054  -16.125  -16.180  -16.215  -16.236  -16.236  -16.219  -16.190  -16.159  -16.136  -16.137  -16.174
  -9.054   -8.905   -8.870   -8.850   -8.840   -8.828   -8.819   -8.813   -8.804   -8.786   -8.763   -8.741   -8.719   -8.708   -8.702   -8.703   -8.714   -8.733   -8.758   -8.781   -8.793   -8.782   -8.744   -8.667   -8.560   -8.440   -8.325   -8.236   -8.182   -8.165   -8.165   -8.178   -8.188   -8.194   -8.196   -8.194   -8.196   -8.192   -8.160   -8.076   -7.906   -7.624   -7.198   -6.608   -5.854   -4.988   -4.077   -3.210   -2.482   -1.950   -1.627   -1.481   -1.479   -1.635   -2.032   -2.817   -4.127   -5.993   -8.241  -10.545  -12.563  -14.057  -14.973  -15.403  -15.518  -15.496  -15.459  -15.443  -15.442  -15.435  -15.423  -15.423  -15.448  -15.494  -15.545  -15.579  -15.583  -15.561  -15.537  -15.526  -15.531  -15.539  -15.535  -15.515  -15.493  -15.486  -15.500  -15.539  -15.597  -15.667  -15.743  -15.808  -15.860  -15.890  -15.891  -15.866  -15.826  -15.791  -15.779  -15.807
  -9.771   -9.615   -9.572   -9.544   -9.522   -9.502   -9.491   -9.483   -9.476   -9.460   -9.446   -9.429   -9.417   -9.411   -9.408   -9.417   -9.432   -9.455   -9.479   -9.501   -9.505   -9.480   -9.402   -9.253   -9.051   -8.815   -8.583   -8.398   -8.272   -8.212   -8.194   -8.197   -8.207   -8.213   -8.216   -8.214   -8.213   -8.187   -8.118   -7.961   -7.681   -7.253   -6.661   -5.911   -5.044   -4.125   -3.243   -2.493   -1.956   -1.662   -1.596   -1.695   -1.893   -2.178   -2.620   -3.367   -4.563   -6.252   -8.292  -10.387  -12.230  -13.601  -14.446  -14.842  -14.947  -14.926  -14.880  -14.844  -14.818  -14.798  -14.781  -14.778  -14.797  -14.827  -14.859  -14.882  -14.886  -14.872  -14.855  -14.856  -14.878  -14.895  -14.902  -14.885  -14.855  -14.825  -14.811  -14.817  -14.847  -14.905  -14.976  -15.050  -15.119  -15.171  -15.197  -15.191  -15.162  -15.135  -15.126  -15.161
 -10.834  -10.680  -10.629  -10.590  -10.554  -10.532  -10.516  -10.509  -10.507  -10.501  -10.495  -10.488  -10.483  -10.479  -10.478  -10.487  -10.499  -10.520  -10.541  -10.556  -10.551  -10.496  -10.362  -10.119   -9.777   -9.372   -8.968   -8.638   -8.410   -8.288   -8.238   -8.228   -8.234   -8.239   -8.241   -8.237   -8.226   -8.179   -8.059   -7.816   -7.405   -6.816   -6.071   -5.208   -4.296   -3.415   -2.644   -2.059   -1.718   -1.639   -1.803   -2.131   -2.533   -2.964   -3.472   -4.172   -5.208   -6.639   -8.363  -10.143  -11.708  -12.875  -13.596  -13.932  -14.020  -13.998  -13.958  -13.921  -13.886  -13.857  -13.834  -13.825  -13.828  -13.838  -13.847  -13.856  -13.856  -13.847  -13.846  -13.853  -13.875  -13.898  -13.905  -13.893  -13.862  -13.825  -13.796  -13.786  -13.795  -13.833  -13.884  -13.946  -14.013  -14.071  -14.112  -14.127  -14.123  -14.117  -14.124  -14.185
 -12.124  -11.984  -11.929  -11.886  -11.851  -11.826  -11.814  -11.812  -11.818  -11.823  -11.820  -11.815  -11.809  -11.803  -11.801  -11.806  -11.816  -11.831  -11.846  -11.851  -11.828  -11.741  -11.536  -11.175  -10.658  -10.042   -9.428   -8.916   -8.560   -8.358   -8.273   -8.249   -8.245   -8.247   -8.247   -8.242   -8.226   -8.163   -7.996   -7.669   -7.146   -6.426   -5.568   -4.658   -3.786   -3.013   -2.397   -1.973   -1.776   -1.844   -2.168   -2.674   -3.265   -3.850   -4.423   -5.066   -5.910   -7.030   -8.367   -9.755  -10.977  -11.888  -12.442  -12.691  -12.755  -12.741  -12.718  -12.697  -12.674  -12.645  -12.622  -12.609  -12.600  -12.597  -12.592  -12.592  -12.586  -12.581  -12.582  -12.590  -12.605  -12.617  -12.619  -12.607  -12.582  -12.550  -12.528  -12.518  -12.523  -12.545  -12.577  -12.618  -12.663  -12.708  -12.746  -12.770  -12.784  -12.805  -12.837  -12.928
 -13.451  -13.333  -13.282  -13.240  -13.212  -13.195  -13.187  -13.189  -13.199  -13.207  -13.206  -13.198  -13.187  -13.173  -13.167  -13.172  -13.181  -13.193  -13.202  -13.199  -13.160  -13.032  -12.750  -12.262  -11.564  -10.732   -9.894   -9.187   -8.691   -8.406   -8.280   -8.241   -8.232   -8.231   -8.234   -8.232   -8.211   -8.135   -7.943   -7.572   -6.982   -6.196   -5.309   -4.428   -3.659   -3.030   -2.560   -2.254   -2.139   -2.268   -2.663   -3.267   -3.985   -4.679   -5.297   -5.873   -6.521   -7.324   -8.273   -9.260  -10.129  -10.768  -11.144  -11.298  -11.333  -11.328  -11.328  -11.338  -11.341  -11.332  -11.317  -11.303  -11.293  -11.288  -11.283  -11.282  -11.273  -11.266  -11.262  -11.262  -11.262  -11.260  -11.248  -11.233  -11.215  -11.198  -11.191  -11.193  -11.203  -11.223  -11.241  -11.262  -11.280  -11.298  -11.318  -11.338  -11.363  -11.396  -11.444  -11.570
 -14.620  -14.519  -14.473  -14.442  -14.421  -14.412  -14.407  -14.412  -14.419  -14.424  -14.421  -14.406  -14.386  -14.367  -14.360  -14.363  -14.372  -14.386  -14.398  -14.387  -14.331  -14.166  -13.813  -13.215  -12.360  -11.335  -10.297   -9.417   -8.794   -8.435   -8.273   -8.223   -8.212   -8.213   -8.219   -8.222   -8.204   -8.127   -7.931   -7.550   -6.966   -6.212   -5.389   -4.613   -3.971   -3.478   -3.120   -2.890   -2.812   -2.943   -3.320   -3.926   -4.664   -5.388   -6.002   -6.501   -6.975   -7.509   -8.128   -8.771   -9.330   -9.727   -9.943  -10.016  -10.021  -10.017  -10.044  -10.083  -10.120  -10.139  -10.140  -10.131  -10.128  -10.130  -10.131  -10.130  -10.124  -10.113  -10.103  -10.098  -10.084  -10.064  -10.043  -10.022  -10.010  -10.008  -10.012  -10.027  -10.048  -10.065  -10.077  -10.078  -10.072  -10.066  -10.068  -10.081  -10.103  -10.137  -10.188  -10.336
 -15.504  -15.410  -15.366  -15.343  -15.329  -15.322  -15.321  -15.324  -15.327  -15.324  -15.314  -15.291  -15.267  -15.243  -15.232  -15.235  -15.247  -15.266  -15.279  -15.266  -15.199  -15.007  -14.604  -13.920  -12.950  -11.781  -10.594   -9.585   -8.868   -8.454   -8.268   -8.212   -8.211   -8.222   -8.232   -8.235   -8.218   -8.147   -7.970   -7.629   -7.117   -6.472   -5.788   -5.157   -4.646   -4.262   -3.985   -3.809   -3.749   -3.853   -4.170   -4.698   -5.358   -6.021   -6.574   -6.983   -7.318   -7.658   -8.032   -8.416   -8.739   -8.951   -9.043   -9.054   -9.036   -9.035   -9.071   -9.130   -9.189   -9.230   -9.249   -9.250   -9.250   -9.259   -9.266   -9.271   -9.267   -9.257   -9.249   -9.241   -9.226   -9.200   -9.172   -9.148   -9.140   -9.141   -9.152   -9.177   -9.199   -9.216   -9.218   -9.200   -9.178   -9.161   -9.154   -9.161   -9.178   -9.208   -9.256   -9.414
 -16.072  -15.977  -15.940  -15.917  -15.903  -15.896  -15.890  -15.891  -15.886  -15.878  -15.860  -15.834  -15.804  -15.777  -15.760  -15.763  -15.774  -15.799  -15.814  -15.804  -15.731  -15.524  -15.093  -14.355  -13.312  -12.058  -10.781   -9.685   -8.911   -8.465   -8.277   -8.236   -8.246   -8.267   -8.283   -8.287   -8.270   -8.202   -8.052   -7.780   -7.383   -6.897   -6.384   -5.908   -5.511   -5.206   -4.989   -4.859   -4.827   -4.918   -5.164   -5.572   -6.091   -6.624   -7.067   -7.383   -7.612   -7.818   -8.038   -8.252   -8.418   -8.515   -8.531   -8.508   -8.477   -8.468   -8.487   -8.538   -8.595   -8.646   -8.675   -8.686   -8.690   -8.702   -8.712   -8.720   -8.712   -8.710   -8.708   -8.713   -8.708   -8.688   -8.660   -8.633   -8.618   -8.617   -8.634   -8.660   -8.686   -8.698   -8.685   -8.661   -8.628   -8.613   -8.610   -8.620   -8.638   -8.664   -8.708   -8.862
 -16.388  -16.290  -16.251  -16.222  -16.205  -16.197  -16.189  -16.181  -16.174  -16.162  -16.140  -16.109  -16.075  -16.047  -16.028  -16.024  -16.035  -16.056  -16.074  -16.070  -15.998  -15.785  -15.339  -14.578  -13.499  -12.199  -10.875   -9.739   -8.933   -8.473   -8.293   -8.276   -8.309   -8.343   -8.362   -8.358   -8.334   -8.269   -8.146   -7.948   -7.683   -7.365   -7.021   -6.683   -6.378   -6.130   -5.956   -5.872   -5.875   -5.973   -6.167   -6.455   -6.811   -7.183   -7.493   -7.710   -7.863   -7.993   -8.123   -8.247   -8.333   -8.375   -8.366   -8.326   -8.283   -8.249   -8.235   -8.247   -8.278   -8.321   -8.352   -8.366   -8.381   -8.395   -8.404   -8.404   -8.402   -8.405   -8.421   -8.438   -8.442   -8.431   -8.401   -8.371   -8.351   -8.352   -8.377   -8.412   -8.441   -8.449   -8.427   -8.394   -8.361   -8.354   -8.365   -8.386   -8.413   -8.444   -8.483   -8.628
 -16.539  -16.432  -16.391  -16.359  -16.341  -16.328  -16.318  -16.310  -16.302  -16.289  -16.268  -16.236  -16.205  -16.172  -16.147  -16.138  -16.145  -16.162  -16.183  -16.179  -16.109  -15.897  -15.445  -14.675  -13.579  -12.260  -10.916   -9.756   -8.934   -8.473   -8.304   -8.306   -8.361   -8.409   -8.430   -8.416   -8.373   -8.305   -8.205   -8.078   -7.929   -7.759   -7.559   -7.336   -7.102   -6.900   -6.759   -6.707   -6.748   -6.857   -7.016   -7.214   -7.430   -7.642   -7.817   -7.946   -8.040   -8.131   -8.228   -8.318   -8.385   -8.414   -8.409   -8.376   -8.321   -8.257   -8.200   -8.161   -8.154   -8.172   -8.191   -8.207   -8.228   -8.247   -8.257   -8.253   -8.244   -8.248   -8.272   -8.300   -8.313   -8.312   -8.287   -8.250   -8.227   -8.230   -8.267   -8.320   -8.359   -8.372   -8.346   -8.306   -8.272   -8.269   -8.288   -8.329   -8.369   -8.408   -8.445   -8.582
 -16.609  -16.491  -16.446  -16.416  -16.398  -16.386  -16.377  -16.375  -16.368  -16.356  -16.341  -16.315  -16.286  -16.254  -16.226  -16.208  -16.209  -16.221  -16.237  -16.234  -16.165  -15.951  -15.496  -14.721  -13.618  -12.293  -10.936   -9.768   -8.935   -8.469   -8.300   -8.306   -8.372   -8.426   -8.438   -8.409   -8.349   -8.272   -8.191   -8.122   -8.073   -8.019   -7.931   -7.799   -7.630   -7.471   -7.361   -7.332   -7.388   -7.507   -7.653   -7.794   -7.907   -7.992   -8.051   -8.100   -8.151   -8.220   -8.300   -8.383   -8.450   -8.489   -8.501   -8.484   -8.430   -8.349   -8.261   -8.187   -8.142   -8.123   -8.121   -8.131   -8.154   -8.176   -8.185   -8.176   -8.162   -8.160   -8.185   -8.218   -8.243   -8.246   -8.224   -8.192   -8.172   -8.182   -8.228   -8.299   -8.351   -8.367   -8.341   -8.292   -8.255   -8.248   -8.274   -8.324   -8.376   -8.418   -8.460   -8.596
 -16.646  -16.517  -16.466  -16.443  -16.428  -16.420  -16.416  -16.418  -16.419  -16.416  -16.408  -16.393  -16.369  -16.343  -16.313  -16.287  -16.276  -16.281  -16.289  -16.278  -16.206  -15.991  -15.534  -14.756  -13.650  -12.322  -10.962   -9.789   -8.946   -8.468   -8.283   -8.274   -8.324   -8.366   -8.364   -8.322   -8.254   -8.177   -8.117   -8.094   -8.114   -8.143   -8.141   -8.083   -7.980   -7.869   -7.790   -7.776   -7.836   -7.952   -8.090   -8.204   -8.255   -8.257   -8.230   -8.209   -8.214   -8.250   -8.314   -8.382   -8.447   -8.495   -8.527   -8.528   -8.493   -8.424   -8.341   -8.254   -8.181   -8.122   -8.084   -8.075   -8.093   -8.117   -8.130   -8.121   -8.103   -8.103   -8.127   -8.169   -8.204   -8.215   -8.201   -8.174   -8.157   -8.171   -8.221   -8.296   -8.349   -8.365   -8.337   -8.283   -8.236   -8.222   -8.244   -8.289   -8.340   -8.386   -8.430   -8.571
 -16.667  -16.527  -16.481  -16.460  -16.448  -16.445  -16.446  -16.453  -16.460  -16.470  -16.474  -16.472  -16.456  -16.433  -16.403  -16.368  -16.345  -16.331  -16.327  -16.311  -16.236  -16.019  -15.561  -14.778  -13.671  -12.345  -10.990   -9.815   -8.968   -8.473   -8.259   -8.212   -8.229   -8.244   -8.228   -8.185   -8.125   -8.068   -8.034   -8.047   -8.105   -8.176   -8.224   -8.224   -8.181   -8.125   -8.079   -8.078   -8.137   -8.244   -8.369   -8.460   -8.486   -8.439   -8.355   -8.277   -8.232   -8.231   -8.259   -8.299   -8.347   -8.400   -8.445   -8.473   -8.471   -8.442   -8.385   -8.307   -8.217   -8.123   -8.047   -8.005   -8.011   -8.034   -8.050   -8.056   -8.055   -8.077   -8.118   -8.171   -8.211   -8.228   -8.214   -8.191   -8.172   -8.181   -8.218   -8.274   -8.317   -8.323   -8.292   -8.236   -8.184   -8.163   -8.170   -8.204   -8.243   -8.280   -8.322   -8.470
 -16.696  -16.543  -16.498  -16.474  -16.463  -16.463  -16.464  -16.473  -16.483  -16.504  -16.521  -16.527  -16.520  -16.500  -16.463  -16.420  -16.380  -16.352  -16.337  -16.315  -16.235  -16.017  -15.559  -14.777  -13.673  -12.346  -10.997   -9.834   -8.991   -8.484   -8.238   -8.151   -8.129   -8.120   -8.095   -8.069   -8.037   -8.017   -8.011   -8.036   -8.101   -8.176   -8.239   -8.272   -8.274   -8.259   -8.243   -8.259   -8.310   -8.397   -8.503   -8.577   -8.585   -8.516   -8.400   -8.285   -8.205   -8.171   -8.162   -8.176   -8.205   -8.252   -8.306   -8.357   -8.388   -8.396   -8.370   -8.306   -8.213   -8.102   -7.998   -7.938   -7.927   -7.947   -7.975   -7.997   -8.029   -8.089   -8.161   -8.227   -8.265   -8.277   -8.252   -8.217   -8.186   -8.176   -8.194   -8.225   -8.246   -8.243   -8.212   -8.166   -8.121   -8.099   -8.097   -8.113   -8.129   -8.148   -8.177   -8.336
 -16.755  -16.587  -16.532  -16.505  -16.492  -16.486  -16.483  -16.486  -16.492  -16.512  -16.531  -16.543  -16.541  -16.517  -16.477  -16.431  -16.383  -16.351  -16.332  -16.303  -16.221  -16.002  -15.545  -14.762  -13.658  -12.337  -10.998   -9.849   -9.014   -8.502   -8.240   -8.124   -8.074   -8.047   -8.033   -8.032   -8.050   -8.066   -8.081   -8.103   -8.145   -8.199   -8.247   -8.280   -8.296   -8.301   -8.308   -8.327   -8.366   -8.433   -8.507   -8.554   -8.545   -8.468   -8.343   -8.221   -8.136   -8.087   -8.068   -8.069   -8.085   -8.130   -8.191   -8.252   -8.299   -8.322   -8.307   -8.252   -8.165   -8.062   -7.973   -7.916   -7.905   -7.922   -7.947   -7.978   -8.034   -8.119   -8.220   -8.292   -8.325   -8.316   -8.273   -8.221   -8.174   -8.143   -8.140   -8.152   -8.160   -8.160   -8.147   -8.128   -8.107   -8.108   -8.110   -8.112   -8.107   -8.102   -8.119   -8.282
 -16.887  -16.701  -16.637  -16.606  -16.583  -16.567  -16.554  -16.546  -16.540  -16.548  -16.557  -16.568  -16.566  -16.548  -16.512  -16.467  -16.424  -16.397  -16.380  -16.351  -16.267  -16.044  -15.580  -14.796  -13.690  -12.375  -11.045   -9.907   -9.078   -8.559   -8.283   -8.150   -8.088   -8.059   -8.066   -8.105   -8.168   -8.223   -8.259   -8.275   -8.287   -8.300   -8.307   -8.307   -8.305   -8.304   -8.308   -8.323   -8.352   -8.387   -8.419   -8.425   -8.387   -8.307   -8.195   -8.094   -8.033   -8.002   -7.997   -8.000   -8.020   -8.072   -8.135   -8.197   -8.240   -8.249   -8.227   -8.174   -8.112   -8.051   -8.007   -7.986   -7.984   -7.988   -7.984   -7.997   -8.047   -8.138   -8.242   -8.315   -8.337   -8.310   -8.257   -8.195   -8.130   -8.087   -8.069   -8.080   -8.105   -8.141   -8.180   -8.220   -8.261   -8.311   -8.350   -8.363   -8.348   -8.327   -8.340   -8.502
 -17.177  -16.973  -16.901  -16.860  -16.830  -16.803  -16.777  -16.755  -16.733  -16.724  -16.722  -16.723  -16.719  -16.702  -16.676  -16.645  -16.619  -16.607  -16.599  -16.576  -16.489  -16.259  -15.788  -14.996  -13.886  -12.571  -11.241  -10.100   -9.258   -8.719   -8.414   -8.256   -8.180   -8.161   -8.195   -8.280   -8.397   -8.504   -8.571   -8.593   -8.576   -8.531   -8.471   -8.405   -8.348   -8.315   -8.309   -8.322   -8.330   -8.326   -8.302   -8.256   -8.188   -8.099   -8.011   -7.947   -7.928   -7.936   -7.954   -7.973   -8.003   -8.060   -8.128   -8.185   -8.215   -8.210   -8.173   -8.125   -8.096   -8.094   -8.115   -8.140   -8.148   -8.120   -8.069   -8.035   -8.056   -8.131   -8.221   -8.281   -8.292   -8.268   -8.218   -8.156   -8.093   -8.047   -8.035   -8.066   -8.143   -8.252   -8.392   -8.550   -8.723   -8.890   -9.025   -9.097   -9.105   -9.090   -9.092   -9.258
 -17.721  -17.500  -17.423  -17.378  -17.340  -17.309  -17.275  -17.240  -17.205  -17.177  -17.163  -17.155  -17.147  -17.133  -17.112  -17.096  -17.090  -17.095  -17.101  -17.083  -16.996  -16.759  -16.279  -15.480  -14.368  -13.046  -11.696  -10.521   -9.628   -9.030   -8.666   -8.464   -8.365   -8.352   -8.425   -8.578   -8.771   -8.953   -9.078   -9.120   -9.072   -8.950   -8.784   -8.606   -8.463   -8.378   -8.350   -8.353   -8.344   -8.296   -8.213   -8.117   -8.020   -7.932   -7.865   -7.841   -7.865   -7.913   -7.956   -7.987   -8.019   -8.072   -8.137   -8.188   -8.211   -8.202   -8.166   -8.134   -8.145   -8.195   -8.267   -8.323   -8.323   -8.265   -8.165   -8.086   -8.072   -8.113   -8.179   -8.222   -8.222   -8.199   -8.162   -8.119   -8.078   -8.054   -8.072   -8.147   -8.300   -8.528   -8.843   -9.224   -9.642  -10.047  -10.378  -10.578  -10.658  -10.667  -10.669  -10.820
 -18.579  -18.350  -18.275  -18.229  -18.193  -18.160  -18.121  -18.076  -18.033  -17.995  -17.970  -17.955  -17.940  -17.923  -17.910  -17.899  -17.905  -17.923  -17.938  -17.926  -17.840  -17.602  -17.125  -16.324  -15.206  -13.867  -12.480  -11.235  -10.243   -9.534   -9.065   -8.776   -8.635   -8.632   -8.767   -9.020   -9.334   -9.632   -9.836   -9.898   -9.797   -9.560   -9.243   -8.917   -8.657   -8.498   -8.435   -8.425   -8.400   -8.318   -8.193   -8.053   -7.942   -7.859   -7.816   -7.820   -7.881   -7.959   -8.023   -8.052   -8.066   -8.094   -8.136   -8.180   -8.209   -8.212   -8.203   -8.199   -8.235   -8.317   -8.408   -8.471   -8.461   -8.378   -8.255   -8.151   -8.106   -8.117   -8.148   -8.159   -8.146   -8.121   -8.102   -8.089   -8.089   -8.101   -8.161   -8.297   -8.552   -8.957   -9.543  -10.285  -11.112  -11.906  -12.545  -12.964  -13.163  -13.219  -13.227  -13.343
 -19.759  -19.527  -19.454  -19.411  -19.379  -19.344  -19.297  -19.248  -19.198  -19.154  -19.122  -19.100  -19.079  -19.059  -19.041  -19.029  -19.034  -19.051  -19.068  -19.062  -18.981  -18.752  -18.281  -17.487  -16.363  -15.000  -13.552  -12.200  -11.069  -10.203   -9.585   -9.185   -8.986   -8.996   -9.215   -9.613  -10.091  -10.535  -10.830  -10.896  -10.707  -10.303   -9.784   -9.275   -8.877   -8.630   -8.526   -8.500   -8.468   -8.370   -8.215   -8.061   -7.947   -7.884   -7.868   -7.895   -7.972   -8.058   -8.119   -8.136   -8.119   -8.111   -8.127   -8.161   -8.205   -8.235   -8.252   -8.272   -8.316   -8.396   -8.479   -8.533   -8.516   -8.434   -8.322   -8.224   -8.164   -8.148   -8.142   -8.116   -8.081   -8.049   -8.050   -8.068   -8.105   -8.159   -8.265   -8.467   -8.842   -9.476  -10.430  -11.673  -13.059  -14.382  -15.436  -16.137  -16.499  -16.618  -16.637  -16.695
 -21.193  -20.964  -20.895  -20.858  -20.822  -20.773  -20.707  -20.634  -20.561  -20.506  -20.469  -20.442  -20.419  -20.394  -20.367  -20.348  -20.346  -20.351  -20.364  -20.357  -20.282  -20.063  -19.601  -18.813  -17.685  -16.287  -14.764  -13.289  -11.997  -10.949  -10.162   -9.633   -9.371   -9.401   -9.728  -10.299  -10.968  -11.568  -11.949  -11.997  -11.684  -11.079  -10.327   -9.609   -9.055   -8.719   -8.570   -8.527   -8.493   -8.393   -8.238   -8.085   -7.991   -7.962   -7.980   -8.025   -8.096   -8.166   -8.208   -8.199   -8.155   -8.115   -8.107   -8.141   -8.194   -8.244   -8.278   -8.303   -8.339   -8.391   -8.450   -8.485   -8.471   -8.414   -8.340   -8.273   -8.222   -8.186   -8.153   -8.102   -8.055   -8.027   -8.038   -8.083   -8.142   -8.218   -8.345   -8.598   -9.096   -9.995  -11.386  -13.214  -15.243  -17.156  -18.674  -19.683  -20.222  -20.427  -20.462  -20.451
 -22.888  -22.660  -22.599  -22.555  -22.494  -22.394  -22.250  -22.095  -21.956  -21.859  -21.802  -21.771  -21.747  -21.719  -21.686  -21.656  -21.641  -21.637  -21.639  -21.626  -21.552  -21.335  -20.879  -20.092  -18.952  -17.516  -15.916  -14.320  -12.867  -11.646  -10.701  -10.052   -9.735   -9.798  -10.243  -10.982  -11.834  -12.574  -13.017  -13.034  -12.590  -11.779  -10.796   -9.861   -9.143   -8.706   -8.508   -8.458   -8.428   -8.344   -8.209   -8.088   -8.036   -8.057   -8.111   -8.166   -8.210   -8.241   -8.249   -8.221   -8.163   -8.112   -8.094   -8.121   -8.175   -8.227   -8.259   -8.269   -8.282   -8.305   -8.335   -8.353   -8.348   -8.326   -8.300   -8.276   -8.253   -8.222   -8.182   -8.134   -8.096   -8.088   -8.120   -8.166   -8.217   -8.278   -8.388   -8.656   -9.265  -10.426  -12.261  -14.676  -17.337  -19.813  -21.763  -23.062  -23.776  -24.072  -24.134  -24.054
 -25.085  -24.867  -24.815  -24.749  -24.595  -24.331  -23.977  -23.600  -23.282  -23.065  -22.947  -22.892  -22.866  -22.838  -22.803  -22.768  -22.743  -22.731  -22.724  -22.703  -22.623  -22.402  -21.941  -21.144  -19.983  -18.505  -16.835  -15.130  -13.542  -12.179  -11.110  -10.377  -10.037  -10.149  -10.707  -11.593  -12.580  -13.417  -13.892  -13.863  -13.307  -12.324  -11.137  -10.006   -9.133   -8.594   -8.351   -8.299   -8.294   -8.243   -8.150   -8.074   -8.075   -8.144   -8.224   -8.269   -8.278   -8.268   -8.244   -8.213   -8.167   -8.119   -8.096   -8.111   -8.151   -8.190   -8.208   -8.203   -8.191   -8.190   -8.198   -8.209   -8.212   -8.218   -8.232   -8.249   -8.261   -8.250   -8.226   -8.198   -8.191   -8.217   -8.267   -8.310   -8.329   -8.337   -8.393   -8.656   -9.348  -10.733  -12.962  -15.882  -19.069  -22.010  -24.315  -25.855  -26.711  -27.085  -27.174  -27.032
 -28.388  -28.208  -28.170  -28.021  -27.635  -26.985  -26.147  -25.283  -24.563  -24.083  -23.823  -23.712  -23.667  -23.637  -23.607  -23.574  -23.550  -23.535  -23.524  -23.497  -23.404  -23.172  -22.695  -21.879  -20.688  -19.163  -17.427  -15.633  -13.948  -12.491  -11.359  -10.601  -10.291  -10.476  -11.128  -12.110  -13.170  -14.040  -14.502  -14.423  -13.778  -12.675  -11.343  -10.066   -9.067   -8.448   -8.183   -8.144   -8.179   -8.172   -8.120   -8.086   -8.119   -8.204   -8.279   -8.303   -8.280   -8.247   -8.223   -8.207   -8.179   -8.141   -8.110   -8.107   -8.134   -8.161   -8.171   -8.157   -8.133   -8.118   -8.118   -8.132   -8.147   -8.171   -8.201   -8.238   -8.258   -8.258   -8.250   -8.259   -8.300   -8.367   -8.433   -8.460   -8.432   -8.378   -8.383   -8.627   -9.377  -10.941  -13.463  -16.758  -20.327  -23.595  -26.150  -27.857  -28.812  -29.236  -29.338  -29.155
 -33.654  -33.560  -33.503  -33.132  -32.258  -30.861  -29.126  -27.376  -25.937  -24.977  -24.457  -24.236  -24.158  -24.123  -24.097  -24.075  -24.057  -24.046  -24.035  -24.003  -23.902  -23.653  -23.152  -22.306  -21.072  -19.496  -17.696  -15.834  -14.088  -12.598  -11.471  -10.772  -10.557  -10.839  -11.569  -12.586  -13.640  -14.469  -14.873  -14.727  -14.014  -12.840  -11.434  -10.073   -9.002   -8.344   -8.079   -8.073   -8.150   -8.184   -8.160   -8.136   -8.164   -8.228   -8.272   -8.269   -8.239   -8.209   -8.201   -8.200   -8.184   -8.149   -8.114   -8.104   -8.129   -8.167   -8.188   -8.172   -8.139   -8.121   -8.129   -8.157   -8.189   -8.212   -8.234   -8.245   -8.237   -8.226   -8.235   -8.288   -8.380   -8.487   -8.560   -8.567   -8.501   -8.405   -8.378   -8.613   -9.411  -11.091  -13.797  -17.316  -21.107  -24.566  -27.265  -29.061  -30.062  -30.503  -30.604  -30.397
 -41.438  -41.468  -41.264  -40.428  -38.723  -36.168  -33.087  -30.021  -27.511  -25.838  -24.936  -24.551  -24.419  -24.377  -24.358  -24.344  -24.335  -24.330  -24.322  -24.289  -24.179  -23.914  -23.383  -22.494  -21.210  -19.574  -17.712  -15.799  -14.028  -12.565  -11.528  -10.969  -10.911  -11.321  -12.107  -13.097  -14.072  -14.797  -15.098  -14.870  -14.100  -12.893  -11.461  -10.083   -8.993   -8.328   -8.076   -8.092   -8.198   -8.251   -8.230   -8.195   -8.199   -8.228   -8.240   -8.224   -8.197   -8.175   -8.172   -8.171   -8.153   -8.112   -8.075   -8.083   -8.132   -8.200   -8.239   -8.232   -8.194   -8.178   -8.200   -8.247   -8.288   -8.304   -8.292   -8.246   -8.185   -8.148   -8.170   -8.262   -8.402   -8.536   -8.613   -8.605   -8.521   -8.412   -8.385   -8.636   -9.466  -11.203  -13.990  -17.596  -21.468  -24.990  -27.733  -29.550  -30.552  -30.979  -31.068  -30.853
 -51.280  -51.408  -50.836  -49.241  -46.402  -42.401  -37.691  -33.039  -29.234  -26.700  -25.341  -24.759  -24.562  -24.507  -24.491  -24.482  -24.475  -24.469  -24.462  -24.429  -24.316  -24.036  -23.479  -22.546  -21.199  -19.494  -17.576  -15.637  -13.888  -12.513  -11.630  -11.271  -11.407  -11.945  -12.757  -13.676  -14.521  -15.104  -15.284  -14.974  -14.161  -12.947  -11.528  -10.162   -9.078   -8.409   -8.146   -8.149   -8.241   -8.289   -8.270   -8.230   -8.220   -8.236   -8.243   -8.229   -8.198   -8.168   -8.141   -8.114   -8.074   -8.022   -7.992   -8.021   -8.107   -8.210   -8.274   -8.274   -8.240   -8.222   -8.245   -8.300   -8.349   -8.359   -8.318   -8.225   -8.118   -8.055   -8.078   -8.191   -8.350   -8.487   -8.559   -8.550   -8.471   -8.385   -8.387   -8.669   -9.520  -11.265  -14.030  -17.599  -21.432  -24.913  -27.614  -29.395  -30.364  -30.767  -30.841  -30.625
 -61.661  -61.789  -60.647  -58.071  -53.936  -48.419  -42.092  -35.893  -30.836  -27.478  -25.685  -24.923  -24.665  -24.597  -24.578  -24.565  -24.549  -24.533  -24.516  -24.482  -24.377  -24.098  -23.521  -22.546  -21.137  -19.368  -17.405  -15.473  -13.797  -12.558  -11.867  -11.728  -12.046  -12.674  -13.464  -14.276  -14.969  -15.409  -15.481  -15.112  -14.290  -13.092  -11.700  -10.353   -9.267   -8.572   -8.257   -8.194   -8.231   -8.253   -8.236   -8.224   -8.244   -8.286   -8.316   -8.306   -8.249   -8.175   -8.105   -8.045   -7.984   -7.924   -7.896   -7.934   -8.041   -8.167   -8.249   -8.251   -8.212   -8.182   -8.197   -8.251   -8.311   -8.337   -8.301   -8.200   -8.077   -7.991   -7.996   -8.090   -8.228   -8.346   -8.406   -8.399   -8.351   -8.306   -8.357   -8.673   -9.525  -11.216  -13.874  -17.300  -20.977  -24.318  -26.906  -28.605  -29.521  -29.893  -29.956  -29.759
 -71.053  -71.014  -69.169  -65.457  -59.947  -52.996  -45.292  -37.888  -31.923  -28.004  -25.930  -25.052  -24.759  -24.683  -24.662  -24.637  -24.603  -24.570  -24.547  -24.523  -24.438  -24.174  -23.590  -22.573  -21.106  -19.280  -17.299  -15.413  -13.851  -12.793  -12.303  -12.352  -12.790  -13.444  -14.161  -14.830  -15.357  -15.659  -15.648  -15.252  -14.449  -13.292  -11.940  -10.612   -9.522   -8.780   -8.377   -8.209   -8.159   -8.147   -8.152   -8.194   -8.279   -8.373   -8.422   -8.390   -8.291   -8.177   -8.078   -8.008   -7.947   -7.884   -7.850   -7.880   -7.975   -8.094   -8.168   -8.164   -8.111   -8.064   -8.066   -8.124   -8.211   -8.282   -8.294   -8.225   -8.106   -8.005   -7.967   -8.005   -8.082   -8.157   -8.196   -8.198   -8.182   -8.189   -8.288   -8.626   -9.442  -11.010  -13.465  -16.634  -20.045  -23.148  -25.550  -27.125  -27.969  -28.309  -28.365  -28.200
 -78.692  -78.207  -75.424  -70.391  -63.483  -55.267  -46.551  -38.476  -32.170  -28.121  -26.010  -25.129  -24.842  -24.778  -24.766  -24.745  -24.710  -24.679  -24.672  -24.682  -24.643  -24.406  -23.809  -22.735  -21.186  -19.303  -17.323  -15.520  -14.112  -13.242  -12.935  -13.112  -13.599  -14.216  -14.816  -15.315  -15.666  -15.817  -15.714  -15.293  -14.518  -13.415  -12.115  -10.819   -9.726   -8.944   -8.460   -8.199   -8.075   -8.039   -8.075   -8.177   -8.324   -8.447   -8.487   -8.419   -8.287   -8.167   -8.101   -8.078   -8.046   -7.985   -7.932   -7.928   -7.983   -8.062   -8.104   -8.078   -8.005   -7.948   -7.948   -8.023   -8.153   -8.286   -8.357   -8.326   -8.215   -8.087   -8.002   -7.976   -7.991   -8.016   -8.024   -8.029   -8.034   -8.075   -8.198   -8.521   -9.248  -10.621  -12.771  -15.559  -18.581  -21.339  -23.481  -24.884  -25.632  -25.932  -25.985  -25.869
 -83.932  -82.659  -78.634  -72.224  -64.085  -54.885  -45.604  -37.491  -31.485  -27.776  -25.888  -25.122  -24.905  -24.908  -24.973  -25.029  -25.066  -25.107  -25.186  -25.291  -25.326  -25.106  -24.441  -23.222  -21.509  -19.506  -17.503  -15.786  -14.550  -13.865  -13.706  -13.953  -14.434  -14.975  -15.443  -15.775  -15.937  -15.915  -15.686  -15.203  -14.431  -13.370  -12.127  -10.878   -9.802   -9.005   -8.488   -8.181   -8.027   -7.995   -8.071   -8.222   -8.390   -8.500   -8.494   -8.382   -8.252   -8.192   -8.228   -8.297   -8.322   -8.279   -8.206   -8.157   -8.156   -8.176   -8.167   -8.106   -8.021   -7.965   -7.981   -8.071   -8.223   -8.390   -8.488   -8.468   -8.354   -8.206   -8.093   -8.032   -8.007   -7.996   -7.984   -7.971   -7.971   -8.008   -8.111   -8.379   -8.966  -10.079  -11.828  -14.118  -16.615  -18.916  -20.711  -21.890  -22.512  -22.752  -22.793  -22.742
 -85.539  -83.455  -78.302  -70.870  -61.854  -52.032  -42.725  -35.220  -30.067  -27.054  -25.584  -25.043  -25.001  -25.210  -25.523  -25.851  -26.161  -26.463  -26.780  -27.069  -27.188  -26.894  -25.978  -24.386  -22.278  -19.984  -17.864  -16.187  -15.086  -14.557  -14.507  -14.782  -15.224  -15.682  -16.042  -16.231  -16.227  -16.030  -15.648  -15.069  -14.264  -13.232  -12.040  -10.843   -9.799   -9.014   -8.504   -8.217   -8.095   -8.110   -8.224   -8.388   -8.530   -8.579   -8.507   -8.369   -8.280   -8.333   -8.508   -8.698   -8.794   -8.771   -8.682   -8.592   -8.535   -8.495   -8.437   -8.352   -8.269   -8.225   -8.246   -8.324   -8.442   -8.566   -8.629   -8.592   -8.475   -8.338   -8.231   -8.175   -8.147   -8.124   -8.095   -8.061   -8.042   -8.040   -8.093   -8.270   -8.682   -9.489  -10.771  -12.464  -14.327  -16.059  -17.419  -18.302  -18.755  -18.909  -18.919  -18.940
 -82.742  -80.286  -74.679  -66.785  -57.287  -47.351  -38.662  -32.303  -28.309  -26.125  -25.150  -24.944  -25.263  -25.965  -26.903  -27.928  -28.927  -29.847  -30.645  -31.214  -31.326  -30.695  -29.138  -26.716  -23.789  -20.875  -18.424  -16.675  -15.643  -15.216  -15.226  -15.494  -15.881  -16.259  -16.532  -16.628  -16.515  -16.194  -15.691  -15.026  -14.189  -13.174  -12.032  -10.885   -9.876   -9.121   -8.653   -8.430   -8.387   -8.468   -8.609   -8.748   -8.823   -8.790   -8.658   -8.513   -8.491   -8.668   -8.981   -9.281   -9.439   -9.441   -9.344   -9.233   -9.135   -9.055   -8.971   -8.890   -8.821   -8.784   -8.773   -8.781   -8.804   -8.826   -8.819   -8.764   -8.667   -8.571   -8.504   -8.478   -8.465   -8.444   -8.413   -8.360   -8.311   -8.272   -8.264   -8.345   -8.585   -9.072   -9.858  -10.901  -12.060  -13.133  -13.966  -14.488  -14.722  -14.756  -14.717  -14.791
 -76.503  -74.063  -68.548  -60.611  -51.169  -41.871  -34.421  -29.454  -26.582  -25.127  -24.619  -24.872  -25.864  -27.565  -29.778  -32.191  -34.505  -36.506  -38.032  -38.866  -38.718  -37.300  -34.517  -30.633  -26.287  -22.280  -19.196  -17.205  -16.153  -15.767  -15.786  -16.016  -16.323  -16.613  -16.813  -16.860  -16.712  -16.364  -15.841  -15.161  -14.329  -13.348  -12.262  -11.174  -10.219   -9.518   -9.113   -8.976   -9.020   -9.150   -9.287   -9.363   -9.351   -9.239   -9.065   -8.938   -8.985   -9.257   -9.666  -10.036  -10.244  -10.277  -10.202  -10.094   -9.993   -9.909   -9.834   -9.778   -9.729   -9.678   -9.612   -9.521   -9.427   -9.351   -9.289   -9.239   -9.189   -9.146   -9.123   -9.116   -9.115   -9.102   -9.069   -9.012   -8.939   -8.869   -8.826   -8.835   -8.924   -9.121   -9.434   -9.837  -10.266  -10.636  -10.887  -10.987  -10.946  -10.817  -10.699  -10.804
 -68.564  -66.105  -60.848  -53.328  -44.749  -36.842  -30.918  -27.182  -25.097  -24.101  -23.970  -24.831  -26.934  -30.318  -34.610  -39.149  -43.303  -46.647  -48.899  -49.797  -49.051  -46.426  -41.934  -36.038  -29.713  -24.139  -20.111  -17.720  -16.567  -16.173  -16.170  -16.334  -16.543  -16.728  -16.850  -16.874  -16.761  -16.496  -16.067  -15.471  -14.711  -13.799  -12.790  -11.787  -10.924  -10.311   -9.992   -9.931  -10.032  -10.169  -10.260  -10.256  -10.158   -9.987   -9.807   -9.710   -9.808  -10.128  -10.583  -10.996  -11.254  -11.340  -11.318  -11.254  -11.191  -11.137  -11.102  -11.085  -11.062  -10.998  -10.879  -10.720  -10.564  -10.442  -10.380  -10.356  -10.349  -10.343  -10.334  -10.325  -10.323  -10.315  -10.285  -10.226  -10.140  -10.060  -10.006   -9.979   -9.960   -9.912   -9.805   -9.625   -9.369   -9.055   -8.709   -8.343   -7.973   -7.637   -7.403   -7.503
 -60.426  -57.958  -53.294  -46.872  -39.829  -33.529  -28.826  -25.763  -23.931  -23.026  -23.145  -24.775  -28.454  -34.183  -41.141  -48.099  -54.063  -58.497  -61.153  -61.844  -60.331  -56.406  -50.129  -42.080  -33.529  -26.129  -20.989  -18.121  -16.843  -16.432  -16.401  -16.499  -16.607  -16.685  -16.731  -16.743  -16.699  -16.566  -16.302  -15.859  -15.227  -14.431  -13.542  -12.671  -11.945  -11.448  -11.216  -11.210  -11.317  -11.422  -11.442  -11.363  -11.205  -11.012  -10.847  -10.790  -10.922  -11.275  -11.762  -12.226  -12.557  -12.731  -12.800  -12.814  -12.812  -12.817  -12.835  -12.860  -12.860  -12.800  -12.679  -12.520  -12.379  -12.283  -12.254  -12.266  -12.280  -12.277  -12.259  -12.237  -12.227  -12.231  -12.209  -12.147  -12.054  -11.970  -11.919  -11.872  -11.772  -11.532  -11.090  -10.428   -9.600   -8.689   -7.774   -6.930   -6.193   -5.616   -5.240   -5.305
 -54.808  -52.665  -49.000  -43.966  -38.316  -32.981  -28.614  -25.383  -23.159  -21.931  -22.135  -24.637  -30.211  -38.593  -48.210  -57.206  -64.450  -69.527  -72.326  -72.714  -70.427  -65.282  -57.434  -47.495  -36.890  -27.751  -21.572  -18.304  -16.958  -16.562  -16.527  -16.579  -16.609  -16.602  -16.583  -16.579  -16.589  -16.575  -16.464  -16.186  -15.711  -15.071  -14.345  -13.643  -13.071  -12.697  -12.534  -12.542  -12.620  -12.674  -12.637  -12.511  -12.338  -12.160  -12.038  -12.032  -12.217  -12.622  -13.174  -13.735  -14.186  -14.489  -14.671  -14.777  -14.846  -14.902  -14.958  -15.012  -15.038  -15.004  -14.923  -14.825  -14.751  -14.724  -14.738  -14.772  -14.791  -14.777  -14.742  -14.720  -14.728  -14.756  -14.748  -14.686  -14.585  -14.494  -14.435  -14.370  -14.203  -13.824  -13.144  -12.149  -10.908   -9.536   -8.161   -6.885   -5.797   -4.960   -4.437   -4.447
 -54.750  -53.177  -50.335  -46.129  -40.942  -35.455  -30.360  -26.102  -22.877  -20.950  -21.044  -24.361  -31.803  -42.593  -54.276  -64.640  -72.794  -78.484  -81.507  -81.551  -78.283  -71.794  -62.579  -51.195  -39.011  -28.552  -21.668  -18.219  -16.918  -16.594  -16.589  -16.625  -16.616  -16.562  -16.500  -16.476  -16.498  -16.535  -16.509  -16.349  -16.019  -15.548  -15.004  -14.478  -14.052  -13.775  -13.649  -13.642  -13.676  -13.683  -13.616  -13.487  -13.333  -13.206  -13.147  -13.220  -13.498  -14.010  -14.690  -15.410  -16.029  -16.479  -16.777  -16.960  -17.075  -17.159  -17.229  -17.288  -17.322  -17.321  -17.293  -17.267  -17.269  -17.307  -17.360  -17.412  -17.437  -17.425  -17.402  -17.406  -17.458  -17.523  -17.536  -17.477  -17.368  -17.267  -17.195  -17.108  -16.893  -16.426  -15.619  -14.458  -13.005  -11.375   -9.703   -8.127   -6.767   -5.730   -5.086   -5.046
 -59.527  -58.480  -55.929  -51.777  -46.223  -39.824  -33.374  -27.615  -23.059  -20.219  -20.029  -23.909  -32.736  -45.174  -58.087  -69.274  -78.243  -84.672  -87.932  -87.414  -82.919  -75.105  -64.853  -52.538  -39.416  -28.308  -21.239  -17.902  -16.780  -16.580  -16.627  -16.670  -16.648  -16.581  -16.502  -16.459  -16.459  -16.483  -16.471  -16.364  -16.140  -15.811  -15.429  -15.057  -14.748  -14.534  -14.420  -14.384  -14.374  -14.347  -14.274  -14.169  -14.061  -13.995  -14.013  -14.182  -14.588  -15.256  -16.116  -17.025  -17.825  -18.423  -18.815  -19.049  -19.182  -19.264  -19.324  -19.370  -19.399  -19.410  -19.419  -19.442  -19.492  -19.568  -19.649  -19.717  -19.758  -19.772  -19.787  -19.836  -19.935  -20.038  -20.080  -20.034  -19.930  -19.830  -19.752  -19.651  -19.413  -18.927  -18.110  -16.948  -15.484  -13.828  -12.094  -10.422   -8.950   -7.820   -7.113   -7.024
 -65.527  -64.788  -62.155  -57.647  -51.446  -44.056  -36.314  -29.178  -23.430  -19.769  -19.216  -23.223  -32.559  -45.586  -58.896  -70.347  -79.611  -86.241  -89.334  -88.224  -82.982  -74.605  -63.958  -51.272  -37.972  -27.051  -20.398  -17.463  -16.615  -16.556  -16.656  -16.716  -16.700  -16.634  -16.559  -16.507  -16.481  -16.464  -16.427  -16.332  -16.165  -15.940  -15.679  -15.421  -15.197  -15.028  -14.918  -14.854  -14.812  -14.763  -14.694  -14.618  -14.554  -14.540  -14.631  -14.901  -15.433  -16.259  -17.298  -18.390  -19.351  -20.068  -20.531  -20.789  -20.920  -20.984  -21.022  -21.045  -21.061  -21.071  -21.090  -21.127  -21.189  -21.271  -21.356  -21.434  -21.495  -21.539  -21.590  -21.679  -21.809  -21.936  -21.998  -21.972  -21.890  -21.808  -21.744  -21.646  -21.426  -20.989  -20.270  -19.256  -17.985  -16.528  -14.978  -13.440  -12.055  -10.962  -10.267  -10.141
 -69.979  -69.273  -66.352  -61.355  -54.556  -46.462  -37.921  -29.992  -23.599  -19.491  -18.616  -22.256  -31.047  -43.495  -56.390  -67.453  -76.114  -82.021  -84.542  -83.246  -78.278  -70.331  -59.904  -47.446  -34.849  -25.000  -19.315  -16.997  -16.464  -16.533  -16.678  -16.746  -16.737  -16.684  -16.623  -16.569  -16.527  -16.484  -16.425  -16.331  -16.201  -16.041  -15.868  -15.692  -15.534  -15.402  -15.303  -15.229  -15.169  -15.110  -15.050  -14.991  -14.955  -14.981  -15.121  -15.466  -16.095  -17.038  -18.208  -19.426  -20.499  -21.299  -21.808  -22.079  -22.201  -22.249  -22.265  -22.271  -22.272  -22.273  -22.284  -22.308  -22.353  -22.418  -22.491  -22.562  -22.627  -22.686  -22.755  -22.852  -22.981  -23.101  -23.165  -23.158  -23.105  -23.054  -23.014  -22.947  -22.783  -22.452  -21.921  -21.188  -20.288  -19.250  -18.112  -16.923  -15.782  -14.830  -14.192  -14.032
 -71.321  -70.480  -67.268  -61.915  -54.767  -46.376  -37.645  -29.662  -23.309  -19.228  -18.144  -21.005  -28.331  -39.079  -50.691  -60.862  -68.582  -73.537  -75.514  -74.348  -70.043  -62.799  -52.947  -41.449  -30.500  -22.469  -18.128  -16.540  -16.310  -16.481  -16.647  -16.716  -16.710  -16.673  -16.627  -16.581  -16.540  -16.496  -16.438  -16.359  -16.261  -16.154  -16.048  -15.940  -15.841  -15.753  -15.678  -15.611  -15.551  -15.495  -15.439  -15.393  -15.373  -15.414  -15.579  -15.959  -16.635  -17.632  -18.862  -20.143  -21.275  -22.123  -22.660  -22.944  -23.067  -23.107  -23.113  -23.109  -23.099  -23.092  -23.090  -23.094  -23.113  -23.149  -23.197  -23.252  -23.304  -23.353  -23.410  -23.482  -23.576  -23.659  -23.706  -23.702  -23.674  -23.647  -23.634  -23.609  -23.530  -23.362  -23.109  -22.798  -22.454  -22.061  -21.550  -20.878  -20.084  -19.316  -18.740  -18.545
 -69.434  -68.420  -65.055  -59.591  -52.404  -44.142  -35.789  -28.362  -22.569  -18.845  -17.633  -19.515  -24.853  -33.074  -42.495  -51.212  -57.985  -62.301  -63.985  -62.939  -59.089  -52.526  -43.770  -34.134  -25.618  -19.806  -16.915  -16.034  -16.066  -16.305  -16.476  -16.543  -16.547  -16.525  -16.497  -16.470  -16.443  -16.417  -16.383  -16.336  -16.280  -16.226  -16.178  -16.134  -16.090  -16.049  -16.005  -15.966  -15.922  -15.876  -15.834  -15.796  -15.785  -15.831  -15.997  -16.374  -17.048  -18.039  -19.267  -20.556  -21.707  -22.582  -23.149  -23.457  -23.597  -23.645  -23.653  -23.646  -23.634  -23.621  -23.606  -23.596  -23.592  -23.602  -23.626  -23.660  -23.694  -23.723  -23.751  -23.784  -23.825  -23.858  -23.872  -23.858  -23.837  -23.827  -23.834  -23.856  -23.887  -23.943  -24.082  -24.373  -24.831  -25.345  -25.696  -25.695  -25.318  -24.742  -24.210  -23.945
 -65.466  -64.276  -60.877  -55.504  -48.575  -40.830  -33.235  -26.647  -21.567  -18.245  -16.894  -17.794  -21.127  -26.595  -33.238  -39.783  -45.161  -48.735  -50.169  -49.283  -46.025  -40.616  -33.756  -26.705  -20.910  -17.258  -15.658  -15.364  -15.588  -15.863  -16.036  -16.105  -16.121  -16.118  -16.117  -16.121  -16.135  -16.149  -16.157  -16.158  -16.156  -16.160  -16.169  -16.180  -16.190  -16.191  -16.191  -16.186  -16.176  -16.160  -16.141  -16.117  -16.106  -16.145  -16.293  -16.636  -17.265  -18.201  -19.386  -20.649  -21.802  -22.706  -23.316  -23.672  -23.852  -23.931  -23.953  -23.950  -23.937  -23.921  -23.902  -23.885  -23.869  -23.868  -23.875  -23.893  -23.909  -23.923  -23.929  -23.930  -23.929  -23.919  -23.901  -23.872  -23.849  -23.843  -23.870  -23.948  -24.119  -24.478  -25.162  -26.288  -27.833  -29.541  -30.983  -31.806  -31.934  -31.591  -31.107  -30.711
 -60.675  -59.370  -56.084  -51.031  -44.650  -37.663  -30.910  -25.067  -20.507  -17.395  -15.819  -15.870  -17.563  -20.679  -24.675  -28.796  -32.337  -34.788  -35.806  -35.177  -32.868  -29.133  -24.605  -20.208  -16.836  -14.919  -14.284  -14.389  -14.725  -15.013  -15.184  -15.262  -15.297  -15.322  -15.355  -15.404  -15.475  -15.556  -15.633  -15.707  -15.777  -15.852  -15.927  -15.994  -16.047  -16.093  -16.136  -16.183  -16.225  -16.258  -16.275  -16.271  -16.260  -16.277  -16.379  -16.661  -17.202  -18.052  -19.161  -20.383  -21.537  -22.484  -23.164  -23.601  -23.851  -23.979  -24.028  -24.039  -24.029  -24.012  -23.995  -23.980  -23.966  -23.963  -23.969  -23.979  -23.993  -24.005  -24.011  -24.003  -23.984  -23.955  -23.924  -23.895  -23.875  -23.875  -23.921  -24.065  -24.415  -25.154  -26.513  -28.654  -31.480  -34.536  -37.175  -38.913  -39.658  -39.673  -39.320  -38.752
 -56.080  -54.783  -51.771  -47.230  -41.557  -35.353  -29.288  -23.913  -19.566  -16.412  -14.522  -13.895  -14.441  -15.924  -17.979  -20.147  -22.024  -23.321  -23.827  -23.408  -22.041  -19.912  -17.423  -15.129  -13.510  -12.756  -12.710  -13.026  -13.403  -13.684  -13.853  -13.944  -13.999  -14.049  -14.116  -14.217  -14.361  -14.533  -14.711  -14.884  -15.054  -15.219  -15.369  -15.494  -15.596  -15.681  -15.777  -15.884  -15.995  -16.095  -16.161  -16.180  -16.165  -16.145  -16.183  -16.367  -16.798  -17.530  -18.540  -19.707  -20.864  -21.867  -22.644  -23.186  -23.532  -23.728  -23.818  -23.845  -23.844  -23.833  -23.823  -23.821  -23.825  -23.838  -23.859  -23.888  -23.925  -23.962  -23.993  -24.009  -24.007  -23.994  -23.976  -23.963  -23.957  -23.972  -24.042  -24.257  -24.791  -25.912  -27.941  -31.065  -35.084  -39.353  -43.065  -45.685  -47.127  -47.652  -47.575  -46.862
 -52.229  -51.035  -48.368  -44.386  -39.408  -33.891  -28.351  -23.249  -18.926  -15.602  -13.377  -12.234  -12.037  -12.542  -13.427  -14.372  -15.141  -15.600  -15.675  -15.332  -14.586  -13.543  -12.401  -11.431  -10.850  -10.732  -10.963  -11.341  -11.701  -11.965  -12.141  -12.250  -12.315  -12.364  -12.437  -12.576  -12.792  -13.061  -13.356  -13.649  -13.938  -14.208  -14.444  -14.631  -14.776  -14.903  -15.048  -15.220  -15.407  -15.577  -15.698  -15.746  -15.726  -15.661  -15.618  -15.691  -15.992  -16.589  -17.484  -18.578  -19.724  -20.781  -21.650  -22.303  -22.750  -23.017  -23.152  -23.201  -23.213  -23.214  -23.227  -23.256  -23.300  -23.355  -23.428  -23.514  -23.617  -23.724  -23.823  -23.904  -23.961  -23.994  -24.016  -24.032  -24.052  -24.085  -24.179  -24.447  -25.104  -26.485  -28.959  -32.733  -37.540  -42.623  -47.117  -50.482  -52.628  -53.767  -54.091  -53.356
 -49.098  -48.024  -45.676  -42.192  -37.823  -32.916  -27.861  -23.037  -18.778  -15.338  -12.861  -11.352  -10.682  -10.600  -10.818  -11.080  -11.224  -11.190  -10.974  -10.610  -10.147   -9.636   -9.169   -8.843   -8.743   -8.884   -9.182   -9.533   -9.861  -10.131  -10.332  -10.461  -10.508  -10.510  -10.537  -10.661  -10.910  -11.257  -11.654  -12.058  -12.459  -12.828  -13.142  -13.383  -13.561  -13.712  -13.889  -14.108  -14.354  -14.586  -14.762  -14.842  -14.825  -14.720  -14.603  -14.566  -14.737  -15.198  -15.967  -16.969  -18.072  -19.141  -20.066  -20.796  -21.310  -21.629  -21.798  -21.872  -21.900  -21.931  -21.986  -22.070  -22.180  -22.319  -22.492  -22.691  -22.922  -23.163  -23.398  -23.603  -23.768  -23.887  -23.972  -24.032  -24.079  -24.127  -24.229  -24.504  -25.174  -26.579  -29.108  -32.993  -37.990  -43.361  -48.257  -52.152  -54.936  -56.726  -57.549  -56.978
 -46.414  -45.427  -43.330  -40.256  -36.425  -32.112  -27.608  -23.219  -19.223  -15.867  -13.309  -11.588  -10.591  -10.109   -9.891   -9.733   -9.506   -9.177   -8.762   -8.304   -7.858   -7.480   -7.212   -7.085   -7.117   -7.288   -7.555   -7.871   -8.203   -8.523   -8.787   -8.939   -8.944   -8.841   -8.749   -8.784   -8.996   -9.356   -9.800  -10.268  -10.731  -11.155  -11.512  -11.775  -11.959  -12.111  -12.288  -12.517  -12.782  -13.049  -13.261  -13.375  -13.370  -13.246  -13.075  -12.958  -13.021  -13.362  -14.000  -14.885  -15.899  -16.911  -17.814  -18.542  -19.067  -19.395  -19.573  -19.661  -19.720  -19.794  -19.907  -20.069  -20.282  -20.550  -20.874  -21.257  -21.689  -22.143  -22.590  -22.992  -23.318  -23.566  -23.737  -23.851  -23.924  -23.984  -24.075  -24.304  -24.861  -26.052  -28.237  -31.668  -36.225  -41.309  -46.169  -50.295  -53.543  -55.916  -57.270  -57.029
 -43.997  -43.059  -41.151  -38.416  -35.071  -31.354  -27.485  -23.683  -20.161  -17.111  -14.672  -12.882  -11.666  -10.869  -10.307   -9.825   -9.328   -8.771   -8.169   -7.546   -6.961   -6.472   -6.130   -5.947   -5.926   -6.035   -6.244   -6.546   -6.930   -7.349   -7.718   -7.916   -7.871   -7.640   -7.383   -7.265   -7.370   -7.663   -8.073   -8.521   -8.966   -9.376   -9.709   -9.939  -10.090  -10.210  -10.351  -10.542  -10.782  -11.038  -11.257  -11.392  -11.397  -11.273  -11.079  -10.913  -10.901  -11.140  -11.650  -12.389  -13.254  -14.134  -14.930  -15.576  -16.036  -16.324  -16.487  -16.583  -16.673  -16.797  -16.982  -17.239  -17.574  -17.998  -18.517  -19.135  -19.827  -20.564  -21.291  -21.946  -22.482  -22.884  -23.160  -23.329  -23.429  -23.490  -23.552  -23.699  -24.076  -24.910  -26.497  -29.092  -32.701  -36.962  -41.307  -45.297  -48.743  -51.522  -53.323  -53.495
 -41.828  -40.919  -39.153  -36.694  -33.778  -30.621  -27.395  -24.240  -21.293  -18.680  -16.492  -14.753  -13.415  -12.380  -11.530  -10.769  -10.025   -9.259   -8.459   -7.641   -6.850   -6.160   -5.636   -5.301   -5.156   -5.174   -5.332   -5.638   -6.084   -6.617   -7.096   -7.359   -7.305   -6.986   -6.593   -6.328   -6.296   -6.472   -6.776   -7.126   -7.467   -7.767   -8.000   -8.145   -8.226   -8.283   -8.360   -8.481   -8.653   -8.851   -9.032   -9.150   -9.151   -9.027   -8.826   -8.642   -8.579   -8.727   -9.104   -9.671  -10.344  -11.037  -11.661  -12.161  -12.512  -12.725  -12.854  -12.949  -13.064  -13.234  -13.485  -13.828  -14.283  -14.862  -15.576  -16.428  -17.391  -18.419  -19.440  -20.363  -21.120  -21.675  -22.045  -22.262  -22.379  -22.431  -22.456  -22.513  -22.699  -23.170  -24.133  -25.796  -28.244  -31.330  -34.732  -38.160  -41.435  -44.329  -46.397  -46.975
 -39.867  -38.988  -37.332  -35.097  -32.534  -29.856  -27.194  -24.632  -22.237  -20.068  -18.169  -16.543  -15.158  -13.961  -12.881  -11.874  -10.903   -9.945   -8.977   -7.997   -7.049   -6.200   -5.524   -5.070   -4.826   -4.763   -4.872   -5.162   -5.633   -6.223   -6.775   -7.099   -7.083   -6.775   -6.354   -6.021   -5.889   -5.946   -6.116   -6.322   -6.513   -6.656   -6.738   -6.763   -6.752   -6.739   -6.738   -6.777   -6.851   -6.957   -7.060   -7.123   -7.096   -6.967   -6.767   -6.561   -6.448   -6.497   -6.730   -7.117   -7.596   -8.091   -8.531   -8.871   -9.095   -9.227   -9.308   -9.392   -9.514   -9.706   -9.990  -10.383  -10.912  -11.597  -12.443  -13.450  -14.597  -15.837  -17.077  -18.202  -19.118  -19.779  -20.205  -20.448  -20.564  -20.594  -20.574  -20.548  -20.583  -20.770  -21.242  -22.136  -23.542  -25.440  -27.712  -30.240  -32.925  -35.523  -37.545  -38.398
 -37.900  -37.056  -35.499  -33.452  -31.181  -28.891  -26.683  -24.597  -22.651  -20.857  -19.218  -17.719  -16.336  -15.033  -13.787  -12.582  -11.427  -10.321   -9.258   -8.230   -7.257   -6.402   -5.727   -5.264   -5.000   -4.911   -4.988   -5.238   -5.663   -6.210   -6.734   -7.071   -7.118   -6.890   -6.544   -6.245   -6.089   -6.075   -6.145   -6.226   -6.275   -6.272   -6.208   -6.116   -6.015   -5.937   -5.877   -5.836   -5.822   -5.826   -5.836   -5.830   -5.767   -5.624   -5.414   -5.188   -5.011   -4.950   -5.047   -5.283   -5.606   -5.953   -6.255   -6.469   -6.590   -6.647   -6.677   -6.724   -6.819   -6.983   -7.243   -7.622   -8.149   -8.836   -9.684  -10.691  -11.846  -13.106  -14.376  -15.535  -16.469  -17.130  -17.544  -17.775  -17.873  -17.874  -17.807  -17.711  -17.643  -17.658  -17.827  -18.215  -18.884  -19.860  -21.135  -22.715  -24.583  -26.552  -28.200  -29.105
 -35.568  -34.756  -33.317  -31.461  -29.457  -27.488  -25.639  -23.920  -22.318  -20.814  -19.390  -18.020  -16.680  -15.346  -14.013  -12.711  -11.469  -10.326   -9.299   -8.381   -7.576   -6.914   -6.417   -6.103   -5.953   -5.936   -6.041   -6.259   -6.592   -6.996   -7.383   -7.630   -7.665   -7.497   -7.234   -6.997   -6.855   -6.821   -6.834   -6.843   -6.802   -6.696   -6.531   -6.340   -6.170   -6.030   -5.914   -5.810   -5.717   -5.640   -5.585   -5.534   -5.452   -5.313   -5.114   -4.874   -4.641   -4.495   -4.488   -4.639   -4.896   -5.188   -5.427   -5.575   -5.633   -5.628   -5.602   -5.590   -5.611   -5.693   -5.867   -6.169   -6.613   -7.194   -7.892   -8.708   -9.642  -10.664  -11.699  -12.630  -13.363  -13.869  -14.181  -14.351  -14.410  -14.384  -14.285  -14.150  -14.030  -13.964  -13.986  -14.113  -14.365  -14.769  -15.374  -16.243  -17.397  -18.714  -19.879  -20.682
 -32.607  -31.820  -30.536  -28.914  -27.194  -25.528  -23.988  -22.569  -21.236  -19.965  -18.733  -17.513  -16.280  -15.033  -13.773  -12.549  -11.415  -10.440   -9.653   -9.055   -8.627   -8.354   -8.226   -8.235   -8.358   -8.557   -8.806   -9.075   -9.336   -9.565   -9.707   -9.718   -9.570   -9.297   -8.971   -8.684   -8.497   -8.407   -8.370   -8.326   -8.236   -8.064   -7.817   -7.532   -7.253   -7.003   -6.779   -6.573   -6.383   -6.225   -6.112   -6.046   -5.984   -5.894   -5.742   -5.527   -5.285   -5.105   -5.073   -5.219   -5.502   -5.817   -6.070   -6.206   -6.234   -6.192   -6.113   -6.029   -5.967   -5.950   -6.016   -6.210   -6.531   -6.945   -7.414   -7.919   -8.457   -9.014   -9.543   -9.978  -10.273  -10.445  -10.539  -10.587  -10.596  -10.546  -10.438  -10.302  -10.181  -10.116  -10.106  -10.145  -10.222  -10.373  -10.661  -11.173  -11.936  -12.852  -13.692  -14.383
 -29.110  -28.357  -27.285  -25.957  -24.559  -23.214  -21.972  -20.823  -19.742  -18.702  -17.691  -16.695  -15.709  -14.737  -13.797  -12.939  -12.229  -11.721  -11.456  -11.414  -11.560  -11.854  -12.265  -12.770  -13.340  -13.942  -14.510  -14.975  -15.270  -15.354  -15.199  -14.813  -14.242  -13.560  -12.877  -12.287  -11.848  -11.565  -11.391  -11.253  -11.084  -10.828  -10.457  -10.000   -9.500   -8.994   -8.503   -8.048   -7.638   -7.314   -7.090   -6.962   -6.900   -6.852   -6.758   -6.599   -6.401   -6.251   -6.253   -6.448   -6.788   -7.158   -7.438   -7.585   -7.610   -7.552   -7.446   -7.320   -7.199   -7.117   -7.123   -7.249   -7.480   -7.764   -8.031   -8.239   -8.374   -8.413   -8.332   -8.118   -7.820   -7.523   -7.303   -7.178   -7.102   -7.024   -6.925   -6.817   -6.738   -6.727   -6.772   -6.840   -6.921   -7.040   -7.279   -7.744   -8.442   -9.274  -10.018  -10.660
 -25.639  -24.951  -24.138  -23.153  -22.117  -21.124  -20.208  -19.365  -18.586  -17.855  -17.178  -16.567  -16.041  -15.622  -15.331  -15.209  -15.286  -15.589  -16.114  -16.840  -17.713  -18.696  -19.759  -20.890  -22.062  -23.228  -24.282  -25.103  -25.568  -25.595  -25.155  -24.279  -23.071  -21.684  -20.290  -19.052  -18.065  -17.356  -16.874  -16.517  -16.174  -15.737  -15.140  -14.378  -13.493  -12.532  -11.552  -10.608   -9.761   -9.062   -8.534   -8.183   -7.972   -7.839   -7.718   -7.559   -7.381   -7.250   -7.273   -7.485   -7.830   -8.194   -8.468   -8.603   -8.620   -8.555   -8.448   -8.323   -8.205   -8.130   -8.154   -8.292   -8.518   -8.760   -8.940   -9.001   -8.904   -8.600   -8.059   -7.309   -6.466   -5.707   -5.152   -4.811   -4.618   -4.489   -4.377   -4.293   -4.273   -4.338   -4.491   -4.681   -4.878   -5.098   -5.427   -5.982   -6.775   -7.680   -8.467   -9.092
 -22.945  -22.367  -21.830  -21.209  -20.564  -19.965  -19.447  -19.015  -18.666  -18.405  -18.257  -18.260  -18.463  -18.901  -19.599  -20.535  -21.680  -22.994  -24.438  -25.979  -27.587  -29.247  -30.962  -32.743  -34.565  -36.352  -37.962  -39.217  -39.947  -40.030  -39.412  -38.122  -36.279  -34.090  -31.812  -29.691  -27.912  -26.549  -25.557  -24.809  -24.144  -23.401  -22.472  -21.311  -19.935  -18.398  -16.776  -15.170  -13.664  -12.333  -11.227  -10.356   -9.692   -9.192   -8.784   -8.415   -8.075   -7.826   -7.735   -7.820   -8.035   -8.278   -8.450   -8.523   -8.506   -8.428   -8.330   -8.232   -8.155   -8.139   -8.223   -8.424   -8.703   -8.987   -9.205   -9.301   -9.219   -8.878   -8.223   -7.273   -6.175   -5.145   -4.350   -3.825   -3.491   -3.269   -3.109   -3.011   -3.023   -3.177   -3.472   -3.846   -4.218   -4.581   -5.004   -5.609   -6.435   -7.352   -8.136   -8.721
 -21.490  -21.043  -20.778  -20.523  -20.304  -20.170  -20.159  -20.277  -20.524  -20.910  -21.474  -22.280  -23.402  -24.885  -26.708  -28.791  -31.009  -33.255  -35.468  -37.635  -39.777  -41.936  -44.157  -46.471  -48.846  -51.171  -53.263  -54.909  -55.921  -56.164  -55.569  -54.147  -51.994  -49.312  -46.382  -43.518  -40.982  -38.919  -37.325  -36.071  -34.972  -33.838  -32.528  -30.969  -29.146  -27.102  -24.912  -22.668  -20.462  -18.372  -16.461  -14.770  -13.299  -12.036  -10.938   -9.967   -9.116   -8.431   -7.947   -7.667   -7.546   -7.502   -7.461   -7.393   -7.296   -7.190   -7.080   -6.991   -6.941   -6.972   -7.110   -7.359   -7.679   -8.012   -8.320   -8.560   -8.671   -8.567   -8.144   -7.388   -6.412   -5.425   -4.593   -3.980   -3.539   -3.205   -2.956   -2.811   -2.833   -3.074   -3.527   -4.100   -4.654   -5.121   -5.548   -6.058   -6.719   -7.458   -8.097   -8.574
 -21.397  -21.084  -21.079  -21.187  -21.425  -21.821  -22.396  -23.148  -24.065  -25.150  -26.452  -28.059  -30.056  -32.472  -35.247  -38.218  -41.195  -44.034  -46.681  -49.171  -51.587  -54.026  -56.571  -59.256  -62.032  -64.750  -67.198  -69.152  -70.427  -70.900  -70.506  -69.252  -67.217  -64.567  -61.543  -58.445  -55.557  -53.070  -51.027  -49.335  -47.822  -46.313  -44.664  -42.798  -40.689  -38.353  -35.837  -33.196  -30.483  -27.748  -25.040  -22.408  -19.900  -17.546  -15.360  -13.351  -11.555  -10.019   -8.771   -7.809   -7.098   -6.579   -6.193   -5.903   -5.670   -5.487   -5.333   -5.213   -5.150   -5.168   -5.285   -5.503   -5.796   -6.130   -6.488   -6.857   -7.194   -7.419   -7.405   -7.092   -6.518   -5.836   -5.184   -4.627   -4.149   -3.740   -3.416   -3.229   -3.262   -3.574   -4.148   -4.866   -5.539   -6.028   -6.347   -6.617   -6.951   -7.347   -7.705   -8.041
 -22.948  -22.758  -22.983  -23.423  -24.082  -24.972  -26.086  -27.398  -28.873  -30.507  -32.357  -34.517  -37.080  -40.059  -43.353  -46.765  -50.076  -53.145  -55.940  -58.537  -61.061  -63.649  -66.403  -69.361  -72.456  -75.519  -78.319  -80.618  -82.217  -82.983  -82.859  -81.875  -80.138  -77.813  -75.113  -72.276  -69.533  -67.053  -64.893  -62.997  -61.238  -59.477  -57.604  -55.555  -53.312  -50.878  -48.267  -45.489  -42.539  -39.415  -36.129  -32.712  -29.220  -25.727  -22.304  -19.030  -15.993  -13.271  -10.930   -8.990   -7.445   -6.258   -5.391   -4.782   -4.357   -4.061   -3.834   -3.656   -3.536   -3.483   -3.514   -3.641   -3.839   -4.102   -4.424   -4.821   -5.275   -5.732   -6.075   -6.204   -6.099   -5.829   -5.466   -5.073   -4.663   -4.264   -3.927   -3.739   -3.788   -4.127   -4.739   -5.490   -6.149   -6.559   -6.703   -6.695   -6.676   -6.706   -6.777   -6.974
 -26.742  -26.690  -27.075  -27.730  -28.660  -29.856  -31.289  -32.900  -34.647  -36.518  -38.571  -40.903  -43.597  -46.669  -50.011  -53.428  -56.716  -59.745  -62.501  -65.068  -67.594  -70.228  -73.089  -76.216  -79.553  -82.934  -86.128  -88.878  -90.945  -92.152  -92.433  -91.823  -90.461  -88.550  -86.306  -83.935  -81.602  -79.421  -77.421  -75.558  -73.742  -71.879  -69.897  -67.758  -65.455  -62.991  -60.364  -57.549  -54.507  -51.190  -47.567  -43.639  -39.447  -35.070  -30.616  -26.206  -21.973  -18.040  -14.509  -11.450   -8.908   -6.902   -5.424   -4.401   -3.723   -3.270   -2.946   -2.699   -2.513   -2.392   -2.343   -2.368   -2.466   -2.618   -2.846   -3.170   -3.599   -4.101   -4.596   -4.985   -5.215   -5.276   -5.202   -5.014   -4.735   -4.420   -4.144   -3.996   -4.057   -4.368   -4.906   -5.532   -6.050   -6.302   -6.268   -6.061   -5.821   -5.628   -5.531   -5.656
 -32.946  -33.095  -33.547  -34.250  -35.224  -36.458  -37.900  -39.489  -41.177  -42.952  -44.864  -46.999  -49.437  -52.195  -55.191  -58.264  -61.242  -64.015  -66.570  -68.985  -71.392  -73.932  -76.720  -79.796  -83.117  -86.541  -89.871  -92.877  -95.339  -97.089  -98.035  -98.172  -97.594  -96.441  -94.905  -93.173  -91.392  -89.643  -87.941  -86.241  -84.484  -82.604  -80.568  -78.363  -75.994  -73.472  -70.787  -67.905  -64.769  -61.313  -57.483  -53.257  -48.660  -43.762  -38.676  -33.532  -28.467  -23.612  -19.084  -14.994  -11.449   -8.559   -6.364   -4.817   -3.785   -3.109   -2.653   -2.329   -2.101   -1.953   -1.876   -1.856   -1.891   -1.960   -2.094   -2.308   -2.628   -3.049   -3.514   -3.952   -4.304   -4.534   -4.638   -4.613   -4.482   -4.283   -4.103   -4.005   -4.051   -4.268   -4.625   -5.017   -5.301   -5.365   -5.211   -4.948   -4.677   -4.482   -4.384   -4.522
 -40.452  -40.884  -41.364  -42.013  -42.879  -43.954  -45.195  -46.544  -47.958  -49.425  -50.986  -52.711  -54.668  -56.880  -59.298  -61.812  -64.298  -66.668  -68.908  -71.068  -73.245  -75.542  -78.046  -80.791  -83.738  -86.778  -89.763  -92.544  -95.011  -97.093  -98.745  -99.915 -100.571 -100.705 -100.363  -99.645  -98.667  -97.509  -96.210  -94.755  -93.108  -91.250  -89.168  -86.877  -84.399  -81.754  -78.940  -75.926  -72.653  -69.054  -65.075  -60.689  -55.916  -50.821  -45.509  -40.093  -34.686  -29.376  -24.250  -19.418  -15.036  -11.285   -8.299   -6.095   -4.560   -3.535   -2.871   -2.451   -2.195   -2.070   -2.022   -2.020   -2.031   -2.044   -2.086   -2.194   -2.410   -2.721   -3.106   -3.494   -3.842   -4.112   -4.276   -4.336   -4.294   -4.198   -4.089   -4.021   -4.024   -4.103   -4.228   -4.343   -4.370   -4.259   -4.053   -3.847   -3.719   -3.684   -3.719   -3.930
 -47.346  -48.093  -48.628  -49.233  -49.983  -50.881  -51.890  -52.965  -54.071  -55.201  -56.384  -57.674  -59.128  -60.774  -62.590  -64.518  -66.477  -68.409  -70.294  -72.152  -74.027  -75.972  -78.035  -80.234  -82.542  -84.895  -87.211  -89.441  -91.585  -93.678  -95.740  -97.743  -99.590 -101.143 -102.263 -102.885 -103.002 -102.658 -101.906 -100.783  -99.308  -97.495  -95.372  -92.973  -90.350  -87.536  -84.545  -81.363  -77.949  -74.246  -70.205  -65.806  -61.071  -56.063  -50.873  -45.592  -40.285  -34.981  -29.707  -24.524  -19.592  -15.137  -11.372   -8.399   -6.197   -4.662   -3.655   -3.061   -2.772   -2.684   -2.708   -2.748   -2.747   -2.682   -2.599   -2.582   -2.689   -2.931   -3.266   -3.625   -3.955   -4.218   -4.389   -4.461   -4.450   -4.397   -4.319   -4.244   -4.183   -4.116   -4.029   -3.895   -3.701   -3.465   -3.260   -3.182   -3.271   -3.478   -3.709   -4.017
 -52.108  -53.106  -53.735  -54.362  -55.077  -55.881  -56.746  -57.636  -58.524  -59.405  -60.305  -61.267  -62.339  -63.550  -64.903  -66.370  -67.910  -69.481  -71.059  -72.633  -74.205  -75.779  -77.356  -78.931  -80.489  -82.013  -83.514  -85.047  -86.709  -88.608  -90.798  -93.257  -95.881  -98.489 -100.863 -102.786 -104.094 -104.722 -104.672 -104.005 -102.785 -101.079  -98.946  -96.458  -93.686  -90.695  -87.535  -84.217  -80.719  -77.005  -73.037  -68.798  -64.309  -59.627  -54.822  -49.954  -45.043  -40.066  -34.986  -29.816  -24.675  -19.783  -15.392  -11.680   -8.736   -6.560   -5.093   -4.237   -3.855   -3.789   -3.874   -3.944   -3.884   -3.673   -3.399   -3.184   -3.153   -3.319   -3.626   -3.989   -4.337   -4.602   -4.760   -4.811   -4.787   -4.726   -4.646   -4.548   -4.421   -4.237   -3.999   -3.708   -3.389   -3.118   -2.989   -3.097   -3.439   -3.913   -4.360   -4.772
 -54.039  -55.158  -55.887  -56.594  -57.356  -58.166  -58.994  -59.816  -60.607  -61.369  -62.121  -62.903  -63.760  -64.728  -65.822  -67.033  -68.338  -69.703  -71.095  -72.480  -73.830  -75.113  -76.292  -77.332  -78.210  -78.937  -79.587  -80.315  -81.330  -82.829  -84.917  -87.557  -90.597  -93.821  -96.990  -99.846 -102.140 -103.688 -104.406 -104.304 -103.463 -101.968  -99.910  -97.390  -94.516  -91.401  -88.129  -84.747  -81.264  -77.658  -73.900  -69.974  -65.890  -61.686  -57.404  -53.069  -48.665  -44.137  -39.419  -34.492  -29.431  -24.424  -19.698  -15.468  -11.902   -9.114   -7.147   -5.950   -5.392   -5.270   -5.341   -5.378   -5.211   -4.807   -4.270   -3.798   -3.557   -3.586   -3.827   -4.175   -4.520   -4.784   -4.920   -4.937   -4.879   -4.787   -4.688   -4.569   -4.402   -4.164   -3.868   -3.541   -3.248   -3.078   -3.143   -3.512   -4.146   -4.891   -5.549   -6.043
 -53.219  -54.310  -55.111  -55.919  -56.768  -57.642  -58.512  -59.353  -60.146  -60.894  -61.617  -62.354  -63.153  -64.058  -65.091  -66.253  -67.523  -68.862  -70.226  -71.565  -72.830  -73.969  -74.923  -75.629  -76.043  -76.170  -76.108  -76.062  -76.328  -77.206  -78.895  -81.407  -84.568  -88.102  -91.711  -95.111  -98.039 -100.263 -101.629 -102.086 -101.677 -100.478  -98.587  -96.126  -93.243  -90.087  -86.789  -83.435  -80.062  -76.667  -73.221  -69.700  -66.098  -62.418  -58.673  -54.854  -50.926  -46.829  -42.494  -37.895  -33.090  -28.222  -23.484  -19.064  -15.160  -11.950   -9.559   -8.000   -7.169   -6.852   -6.795   -6.716   -6.404   -5.795   -5.012   -4.278   -3.796   -3.627   -3.721   -3.964   -4.241   -4.459   -4.557   -4.537   -4.446   -4.331   -4.217   -4.090   -3.925   -3.703   -3.458   -3.234   -3.109   -3.184   -3.550   -4.243   -5.175   -6.167   -6.994   -7.545
 -50.486  -51.438  -52.264  -53.143  -54.070  -55.015  -55.946  -56.842  -57.685  -58.478  -59.240  -60.017  -60.866  -61.836  -62.958  -64.228  -65.619  -67.082  -68.557  -69.981  -71.295  -72.435  -73.331  -73.906  -74.096  -73.889  -73.372  -72.758  -72.368  -72.565  -73.634  -75.686  -78.622  -82.173  -85.986  -89.705  -93.015  -95.662  -97.462  -98.337  -98.293  -97.382  -95.697  -93.366  -90.551  -87.441  -84.196  -80.946  -77.754  -74.630  -71.542  -68.451  -65.318  -62.119  -58.836  -55.439  -51.891  -48.141  -44.137  -39.865  -35.376  -30.791  -26.257  -21.929  -17.976  -14.583  -11.913  -10.027   -8.860   -8.247   -7.953   -7.685   -7.218   -6.453   -5.494   -4.568   -3.878   -3.496   -3.385   -3.447   -3.585   -3.706   -3.746   -3.697   -3.591   -3.470   -3.355   -3.245   -3.124   -2.989   -2.877   -2.851   -2.991   -3.381   -4.082   -5.073   -6.241   -7.394   -8.301   -8.873
 -47.206  -48.000  -48.804  -49.698  -50.653  -51.629  -52.596  -53.530  -54.419  -55.260  -56.080  -56.923  -57.859  -58.944  -60.209  -61.647  -63.216  -64.858  -66.496  -68.059  -69.479  -70.692  -71.625  -72.193  -72.324  -71.989  -71.263  -70.340  -69.530  -69.198  -69.669  -71.135  -73.600  -76.879  -80.634  -84.462  -87.976  -90.870  -92.935  -94.078  -94.282  -93.596  -92.096  -89.913  -87.219  -84.213  -81.090  -78.001  -75.031  -72.196  -69.456  -66.751  -64.016  -61.202  -58.270  -55.185  -51.915  -48.425  -44.685  -40.692  -36.501  -32.215  -27.954  -23.834  -19.994  -16.591  -13.783  -11.651  -10.173   -9.247   -8.682   -8.231   -7.637   -6.781   -5.735   -4.707   -3.882   -3.335   -3.031   -2.911   -2.890   -2.897   -2.879   -2.814   -2.711   -2.599   -2.503   -2.424   -2.372   -2.345   -2.389   -2.570   -2.968   -3.628   -4.582   -5.773   -7.071   -8.276   -9.197   -9.767
 -44.623  -45.348  -46.111  -46.970  -47.893  -48.843  -49.793  -50.720  -51.611  -52.466  -53.309  -54.189  -55.178  -56.334  -57.686  -59.223  -60.896  -62.636  -64.364  -66.004  -67.486  -68.747  -69.713  -70.302  -70.440  -70.093  -69.323  -68.307  -67.329  -66.727  -66.820  -67.828  -69.821  -72.692  -76.170  -79.869  -83.386  -86.373  -88.588  -89.896  -90.264  -89.725  -88.359  -86.301  -83.734  -80.871  -77.913  -75.021  -72.283  -69.712  -67.262  -64.857  -62.420  -59.889  -57.218  -54.370  -51.320  -48.047  -44.531  -40.780  -36.843  -32.813  -28.790  -24.871  -21.163  -17.811  -14.964  -12.704  -11.045   -9.921   -9.184   -8.602   -7.931   -7.037   -5.975   -4.918   -4.037   -3.400   -2.993   -2.755   -2.638   -2.574   -2.518   -2.442   -2.346   -2.245   -2.162   -2.110   -2.098   -2.147   -2.285   -2.591   -3.118   -3.919   -4.985   -6.257   -7.581   -8.781   -9.696  -10.323
