DSAA
 100 100
 0.0 400.0
 0.0 400.0
 -61.80738 -0.7977049
  -1.189   -1.056   -1.122   -1.248   -1.427   -1.633   -1.848   -2.030   -2.145   -2.169   -2.079   -1.881   -1.619   -1.345   -1.115   -0.964   -0.922   -0.996   -1.208   -1.543   -1.932   -2.249   -2.376   -2.285   -2.073   -1.883   -1.814   -1.850   -1.905   -1.908   -1.842   -1.734   -1.632   -1.543   -1.473   -1.410   -1.370   -1.377   -1.466   -1.654   -1.922   -2.216   -2.493   -2.730   -2.894   -2.953   -2.890   -2.759   -2.653   -2.620   -2.643   -2.680   -2.695   -2.684   -2.647   -2.574   -2.447   -2.277   -2.108   -1.997   -1.992   -2.055   -2.093   -2.014   -1.800   -1.522   -1.289   -1.181   -1.199   -1.295   -1.399   -1.486   -1.576   -1.675   -1.750   -1.741   -1.634   -1.484   -1.353   -1.284   -1.281   -1.327   -1.405   -1.477   -1.529   -1.574   -1.654   -1.806   -2.043   -2.344   -2.662   -2.930   -3.074   -3.032   -2.783   -2.390   -1.944   -1.546   -1.278   -1.310
  -1.265   -1.214   -1.303   -1.445   -1.632   -1.846   -2.055   -2.227   -2.328   -2.329   -2.215   -1.993   -1.704   -1.403   -1.149   -0.975   -0.913   -0.970   -1.160   -1.467   -1.826   -2.119   -2.233   -2.149   -1.950   -1.770   -1.699   -1.729   -1.787   -1.813   -1.783   -1.714   -1.629   -1.542   -1.463   -1.394   -1.352   -1.357   -1.439   -1.605   -1.836   -2.084   -2.316   -2.512   -2.655   -2.723   -2.706   -2.651   -2.629   -2.677   -2.758   -2.823   -2.845   -2.821   -2.761   -2.655   -2.486   -2.267   -2.043   -1.885   -1.836   -1.867   -1.887   -1.817   -1.630   -1.389   -1.196   -1.115   -1.146   -1.247   -1.350   -1.427   -1.502   -1.595   -1.669   -1.669   -1.575   -1.442   -1.333   -1.282   -1.293   -1.354   -1.432   -1.508   -1.569   -1.638   -1.748   -1.932   -2.205   -2.546   -2.911   -3.231   -3.411   -3.375   -3.096   -2.637   -2.115   -1.651   -1.331   -1.275
  -1.736   -1.705   -1.809   -1.971   -2.169   -2.379   -2.574   -2.717   -2.781   -2.738   -2.583   -2.324   -1.999   -1.655   -1.354   -1.133   -1.022   -1.034   -1.173   -1.416   -1.705   -1.937   -2.029   -1.965   -1.804   -1.655   -1.586   -1.602   -1.661   -1.723   -1.757   -1.750   -1.699   -1.621   -1.537   -1.470   -1.436   -1.448   -1.517   -1.646   -1.812   -1.986   -2.143   -2.276   -2.381   -2.449   -2.490   -2.538   -2.638   -2.791   -2.944   -3.044   -3.069   -3.028   -2.932   -2.777   -2.554   -2.282   -2.005   -1.796   -1.691   -1.670   -1.662   -1.602   -1.465   -1.299   -1.171   -1.128   -1.174   -1.264   -1.351   -1.417   -1.476   -1.555   -1.630   -1.650   -1.590   -1.500   -1.438   -1.428   -1.468   -1.533   -1.604   -1.669   -1.737   -1.837   -1.993   -2.227   -2.543   -2.937   -3.372   -3.776   -4.028   -4.020   -3.722   -3.198   -2.590   -2.048   -1.675   -1.582
  -2.386   -2.369   -2.482   -2.650   -2.843   -3.038   -3.199   -3.305   -3.325   -3.239   -3.047   -2.752   -2.388   -1.997   -1.636   -1.348   -1.167   -1.106   -1.161   -1.312   -1.503   -1.663   -1.732   -1.690   -1.585   -1.479   -1.420   -1.422   -1.476   -1.566   -1.651   -1.699   -1.686   -1.628   -1.561   -1.518   -1.513   -1.543   -1.609   -1.703   -1.819   -1.939   -2.043   -2.132   -2.201   -2.260   -2.319   -2.411   -2.561   -2.753   -2.929   -3.034   -3.052   -2.989   -2.871   -2.694   -2.466   -2.200   -1.942   -1.736   -1.615   -1.561   -1.518   -1.454   -1.356   -1.254   -1.182   -1.167   -1.207   -1.277   -1.350   -1.404   -1.459   -1.534   -1.615   -1.659   -1.652   -1.624   -1.624   -1.661   -1.722   -1.779   -1.823   -1.857   -1.912   -2.020   -2.204   -2.467   -2.812   -3.246   -3.744   -4.234   -4.574   -4.634   -4.366   -3.841   -3.214   -2.645   -2.250   -2.141
  -3.084   -3.075   -3.183   -3.336   -3.502   -3.661   -3.787   -3.850   -3.834   -3.721   -3.505   -3.195   -2.808   -2.387   -1.977   -1.624   -1.358   -1.201   -1.156   -1.195   -1.283   -1.366   -1.411   -1.394   -1.339   -1.274   -1.227   -1.214   -1.254   -1.343   -1.444   -1.515   -1.532   -1.504   -1.478   -1.479   -1.512   -1.570   -1.639   -1.724   -1.821   -1.928   -2.029   -2.111   -2.171   -2.213   -2.253   -2.317   -2.421   -2.556   -2.677   -2.746   -2.744   -2.676   -2.566   -2.418   -2.246   -2.067   -1.899   -1.761   -1.661   -1.582   -1.500   -1.408   -1.317   -1.246   -1.210   -1.207   -1.237   -1.289   -1.349   -1.408   -1.471   -1.548   -1.630   -1.698   -1.742   -1.786   -1.852   -1.934   -2.000   -2.032   -2.030   -2.021   -2.048   -2.148   -2.328   -2.591   -2.940   -3.392   -3.941   -4.501   -4.928   -5.074   -4.892   -4.450   -3.894   -3.378   -3.016   -2.913
  -3.728   -3.716   -3.799   -3.917   -4.043   -4.158   -4.238   -4.267   -4.233   -4.113   -3.900   -3.600   -3.222   -2.799   -2.370   -1.973   -1.640   -1.398   -1.248   -1.177   -1.163   -1.174   -1.187   -1.182   -1.160   -1.123   -1.085   -1.057   -1.073   -1.134   -1.220   -1.289   -1.317   -1.323   -1.337   -1.371   -1.427   -1.494   -1.569   -1.655   -1.753   -1.869   -1.991   -2.096   -2.175   -2.224   -2.249   -2.264   -2.281   -2.310   -2.337   -2.351   -2.327   -2.276   -2.203   -2.119   -2.038   -1.968   -1.901   -1.836   -1.755   -1.648   -1.515   -1.383   -1.277   -1.214   -1.196   -1.206   -1.240   -1.296   -1.369   -1.447   -1.525   -1.599   -1.670   -1.742   -1.825   -1.927   -2.049   -2.153   -2.212   -2.216   -2.186   -2.157   -2.168   -2.260   -2.434   -2.691   -3.039   -3.511   -4.099   -4.720   -5.220   -5.457   -5.380   -5.059   -4.617   -4.184   -3.872   -3.778
  -4.241   -4.220   -4.270   -4.346   -4.426   -4.492   -4.533   -4.538   -4.496   -4.386   -4.197   -3.929   -3.587   -3.198   -2.783   -2.385   -2.023   -1.724   -1.493   -1.334   -1.234   -1.182   -1.159   -1.152   -1.143   -1.120   -1.084   -1.051   -1.042   -1.076   -1.136   -1.194   -1.230   -1.254   -1.270   -1.291   -1.325   -1.368   -1.425   -1.501   -1.595   -1.707   -1.833   -1.955   -2.061   -2.141   -2.180   -2.177   -2.143   -2.096   -2.056   -2.023   -1.999   -1.973   -1.951   -1.929   -1.913   -1.906   -1.889   -1.846   -1.754   -1.614   -1.447   -1.287   -1.175   -1.125   -1.127   -1.162   -1.219   -1.301   -1.403   -1.512   -1.603   -1.668   -1.724   -1.793   -1.898   -2.033   -2.168   -2.263   -2.302   -2.293   -2.268   -2.266   -2.318   -2.435   -2.623   -2.890   -3.255   -3.754   -4.389   -5.067   -5.644   -5.970   -6.000   -5.786   -5.428   -5.042   -4.740   -4.638
  -4.601   -4.566   -4.586   -4.624   -4.658   -4.686   -4.697   -4.686   -4.642   -4.549   -4.390   -4.163   -3.869   -3.534   -3.170   -2.803   -2.448   -2.125   -1.850   -1.630   -1.471   -1.369   -1.320   -1.309   -1.305   -1.289   -1.262   -1.240   -1.238   -1.268   -1.320   -1.377   -1.415   -1.425   -1.406   -1.366   -1.329   -1.305   -1.315   -1.352   -1.409   -1.485   -1.580   -1.690   -1.806   -1.910   -1.981   -2.001   -1.970   -1.905   -1.838   -1.795   -1.784   -1.796   -1.815   -1.827   -1.829   -1.816   -1.786   -1.720   -1.608   -1.454   -1.284   -1.144   -1.061   -1.041   -1.065   -1.123   -1.205   -1.313   -1.444   -1.579   -1.683   -1.752   -1.805   -1.880   -1.994   -2.125   -2.236   -2.296   -2.305   -2.298   -2.320   -2.393   -2.525   -2.709   -2.941   -3.232   -3.621   -4.148   -4.824   -5.562   -6.215   -6.646   -6.784   -6.658   -6.348   -5.963   -5.628   -5.499
  -4.826   -4.779   -4.776   -4.783   -4.788   -4.788   -4.779   -4.756   -4.713   -4.636   -4.502   -4.310   -4.061   -3.777   -3.469   -3.143   -2.814   -2.490   -2.196   -1.941   -1.747   -1.622   -1.567   -1.555   -1.563   -1.567   -1.571   -1.592   -1.640   -1.709   -1.789   -1.854   -1.883   -1.858   -1.772   -1.644   -1.507   -1.399   -1.336   -1.311   -1.314   -1.330   -1.369   -1.434   -1.524   -1.626   -1.712   -1.760   -1.750   -1.699   -1.631   -1.592   -1.596   -1.636   -1.687   -1.715   -1.708   -1.671   -1.609   -1.522   -1.407   -1.275   -1.158   -1.080   -1.055   -1.072   -1.109   -1.161   -1.238   -1.346   -1.482   -1.626   -1.747   -1.839   -1.921   -2.022   -2.141   -2.254   -2.325   -2.344   -2.338   -2.355   -2.442   -2.607   -2.827   -3.075   -3.344   -3.655   -4.055   -4.601   -5.298   -6.084   -6.811   -7.340   -7.592   -7.562   -7.313   -6.939   -6.590   -6.435
  -4.946   -4.891   -4.875   -4.865   -4.857   -4.844   -4.825   -4.802   -4.762   -4.694   -4.576   -4.405   -4.185   -3.935   -3.660   -3.363   -3.045   -2.723   -2.417   -2.146   -1.936   -1.805   -1.757   -1.766   -1.800   -1.849   -1.919   -2.023   -2.159   -2.312   -2.444   -2.520   -2.522   -2.441   -2.277   -2.061   -1.840   -1.658   -1.531   -1.449   -1.390   -1.348   -1.328   -1.333   -1.374   -1.440   -1.510   -1.556   -1.551   -1.497   -1.425   -1.375   -1.375   -1.424   -1.489   -1.531   -1.532   -1.498   -1.442   -1.371   -1.291   -1.223   -1.187   -1.197   -1.238   -1.277   -1.298   -1.313   -1.343   -1.418   -1.534   -1.665   -1.793   -1.913   -2.037   -2.174   -2.314   -2.425   -2.482   -2.497   -2.515   -2.580   -2.735   -2.961   -3.226   -3.496   -3.767   -4.071   -4.463   -5.006   -5.708   -6.514   -7.286   -7.891   -8.244   -8.327   -8.180   -7.890   -7.592   -7.446
  -4.998   -4.939   -4.917   -4.903   -4.890   -4.878   -4.866   -4.848   -4.815   -4.755   -4.648   -4.488   -4.282   -4.038   -3.763   -3.463   -3.135   -2.799   -2.474   -2.188   -1.974   -1.853   -1.823   -1.864   -1.954   -2.078   -2.244   -2.458   -2.706   -2.949   -3.129   -3.205   -3.166   -3.017   -2.781   -2.501   -2.232   -2.011   -1.846   -1.722   -1.622   -1.537   -1.468   -1.426   -1.412   -1.430   -1.459   -1.474   -1.446   -1.366   -1.258   -1.173   -1.144   -1.178   -1.246   -1.309   -1.348   -1.362   -1.357   -1.344   -1.331   -1.342   -1.395   -1.482   -1.571   -1.616   -1.599   -1.553   -1.526   -1.554   -1.635   -1.745   -1.863   -1.992   -2.143   -2.314   -2.482   -2.623   -2.721   -2.792   -2.875   -3.007   -3.206   -3.447   -3.697   -3.930   -4.158   -4.423   -4.792   -5.319   -6.013   -6.809   -7.595   -8.236   -8.656   -8.837   -8.817   -8.665   -8.483   -8.384
  -5.017   -4.952   -4.932   -4.916   -4.905   -4.901   -4.895   -4.889   -4.867   -4.820   -4.726   -4.578   -4.374   -4.127   -3.833   -3.501   -3.135   -2.763   -2.408   -2.104   -1.886   -1.774   -1.773   -1.866   -2.028   -2.249   -2.525   -2.852   -3.199   -3.503   -3.702   -3.761   -3.670   -3.460   -3.173   -2.866   -2.591   -2.370   -2.187   -2.034   -1.899   -1.786   -1.696   -1.628   -1.583   -1.565   -1.557   -1.535   -1.466   -1.341   -1.185   -1.050   -0.979   -0.988   -1.049   -1.138   -1.225   -1.303   -1.370   -1.428   -1.490   -1.579   -1.698   -1.834   -1.944   -1.975   -1.922   -1.838   -1.785   -1.801   -1.875   -1.970   -2.071   -2.184   -2.331   -2.516   -2.714   -2.905   -3.075   -3.231   -3.394   -3.580   -3.789   -4.001   -4.192   -4.350   -4.512   -4.726   -5.063   -5.560   -6.223   -6.994   -7.760   -8.403   -8.852   -9.101   -9.185   -9.165   -9.106   -9.063
  -5.015   -4.952   -4.930   -4.915   -4.907   -4.907   -4.910   -4.913   -4.902   -4.867   -4.792   -4.663   -4.472   -4.220   -3.905   -3.533   -3.123   -2.702   -2.310   -1.985   -1.759   -1.656   -1.680   -1.821   -2.057   -2.370   -2.745   -3.153   -3.552   -3.876   -4.069   -4.095   -3.965   -3.716   -3.416   -3.125   -2.879   -2.667   -2.470   -2.280   -2.107   -1.972   -1.884   -1.824   -1.783   -1.758   -1.731   -1.681   -1.578   -1.415   -1.221   -1.047   -0.942   -0.925   -0.979   -1.082   -1.205   -1.334   -1.458   -1.576   -1.702   -1.844   -2.004   -2.161   -2.271   -2.294   -2.242   -2.182   -2.181   -2.255   -2.369   -2.475   -2.564   -2.648   -2.771   -2.943   -3.154   -3.384   -3.610   -3.828   -4.034   -4.235   -4.425   -4.589   -4.707   -4.793   -4.888   -5.054   -5.349   -5.798   -6.407   -7.122   -7.845   -8.470   -8.924   -9.206   -9.353   -9.413   -9.430   -9.431
  -5.008   -4.942   -4.918   -4.905   -4.897   -4.897   -4.903   -4.908   -4.907   -4.885   -4.831   -4.730   -4.561   -4.319   -3.999   -3.602   -3.153   -2.693   -2.266   -1.915   -1.675   -1.570   -1.603   -1.771   -2.051   -2.422   -2.851   -3.294   -3.704   -4.020   -4.193   -4.195   -4.044   -3.793   -3.518   -3.271   -3.063   -2.868   -2.649   -2.420   -2.214   -2.071   -1.998   -1.969   -1.962   -1.955   -1.935   -1.875   -1.751   -1.563   -1.343   -1.147   -1.022   -0.983   -1.029   -1.136   -1.278   -1.438   -1.594   -1.755   -1.929   -2.115   -2.310   -2.485   -2.608   -2.655   -2.661   -2.695   -2.814   -3.000   -3.190   -3.328   -3.412   -3.477   -3.575   -3.725   -3.923   -4.148   -4.379   -4.596   -4.792   -4.965   -5.112   -5.220   -5.283   -5.316   -5.367   -5.493   -5.737   -6.119   -6.643   -7.274   -7.931   -8.519   -8.969   -9.262   -9.433   -9.520   -9.561   -9.583
  -4.998   -4.931   -4.907   -4.890   -4.881   -4.880   -4.884   -4.889   -4.889   -4.877   -4.842   -4.769   -4.634   -4.419   -4.115   -3.721   -3.265   -2.788   -2.344   -1.974   -1.716   -1.585   -1.595   -1.737   -2.001   -2.364   -2.788   -3.229   -3.633   -3.944   -4.108   -4.105   -3.959   -3.731   -3.498   -3.306   -3.141   -2.961   -2.734   -2.488   -2.278   -2.154   -2.117   -2.136   -2.171   -2.190   -2.177   -2.106   -1.961   -1.748   -1.507   -1.292   -1.149   -1.095   -1.128   -1.237   -1.389   -1.567   -1.758   -1.970   -2.203   -2.456   -2.712   -2.944   -3.120   -3.236   -3.345   -3.508   -3.756   -4.044   -4.297   -4.462   -4.546   -4.608   -4.691   -4.819   -4.981   -5.163   -5.344   -5.511   -5.656   -5.773   -5.870   -5.932   -5.960   -5.966   -5.993   -6.084   -6.276   -6.578   -7.004   -7.526   -8.091   -8.618   -9.042   -9.336   -9.512   -9.599   -9.637   -9.662
  -4.985   -4.916   -4.895   -4.881   -4.873   -4.868   -4.867   -4.866   -4.866   -4.856   -4.835   -4.785   -4.685   -4.514   -4.252   -3.898   -3.470   -3.014   -2.573   -2.196   -1.912   -1.735   -1.676   -1.741   -1.922   -2.210   -2.586   -3.002   -3.407   -3.733   -3.917   -3.928   -3.795   -3.587   -3.388   -3.237   -3.110   -2.961   -2.763   -2.554   -2.394   -2.327   -2.351   -2.422   -2.490   -2.524   -2.499   -2.396   -2.209   -1.953   -1.675   -1.426   -1.253   -1.177   -1.203   -1.319   -1.499   -1.722   -1.979   -2.277   -2.617   -2.985   -3.351   -3.685   -3.955   -4.169   -4.379   -4.635   -4.951   -5.277   -5.539   -5.703   -5.790   -5.852   -5.930   -6.039   -6.160   -6.281   -6.397   -6.498   -6.575   -6.636   -6.684   -6.716   -6.726   -6.726   -6.739   -6.806   -6.947   -7.177   -7.504   -7.910   -8.360   -8.796   -9.166   -9.442   -9.618   -9.711   -9.750   -9.776
  -4.978   -4.909   -4.890   -4.875   -4.869   -4.865   -4.859   -4.853   -4.849   -4.839   -4.824   -4.795   -4.728   -4.606   -4.404   -4.117   -3.754   -3.350   -2.940   -2.569   -2.255   -2.022   -1.874   -1.824   -1.879   -2.053   -2.348   -2.732   -3.145   -3.505   -3.725   -3.761   -3.638   -3.435   -3.242   -3.106   -3.013   -2.914   -2.794   -2.677   -2.616   -2.643   -2.740   -2.858   -2.948   -2.972   -2.914   -2.760   -2.509   -2.186   -1.841   -1.536   -1.317   -1.214   -1.242   -1.388   -1.632   -1.949   -2.332   -2.776   -3.271   -3.788   -4.294   -4.743   -5.107   -5.399   -5.658   -5.929   -6.226   -6.511   -6.730   -6.867   -6.946   -7.007   -7.083   -7.174   -7.264   -7.339   -7.400   -7.439   -7.461   -7.475   -7.489   -7.505   -7.513   -7.512   -7.522   -7.566   -7.667   -7.838   -8.080   -8.380   -8.709   -9.035   -9.328   -9.570   -9.746   -9.854   -9.911   -9.944
  -4.979   -4.909   -4.887   -4.877   -4.870   -4.865   -4.858   -4.847   -4.841   -4.832   -4.823   -4.805   -4.768   -4.689   -4.553   -4.346   -4.068   -3.738   -3.381   -3.030   -2.708   -2.432   -2.206   -2.042   -1.967   -2.014   -2.215   -2.554   -2.971   -3.364   -3.618   -3.676   -3.559   -3.346   -3.143   -3.009   -2.943   -2.908   -2.883   -2.883   -2.937   -3.058   -3.218   -3.373   -3.470   -3.480   -3.384   -3.177   -2.864   -2.469   -2.041   -1.660   -1.383   -1.254   -1.299   -1.514   -1.868   -2.338   -2.894   -3.514   -4.174   -4.833   -5.448   -5.971   -6.382   -6.693   -6.936   -7.159   -7.378   -7.577   -7.731   -7.825   -7.888   -7.945   -8.013   -8.090   -8.161   -8.212   -8.235   -8.236   -8.220   -8.203   -8.200   -8.207   -8.218   -8.222   -8.229   -8.256   -8.323   -8.447   -8.625   -8.839   -9.063   -9.280   -9.488   -9.684   -9.857   -9.990  -10.076  -10.123
  -4.981   -4.911   -4.892   -4.880   -4.872   -4.866   -4.859   -4.848   -4.842   -4.832   -4.827   -4.820   -4.802   -4.763   -4.682   -4.550   -4.358   -4.108   -3.820   -3.515   -3.213   -2.921   -2.652   -2.413   -2.235   -2.173   -2.276   -2.557   -2.951   -3.347   -3.623   -3.703   -3.597   -3.386   -3.183   -3.054   -3.010   -3.031   -3.086   -3.179   -3.319   -3.498   -3.690   -3.853   -3.950   -3.951   -3.841   -3.611   -3.259   -2.809   -2.311   -1.848   -1.506   -1.357   -1.442   -1.754   -2.259   -2.905   -3.644   -4.432   -5.220   -5.963   -6.615   -7.144   -7.534   -7.806   -7.992   -8.139   -8.268   -8.385   -8.477   -8.540   -8.583   -8.628   -8.684   -8.748   -8.806   -8.846   -8.853   -8.831   -8.794   -8.762   -8.749   -8.755   -8.770   -8.777   -8.779   -8.791   -8.831   -8.918   -9.049   -9.200   -9.343   -9.470   -9.599   -9.747   -9.911  -10.064  -10.181  -10.244
  -4.985   -4.913   -4.895   -4.885   -4.879   -4.871   -4.864   -4.856   -4.848   -4.842   -4.839   -4.836   -4.832   -4.817   -4.775   -4.699   -4.578   -4.407   -4.197   -3.955   -3.702   -3.440   -3.169   -2.897   -2.662   -2.520   -2.538   -2.744   -3.085   -3.456   -3.730   -3.829   -3.754   -3.579   -3.402   -3.294   -3.272   -3.320   -3.417   -3.551   -3.716   -3.901   -4.084   -4.231   -4.316   -4.315   -4.211   -3.992   -3.645   -3.176   -2.634   -2.106   -1.708   -1.548   -1.683   -2.104   -2.760   -3.569   -4.460   -5.366   -6.224   -6.983   -7.604   -8.077   -8.401   -8.603   -8.723   -8.802   -8.863   -8.925   -8.978   -9.020   -9.050   -9.084   -9.126   -9.180   -9.229   -9.258   -9.255   -9.221   -9.172   -9.137   -9.124   -9.133   -9.146   -9.150   -9.141   -9.138   -9.158   -9.216   -9.313   -9.422   -9.507   -9.570   -9.638   -9.741   -9.890  -10.052  -10.186  -10.265
  -4.995   -4.923   -4.903   -4.893   -4.885   -4.880   -4.873   -4.866   -4.859   -4.854   -4.852   -4.850   -4.851   -4.848   -4.830   -4.790   -4.721   -4.618   -4.481   -4.316   -4.128   -3.916   -3.678   -3.421   -3.171   -2.988   -2.943   -3.070   -3.336   -3.655   -3.910   -4.029   -4.002   -3.884   -3.757   -3.682   -3.676   -3.730   -3.824   -3.948   -4.090   -4.240   -4.380   -4.492   -4.556   -4.558   -4.473   -4.283   -3.965   -3.510   -2.958   -2.394   -1.959   -1.788   -1.966   -2.481   -3.256   -4.189   -5.186   -6.160   -7.038   -7.768   -8.325   -8.708   -8.949   -9.083   -9.150   -9.185   -9.212   -9.244   -9.281   -9.312   -9.339   -9.366   -9.398   -9.439   -9.476   -9.492   -9.480   -9.441   -9.393   -9.360   -9.351   -9.361   -9.369   -9.360   -9.338   -9.318   -9.321   -9.362   -9.435   -9.511   -9.562   -9.587   -9.613   -9.683   -9.805   -9.960  -10.097  -10.182
  -5.004   -4.930   -4.911   -4.902   -4.894   -4.888   -4.883   -4.878   -4.873   -4.866   -4.863   -4.862   -4.863   -4.860   -4.853   -4.835   -4.801   -4.750   -4.675   -4.575   -4.453   -4.297   -4.112   -3.896   -3.671   -3.488   -3.408   -3.469   -3.655   -3.904   -4.126   -4.252   -4.271   -4.218   -4.149   -4.107   -4.110   -4.150   -4.216   -4.300   -4.399   -4.497   -4.586   -4.657   -4.699   -4.694   -4.625   -4.464   -4.181   -3.759   -3.216   -2.638   -2.178   -1.999   -2.197   -2.771   -3.623   -4.637   -5.700   -6.715   -7.598   -8.290   -8.778   -9.084   -9.254   -9.333   -9.366   -9.381   -9.394   -9.417   -9.445   -9.472   -9.497   -9.521   -9.546   -9.575   -9.594   -9.598   -9.581   -9.544   -9.505   -9.480   -9.476   -9.483   -9.478   -9.455   -9.419   -9.384   -9.377   -9.406   -9.463   -9.516   -9.546   -9.554   -9.561   -9.607   -9.703   -9.834   -9.957  -10.039
  -5.015   -4.940   -4.919   -4.906   -4.898   -4.898   -4.893   -4.889   -4.882   -4.875   -4.872   -4.869   -4.867   -4.864   -4.861   -4.854   -4.841   -4.821   -4.788   -4.737   -4.663   -4.563   -4.430   -4.269   -4.096   -3.944   -3.857   -3.871   -3.988   -4.165   -4.342   -4.465   -4.513   -4.506   -4.478   -4.461   -4.463   -4.483   -4.517   -4.562   -4.614   -4.669   -4.714   -4.750   -4.767   -4.750   -4.680   -4.531   -4.268   -3.867   -3.340   -2.760   -2.286   -2.091   -2.291   -2.883   -3.777   -4.844   -5.962   -7.016   -7.915   -8.594   -9.039   -9.291   -9.409   -9.456   -9.471   -9.480   -9.489   -9.507   -9.528   -9.549   -9.568   -9.585   -9.600   -9.613   -9.622   -9.619   -9.602   -9.577   -9.549   -9.533   -9.532   -9.536   -9.524   -9.493   -9.447   -9.409   -9.397   -9.417   -9.453   -9.488   -9.507   -9.510   -9.516   -9.551   -9.620   -9.721   -9.818   -9.890
  -5.027   -4.948   -4.924   -4.910   -4.902   -4.899   -4.896   -4.893   -4.886   -4.878   -4.873   -4.871   -4.870   -4.868   -4.865   -4.859   -4.855   -4.849   -4.840   -4.816   -4.776   -4.716   -4.632   -4.529   -4.413   -4.305   -4.235   -4.227   -4.289   -4.409   -4.539   -4.640   -4.695   -4.709   -4.703   -4.695   -4.690   -4.695   -4.706   -4.722   -4.743   -4.763   -4.781   -4.789   -4.779   -4.737   -4.644   -4.474   -4.201   -3.798   -3.275   -2.699   -2.219   -2.013   -2.197   -2.785   -3.695   -4.806   -5.987   -7.108   -8.052   -8.745   -9.178   -9.404   -9.495   -9.523   -9.530   -9.535   -9.546   -9.558   -9.570   -9.577   -9.580   -9.584   -9.587   -9.591   -9.591   -9.588   -9.580   -9.568   -9.555   -9.547   -9.548   -9.549   -9.538   -9.511   -9.475   -9.445   -9.433   -9.440   -9.456   -9.473   -9.483   -9.487   -9.499   -9.526   -9.577   -9.648   -9.718   -9.778
  -5.025   -4.945   -4.924   -4.911   -4.902   -4.896   -4.891   -4.888   -4.883   -4.875   -4.869   -4.868   -4.868   -4.869   -4.862   -4.855   -4.852   -4.850   -4.847   -4.838   -4.818   -4.783   -4.739   -4.684   -4.622   -4.557   -4.510   -4.498   -4.531   -4.603   -4.691   -4.766   -4.811   -4.827   -4.827   -4.818   -4.810   -4.803   -4.800   -4.799   -4.803   -4.803   -4.799   -4.784   -4.740   -4.654   -4.509   -4.286   -3.964   -3.531   -3.000   -2.438   -1.977   -1.770   -1.934   -2.503   -3.420   -4.573   -5.832   -7.041   -8.059   -8.797   -9.244   -9.463   -9.542   -9.558   -9.561   -9.568   -9.577   -9.586   -9.586   -9.578   -9.567   -9.555   -9.547   -9.544   -9.542   -9.543   -9.544   -9.546   -9.544   -9.540   -9.538   -9.538   -9.537   -9.530   -9.519   -9.508   -9.501   -9.500   -9.497   -9.496   -9.492   -9.496   -9.509   -9.533   -9.571   -9.619   -9.669   -9.717
  -5.016   -4.936   -4.914   -4.901   -4.892   -4.889   -4.887   -4.883   -4.878   -4.870   -4.865   -4.863   -4.862   -4.859   -4.853   -4.843   -4.835   -4.832   -4.833   -4.829   -4.819   -4.804   -4.786   -4.762   -4.737   -4.707   -4.683   -4.674   -4.692   -4.735   -4.788   -4.836   -4.869   -4.877   -4.874   -4.863   -4.853   -4.843   -4.834   -4.827   -4.821   -4.809   -4.784   -4.733   -4.645   -4.495   -4.271   -3.960   -3.562   -3.087   -2.556   -2.028   -1.612   -1.431   -1.590   -2.134   -3.041   -4.230   -5.567   -6.872   -7.977   -8.776   -9.255   -9.480   -9.550   -9.557   -9.556   -9.564   -9.577   -9.584   -9.577   -9.562   -9.542   -9.524   -9.515   -9.510   -9.510   -9.513   -9.519   -9.525   -9.525   -9.521   -9.517   -9.514   -9.523   -9.538   -9.556   -9.571   -9.580   -9.577   -9.565   -9.550   -9.535   -9.531   -9.539   -9.558   -9.582   -9.615   -9.652   -9.692
  -5.010   -4.928   -4.906   -4.896   -4.890   -4.886   -4.883   -4.882   -4.875   -4.867   -4.859   -4.854   -4.851   -4.847   -4.838   -4.827   -4.817   -4.815   -4.814   -4.817   -4.815   -4.813   -4.807   -4.799   -4.790   -4.777   -4.765   -4.762   -4.776   -4.799   -4.828   -4.859   -4.878   -4.880   -4.874   -4.864   -4.855   -4.845   -4.839   -4.831   -4.816   -4.788   -4.734   -4.637   -4.481   -4.246   -3.922   -3.514   -3.040   -2.531   -2.028   -1.568   -1.233   -1.107   -1.272   -1.791   -2.676   -3.883   -5.274   -6.658   -7.840   -8.698   -9.211   -9.446   -9.512   -9.513   -9.509   -9.520   -9.537   -9.545   -9.539   -9.521   -9.505   -9.497   -9.497   -9.500   -9.500   -9.501   -9.500   -9.503   -9.502   -9.496   -9.486   -9.482   -9.493   -9.519   -9.557   -9.595   -9.623   -9.632   -9.625   -9.610   -9.592   -9.580   -9.578   -9.582   -9.594   -9.613   -9.641   -9.674
  -5.023   -4.940   -4.921   -4.913   -4.908   -4.905   -4.904   -4.903   -4.898   -4.887   -4.875   -4.865   -4.860   -4.851   -4.841   -4.830   -4.824   -4.825   -4.829   -4.837   -4.840   -4.842   -4.838   -4.832   -4.820   -4.808   -4.796   -4.791   -4.798   -4.811   -4.828   -4.847   -4.857   -4.857   -4.853   -4.846   -4.841   -4.836   -4.832   -4.820   -4.792   -4.737   -4.639   -4.476   -4.230   -3.895   -3.470   -2.981   -2.464   -1.966   -1.526   -1.172   -0.943   -0.890   -1.074   -1.573   -2.428   -3.620   -5.032   -6.458   -7.687   -8.585   -9.123   -9.370   -9.437   -9.433   -9.427   -9.438   -9.456   -9.463   -9.457   -9.447   -9.445   -9.454   -9.470   -9.482   -9.483   -9.475   -9.466   -9.462   -9.461   -9.452   -9.442   -9.431   -9.436   -9.460   -9.503   -9.549   -9.591   -9.620   -9.631   -9.630   -9.622   -9.611   -9.600   -9.591   -9.586   -9.590   -9.604   -9.630
  -5.109   -5.023   -5.006   -4.996   -4.993   -4.988   -4.987   -4.986   -4.980   -4.969   -4.954   -4.940   -4.931   -4.920   -4.912   -4.905   -4.908   -4.913   -4.926   -4.935   -4.943   -4.942   -4.933   -4.914   -4.885   -4.856   -4.828   -4.808   -4.799   -4.804   -4.815   -4.827   -4.833   -4.834   -4.832   -4.830   -4.829   -4.828   -4.821   -4.799   -4.746   -4.645   -4.479   -4.230   -3.886   -3.448   -2.945   -2.419   -1.916   -1.485   -1.152   -0.926   -0.812   -0.832   -1.043   -1.521   -2.342   -3.502   -4.891   -6.310   -7.544   -8.451   -9.002   -9.257   -9.325   -9.316   -9.304   -9.308   -9.319   -9.323   -9.318   -9.316   -9.324   -9.348   -9.378   -9.398   -9.400   -9.387   -9.371   -9.361   -9.360   -9.358   -9.349   -9.336   -9.331   -9.343   -9.372   -9.412   -9.456   -9.498   -9.531   -9.551   -9.563   -9.564   -9.554   -9.537   -9.519   -9.505   -9.505   -9.527
  -5.333   -5.246   -5.225   -5.213   -5.207   -5.200   -5.195   -5.191   -5.186   -5.175   -5.162   -5.149   -5.136   -5.129   -5.126   -5.126   -5.133   -5.144   -5.159   -5.172   -5.179   -5.173   -5.151   -5.105   -5.042   -4.971   -4.904   -4.852   -4.819   -4.809   -4.810   -4.817   -4.823   -4.827   -4.828   -4.826   -4.828   -4.825   -4.807   -4.757   -4.657   -4.490   -4.240   -3.893   -3.449   -2.938   -2.401   -1.891   -1.462   -1.149   -0.958   -0.872   -0.871   -0.963   -1.197   -1.659   -2.431   -3.530   -4.854   -6.212   -7.400   -8.280   -8.820   -9.073   -9.141   -9.128   -9.106   -9.097   -9.095   -9.091   -9.084   -9.085   -9.099   -9.126   -9.156   -9.177   -9.179   -9.166   -9.152   -9.145   -9.148   -9.154   -9.151   -9.139   -9.127   -9.121   -9.130   -9.153   -9.187   -9.228   -9.273   -9.311   -9.342   -9.360   -9.361   -9.346   -9.323   -9.302   -9.294   -9.311
  -5.755   -5.664   -5.638   -5.622   -5.609   -5.597   -5.591   -5.586   -5.582   -5.572   -5.565   -5.554   -5.547   -5.544   -5.542   -5.547   -5.555   -5.570   -5.584   -5.597   -5.599   -5.584   -5.538   -5.451   -5.332   -5.193   -5.056   -4.946   -4.873   -4.837   -4.827   -4.829   -4.834   -4.838   -4.840   -4.838   -4.837   -4.822   -4.782   -4.689   -4.524   -4.272   -3.924   -3.482   -2.971   -2.430   -1.910   -1.468   -1.152   -0.979   -0.940   -0.998   -1.115   -1.283   -1.543   -1.983   -2.688   -3.683   -4.884   -6.119   -7.204   -8.012   -8.509   -8.742   -8.805   -8.792   -8.765   -8.744   -8.728   -8.717   -8.706   -8.705   -8.716   -8.734   -8.753   -8.766   -8.768   -8.760   -8.750   -8.751   -8.763   -8.774   -8.778   -8.768   -8.750   -8.732   -8.725   -8.728   -8.746   -8.780   -8.822   -8.865   -8.906   -8.936   -8.952   -8.949   -8.931   -8.915   -8.910   -8.930
  -6.382   -6.291   -6.260   -6.238   -6.217   -6.204   -6.194   -6.190   -6.189   -6.186   -6.182   -6.178   -6.175   -6.172   -6.172   -6.177   -6.184   -6.197   -6.210   -6.218   -6.215   -6.183   -6.104   -5.961   -5.759   -5.521   -5.283   -5.088   -4.954   -4.882   -4.852   -4.847   -4.850   -4.853   -4.855   -4.852   -4.845   -4.818   -4.747   -4.604   -4.362   -4.015   -3.576   -3.068   -2.530   -2.012   -1.558   -1.212   -1.012   -0.965   -1.062   -1.255   -1.492   -1.746   -2.045   -2.457   -3.068   -3.911   -4.926   -5.974   -6.896   -7.584   -8.008   -8.206   -8.258   -8.245   -8.221   -8.200   -8.180   -8.162   -8.149   -8.143   -8.145   -8.151   -8.156   -8.162   -8.161   -8.156   -8.156   -8.160   -8.173   -8.186   -8.190   -8.183   -8.165   -8.143   -8.127   -8.120   -8.126   -8.148   -8.178   -8.214   -8.254   -8.289   -8.312   -8.321   -8.319   -8.315   -8.319   -8.356
  -7.142   -7.059   -7.027   -7.001   -6.981   -6.966   -6.959   -6.958   -6.961   -6.964   -6.963   -6.960   -6.956   -6.953   -6.951   -6.954   -6.960   -6.969   -6.978   -6.981   -6.968   -6.916   -6.795   -6.583   -6.278   -5.915   -5.553   -5.252   -5.042   -4.924   -4.873   -4.858   -4.857   -4.858   -4.858   -4.855   -4.846   -4.808   -4.710   -4.517   -4.209   -3.785   -3.280   -2.744   -2.230   -1.775   -1.412   -1.162   -1.046   -1.086   -1.277   -1.575   -1.923   -2.268   -2.605   -2.984   -3.481   -4.141   -4.928   -5.746   -6.466   -7.003   -7.328   -7.476   -7.513   -7.505   -7.491   -7.479   -7.465   -7.449   -7.435   -7.427   -7.422   -7.420   -7.417   -7.417   -7.414   -7.411   -7.411   -7.417   -7.425   -7.432   -7.433   -7.426   -7.411   -7.392   -7.379   -7.374   -7.377   -7.389   -7.409   -7.433   -7.459   -7.485   -7.508   -7.523   -7.531   -7.542   -7.562   -7.616
  -7.923   -7.853   -7.824   -7.799   -7.782   -7.773   -7.768   -7.769   -7.775   -7.779   -7.779   -7.774   -7.767   -7.759   -7.756   -7.758   -7.764   -7.771   -7.777   -7.775   -7.752   -7.676   -7.510   -7.223   -6.812   -6.321   -5.828   -5.411   -5.119   -4.952   -4.877   -4.854   -4.849   -4.848   -4.850   -4.848   -4.837   -4.792   -4.679   -4.460   -4.112   -3.650   -3.128   -2.608   -2.155   -1.785   -1.508   -1.328   -1.260   -1.336   -1.568   -1.924   -2.347   -2.756   -3.120   -3.459   -3.841   -4.314   -4.873   -5.455   -5.966   -6.343   -6.565   -6.655   -6.676   -6.673   -6.673   -6.679   -6.681   -6.675   -6.666   -6.658   -6.652   -6.649   -6.646   -6.646   -6.640   -6.636   -6.633   -6.634   -6.634   -6.632   -6.625   -6.616   -6.606   -6.596   -6.592   -6.593   -6.599   -6.611   -6.622   -6.633   -6.645   -6.655   -6.667   -6.679   -6.693   -6.713   -6.741   -6.815
  -8.612   -8.553   -8.525   -8.507   -8.494   -8.489   -8.486   -8.489   -8.494   -8.496   -8.495   -8.486   -8.474   -8.463   -8.458   -8.460   -8.466   -8.474   -8.481   -8.474   -8.442   -8.344   -8.137   -7.784   -7.281   -6.677   -6.065   -5.547   -5.180   -4.969   -4.873   -4.843   -4.838   -4.838   -4.841   -4.843   -4.832   -4.787   -4.671   -4.448   -4.103   -3.659   -3.174   -2.718   -2.339   -2.049   -1.838   -1.702   -1.656   -1.734   -1.956   -2.313   -2.747   -3.174   -3.535   -3.830   -4.109   -4.424   -4.788   -5.166   -5.495   -5.729   -5.857   -5.900   -5.903   -5.900   -5.917   -5.940   -5.961   -5.972   -5.973   -5.968   -5.966   -5.967   -5.967   -5.967   -5.963   -5.957   -5.952   -5.948   -5.941   -5.928   -5.915   -5.903   -5.896   -5.895   -5.898   -5.906   -5.919   -5.929   -5.936   -5.936   -5.932   -5.930   -5.931   -5.938   -5.951   -5.971   -6.001   -6.089
  -9.132   -9.077   -9.052   -9.038   -9.030   -9.026   -9.025   -9.026   -9.028   -9.026   -9.021   -9.008   -8.993   -8.978   -8.972   -8.974   -8.981   -8.993   -9.000   -8.992   -8.953   -8.840   -8.602   -8.199   -7.628   -6.939   -6.241   -5.646   -5.224   -4.980   -4.870   -4.837   -4.837   -4.843   -4.849   -4.851   -4.841   -4.799   -4.695   -4.494   -4.192   -3.813   -3.409   -3.038   -2.737   -2.511   -2.348   -2.244   -2.208   -2.270   -2.457   -2.768   -3.156   -3.547   -3.872   -4.113   -4.311   -4.511   -4.731   -4.957   -5.147   -5.273   -5.327   -5.333   -5.322   -5.322   -5.343   -5.378   -5.413   -5.437   -5.448   -5.449   -5.448   -5.454   -5.458   -5.461   -5.458   -5.453   -5.448   -5.443   -5.435   -5.419   -5.403   -5.389   -5.383   -5.385   -5.391   -5.406   -5.418   -5.429   -5.429   -5.420   -5.406   -5.396   -5.392   -5.396   -5.406   -5.423   -5.452   -5.545
  -9.467   -9.411   -9.389   -9.375   -9.367   -9.363   -9.360   -9.360   -9.358   -9.352   -9.342   -9.327   -9.309   -9.294   -9.284   -9.285   -9.291   -9.306   -9.315   -9.309   -9.266   -9.144   -8.890   -8.456   -7.842   -7.103   -6.350   -5.705   -5.249   -4.986   -4.876   -4.852   -4.857   -4.870   -4.879   -4.882   -4.872   -4.832   -4.743   -4.583   -4.349   -4.063   -3.761   -3.480   -3.246   -3.066   -2.939   -2.863   -2.843   -2.897   -3.041   -3.282   -3.588   -3.902   -4.163   -4.349   -4.484   -4.605   -4.734   -4.861   -4.959   -5.016   -5.025   -5.012   -4.993   -4.988   -4.999   -5.029   -5.063   -5.093   -5.110   -5.116   -5.119   -5.126   -5.132   -5.136   -5.132   -5.130   -5.129   -5.133   -5.129   -5.118   -5.101   -5.085   -5.076   -5.076   -5.085   -5.101   -5.117   -5.124   -5.116   -5.101   -5.083   -5.074   -5.072   -5.077   -5.088   -5.103   -5.130   -5.220
  -9.653   -9.596   -9.572   -9.555   -9.545   -9.540   -9.536   -9.531   -9.527   -9.520   -9.507   -9.489   -9.469   -9.452   -9.441   -9.439   -9.445   -9.458   -9.468   -9.466   -9.424   -9.298   -9.036   -8.587   -7.952   -7.185   -6.406   -5.737   -5.262   -4.991   -4.885   -4.875   -4.895   -4.914   -4.925   -4.923   -4.909   -4.871   -4.798   -4.682   -4.525   -4.338   -4.136   -3.936   -3.757   -3.611   -3.508   -3.459   -3.461   -3.518   -3.632   -3.802   -4.012   -4.231   -4.414   -4.542   -4.632   -4.708   -4.785   -4.858   -4.909   -4.933   -4.928   -4.904   -4.879   -4.859   -4.851   -4.858   -4.876   -4.902   -4.920   -4.928   -4.937   -4.945   -4.950   -4.951   -4.949   -4.951   -4.960   -4.970   -4.973   -4.966   -4.949   -4.931   -4.919   -4.920   -4.934   -4.955   -4.972   -4.977   -4.964   -4.945   -4.925   -4.921   -4.928   -4.940   -4.956   -4.974   -4.997   -5.082
  -9.742   -9.679   -9.655   -9.637   -9.626   -9.618   -9.612   -9.607   -9.603   -9.595   -9.582   -9.564   -9.545   -9.526   -9.512   -9.506   -9.510   -9.520   -9.532   -9.530   -9.488   -9.364   -9.097   -8.644   -7.998   -7.222   -6.430   -5.746   -5.263   -4.991   -4.891   -4.892   -4.925   -4.954   -4.965   -4.957   -4.932   -4.892   -4.833   -4.758   -4.670   -4.570   -4.453   -4.321   -4.184   -4.064   -3.981   -3.951   -3.974   -4.039   -4.133   -4.249   -4.377   -4.502   -4.604   -4.681   -4.736   -4.789   -4.846   -4.900   -4.939   -4.956   -4.953   -4.934   -4.901   -4.864   -4.830   -4.807   -4.804   -4.814   -4.825   -4.834   -4.847   -4.858   -4.864   -4.862   -4.856   -4.859   -4.872   -4.889   -4.897   -4.896   -4.882   -4.860   -4.846   -4.848   -4.870   -4.901   -4.924   -4.931   -4.916   -4.892   -4.872   -4.871   -4.882   -4.906   -4.929   -4.952   -4.975   -5.055
  -9.784   -9.714   -9.687   -9.670   -9.659   -9.652   -9.647   -9.645   -9.642   -9.634   -9.625   -9.610   -9.593   -9.574   -9.558   -9.547   -9.548   -9.555   -9.564   -9.563   -9.521   -9.396   -9.128   -8.672   -8.022   -7.241   -6.442   -5.754   -5.263   -4.989   -4.889   -4.892   -4.931   -4.963   -4.970   -4.953   -4.917   -4.873   -4.825   -4.784   -4.755   -4.723   -4.672   -4.594   -4.494   -4.401   -4.336   -4.319   -4.352   -4.422   -4.508   -4.591   -4.658   -4.708   -4.743   -4.771   -4.801   -4.842   -4.889   -4.938   -4.978   -5.001   -5.008   -4.997   -4.966   -4.918   -4.866   -4.822   -4.796   -4.785   -4.783   -4.790   -4.803   -4.816   -4.821   -4.816   -4.808   -4.807   -4.821   -4.841   -4.855   -4.857   -4.845   -4.825   -4.813   -4.820   -4.847   -4.888   -4.919   -4.928   -4.913   -4.885   -4.862   -4.859   -4.874   -4.903   -4.934   -4.959   -4.983   -5.063
  -9.805   -9.729   -9.699   -9.686   -9.677   -9.672   -9.670   -9.671   -9.671   -9.670   -9.665   -9.656   -9.642   -9.627   -9.609   -9.593   -9.587   -9.590   -9.595   -9.589   -9.546   -9.419   -9.150   -8.692   -8.040   -7.258   -6.458   -5.766   -5.270   -4.988   -4.879   -4.873   -4.903   -4.928   -4.927   -4.902   -4.862   -4.816   -4.781   -4.768   -4.780   -4.797   -4.795   -4.761   -4.701   -4.636   -4.589   -4.580   -4.616   -4.684   -4.765   -4.833   -4.863   -4.864   -4.848   -4.835   -4.838   -4.860   -4.897   -4.938   -4.975   -5.004   -5.023   -5.023   -5.003   -4.962   -4.913   -4.862   -4.819   -4.784   -4.762   -4.757   -4.767   -4.781   -4.789   -4.784   -4.773   -4.773   -4.787   -4.812   -4.832   -4.839   -4.831   -4.815   -4.804   -4.813   -4.842   -4.887   -4.918   -4.927   -4.910   -4.879   -4.851   -4.843   -4.857   -4.883   -4.912   -4.940   -4.966   -5.049
  -9.818   -9.735   -9.708   -9.696   -9.689   -9.687   -9.688   -9.692   -9.695   -9.701   -9.704   -9.703   -9.694   -9.679   -9.662   -9.641   -9.628   -9.619   -9.617   -9.608   -9.564   -9.436   -9.166   -8.705   -8.053   -7.271   -6.474   -5.782   -5.282   -4.991   -4.865   -4.837   -4.848   -4.856   -4.847   -4.822   -4.786   -4.752   -4.732   -4.740   -4.775   -4.816   -4.844   -4.844   -4.819   -4.786   -4.759   -4.759   -4.793   -4.856   -4.930   -4.983   -4.999   -4.971   -4.921   -4.876   -4.849   -4.848   -4.865   -4.888   -4.917   -4.947   -4.975   -4.991   -4.990   -4.973   -4.939   -4.893   -4.839   -4.785   -4.740   -4.716   -4.719   -4.733   -4.742   -4.745   -4.745   -4.758   -4.782   -4.813   -4.837   -4.847   -4.839   -4.825   -4.814   -4.819   -4.841   -4.874   -4.899   -4.902   -4.884   -4.852   -4.821   -4.808   -4.813   -4.832   -4.856   -4.877   -4.902   -4.989
  -9.834   -9.745   -9.718   -9.704   -9.698   -9.697   -9.698   -9.703   -9.710   -9.722   -9.731   -9.735   -9.731   -9.719   -9.697   -9.672   -9.649   -9.632   -9.623   -9.610   -9.563   -9.435   -9.165   -8.704   -8.054   -7.272   -6.478   -5.792   -5.296   -4.998   -4.853   -4.801   -4.788   -4.783   -4.768   -4.753   -4.734   -4.723   -4.718   -4.734   -4.771   -4.816   -4.854   -4.872   -4.874   -4.865   -4.856   -4.865   -4.895   -4.946   -5.009   -5.052   -5.057   -5.016   -4.948   -4.880   -4.833   -4.813   -4.808   -4.816   -4.833   -4.861   -4.892   -4.923   -4.941   -4.946   -4.930   -4.892   -4.838   -4.772   -4.712   -4.676   -4.669   -4.681   -4.697   -4.710   -4.729   -4.764   -4.807   -4.846   -4.869   -4.875   -4.861   -4.840   -4.822   -4.816   -4.826   -4.845   -4.857   -4.855   -4.837   -4.810   -4.784   -4.771   -4.769   -4.779   -4.788   -4.800   -4.817   -4.911
  -9.869   -9.770   -9.738   -9.722   -9.714   -9.711   -9.709   -9.711   -9.714   -9.727   -9.737   -9.745   -9.743   -9.729   -9.706   -9.679   -9.650   -9.632   -9.620   -9.603   -9.555   -9.426   -9.156   -8.695   -8.045   -7.266   -6.478   -5.801   -5.310   -5.008   -4.854   -4.786   -4.756   -4.740   -4.732   -4.731   -4.742   -4.751   -4.760   -4.773   -4.797   -4.829   -4.858   -4.877   -4.887   -4.890   -4.894   -4.905   -4.928   -4.968   -5.011   -5.038   -5.033   -4.988   -4.914   -4.843   -4.793   -4.764   -4.752   -4.753   -4.762   -4.789   -4.825   -4.860   -4.888   -4.902   -4.893   -4.861   -4.810   -4.749   -4.696   -4.663   -4.657   -4.666   -4.681   -4.699   -4.732   -4.782   -4.842   -4.884   -4.904   -4.898   -4.874   -4.842   -4.815   -4.796   -4.795   -4.802   -4.806   -4.806   -4.799   -4.788   -4.775   -4.775   -4.777   -4.778   -4.775   -4.772   -4.782   -4.879
  -9.947   -9.838   -9.800   -9.782   -9.768   -9.759   -9.751   -9.746   -9.743   -9.747   -9.753   -9.759   -9.759   -9.748   -9.726   -9.700   -9.675   -9.658   -9.648   -9.631   -9.582   -9.450   -9.177   -8.715   -8.064   -7.289   -6.506   -5.835   -5.347   -5.041   -4.879   -4.801   -4.764   -4.747   -4.751   -4.774   -4.811   -4.844   -4.865   -4.874   -4.881   -4.889   -4.893   -4.893   -4.892   -4.892   -4.894   -4.903   -4.920   -4.940   -4.959   -4.963   -4.941   -4.893   -4.827   -4.768   -4.731   -4.714   -4.711   -4.712   -4.724   -4.755   -4.792   -4.828   -4.854   -4.859   -4.846   -4.815   -4.778   -4.742   -4.716   -4.704   -4.703   -4.706   -4.703   -4.710   -4.740   -4.794   -4.854   -4.898   -4.911   -4.895   -4.864   -4.827   -4.789   -4.763   -4.753   -4.760   -4.775   -4.796   -4.818   -4.842   -4.866   -4.895   -4.918   -4.926   -4.917   -4.905   -4.913   -5.008
 -10.119   -9.998   -9.956   -9.931   -9.914   -9.898   -9.883   -9.869   -9.857   -9.851   -9.850   -9.850   -9.848   -9.839   -9.823   -9.805   -9.790   -9.782   -9.777   -9.764   -9.713   -9.577   -9.300   -8.833   -8.180   -7.405   -6.621   -5.949   -5.453   -5.136   -4.956   -4.863   -4.818   -4.807   -4.828   -4.877   -4.946   -5.009   -5.049   -5.062   -5.051   -5.025   -4.990   -4.951   -4.917   -4.898   -4.894   -4.902   -4.907   -4.904   -4.891   -4.863   -4.823   -4.771   -4.719   -4.681   -4.670   -4.675   -4.685   -4.696   -4.714   -4.748   -4.787   -4.821   -4.839   -4.836   -4.814   -4.786   -4.769   -4.768   -4.780   -4.795   -4.799   -4.783   -4.753   -4.733   -4.745   -4.790   -4.843   -4.878   -4.884   -4.870   -4.841   -4.804   -4.767   -4.740   -4.733   -4.751   -4.796   -4.861   -4.943   -5.036   -5.138   -5.237   -5.316   -5.358   -5.363   -5.354   -5.355   -5.453
 -10.438  -10.308  -10.263  -10.237  -10.215  -10.195  -10.175  -10.155  -10.134  -10.118  -10.110  -10.104  -10.100  -10.092  -10.080  -10.070  -10.067  -10.069  -10.074  -10.063  -10.012   -9.872   -9.589   -9.118   -8.463   -7.684   -6.890   -6.197   -5.671   -5.319   -5.105   -4.986   -4.927   -4.920   -4.963   -5.053   -5.166   -5.274   -5.347   -5.372   -5.343   -5.272   -5.174   -5.069   -4.985   -4.935   -4.919   -4.920   -4.915   -4.887   -4.838   -4.782   -4.724   -4.672   -4.633   -4.619   -4.633   -4.661   -4.687   -4.705   -4.724   -4.755   -4.793   -4.823   -4.836   -4.831   -4.810   -4.792   -4.798   -4.827   -4.869   -4.902   -4.902   -4.868   -4.810   -4.763   -4.755   -4.779   -4.818   -4.843   -4.844   -4.830   -4.808   -4.782   -4.758   -4.744   -4.754   -4.799   -4.889   -5.023   -5.209   -5.434   -5.680   -5.918   -6.113   -6.231   -6.278   -6.283   -6.284   -6.373
 -10.944  -10.809  -10.765  -10.738  -10.716  -10.697  -10.674  -10.648  -10.622  -10.600  -10.585  -10.576  -10.568  -10.557  -10.550  -10.543  -10.547  -10.557  -10.566  -10.559  -10.508  -10.369  -10.087   -9.616   -8.957   -8.168   -7.352   -6.618   -6.033   -5.616   -5.339   -5.170   -5.087   -5.085   -5.164   -5.313   -5.498   -5.673   -5.794   -5.831   -5.771   -5.631   -5.444   -5.252   -5.099   -5.006   -4.969   -4.962   -4.947   -4.900   -4.826   -4.743   -4.678   -4.630   -4.604   -4.606   -4.642   -4.688   -4.725   -4.743   -4.751   -4.768   -4.793   -4.818   -4.835   -4.837   -4.832   -4.829   -4.850   -4.899   -4.953   -4.989   -4.984   -4.935   -4.863   -4.802   -4.775   -4.781   -4.799   -4.806   -4.798   -4.783   -4.773   -4.765   -4.764   -4.772   -4.808   -4.887   -5.038   -5.275   -5.621   -6.058   -6.545   -7.013   -7.390   -7.637   -7.753   -7.786   -7.791   -7.860
 -11.639  -11.502  -11.459  -11.434  -11.415  -11.394  -11.367  -11.338  -11.308  -11.283  -11.264  -11.251  -11.238  -11.227  -11.216  -11.208  -11.212  -11.222  -11.232  -11.228  -11.181  -11.046  -10.769  -10.301   -9.639   -8.836   -7.983   -7.186   -6.520   -6.010   -5.647   -5.410   -5.293   -5.299   -5.428   -5.662   -5.944   -6.206   -6.379   -6.418   -6.307   -6.068   -5.763   -5.463   -5.229   -5.083   -5.022   -5.007   -4.988   -4.930   -4.839   -4.748   -4.681   -4.644   -4.635   -4.651   -4.696   -4.747   -4.782   -4.793   -4.783   -4.778   -4.787   -4.807   -4.833   -4.851   -4.861   -4.873   -4.898   -4.946   -4.994   -5.026   -5.016   -4.968   -4.902   -4.844   -4.809   -4.800   -4.796   -4.781   -4.760   -4.741   -4.742   -4.752   -4.774   -4.806   -4.869   -4.988   -5.208   -5.582   -6.144   -6.876   -7.692   -8.471   -9.093   -9.505   -9.718   -9.789   -9.800   -9.834
 -12.483  -12.349  -12.308  -12.286  -12.265  -12.236  -12.197  -12.155  -12.111  -12.079  -12.058  -12.041  -12.028  -12.012  -11.997  -11.986  -11.985  -11.988  -11.995  -11.991  -11.947  -11.818  -11.546  -11.082  -10.417   -9.594   -8.697   -7.828   -7.067   -6.450   -5.986   -5.675   -5.520   -5.537   -5.730   -6.066   -6.460   -6.814   -7.038   -7.067   -6.882   -6.526   -6.083   -5.660   -5.334   -5.136   -5.048   -5.022   -5.003   -4.944   -4.852   -4.762   -4.706   -4.690   -4.700   -4.727   -4.769   -4.810   -4.835   -4.830   -4.803   -4.780   -4.775   -4.795   -4.827   -4.856   -4.876   -4.891   -4.912   -4.943   -4.977   -4.998   -4.990   -4.956   -4.913   -4.873   -4.843   -4.822   -4.802   -4.772   -4.745   -4.728   -4.735   -4.761   -4.796   -4.840   -4.916   -5.064   -5.358   -5.887   -6.707   -7.784   -8.978  -10.105  -11.000  -11.593  -11.912  -12.032  -12.053  -12.047
 -13.482  -13.348  -13.312  -13.286  -13.250  -13.191  -13.107  -13.015  -12.933  -12.876  -12.842  -12.825  -12.810  -12.794  -12.774  -12.756  -12.747  -12.745  -12.746  -12.739  -12.695  -12.567  -12.298  -11.835  -11.163  -10.317   -9.375   -8.435   -7.579   -6.860   -6.304   -5.921   -5.734   -5.771   -6.033   -6.469   -6.971   -7.406   -7.667   -7.678   -7.416   -6.939   -6.359   -5.808   -5.386   -5.128   -5.012   -4.982   -4.964   -4.915   -4.836   -4.764   -4.733   -4.746   -4.778   -4.810   -4.836   -4.854   -4.859   -4.843   -4.809   -4.778   -4.767   -4.784   -4.815   -4.846   -4.865   -4.871   -4.879   -4.892   -4.909   -4.920   -4.917   -4.904   -4.889   -4.875   -4.862   -4.843   -4.820   -4.791   -4.769   -4.764   -4.783   -4.810   -4.840   -4.876   -4.941   -5.099   -5.457   -6.141   -7.222   -8.645  -10.212  -11.671  -12.819  -13.585  -14.004  -14.180  -14.216  -14.169
 -14.776  -14.648  -14.617  -14.578  -14.487  -14.332  -14.123  -13.901  -13.714  -13.587  -13.516  -13.484  -13.469  -13.453  -13.432  -13.411  -13.397  -13.389  -13.385  -13.373  -13.325  -13.196  -12.924  -12.455  -11.771  -10.900   -9.917   -8.912   -7.976   -7.174   -6.545   -6.113   -5.913   -5.978   -6.307   -6.828   -7.410   -7.903   -8.183   -8.165   -7.838   -7.259   -6.560   -5.894   -5.379   -5.062   -4.919   -4.889   -4.885   -4.855   -4.800   -4.756   -4.757   -4.797   -4.844   -4.871   -4.876   -4.870   -4.856   -4.838   -4.810   -4.782   -4.769   -4.778   -4.802   -4.825   -4.835   -4.832   -4.825   -4.824   -4.829   -4.835   -4.837   -4.841   -4.849   -4.859   -4.866   -4.860   -4.845   -4.829   -4.825   -4.840   -4.869   -4.894   -4.906   -4.910   -4.944   -5.099   -5.506   -6.322   -7.635   -9.355  -11.233  -12.965  -14.322  -15.230  -15.734  -15.954  -16.007  -15.923
 -16.722  -16.616  -16.593  -16.505  -16.278  -15.895  -15.401  -14.893  -14.468  -14.186  -14.033  -13.967  -13.941  -13.923  -13.905  -13.887  -13.872  -13.863  -13.856  -13.840  -13.786  -13.649  -13.368  -12.888  -12.186  -11.288  -10.265   -9.208   -8.216   -7.358   -6.691   -6.244   -6.061   -6.170   -6.555   -7.133   -7.757   -8.270   -8.542   -8.496   -8.116   -7.466   -6.682   -5.929   -5.341   -4.977   -4.820   -4.797   -4.818   -4.813   -4.783   -4.763   -4.783   -4.833   -4.877   -4.891   -4.877   -4.858   -4.844   -4.834   -4.818   -4.795   -4.777   -4.776   -4.791   -4.807   -4.813   -4.805   -4.791   -4.781   -4.782   -4.790   -4.799   -4.813   -4.831   -4.852   -4.864   -4.865   -4.860   -4.865   -4.889   -4.928   -4.967   -4.983   -4.967   -4.935   -4.938   -5.081   -5.524   -6.445   -7.931   -9.871  -11.973  -13.898  -15.404  -16.409  -16.972  -17.221  -17.282  -17.173
 -19.823  -19.768  -19.734  -19.516  -19.001  -18.178  -17.156  -16.125  -15.278  -14.713  -14.406  -14.276  -14.230  -14.210  -14.194  -14.182  -14.170  -14.165  -14.157  -14.139  -14.079  -13.933  -13.637  -13.139  -12.412  -11.484  -10.424   -9.327   -8.298   -7.420   -6.757   -6.345   -6.219   -6.384   -6.815   -7.413   -8.034   -8.523   -8.761   -8.675   -8.255   -7.563   -6.735   -5.933   -5.303   -4.915   -4.759   -4.755   -4.801   -4.821   -4.807   -4.792   -4.809   -4.846   -4.872   -4.871   -4.853   -4.836   -4.831   -4.830   -4.821   -4.800   -4.780   -4.774   -4.789   -4.811   -4.823   -4.814   -4.794   -4.783   -4.789   -4.805   -4.824   -4.837   -4.850   -4.856   -4.852   -4.846   -4.851   -4.882   -4.937   -4.999   -5.042   -5.046   -5.007   -4.951   -4.935   -5.073   -5.543   -6.533   -8.127  -10.200  -12.433  -14.470  -16.060  -17.118  -17.708  -17.968  -18.027  -17.905
 -24.409  -24.427  -24.306  -23.814  -22.809  -21.304  -19.490  -17.684  -16.205  -15.220  -14.689  -14.462  -14.384  -14.359  -14.348  -14.340  -14.334  -14.332  -14.327  -14.307  -14.242  -14.086  -13.773  -13.250  -12.493  -11.530  -10.433   -9.306   -8.263   -7.401   -6.791   -6.461   -6.427   -6.668   -7.131   -7.715   -8.289   -8.716   -8.894   -8.759   -8.305   -7.594   -6.751   -5.939   -5.297   -4.905   -4.757   -4.766   -4.829   -4.860   -4.848   -4.827   -4.830   -4.847   -4.853   -4.844   -4.829   -4.815   -4.814   -4.813   -4.802   -4.778   -4.757   -4.761   -4.790   -4.830   -4.853   -4.849   -4.826   -4.817   -4.830   -4.857   -4.882   -4.891   -4.885   -4.857   -4.821   -4.800   -4.812   -4.867   -4.949   -5.028   -5.073   -5.069   -5.019   -4.955   -4.939   -5.087   -5.576   -6.599   -8.241  -10.365  -12.646  -14.720  -16.336  -17.406  -17.996  -18.248  -18.300  -18.174
 -30.206  -30.281  -29.945  -29.005  -27.333  -24.976  -22.202  -19.461  -17.220  -15.727  -14.927  -14.584  -14.467  -14.436  -14.426  -14.421  -14.417  -14.413  -14.409  -14.389  -14.323  -14.158  -13.831  -13.281  -12.487  -11.483  -10.353   -9.211   -8.181   -7.370   -6.850   -6.639   -6.719   -7.036   -7.514   -8.056   -8.554   -8.897   -9.003   -8.820   -8.342   -7.626   -6.790   -5.986   -5.347   -4.953   -4.798   -4.801   -4.854   -4.883   -4.872   -4.848   -4.842   -4.852   -4.856   -4.847   -4.829   -4.811   -4.795   -4.779   -4.755   -4.725   -4.708   -4.725   -4.775   -4.836   -4.873   -4.874   -4.853   -4.843   -4.857   -4.890   -4.918   -4.924   -4.899   -4.845   -4.781   -4.745   -4.758   -4.825   -4.918   -4.999   -5.041   -5.036   -4.990   -4.939   -4.940   -5.106   -5.608   -6.636   -8.264  -10.366  -12.625  -14.675  -16.266  -17.315  -17.886  -18.123  -18.167  -18.040
 -36.321  -36.397  -35.723  -34.206  -31.770  -28.521  -24.794  -21.143  -18.164  -16.185  -15.130  -14.681  -14.529  -14.488  -14.478  -14.470  -14.460  -14.451  -14.441  -14.421  -14.359  -14.194  -13.855  -13.280  -12.451  -11.408  -10.252   -9.114   -8.127   -7.398   -6.991   -6.908   -7.096   -7.466   -7.931   -8.409   -8.817   -9.077   -9.119   -8.901   -8.417   -7.712   -6.892   -6.098   -5.459   -5.050   -4.864   -4.826   -4.848   -4.862   -4.851   -4.844   -4.856   -4.881   -4.898   -4.892   -4.859   -4.815   -4.774   -4.739   -4.703   -4.668   -4.651   -4.673   -4.736   -4.811   -4.859   -4.861   -4.837   -4.820   -4.828   -4.860   -4.896   -4.911   -4.890   -4.830   -4.757   -4.707   -4.710   -4.765   -4.847   -4.916   -4.952   -4.948   -4.919   -4.892   -4.923   -5.109   -5.611   -6.606   -8.172  -10.191  -12.357  -14.324  -15.849  -16.850  -17.389  -17.608  -17.645  -17.529
 -41.853  -41.830  -40.743  -38.557  -35.311  -31.217  -26.679  -22.318  -18.804  -16.496  -15.274  -14.757  -14.584  -14.540  -14.527  -14.512  -14.492  -14.472  -14.459  -14.445  -14.395  -14.240  -13.895  -13.297  -12.432  -11.357  -10.190   -9.078   -8.159   -7.535   -7.247   -7.275   -7.533   -7.919   -8.342   -8.735   -9.046   -9.224   -9.218   -8.984   -8.511   -7.829   -7.033   -6.251   -5.609   -5.172   -4.935   -4.836   -4.806   -4.799   -4.802   -4.826   -4.877   -4.932   -4.961   -4.942   -4.884   -4.816   -4.758   -4.717   -4.681   -4.644   -4.624   -4.642   -4.698   -4.768   -4.811   -4.809   -4.777   -4.750   -4.751   -4.785   -4.836   -4.878   -4.886   -4.844   -4.775   -4.715   -4.693   -4.715   -4.761   -4.805   -4.828   -4.829   -4.820   -4.824   -4.882   -5.081   -5.562   -6.486   -7.931   -9.798  -11.807  -13.635  -15.050  -15.978  -16.475  -16.675  -16.708  -16.611
 -46.353  -46.068  -44.428  -41.463  -37.394  -32.555  -27.420  -22.664  -18.949  -16.564  -15.321  -14.802  -14.633  -14.595  -14.588  -14.576  -14.555  -14.537  -14.533  -14.539  -14.516  -14.376  -14.024  -13.392  -12.480  -11.370  -10.204   -9.141   -8.313   -7.800   -7.619   -7.724   -8.010   -8.374   -8.727   -9.021   -9.228   -9.317   -9.256   -9.008   -8.552   -7.902   -7.136   -6.373   -5.729   -5.268   -4.984   -4.830   -4.757   -4.735   -4.756   -4.816   -4.903   -4.975   -4.999   -4.959   -4.882   -4.811   -4.772   -4.758   -4.739   -4.704   -4.672   -4.670   -4.702   -4.749   -4.774   -4.758   -4.715   -4.682   -4.682   -4.726   -4.802   -4.881   -4.923   -4.905   -4.839   -4.764   -4.714   -4.698   -4.707   -4.722   -4.727   -4.730   -4.732   -4.756   -4.829   -5.019   -5.448   -6.256   -7.523   -9.165  -10.945  -12.570  -13.831  -14.658  -15.098  -15.275  -15.307  -15.238
 -49.439  -48.689  -46.319  -42.543  -37.749  -32.330  -26.863  -22.083  -18.546  -16.361  -15.249  -14.797  -14.670  -14.672  -14.710  -14.744  -14.765  -14.789  -14.835  -14.898  -14.918  -14.789  -14.397  -13.678  -12.669  -11.490  -10.310   -9.299   -8.571   -8.167   -8.074   -8.219   -8.502   -8.821   -9.097   -9.292   -9.388   -9.375   -9.240   -8.955   -8.500   -7.876   -7.144   -6.408   -5.774   -5.304   -5.000   -4.819   -4.729   -4.710   -4.754   -4.843   -4.942   -5.007   -5.003   -4.937   -4.861   -4.825   -4.847   -4.887   -4.903   -4.877   -4.834   -4.805   -4.804   -4.816   -4.811   -4.775   -4.725   -4.692   -4.701   -4.754   -4.843   -4.942   -5.000   -4.988   -4.921   -4.834   -4.767   -4.731   -4.717   -4.711   -4.703   -4.695   -4.695   -4.717   -4.777   -4.936   -5.282   -5.937   -6.967   -8.316   -9.787  -11.143  -12.200  -12.894  -13.260  -13.401  -13.426  -13.396
 -50.386  -49.158  -46.124  -41.745  -36.434  -30.650  -25.167  -20.746  -17.711  -15.936  -15.070  -14.751  -14.727  -14.850  -15.034  -15.227  -15.410  -15.588  -15.774  -15.945  -16.015  -15.842  -15.302  -14.364  -13.123  -11.772  -10.523   -9.534   -8.886   -8.575   -8.545   -8.707   -8.967   -9.238   -9.449   -9.560   -9.559   -9.442   -9.218   -8.876   -8.402   -7.794   -7.092   -6.387   -5.772   -5.310   -5.009   -4.840   -4.769   -4.777   -4.844   -4.941   -5.025   -5.054   -5.011   -4.930   -4.877   -4.908   -5.012   -5.123   -5.180   -5.166   -5.114   -5.061   -5.027   -5.004   -4.969   -4.920   -4.871   -4.845   -4.858   -4.903   -4.973   -5.046   -5.083   -5.061   -4.992   -4.911   -4.849   -4.815   -4.799   -4.785   -4.769   -4.748   -4.737   -4.736   -4.768   -4.872   -5.114   -5.589   -6.344   -7.342   -8.439   -9.460  -10.260  -10.781  -11.047  -11.138  -11.144  -11.156
 -48.739  -47.292  -43.989  -39.339  -33.744  -27.892  -22.773  -19.028  -16.675  -15.389  -14.815  -14.693  -14.881  -15.295  -15.846  -16.451  -17.039  -17.581  -18.052  -18.386  -18.452  -18.081  -17.163  -15.737  -14.013  -12.296  -10.852   -9.822   -9.214   -8.963   -8.969   -9.127   -9.354   -9.577   -9.738   -9.795   -9.728   -9.539   -9.243   -8.851   -8.358   -7.760   -7.087   -6.412   -5.817   -5.373   -5.097   -4.965   -4.940   -4.988   -5.071   -5.153   -5.197   -5.178   -5.100   -5.014   -5.001   -5.106   -5.290   -5.467   -5.560   -5.561   -5.504   -5.438   -5.381   -5.334   -5.284   -5.237   -5.196   -5.174   -5.168   -5.173   -5.186   -5.199   -5.195   -5.163   -5.105   -5.048   -5.010   -4.994   -4.986   -4.973   -4.956   -4.924   -4.895   -4.872   -4.869   -4.915   -5.057   -5.343   -5.807   -6.421   -7.104   -7.736   -8.226   -8.534   -8.672   -8.692   -8.669   -8.713
 -45.063  -43.626  -40.378  -35.702  -30.141  -24.663  -20.276  -17.350  -15.658  -14.801  -14.502  -14.651  -15.235  -16.237  -17.541  -18.962  -20.324  -21.503  -22.402  -22.893  -22.806  -21.971  -20.332  -18.044  -15.484  -13.124  -11.307  -10.135   -9.515   -9.287   -9.299   -9.434   -9.615   -9.786   -9.903   -9.931   -9.844   -9.639   -9.331   -8.931   -8.440   -7.862   -7.223   -6.582   -6.019   -5.607   -5.368   -5.287   -5.313   -5.390   -5.471   -5.515   -5.508   -5.442   -5.339   -5.265   -5.293   -5.453   -5.694   -5.911   -6.034   -6.054   -6.009   -5.946   -5.887   -5.837   -5.792   -5.759   -5.731   -5.701   -5.662   -5.608   -5.553   -5.508   -5.472   -5.443   -5.413   -5.387   -5.374   -5.369   -5.370   -5.361   -5.342   -5.309   -5.266   -5.224   -5.199   -5.204   -5.257   -5.373   -5.557   -5.794   -6.047   -6.265   -6.413   -6.471   -6.448   -6.372   -6.302   -6.364
 -40.387  -38.939  -35.842  -31.412  -26.359  -21.701  -18.212  -16.011  -14.783  -14.197  -14.119  -14.627  -15.865  -17.858  -20.387  -23.061  -25.507  -27.476  -28.804  -29.333  -28.893  -27.347  -24.700  -21.228  -17.503  -14.219  -11.846  -10.438   -9.758   -9.526   -9.525   -9.622   -9.745   -9.854   -9.925   -9.940   -9.873   -9.717   -9.464   -9.113   -8.665   -8.128   -7.534   -6.943   -6.435   -6.074   -5.886   -5.850   -5.909   -5.990   -6.043   -6.041   -5.984   -5.883   -5.777   -5.720   -5.777   -5.966   -6.234   -6.477   -6.629   -6.680   -6.667   -6.629   -6.592   -6.560   -6.539   -6.529   -6.516   -6.478   -6.408   -6.314   -6.222   -6.151   -6.114   -6.100   -6.096   -6.092   -6.087   -6.082   -6.080   -6.076   -6.058   -6.023   -5.973   -5.926   -5.894   -5.878   -5.867   -5.839   -5.776   -5.670   -5.519   -5.334   -5.130   -4.914   -4.696   -4.499   -4.361   -4.419
 -35.593  -34.140  -31.393  -27.609  -23.461  -19.751  -16.979  -15.176  -14.096  -13.563  -13.634  -14.593  -16.760  -20.135  -24.233  -28.332  -31.845  -34.457  -36.022  -36.428  -35.537  -33.226  -29.528  -24.787  -19.750  -15.391  -12.363  -10.674   -9.921   -9.679   -9.661   -9.718   -9.782   -9.828   -9.855   -9.862   -9.837   -9.758   -9.603   -9.342   -8.969   -8.500   -7.977   -7.464   -7.036   -6.743   -6.607   -6.603   -6.667   -6.728   -6.740   -6.693   -6.601   -6.486   -6.390   -6.356   -6.434   -6.641   -6.928   -7.201   -7.396   -7.499   -7.539   -7.548   -7.547   -7.549   -7.560   -7.575   -7.575   -7.540   -7.469   -7.375   -7.292   -7.235   -7.218   -7.225   -7.234   -7.232   -7.220   -7.208   -7.203   -7.204   -7.192   -7.155   -7.101   -7.051   -7.021   -6.993   -6.934   -6.793   -6.532   -6.143   -5.655   -5.118   -4.579   -4.082   -3.648   -3.308   -3.087   -3.124
 -32.284  -31.022  -28.863  -25.898  -22.570  -19.427  -16.855  -14.952  -13.641  -12.919  -13.038  -14.512  -17.796  -22.733  -28.398  -33.697  -37.964  -40.954  -42.603  -42.831  -41.484  -38.454  -33.831  -27.976  -21.730  -16.347  -12.707  -10.782   -9.989   -9.756   -9.735   -9.766   -9.784   -9.780   -9.768   -9.766   -9.772   -9.764   -9.698   -9.534   -9.254   -8.878   -8.450   -8.037   -7.699   -7.479   -7.383   -7.388   -7.434   -7.465   -7.444   -7.370   -7.268   -7.163   -7.091   -7.087   -7.196   -7.435   -7.760   -8.091   -8.356   -8.535   -8.642   -8.704   -8.745   -8.778   -8.811   -8.842   -8.858   -8.838   -8.790   -8.732   -8.689   -8.673   -8.681   -8.701   -8.713   -8.704   -8.683   -8.671   -8.676   -8.692   -8.687   -8.651   -8.591   -8.538   -8.503   -8.465   -8.367   -8.142   -7.742   -7.157   -6.426   -5.617   -4.807   -4.056   -3.414   -2.922   -2.614   -2.619
 -32.250  -31.323  -29.649  -27.172  -24.117  -20.884  -17.883  -15.376  -13.476  -12.341  -12.396  -14.350  -18.733  -25.089  -31.971  -38.076  -42.878  -46.230  -48.011  -48.037  -46.112  -42.290  -36.861  -30.156  -22.979  -16.819  -12.763  -10.732   -9.965   -9.775   -9.772   -9.793   -9.788   -9.756   -9.719   -9.705   -9.718   -9.739   -9.724   -9.630   -9.436   -9.159   -8.838   -8.528   -8.277   -8.114   -8.040   -8.036   -8.056   -8.060   -8.021   -7.944   -7.854   -7.779   -7.744   -7.787   -7.951   -8.252   -8.653   -9.077   -9.441   -9.707   -9.882   -9.990  -10.058  -10.107  -10.148  -10.183  -10.203  -10.203  -10.186  -10.171  -10.172  -10.194  -10.225  -10.256  -10.271  -10.264  -10.250  -10.253  -10.283  -10.321  -10.330  -10.294  -10.230  -10.171  -10.129  -10.077   -9.950   -9.676   -9.201   -8.517   -7.660   -6.700   -5.715   -4.788   -3.985   -3.375   -2.996   -2.972
 -35.064  -34.447  -32.944  -30.499  -27.228  -23.458  -19.659  -16.266  -13.583  -11.910  -11.798  -14.084  -19.283  -26.609  -34.216  -40.805  -46.088  -49.875  -51.796  -51.490  -48.843  -44.240  -38.201  -30.947  -23.218  -16.675  -12.511  -10.545   -9.884   -9.766   -9.794   -9.819   -9.806   -9.767   -9.720   -9.695   -9.695   -9.709   -9.702   -9.639   -9.507   -9.314   -9.088   -8.869   -8.687   -8.561   -8.494   -8.473   -8.467   -8.451   -8.408   -8.346   -8.282   -8.243   -8.254   -8.354   -8.593   -8.986   -9.493  -10.028  -10.500  -10.852  -11.083  -11.221  -11.299  -11.347  -11.382  -11.409  -11.427  -11.433  -11.438  -11.452  -11.481  -11.526  -11.574  -11.614  -11.638  -11.647  -11.655  -11.684  -11.742  -11.803  -11.828  -11.800  -11.740  -11.680  -11.635  -11.575  -11.435  -11.149  -10.667   -9.983   -9.121   -8.145   -7.124   -6.139   -5.271   -4.606   -4.190   -4.137
 -38.598  -38.163  -36.612  -33.957  -30.304  -25.951  -21.390  -17.187  -13.801  -11.645  -11.319  -13.679  -19.179  -26.852  -34.692  -41.437  -46.894  -50.800  -52.621  -51.968  -48.880  -43.946  -37.674  -30.201  -22.367  -15.935  -12.015  -10.286   -9.787   -9.752   -9.811   -9.846   -9.837   -9.798   -9.754   -9.723   -9.708   -9.698   -9.676   -9.620   -9.522   -9.389   -9.235   -9.084   -8.952   -8.852   -8.787   -8.750   -8.725   -8.696   -8.656   -8.611   -8.573   -8.565   -8.618   -8.777   -9.091   -9.577  -10.189  -10.832  -11.398  -11.821  -12.093  -12.246  -12.323  -12.360  -12.383  -12.396  -12.406  -12.412  -12.423  -12.445  -12.481  -12.530  -12.579  -12.625  -12.661  -12.687  -12.717  -12.769  -12.847  -12.921  -12.958  -12.942  -12.894  -12.846  -12.808  -12.751  -12.621  -12.363  -11.940  -11.342  -10.594   -9.735   -8.822   -7.917   -7.101   -6.458   -6.048   -5.974
 -41.220  -40.805  -39.084  -36.141  -32.136  -27.368  -22.337  -17.667  -13.901  -11.481  -10.966  -13.109  -18.288  -25.621  -33.215  -39.733  -44.835  -48.313  -49.799  -49.036  -46.108  -41.427  -35.286  -27.948  -20.528  -14.726  -11.377  -10.012   -9.698   -9.738   -9.824   -9.864   -9.858   -9.828   -9.792   -9.760   -9.735   -9.710   -9.675   -9.620   -9.543   -9.449   -9.347   -9.243   -9.150   -9.073   -9.014   -8.971   -8.935   -8.901   -8.865   -8.831   -8.809   -8.824   -8.907   -9.110   -9.481  -10.036  -10.725  -11.443  -12.075  -12.546  -12.846  -13.005  -13.077  -13.105  -13.115  -13.118  -13.119  -13.120  -13.126  -13.141  -13.167  -13.204  -13.248  -13.290  -13.329  -13.363  -13.404  -13.461  -13.537  -13.608  -13.646  -13.641  -13.610  -13.580  -13.556  -13.517  -13.420  -13.225  -12.912  -12.481  -11.950  -11.339  -10.669   -9.968   -9.296   -8.736   -8.360   -8.265
 -42.011  -41.516  -39.623  -36.471  -32.260  -27.318  -22.175  -17.472  -13.730  -11.326  -10.688  -12.373  -16.688  -23.019  -29.859  -35.850  -40.398  -43.316  -44.481  -43.794  -41.258  -36.991  -31.188  -24.415  -17.966  -13.236  -10.678   -9.743   -9.607   -9.708   -9.805   -9.846   -9.843   -9.821   -9.794   -9.767   -9.743   -9.717   -9.683   -9.636   -9.578   -9.515   -9.453   -9.390   -9.331   -9.279   -9.235   -9.195   -9.161   -9.127   -9.094   -9.067   -9.055   -9.079   -9.177   -9.401   -9.798  -10.386  -11.110  -11.865  -12.532  -13.031  -13.348  -13.515  -13.587  -13.611  -13.615  -13.612  -13.606  -13.602  -13.601  -13.603  -13.614  -13.636  -13.664  -13.697  -13.727  -13.756  -13.790  -13.831  -13.887  -13.937  -13.964  -13.961  -13.945  -13.929  -13.921  -13.906  -13.860  -13.762  -13.612  -13.429  -13.226  -12.994  -12.694  -12.298  -11.831  -11.378  -11.039  -10.924
 -40.900  -40.303  -38.320  -35.102  -30.868  -26.001  -21.081  -16.706  -13.294  -11.101  -10.387  -11.495  -14.639  -19.482  -25.032  -30.166  -34.155  -36.698  -37.690  -37.074  -34.806  -30.940  -25.782  -20.106  -15.090  -11.666   -9.963   -9.445   -9.463   -9.604   -9.705   -9.745   -9.747   -9.734   -9.717   -9.702   -9.686   -9.670   -9.650   -9.622   -9.590   -9.558   -9.529   -9.503   -9.478   -9.453   -9.428   -9.405   -9.379   -9.352   -9.327   -9.304   -9.298   -9.325   -9.423   -9.645  -10.042  -10.626  -11.349  -12.108  -12.786  -13.302  -13.636  -13.817  -13.900  -13.928  -13.932  -13.928  -13.921  -13.914  -13.905  -13.899  -13.897  -13.903  -13.917  -13.937  -13.957  -13.974  -13.990  -14.010  -14.034  -14.053  -14.061  -14.054  -14.041  -14.035  -14.039  -14.052  -14.070  -14.103  -14.186  -14.357  -14.626  -14.930  -15.136  -15.135  -14.914  -14.574  -14.261  -14.104
 -38.562  -37.861  -35.859  -32.694  -28.613  -24.051  -19.577  -15.696  -12.704  -10.747   -9.951  -10.482  -12.445  -15.665  -19.579  -23.434  -26.602  -28.707  -29.552  -29.030  -27.111  -23.925  -19.884  -15.730  -12.317  -10.166   -9.224   -9.050   -9.182   -9.344   -9.445   -9.486   -9.496   -9.494   -9.494   -9.496   -9.504   -9.512   -9.517   -9.518   -9.517   -9.519   -9.524   -9.531   -9.537   -9.537   -9.537   -9.534   -9.528   -9.519   -9.508   -9.494   -9.487   -9.510   -9.597   -9.799  -10.169  -10.721  -11.419  -12.163  -12.842  -13.375  -13.734  -13.944  -14.050  -14.097  -14.109  -14.108  -14.100  -14.091  -14.079  -14.069  -14.059  -14.059  -14.063  -14.074  -14.084  -14.092  -14.095  -14.096  -14.096  -14.089  -14.079  -14.062  -14.048  -14.045  -14.061  -14.106  -14.207  -14.419  -14.822  -15.485  -16.395  -17.401  -18.250  -18.735  -18.810  -18.608  -18.323  -18.090
 -35.741  -34.971  -33.036  -30.059  -26.301  -22.186  -18.207  -14.766  -12.080  -10.247   -9.318   -9.349  -10.345  -12.181  -14.535  -16.962  -19.048  -20.491  -21.091  -20.721  -19.360  -17.161  -14.493  -11.903   -9.917   -8.788   -8.413   -8.475   -8.674   -8.844   -8.944   -8.990   -9.010   -9.025   -9.045   -9.073   -9.115   -9.163   -9.209   -9.252   -9.293   -9.338   -9.382   -9.421   -9.453   -9.479   -9.505   -9.532   -9.557   -9.577   -9.586   -9.584   -9.578   -9.587   -9.648   -9.814  -10.133  -10.633  -11.287  -12.006  -12.686  -13.244  -13.645  -13.902  -14.050  -14.125  -14.154  -14.160  -14.154  -14.144  -14.134  -14.125  -14.117  -14.115  -14.119  -14.125  -14.133  -14.140  -14.143  -14.139  -14.128  -14.111  -14.092  -14.075  -14.063  -14.063  -14.090  -14.175  -14.381  -14.817  -15.617  -16.878  -18.543  -20.343  -21.898  -22.922  -23.360  -23.369  -23.162  -22.827
 -33.034  -32.269  -30.495  -27.820  -24.479  -20.825  -17.252  -14.085  -11.524   -9.667   -8.554   -8.185   -8.506   -9.380  -10.590  -11.868  -12.973  -13.738  -14.035  -13.788  -12.983  -11.729  -10.263   -8.912   -7.958   -7.514   -7.487   -7.673   -7.895   -8.060   -8.160   -8.213   -8.247   -8.276   -8.315   -8.375   -8.459   -8.560   -8.666   -8.767   -8.867   -8.964   -9.053   -9.126   -9.187   -9.237   -9.293   -9.357   -9.422   -9.481   -9.520   -9.531   -9.522   -9.510   -9.533   -9.641   -9.895  -10.326  -10.921  -11.608  -12.290  -12.881  -13.338  -13.657  -13.862  -13.977  -14.030  -14.046  -14.045  -14.038  -14.032  -14.032  -14.034  -14.042  -14.054  -14.071  -14.093  -14.115  -14.133  -14.142  -14.141  -14.133  -14.123  -14.115  -14.112  -14.120  -14.162  -14.288  -14.603  -15.263  -16.459  -18.298  -20.666  -23.180  -25.367  -26.910  -27.760  -28.069  -28.024  -27.603
 -30.765  -30.062  -28.491  -26.146  -23.213  -19.963  -16.700  -13.694  -11.148   -9.190   -7.879   -7.206   -7.091   -7.388   -7.909   -8.466   -8.919   -9.189   -9.234   -9.031   -8.592   -7.978   -7.305   -6.734   -6.391   -6.322   -6.458   -6.680   -6.892   -7.048   -7.152   -7.216   -7.254   -7.283   -7.326   -7.407   -7.535   -7.694   -7.867   -8.040   -8.210   -8.369   -8.508   -8.618   -8.704   -8.779   -8.864   -8.966   -9.075   -9.176   -9.247   -9.275   -9.263   -9.225   -9.200   -9.243   -9.420   -9.771  -10.299  -10.943  -11.619  -12.240  -12.753  -13.137  -13.400  -13.558  -13.637  -13.666  -13.673  -13.674  -13.682  -13.698  -13.725  -13.757  -13.800  -13.851  -13.911  -13.974  -14.033  -14.080  -14.114  -14.134  -14.147  -14.156  -14.168  -14.187  -14.242  -14.401  -14.788  -15.600  -17.058  -19.281  -22.113  -25.106  -27.754  -29.736  -31.000  -31.671  -31.862  -31.429
 -28.921  -28.288  -26.905  -24.853  -22.280  -19.388  -16.411  -13.570  -11.061   -9.035   -7.575   -6.687   -6.292   -6.244   -6.372   -6.526   -6.611   -6.591   -6.464   -6.250   -5.977   -5.676   -5.401   -5.209   -5.151   -5.233   -5.408   -5.615   -5.808   -5.968   -6.086   -6.162   -6.190   -6.190   -6.207   -6.280   -6.427   -6.631   -6.864   -7.103   -7.339   -7.557   -7.741   -7.883   -7.988   -8.077   -8.181   -8.311   -8.455   -8.592   -8.695   -8.743   -8.733   -8.670   -8.601   -8.580   -8.681   -8.952   -9.406   -9.995  -10.645  -11.275  -11.820  -12.250  -12.552  -12.741  -12.840  -12.883  -12.900  -12.918  -12.951  -13.000  -13.065  -13.147  -13.249  -13.366  -13.502  -13.644  -13.782  -13.903  -14.000  -14.070  -14.120  -14.156  -14.183  -14.212  -14.272  -14.434  -14.828  -15.657  -17.146  -19.434  -22.378  -25.541  -28.426  -30.720  -32.360  -33.414  -33.899  -33.562
 -27.340  -26.758  -25.523  -23.712  -21.456  -18.915  -16.262  -13.677  -11.323   -9.346   -7.839   -6.826   -6.239   -5.955   -5.826   -5.733   -5.599   -5.405   -5.161   -4.891   -4.629   -4.406   -4.248   -4.173   -4.192   -4.292   -4.451   -4.636   -4.832   -5.021   -5.176   -5.265   -5.268   -5.208   -5.153   -5.174   -5.299   -5.511   -5.773   -6.048   -6.321   -6.571   -6.781   -6.936   -7.044   -7.134   -7.238   -7.373   -7.529   -7.686   -7.811   -7.879   -7.875   -7.803   -7.702   -7.632   -7.670   -7.871   -8.247   -8.768   -9.365   -9.961  -10.494  -10.922  -11.231  -11.425  -11.530  -11.581  -11.616  -11.659  -11.726  -11.821  -11.947  -12.105  -12.296  -12.521  -12.776  -13.043  -13.306  -13.543  -13.735  -13.881  -13.982  -14.049  -14.092  -14.128  -14.182  -14.316  -14.645  -15.346  -16.632  -18.654  -21.338  -24.333  -27.195  -29.626  -31.540  -32.937  -33.735  -33.593
 -25.916  -25.364  -24.239  -22.628  -20.659  -18.469  -16.190  -13.951  -11.876  -10.079   -8.643   -7.588   -6.872   -6.403   -6.071   -5.787   -5.495   -5.166   -4.812   -4.445   -4.101   -3.812   -3.611   -3.503   -3.491   -3.555   -3.678   -3.856   -4.082   -4.329   -4.546   -4.663   -4.636   -4.501   -4.349   -4.279   -4.341   -4.514   -4.756   -5.019   -5.282   -5.523   -5.719   -5.855   -5.943   -6.014   -6.097   -6.210   -6.351   -6.502   -6.631   -6.711   -6.713   -6.640   -6.526   -6.428   -6.421   -6.562   -6.863   -7.297   -7.807   -8.325   -8.794   -9.175   -9.446   -9.616   -9.712   -9.768   -9.821   -9.894  -10.003  -10.154  -10.352  -10.602  -10.907  -11.272  -11.679  -12.113  -12.541  -12.928  -13.243  -13.480  -13.642  -13.741  -13.801  -13.837  -13.873  -13.960  -14.182  -14.673  -15.608  -17.137  -19.262  -21.772  -24.332  -26.682  -28.711  -30.349  -31.410  -31.511
 -24.638  -24.103  -23.062  -21.614  -19.897  -18.037  -16.136  -14.278  -12.543  -11.004   -9.714   -8.690   -7.902   -7.292   -6.792   -6.343   -5.905   -5.454   -4.983   -4.501   -4.035   -3.629   -3.320   -3.123   -3.037   -3.047   -3.141   -3.321   -3.583   -3.897   -4.180   -4.335   -4.303   -4.115   -3.883   -3.727   -3.708   -3.812   -3.991   -4.197   -4.398   -4.576   -4.712   -4.798   -4.846   -4.879   -4.924   -4.996   -5.097   -5.214   -5.320   -5.389   -5.390   -5.317   -5.199   -5.090   -5.053   -5.140   -5.363   -5.697   -6.093   -6.501   -6.869   -7.163   -7.370   -7.495   -7.572   -7.628   -7.695   -7.795   -7.943   -8.145   -8.413   -8.755   -9.175   -9.677  -10.244  -10.849  -11.451  -11.994  -12.440  -12.768  -12.985  -13.113  -13.182  -13.213  -13.228  -13.261  -13.371  -13.649  -14.215  -15.195  -16.637  -18.454  -20.458  -22.478  -24.406  -26.111  -27.330  -27.670
 -23.483  -22.966  -21.990  -20.673  -19.164  -17.586  -16.019  -14.509  -13.099  -11.821  -10.702   -9.744   -8.929   -8.224   -7.588   -6.994   -6.422   -5.858   -5.288   -4.711   -4.152   -3.651   -3.254   -2.986   -2.843   -2.806   -2.869   -3.041   -3.318   -3.665   -3.991   -4.182   -4.172   -3.990   -3.743   -3.547   -3.469   -3.503   -3.602   -3.724   -3.836   -3.921   -3.969   -3.983   -3.977   -3.970   -3.969   -3.992   -4.035   -4.098   -4.159   -4.196   -4.180   -4.104   -3.986   -3.865   -3.798   -3.827   -3.964   -4.192   -4.474   -4.766   -5.025   -5.225   -5.357   -5.435   -5.482   -5.532   -5.604   -5.717   -5.884   -6.116   -6.427   -6.831   -7.330   -7.923   -8.598   -9.329  -10.059  -10.722  -11.261  -11.650  -11.901  -12.045  -12.113  -12.131  -12.119  -12.103  -12.124  -12.235  -12.513  -13.039  -13.868  -14.985  -16.324  -17.812  -19.395  -20.925  -22.116  -22.618
 -22.324  -21.827  -20.910  -19.705  -18.367  -17.018  -15.717  -14.489  -13.343  -12.286  -11.320  -10.437   -9.622   -8.855   -8.121   -7.412   -6.731   -6.079   -5.453   -4.847   -4.274   -3.770   -3.374   -3.101   -2.945   -2.892   -2.938   -3.085   -3.336   -3.658   -3.967   -4.166   -4.193   -4.058   -3.855   -3.678   -3.586   -3.578   -3.620   -3.667   -3.696   -3.695   -3.656   -3.603   -3.543   -3.497   -3.462   -3.438   -3.429   -3.432   -3.438   -3.434   -3.397   -3.313   -3.189   -3.056   -2.952   -2.916   -2.973   -3.112   -3.302   -3.507   -3.685   -3.810   -3.882   -3.915   -3.933   -3.960   -4.016   -4.113   -4.266   -4.490   -4.800   -5.205   -5.704   -6.297   -6.978   -7.720   -8.469   -9.151   -9.701  -10.090  -10.334  -10.471  -10.528  -10.528  -10.489  -10.433  -10.392  -10.401  -10.501  -10.729  -11.124  -11.699  -12.450  -13.380  -14.481  -15.641  -16.611  -17.144
 -20.951  -20.472  -19.625  -18.532  -17.352  -16.191  -15.102  -14.091  -13.146  -12.260  -11.422  -10.615   -9.826   -9.040   -8.254   -7.487   -6.756   -6.082   -5.478   -4.936   -4.463   -4.073   -3.780   -3.595   -3.506   -3.497   -3.558   -3.686   -3.883   -4.121   -4.349   -4.494   -4.515   -4.416   -4.261   -4.122   -4.038   -4.018   -4.026   -4.030   -4.007   -3.944   -3.847   -3.735   -3.634   -3.552   -3.484   -3.422   -3.368   -3.322   -3.290   -3.260   -3.211   -3.130   -3.012   -2.871   -2.734   -2.648   -2.643   -2.733   -2.884   -3.056   -3.196   -3.283   -3.318   -3.315   -3.300   -3.292   -3.305   -3.354   -3.455   -3.634   -3.895   -4.238   -4.649   -5.129   -5.680   -6.281   -6.891   -7.439   -7.871   -8.169   -8.353   -8.453   -8.488   -8.472   -8.414   -8.335   -8.265   -8.225   -8.239   -8.313   -8.462   -8.699   -9.056   -9.569  -10.248  -11.023  -11.709  -12.183
 -19.207  -18.743  -17.986  -17.031  -16.018  -15.037  -14.130  -13.294  -12.509  -11.760  -11.035  -10.316   -9.590   -8.854   -8.113   -7.392   -6.724   -6.149   -5.686   -5.333   -5.081   -4.921   -4.845   -4.851   -4.923   -5.041   -5.187   -5.346   -5.500   -5.634   -5.718   -5.724   -5.637   -5.476   -5.284   -5.116   -5.005   -4.952   -4.931   -4.904   -4.851   -4.750   -4.605   -4.437   -4.272   -4.125   -3.993   -3.872   -3.760   -3.667   -3.600   -3.561   -3.525   -3.472   -3.382   -3.255   -3.113   -3.008   -2.988   -3.075   -3.241   -3.426   -3.575   -3.655   -3.672   -3.648   -3.601   -3.551   -3.515   -3.505   -3.543   -3.658   -3.847   -4.091   -4.368   -4.665   -4.981   -5.310   -5.621   -5.877   -6.051   -6.153   -6.208   -6.237   -6.242   -6.212   -6.148   -6.068   -5.997   -5.958   -5.953   -5.976   -6.021   -6.111   -6.280   -6.581   -7.031   -7.571   -8.066   -8.472
 -17.147  -16.703  -16.072  -15.290  -14.466  -13.674  -12.943  -12.266  -11.629  -11.016  -10.421   -9.834   -9.253   -8.681   -8.127   -7.622   -7.204   -6.904   -6.748   -6.723   -6.809   -6.983   -7.224   -7.522   -7.858   -8.213   -8.547   -8.821   -8.995   -9.044   -8.953   -8.726   -8.389   -7.987   -7.585   -7.237   -6.979   -6.813   -6.710   -6.628   -6.529   -6.379   -6.159   -5.891   -5.596   -5.298   -5.009   -4.741   -4.499   -4.308   -4.176   -4.101   -4.064   -4.035   -3.981   -3.887   -3.770   -3.682   -3.683   -3.798   -3.999   -4.216   -4.382   -4.468   -4.483   -4.449   -4.386   -4.311   -4.241   -4.192   -4.196   -4.270   -4.406   -4.573   -4.730   -4.853   -4.933   -4.956   -4.907   -4.782   -4.607   -4.432   -4.301   -4.228   -4.183   -4.138   -4.080   -4.016   -3.969   -3.963   -3.989   -4.029   -4.077   -4.147   -4.288   -4.561   -4.972   -5.462   -5.901   -6.279
 -15.103  -14.698  -14.218  -13.638  -13.028  -12.443  -11.903  -11.407  -10.948  -10.517  -10.118   -9.759   -9.449   -9.201   -9.031   -8.959   -9.004   -9.182   -9.493   -9.920  -10.434  -11.013  -11.639  -12.305  -12.996  -13.682  -14.303  -14.786  -15.060  -15.077  -14.818  -14.302  -13.590  -12.772  -11.952  -11.222  -10.641  -10.223   -9.939   -9.729   -9.528   -9.270   -8.918   -8.469   -7.948   -7.382   -6.805   -6.249   -5.750   -5.338   -5.027   -4.820   -4.696   -4.617   -4.547   -4.453   -4.347   -4.271   -4.284   -4.409   -4.612   -4.827   -4.988   -5.067   -5.077   -5.039   -4.975   -4.903   -4.833   -4.789   -4.803   -4.885   -5.018   -5.160   -5.266   -5.302   -5.245   -5.065   -4.747   -4.306   -3.809   -3.362   -3.034   -2.834   -2.720   -2.644   -2.578   -2.529   -2.517   -2.555   -2.645   -2.757   -2.873   -3.003   -3.196   -3.523   -3.991   -4.524   -4.987   -5.356
 -13.516  -13.175  -12.859  -12.492  -12.113  -11.760  -11.455  -11.201  -10.995  -10.841  -10.754  -10.756  -10.876  -11.134  -11.545  -12.096  -12.770  -13.545  -14.395  -15.303  -16.250  -17.228  -18.239  -19.287  -20.360  -21.412  -22.362  -23.100  -23.530  -23.579  -23.215  -22.455  -21.370  -20.081  -18.738  -17.489  -16.441  -15.638  -15.054  -14.614  -14.222  -13.784  -13.237  -12.553  -11.743  -10.837   -9.881   -8.935   -8.049   -7.265   -6.613   -6.100   -5.709   -5.414   -5.174   -4.957   -4.757   -4.610   -4.556   -4.606   -4.733   -4.876   -4.977   -5.020   -5.010   -4.964   -4.907   -4.849   -4.803   -4.794   -4.844   -4.963   -5.127   -5.293   -5.423   -5.479   -5.431   -5.229   -4.843   -4.284   -3.638   -3.031   -2.562   -2.253   -2.057   -1.925   -1.832   -1.773   -1.781   -1.871   -2.045   -2.265   -2.485   -2.698   -2.948   -3.304   -3.790   -4.331   -4.793   -5.137
 -12.659  -12.395  -12.239  -12.089  -11.960  -11.881  -11.875  -11.944  -12.090  -12.317  -12.649  -13.123  -13.785  -14.658  -15.732  -16.959  -18.266  -19.589  -20.892  -22.168  -23.431  -24.702  -26.011  -27.373  -28.772  -30.142  -31.374  -32.343  -32.939  -33.083  -32.733  -31.895  -30.627  -29.047  -27.321  -25.634  -24.140  -22.926  -21.986  -21.247  -20.600  -19.932  -19.161  -18.242  -17.168  -15.964  -14.674  -13.353  -12.053  -10.822   -9.696   -8.700   -7.833   -7.090   -6.443   -5.871   -5.370   -4.966   -4.681   -4.516   -4.444   -4.419   -4.395   -4.355   -4.298   -4.235   -4.170   -4.117   -4.089   -4.106   -4.188   -4.335   -4.523   -4.720   -4.901   -5.042   -5.108   -5.046   -4.797   -4.352   -3.777   -3.195   -2.705   -2.344   -2.084   -1.888   -1.741   -1.655   -1.669   -1.811   -2.078   -2.415   -2.741   -3.017   -3.268   -3.569   -3.958   -4.393   -4.769   -5.050
 -12.604  -12.419  -12.417  -12.480  -12.620  -12.853  -13.192  -13.635  -14.175  -14.814  -15.582  -16.528  -17.704  -19.128  -20.763  -22.512  -24.265  -25.938  -27.497  -28.964  -30.387  -31.824  -33.323  -34.905  -36.539  -38.140  -39.582  -40.733  -41.485  -41.763  -41.531  -40.792  -39.594  -38.032  -36.252  -34.427  -32.725  -31.260  -30.057  -29.060  -28.169  -27.280  -26.309  -25.210  -23.967  -22.592  -21.110  -19.553  -17.956  -16.345  -14.749  -13.199  -11.722  -10.335   -9.048   -7.865   -6.806   -5.901   -5.166   -4.600   -4.181   -3.876   -3.648   -3.476   -3.339   -3.232   -3.141   -3.071   -3.033   -3.044   -3.113   -3.241   -3.415   -3.611   -3.822   -4.039   -4.238   -4.371   -4.362   -4.178   -3.839   -3.437   -3.054   -2.726   -2.444   -2.203   -2.012   -1.902   -1.922   -2.106   -2.444   -2.866   -3.263   -3.550   -3.738   -3.898   -4.094   -4.328   -4.539   -4.737
 -13.517  -13.406  -13.538  -13.796  -14.185  -14.710  -15.366  -16.139  -17.007  -17.970  -19.060  -20.332  -21.841  -23.596  -25.537  -27.546  -29.497  -31.305  -32.951  -34.481  -35.968  -37.492  -39.115  -40.856  -42.680  -44.483  -46.133  -47.487  -48.429  -48.880  -48.808  -48.228  -47.205  -45.835  -44.245  -42.574  -40.958  -39.497  -38.225  -37.108  -36.071  -35.034  -33.931  -32.725  -31.403  -29.969  -28.432  -26.795  -25.057  -23.217  -21.281  -19.269  -17.212  -15.154  -13.138  -11.210   -9.421   -7.817   -6.438   -5.295   -4.386   -3.686   -3.175   -2.817   -2.566   -2.392   -2.258   -2.153   -2.082   -2.052   -2.070   -2.145   -2.262   -2.416   -2.606   -2.840   -3.107   -3.377   -3.578   -3.654   -3.593   -3.433   -3.220   -2.988   -2.747   -2.511   -2.313   -2.203   -2.231   -2.431   -2.792   -3.234   -3.622   -3.864   -3.948   -3.943   -3.933   -3.950   -3.992   -4.108
 -15.753  -15.722  -15.949  -16.335  -16.882  -17.587  -18.431  -19.379  -20.408  -21.511  -22.720  -24.094  -25.681  -27.490  -29.459  -31.471  -33.408  -35.192  -36.816  -38.328  -39.816  -41.367  -43.052  -44.895  -46.859  -48.851  -50.732  -52.353  -53.570  -54.282  -54.447  -54.087  -53.285  -52.159  -50.838  -49.441  -48.067  -46.782  -45.605  -44.506  -43.437  -42.340  -41.172  -39.913  -38.556  -37.104  -35.557  -33.899  -32.107  -30.153  -28.019  -25.705  -23.236  -20.658  -18.034  -15.436  -12.943  -10.626   -8.547   -6.745   -5.247   -4.065   -3.195   -2.593   -2.193   -1.926   -1.735   -1.590   -1.480   -1.409   -1.380   -1.395   -1.452   -1.542   -1.676   -1.867   -2.120   -2.416   -2.708   -2.936   -3.072   -3.108   -3.064   -2.953   -2.789   -2.604   -2.440   -2.354   -2.389   -2.572   -2.889   -3.259   -3.564   -3.712   -3.692   -3.570   -3.429   -3.314   -3.258   -3.332
 -19.407  -19.494  -19.761  -20.175  -20.748  -21.475  -22.325  -23.261  -24.255  -25.301  -26.426  -27.684  -29.120  -30.745  -32.510  -34.319  -36.074  -37.707  -39.212  -40.635  -42.053  -43.550  -45.191  -47.003  -48.959  -50.976  -52.938  -54.709  -56.158  -57.189  -57.746  -57.828  -57.487  -56.808  -55.903  -54.882  -53.834  -52.804  -51.801  -50.799  -49.764  -48.657  -47.458  -46.159  -44.763  -43.277  -41.696  -39.999  -38.152  -36.116  -33.860  -31.370  -28.663  -25.778  -22.782  -19.752  -16.768  -13.908  -11.242   -8.832   -6.744   -5.041   -3.748   -2.837   -2.229   -1.831   -1.563   -1.372   -1.237   -1.150   -1.105   -1.093   -1.114   -1.155   -1.233   -1.360   -1.548   -1.796   -2.070   -2.328   -2.535   -2.671   -2.732   -2.717   -2.640   -2.523   -2.417   -2.359   -2.386   -2.514   -2.724   -2.955   -3.122   -3.160   -3.070   -2.914   -2.756   -2.640   -2.583   -2.664
 -23.828  -24.082  -24.365  -24.747  -25.258  -25.891  -26.622  -27.417  -28.249  -29.114  -30.033  -31.049  -32.201  -33.505  -34.929  -36.410  -37.874  -39.270  -40.589  -41.862  -43.144  -44.497  -45.972  -47.589  -49.325  -51.116  -52.874  -54.512  -55.965  -57.192  -58.165  -58.854  -59.241  -59.319  -59.118  -58.695  -58.119  -57.437  -56.672  -55.814  -54.845  -53.750  -52.524  -51.174  -49.714  -48.157  -46.499  -44.723  -42.795  -40.676  -38.332  -35.748  -32.937  -29.936  -26.807  -23.617  -20.432  -17.304  -14.284  -11.438   -8.857   -6.647   -4.889   -3.590   -2.686   -2.083   -1.691   -1.444   -1.293   -1.220   -1.191   -1.190   -1.196   -1.204   -1.229   -1.292   -1.420   -1.603   -1.830   -2.058   -2.263   -2.422   -2.518   -2.554   -2.529   -2.473   -2.409   -2.369   -2.370   -2.417   -2.491   -2.558   -2.574   -2.509   -2.388   -2.265   -2.190   -2.170   -2.191   -2.314
 -27.889  -28.328  -28.644  -29.000  -29.442  -29.971  -30.565  -31.199  -31.851  -32.516  -33.212  -33.972  -34.829  -35.798  -36.868  -38.004  -39.158  -40.296  -41.406  -42.500  -43.605  -44.751  -45.966  -47.261  -48.621  -50.007  -51.371  -52.685  -53.947  -55.180  -56.395  -57.575  -58.662  -59.577  -60.238  -60.604  -60.672  -60.470  -60.027  -59.365  -58.497  -57.429  -56.178  -54.765  -53.220  -51.562  -49.801  -47.926  -45.915  -43.734  -41.354  -38.763  -35.974  -33.023  -29.966  -26.856  -23.729  -20.605  -17.498  -14.446  -11.540   -8.916   -6.699   -4.948   -3.651   -2.746   -2.153   -1.803   -1.633   -1.581   -1.595   -1.619   -1.618   -1.579   -1.531   -1.521   -1.584   -1.726   -1.924   -2.135   -2.330   -2.484   -2.586   -2.628   -2.621   -2.590   -2.545   -2.500   -2.464   -2.425   -2.373   -2.294   -2.180   -2.041   -1.920   -1.874   -1.927   -2.049   -2.185   -2.367
 -30.693  -31.282  -31.652  -32.022  -32.442  -32.917  -33.425  -33.950  -34.473  -34.992  -35.522  -36.089  -36.720  -37.434  -38.230  -39.095  -40.002  -40.927  -41.857  -42.784  -43.710  -44.637  -45.566  -46.494  -47.411  -48.309  -49.194  -50.096  -51.076  -52.193  -53.484  -54.932  -56.478  -58.014  -59.413  -60.545  -61.316  -61.686  -61.656  -61.263  -60.545  -59.540  -58.284  -56.817  -55.185  -53.423  -51.561  -49.607  -47.547  -45.359  -43.022  -40.525  -37.881  -35.123  -32.292  -29.425  -26.532  -23.600  -20.608  -17.563  -14.535  -11.653   -9.067   -6.880   -5.146   -3.864   -3.000   -2.496   -2.271   -2.233   -2.282   -2.323   -2.287   -2.163   -2.002   -1.876   -1.857   -1.955   -2.136   -2.350   -2.555   -2.710   -2.804   -2.834   -2.820   -2.783   -2.737   -2.679   -2.604   -2.496   -2.355   -2.183   -1.996   -1.837   -1.761   -1.825   -2.026   -2.305   -2.569   -2.810
 -31.832  -32.491  -32.920  -33.336  -33.785  -34.262  -34.750  -35.234  -35.700  -36.149  -36.592  -37.052  -37.557  -38.127  -38.772  -39.485  -40.254  -41.058  -41.877  -42.694  -43.489  -44.245  -44.939  -45.552  -46.069  -46.497  -46.880  -47.309  -47.907  -48.790  -50.020  -51.575  -53.365  -55.265  -57.131  -58.813  -60.165  -61.077  -61.499  -61.439  -60.944  -60.063  -58.851  -57.367  -55.673  -53.839  -51.912  -49.920  -47.868  -45.744  -43.530  -41.218  -38.812  -36.335  -33.814  -31.260  -28.665  -25.998  -23.219  -20.317  -17.335  -14.386  -11.603   -9.112   -7.011   -5.368   -4.209   -3.505   -3.176   -3.104   -3.146   -3.168   -3.069   -2.831   -2.515   -2.238   -2.095   -2.112   -2.254   -2.459   -2.663   -2.818   -2.898   -2.908   -2.874   -2.820   -2.762   -2.691   -2.594   -2.453   -2.278   -2.086   -1.913   -1.813   -1.852   -2.068   -2.442   -2.881   -3.269   -3.560
 -31.348  -31.991  -32.463  -32.938  -33.439  -33.954  -34.466  -34.961  -35.429  -35.869  -36.295  -36.729  -37.200  -37.732  -38.341  -39.026  -39.774  -40.563  -41.366  -42.155  -42.900  -43.571  -44.133  -44.549  -44.792  -44.867  -44.831  -44.804  -44.960  -45.478  -46.473  -47.952  -49.814  -51.896  -54.021  -56.024  -57.749  -59.060  -59.864  -60.133  -59.892  -59.185  -58.071  -56.622  -54.924  -53.065  -51.122  -49.147  -47.160  -45.160  -43.130  -41.057  -38.935  -36.767  -34.561  -32.312  -29.998  -27.584  -25.031  -22.321  -19.491  -16.624  -13.833  -11.230   -8.930   -7.039   -5.631   -4.712   -4.223   -4.037   -4.002   -3.956   -3.772   -3.413   -2.952   -2.520   -2.236   -2.136   -2.192   -2.335   -2.498   -2.626   -2.685   -2.672   -2.619   -2.551   -2.484   -2.409   -2.312   -2.182   -2.037   -1.904   -1.831   -1.875   -2.091   -2.500   -3.049   -3.634   -4.120   -4.445
 -29.738  -30.299  -30.785  -31.303  -31.850  -32.406  -32.955  -33.482  -33.979  -34.446  -34.895  -35.353  -35.853  -36.424  -37.084  -37.833  -38.652  -39.514  -40.383  -41.222  -41.995  -42.667  -43.195  -43.534  -43.645  -43.524  -43.219  -42.857  -42.628  -42.744  -43.373  -44.582  -46.312  -48.404  -50.650  -52.840  -54.790  -56.349  -57.410  -57.925  -57.898  -57.362  -56.369  -54.996  -53.338  -51.506  -49.595  -47.681  -45.800  -43.960  -42.141  -40.320  -38.475  -36.591  -34.657  -32.656  -30.566  -28.357  -25.999  -23.482  -20.838  -18.138  -15.467  -12.917  -10.589   -8.590   -7.017   -5.906   -5.219   -4.858   -4.685   -4.527   -4.251   -3.802   -3.236   -2.690   -2.285   -2.060   -1.994   -2.030   -2.111   -2.182   -2.206   -2.178   -2.114   -2.044   -1.977   -1.912   -1.840   -1.761   -1.695   -1.680   -1.761   -1.992   -2.405   -2.989   -3.676   -4.355   -4.889   -5.227
 -27.807  -28.273  -28.747  -29.274  -29.837  -30.411  -30.982  -31.532  -32.055  -32.551  -33.033  -33.530  -34.082  -34.720  -35.466  -36.313  -37.237  -38.204  -39.169  -40.090  -40.926  -41.640  -42.190  -42.525  -42.602  -42.405  -41.977  -41.433  -40.956  -40.761  -41.038  -41.901  -43.353  -45.284  -47.497  -49.752  -51.821  -53.526  -54.743  -55.415  -55.536  -55.132  -54.248  -52.962  -51.375  -49.605  -47.766  -45.946  -44.197  -42.526  -40.913  -39.319  -37.708  -36.050  -34.323  -32.507  -30.580  -28.524  -26.321  -23.970  -21.500  -18.976  -16.466  -14.039  -11.777   -9.773   -8.119   -6.862   -5.992   -5.447   -5.114   -4.848   -4.498   -3.994   -3.378   -2.773   -2.286   -1.965   -1.785   -1.715   -1.703   -1.706   -1.696   -1.657   -1.597   -1.531   -1.474   -1.428   -1.397   -1.381   -1.407   -1.514   -1.747   -2.137   -2.698   -3.400   -4.165   -4.875   -5.417   -5.754
 -26.285  -26.711  -27.162  -27.667  -28.211  -28.771  -29.330  -29.876  -30.401  -30.904  -31.401  -31.920  -32.502  -33.184  -33.980  -34.885  -35.870  -36.895  -37.913  -38.879  -39.752  -40.494  -41.064  -41.411  -41.492  -41.287  -40.834  -40.236  -39.660  -39.305  -39.360  -39.953  -41.127  -42.819  -44.867  -47.047  -49.117  -50.877  -52.182  -52.953  -53.169  -52.851  -52.047  -50.835  -49.323  -47.636  -45.894  -44.190  -42.578  -41.063  -39.620  -38.203  -36.768  -35.277  -33.703  -32.026  -30.229  -28.301  -26.231  -24.021  -21.702  -19.328  -16.959  -14.650  -12.466  -10.491   -8.815   -7.483   -6.506   -5.844   -5.410   -5.067   -4.672   -4.145   -3.520   -2.897   -2.378   -2.003   -1.763   -1.623   -1.554   -1.517   -1.483   -1.439   -1.382   -1.322   -1.273   -1.243   -1.236   -1.264   -1.345   -1.526   -1.837   -2.308   -2.937   -3.685   -4.465   -5.172   -5.712   -6.081
