DSAA
 100 100
 0.0 400.0
 0.0 400.0
 -264.8546 -0.4753803
 -28.693  -28.989  -29.427  -30.084  -30.967  -32.022  -33.144  -34.197  -35.000  -35.377  -35.139  -34.049  -31.916  -28.735  -24.815  -20.778  -17.400  -15.233  -14.395  -14.629  -15.591  -17.003  -18.742  -20.730  -22.802  -24.645  -25.868  -26.174  -25.495  -23.927  -21.617  -18.816  -15.880  -13.312  -11.577  -10.810  -10.818  -11.215  -11.640  -11.870  -11.842  -11.603  -11.260  -10.957  -10.772  -10.766  -10.935  -11.217  -11.541  -11.896  -12.281  -12.719  -13.162  -13.440  -13.295  -12.473  -10.843   -8.602   -6.168   -4.031   -2.492   -1.551   -1.047   -0.815   -0.730   -0.679   -0.663   -0.648   -0.636   -0.621   -0.612   -0.613   -0.614   -0.617   -0.621   -0.626   -0.615   -0.612   -0.620   -0.645   -0.663   -0.675   -0.691   -0.728   -0.777   -0.861   -0.991   -1.207   -1.541   -2.044   -2.778   -3.724   -4.882   -6.215   -7.765   -9.603  -11.719  -13.885  -15.679  -16.847
 -28.405  -28.658  -29.039  -29.605  -30.365  -31.285  -32.287  -33.226  -33.946  -34.282  -34.047  -33.030  -31.018  -28.000  -24.241  -20.349  -17.041  -14.864  -13.953  -14.087  -14.921  -16.214  -17.841  -19.731  -21.727  -23.537  -24.823  -25.312  -24.924  -23.702  -21.750  -19.222  -16.473  -13.976  -12.148  -11.149  -10.851  -10.967  -11.218  -11.374  -11.348  -11.156  -10.879  -10.631  -10.506  -10.539  -10.728  -11.013  -11.325  -11.654  -12.023  -12.448  -12.893  -13.220  -13.170  -12.491  -11.053   -8.992   -6.680   -4.572   -2.963   -1.915   -1.318   -1.016   -0.871   -0.804   -0.763   -0.731   -0.696   -0.668   -0.642   -0.621   -0.619   -0.616   -0.604   -0.608   -0.609   -0.617   -0.624   -0.637   -0.651   -0.683   -0.711   -0.778   -0.881   -1.055   -1.330   -1.752   -2.353   -3.202   -4.337   -5.747   -7.352   -9.086  -10.973  -13.048  -15.320  -17.568  -19.362  -20.427
 -27.599  -27.793  -28.055  -28.444  -28.963  -29.614  -30.349  -31.047  -31.570  -31.788  -31.546  -30.666  -28.953  -26.352  -23.068  -19.587  -16.531  -14.413  -13.387  -13.314  -13.894  -14.918  -16.280  -17.900  -19.643  -21.295  -22.602  -23.367  -23.489  -22.918  -21.647  -19.764  -17.511  -15.263  -13.374  -11.996  -11.122  -10.668  -10.508  -10.491  -10.491  -10.440  -10.361  -10.315  -10.376  -10.541  -10.767  -11.001  -11.205  -11.426  -11.689  -12.045  -12.454  -12.816  -12.909  -12.511  -11.473   -9.833   -7.849   -5.881   -4.221   -3.001   -2.218   -1.759   -1.520   -1.393   -1.302   -1.221   -1.122   -1.017   -0.947   -0.893   -0.863   -0.847   -0.842   -0.830   -0.821   -0.825   -0.836   -0.859   -0.896   -0.943   -1.021   -1.173   -1.430   -1.876   -2.532   -3.447   -4.655   -6.214   -8.137  -10.353  -12.700  -15.023  -17.297  -19.586  -21.896  -24.047  -25.705  -26.541
 -26.102  -26.211  -26.323  -26.475  -26.689  -27.007  -27.415  -27.826  -28.115  -28.177  -27.915  -27.196  -25.866  -23.850  -21.246  -18.389  -15.774  -13.832  -12.758  -12.473  -12.752  -13.429  -14.410  -15.634  -16.984  -18.328  -19.544  -20.508  -21.121  -21.264  -20.832  -19.815  -18.330  -16.590  -14.781  -13.046  -11.518  -10.361   -9.661   -9.397   -9.417   -9.618   -9.944  -10.375  -10.879  -11.347  -11.671  -11.786  -11.720  -11.608  -11.576  -11.699  -11.974  -12.303  -12.539  -12.468  -11.905  -10.836   -9.362   -7.718   -6.161   -4.869   -3.922   -3.313   -2.955   -2.760   -2.602   -2.433   -2.209   -1.976   -1.779   -1.659   -1.595   -1.568   -1.540   -1.501   -1.466   -1.451   -1.469   -1.529   -1.606   -1.719   -1.908   -2.235   -2.817   -3.756   -5.085   -6.807   -8.887  -11.330  -14.098  -17.046  -19.945  -22.598  -24.960  -27.133  -29.169  -30.987  -32.323  -32.832
 -23.796  -23.781  -23.721  -23.617  -23.518  -23.511  -23.606  -23.736  -23.804  -23.725  -23.448  -22.913  -22.012  -20.661  -18.863  -16.800  -14.800  -13.219  -12.227  -11.822  -11.854  -12.189  -12.740  -13.476  -14.315  -15.205  -16.140  -17.085  -17.987  -18.725  -19.160  -19.186  -18.725  -17.726  -16.164  -14.183  -12.072  -10.229   -8.969   -8.410   -8.455   -9.009   -9.952  -11.173  -12.450  -13.504  -14.069  -14.046  -13.544  -12.845  -12.250  -11.913  -11.857  -12.003  -12.247  -12.410  -12.312  -11.836  -10.983   -9.857   -8.620   -7.470   -6.525   -5.858   -5.462   -5.233   -5.044   -4.775   -4.398   -3.975   -3.631   -3.416   -3.320   -3.273   -3.217   -3.131   -3.053   -3.024   -3.063   -3.186   -3.360   -3.592   -3.943   -4.574   -5.642   -7.283   -9.472  -12.096  -15.038  -18.204  -21.499  -24.757  -27.706  -30.179  -32.180  -33.869  -35.366  -36.659  -37.573  -37.749
 -20.791  -20.646  -20.398  -20.041  -19.647  -19.342  -19.172  -19.088  -18.989  -18.811  -18.556  -18.212  -17.752  -17.087  -16.151  -14.978  -13.739  -12.678  -11.952  -11.578  -11.474  -11.537  -11.709  -11.950  -12.222  -12.552  -13.006  -13.674  -14.590  -15.734  -17.006  -18.209  -18.974  -18.887  -17.718  -15.604  -13.038  -10.622   -8.838   -7.919   -7.906   -8.778  -10.432  -12.617  -14.929  -16.827  -17.856  -17.842  -16.950  -15.623  -14.313  -13.291  -12.634  -12.345  -12.374  -12.590  -12.812  -12.851  -12.605  -12.063  -11.330  -10.531   -9.795   -9.242   -8.926   -8.758   -8.605   -8.314   -7.844   -7.301   -6.844   -6.573   -6.468   -6.431   -6.368   -6.257   -6.148   -6.109   -6.189   -6.395   -6.698   -7.109   -7.704   -8.694  -10.300  -12.621  -15.553  -18.848  -22.308  -25.794  -29.194  -32.293  -34.843  -36.699  -37.975  -38.919  -39.748  -40.486  -40.998  -40.917
 -17.561  -17.265  -16.822  -16.224  -15.577  -15.033  -14.673  -14.444  -14.261  -14.049  -13.828  -13.665  -13.612  -13.613  -13.538  -13.287  -12.878  -12.447  -12.122  -11.933  -11.824  -11.744  -11.640  -11.478  -11.239  -10.984  -10.853  -11.025  -11.686  -13.001  -14.993  -17.346  -19.354  -20.228  -19.558  -17.506  -14.711  -11.930   -9.702   -8.323   -8.003   -8.915  -11.064  -14.132  -17.478  -20.317  -22.023  -22.315  -21.383  -19.722  -17.858  -16.114  -14.673  -13.686  -13.251  -13.323  -13.680  -14.047  -14.237  -14.200  -13.962  -13.591  -13.190  -12.879  -12.750  -12.747  -12.739  -12.560  -12.155  -11.649  -11.222  -11.004  -10.963  -10.982  -10.960  -10.869  -10.775  -10.763  -10.899  -11.201  -11.653  -12.257  -13.104  -14.422  -16.407  -19.135  -22.408  -25.922  -29.458  -32.906  -36.122  -38.847  -40.766  -41.787  -42.136  -42.229  -42.378  -42.634  -42.829  -42.561
 -14.750  -14.310  -13.664  -12.831  -11.978  -11.283  -10.825  -10.551  -10.360  -10.155   -9.981   -9.974  -10.269  -10.858  -11.573  -12.193  -12.602  -12.827  -12.954  -13.020  -13.021  -12.916  -12.679  -12.259  -11.659  -10.930  -10.226   -9.798   -9.997  -11.190  -13.553  -16.694  -19.651  -21.380  -21.312  -19.653  -17.093  -14.352  -11.875   -9.948   -8.956   -9.408  -11.552  -15.070  -19.161  -22.830  -25.294  -26.186  -25.658  -24.164  -22.167  -19.962  -17.805  -16.046  -15.030  -14.823  -15.155  -15.640  -16.033  -16.254  -16.326  -16.281  -16.184  -16.124  -16.204  -16.419  -16.630  -16.690  -16.523  -16.218  -15.984  -15.928  -16.019  -16.139  -16.186  -16.164  -16.130  -16.176  -16.382  -16.778  -17.362  -18.128  -19.172  -20.670  -22.800  -25.565  -28.750  -32.065  -35.360  -38.570  -41.540  -43.874  -45.170  -45.331  -44.729  -43.970  -43.491  -43.344  -43.301  -42.908
 -12.953  -12.377  -11.509  -10.435   -9.419   -8.637   -8.178   -7.958   -7.825   -7.684   -7.574   -7.703   -8.295   -9.372  -10.739  -12.092  -13.207  -14.007  -14.548  -14.866  -14.991  -14.931  -14.655  -14.137  -13.344  -12.315  -11.167  -10.155   -9.736  -10.455  -12.626  -15.901  -19.250  -21.540  -22.183  -21.360  -19.653  -17.561  -15.225  -12.812  -10.875  -10.308  -11.781  -15.160  -19.545  -23.777  -26.903  -28.498  -28.640  -27.688  -25.965  -23.684  -21.148  -18.879  -17.444  -17.009  -17.248  -17.689  -18.033  -18.230  -18.340  -18.402  -18.451  -18.568  -18.832  -19.258  -19.724  -20.071  -20.215  -20.213  -20.236  -20.374  -20.593  -20.779  -20.858  -20.867  -20.893  -21.014  -21.298  -21.780  -22.465  -23.348  -24.488  -26.014  -28.054  -30.593  -33.414  -36.305  -39.198  -42.106  -44.824  -46.825  -47.587  -47.007  -45.576  -44.078  -43.059  -42.564  -42.322  -41.832
 -12.411  -11.688  -10.585   -9.264   -8.077   -7.266   -6.860   -6.748   -6.742   -6.715   -6.729   -7.050   -7.906   -9.371  -11.222  -13.107  -14.718  -15.928  -16.741  -17.228  -17.430  -17.397  -17.120  -16.585  -15.726  -14.537  -13.081  -11.579  -10.494  -10.428  -11.844  -14.531  -17.633  -20.148  -21.538  -21.912  -21.607  -20.712  -18.987  -16.358  -13.481  -11.628  -11.941  -14.632  -18.847  -23.279  -26.823  -28.957  -29.701  -29.341  -28.093  -26.087  -23.638  -21.357  -19.895  -19.438  -19.619  -19.913  -20.043  -20.014  -19.938  -19.893  -19.942  -20.140  -20.552  -21.171  -21.889  -22.525  -22.959  -23.222  -23.439  -23.698  -23.947  -24.073  -24.057  -23.980  -23.989  -24.172  -24.554  -25.143  -25.906  -26.832  -27.930  -29.311  -31.088  -33.246  -35.602  -37.984  -40.414  -42.969  -45.407  -47.107  -47.446  -46.320  -44.292  -42.258  -40.813  -39.998  -39.533  -38.972
 -12.990  -12.152  -10.810   -9.247   -7.904   -7.061   -6.721   -6.718   -6.836   -6.945   -7.168   -7.739   -8.900  -10.656  -12.791  -14.947  -16.814  -18.214  -19.134  -19.635  -19.820  -19.754  -19.458  -18.903  -18.027  -16.754  -15.087  -13.187  -11.473  -10.535  -10.875  -12.512  -14.905  -17.332  -19.375  -21.026  -22.299  -22.830  -21.999  -19.542  -16.082  -13.107  -12.187  -13.910  -17.594  -21.862  -25.462  -27.787  -28.833  -28.872  -28.100  -26.627  -24.722  -22.949  -21.870  -21.600  -21.759  -21.880  -21.753  -21.455  -21.130  -20.902  -20.861  -21.070  -21.584  -22.372  -23.307  -24.186  -24.846  -25.255  -25.519  -25.729  -25.834  -25.728  -25.436  -25.121  -25.014  -25.223  -25.728  -26.426  -27.227  -28.070  -28.959  -30.019  -31.382  -33.070  -34.922  -36.791  -38.746  -40.893  -42.998  -44.390  -44.422  -42.987  -40.670  -38.362  -36.631  -35.509  -34.783  -34.194
 -14.360  -13.450  -11.943  -10.207   -8.747   -7.846   -7.517   -7.545   -7.703   -7.954   -8.423   -9.328  -10.797  -12.761  -14.988  -17.164  -19.019  -20.378  -21.210  -21.582  -21.630  -21.442  -21.060  -20.459  -19.549  -18.207  -16.396  -14.216  -12.006  -10.306   -9.641  -10.186  -11.739  -13.869  -16.319  -18.960  -21.517  -23.272  -23.371  -21.381  -17.869  -14.333  -12.515  -13.298  -16.236  -20.008  -23.312  -25.485  -26.528  -26.754  -26.412  -25.634  -24.594  -23.692  -23.245  -23.255  -23.398  -23.353  -23.046  -22.574  -22.092  -21.729  -21.591  -21.778  -22.321  -23.197  -24.254  -25.260  -26.002  -26.400  -26.539  -26.506  -26.291  -25.803  -25.102  -24.447  -24.148  -24.348  -24.928  -25.680  -26.418  -27.031  -27.555  -28.135  -28.979  -30.145  -31.506  -32.911  -34.421  -36.135  -37.850  -38.941  -38.795  -37.331  -35.074  -32.786  -30.933  -29.556  -28.569  -27.966
 -16.092  -15.203  -13.672  -11.898  -10.379   -9.403   -8.972   -8.896   -9.020   -9.363  -10.094  -11.358  -13.126  -15.214  -17.361  -19.350  -20.960  -22.067  -22.629  -22.731  -22.518  -22.121  -21.588  -20.886  -19.909  -18.527  -16.642  -14.313  -11.833   -9.681   -8.349   -8.142   -9.025  -10.804  -13.298  -16.350  -19.529  -21.992  -22.796  -21.456  -18.395  -14.951  -12.779  -12.863  -15.009  -18.090  -20.890  -22.749  -23.664  -23.982  -24.032  -23.968  -23.886  -23.923  -24.120  -24.377  -24.483  -24.339  -23.991  -23.561  -23.124  -22.747  -22.558  -22.678  -23.145  -23.928  -24.877  -25.770  -26.396  -26.620  -26.480  -26.078  -25.443  -24.532  -23.428  -22.440  -21.931  -22.027  -22.554  -23.222  -23.752  -24.035  -24.104  -24.174  -24.498  -25.204  -26.170  -27.228  -28.380  -29.699  -31.000  -31.796  -31.599  -30.355  -28.461  -26.465  -24.671  -23.142  -21.964  -21.357
 -17.769  -16.969  -15.572  -13.908  -12.408  -11.340  -10.712  -10.438  -10.449  -10.857  -11.829  -13.431  -15.445  -17.589  -19.582  -21.248  -22.473  -23.177  -23.337  -23.059  -22.499  -21.816  -21.071  -20.218  -19.163  -17.764  -15.900  -13.609  -11.130   -8.914   -7.429   -6.956   -7.519   -8.961  -11.140  -13.910  -16.928  -19.464  -20.654  -19.999  -17.742  -14.908  -12.880  -12.598  -14.069  -16.464  -18.773  -20.359  -21.202  -21.613  -21.955  -22.430  -23.077  -23.819  -24.472  -24.851  -24.892  -24.718  -24.513  -24.346  -24.158  -23.920  -23.745  -23.766  -24.033  -24.500  -25.066  -25.577  -25.851  -25.743  -25.246  -24.457  -23.454  -22.250  -20.923  -19.754  -19.070  -18.983  -19.312  -19.716  -19.930  -19.839  -19.510  -19.182  -19.151  -19.564  -20.312  -21.204  -22.151  -23.138  -24.036  -24.520  -24.310  -23.375  -21.971  -20.383  -18.776  -17.253  -16.023  -15.441
 -18.953  -18.313  -17.142  -15.703  -14.289  -13.119  -12.289  -11.796  -11.707  -12.189  -13.394  -15.245  -17.427  -19.560  -21.373  -22.723  -23.560  -23.841  -23.573  -22.876  -21.935  -20.934  -19.941  -18.942  -17.823  -16.451  -14.726  -12.672  -10.490   -8.585   -7.377   -7.084   -7.632   -8.761  -10.323  -12.263  -14.461  -16.491  -17.712  -17.634  -16.289  -14.311  -12.730  -12.382  -13.445  -15.389  -17.397  -18.892  -19.759  -20.213  -20.634  -21.285  -22.214  -23.233  -24.036  -24.384  -24.326  -24.163  -24.193  -24.400  -24.569  -24.557  -24.428  -24.344  -24.362  -24.415  -24.451  -24.418  -24.214  -23.713  -22.872  -21.794  -20.617  -19.383  -18.153  -17.078  -16.381  -16.144  -16.202  -16.284  -16.151  -15.746  -15.165  -14.647  -14.463  -14.748  -15.418  -16.260  -17.081  -17.781  -18.276  -18.407  -18.078  -17.334  -16.292  -15.052  -13.697  -12.332  -11.204  -10.717
 -19.299  -18.818  -17.913  -16.724  -15.454  -14.269  -13.303  -12.701  -12.610  -13.213  -14.585  -16.569  -18.797  -20.867  -22.523  -23.657  -24.227  -24.206  -23.626  -22.613  -21.372  -20.103  -18.906  -17.774  -16.643  -15.386  -13.926  -12.277  -10.607   -9.256   -8.584   -8.718   -9.395  -10.229  -11.007  -11.811  -12.800  -13.914  -14.808  -15.033  -14.404  -13.221  -12.181  -12.011  -12.988  -14.792  -16.756  -18.313  -19.230  -19.642  -19.899  -20.353  -21.125  -22.023  -22.680  -22.847  -22.630  -22.437  -22.615  -23.102  -23.549  -23.707  -23.618  -23.460  -23.289  -23.033  -22.654  -22.177  -21.588  -20.787  -19.731  -18.564  -17.459  -16.523  -15.730  -15.100  -14.692  -14.505  -14.395  -14.187  -13.755  -13.112  -12.400  -11.816  -11.560  -11.729  -12.263  -12.956  -13.568  -13.952  -14.021  -13.752  -13.179  -12.417  -11.526  -10.541   -9.464   -8.377   -7.501   -7.166
 -18.611  -18.235  -17.551  -16.609  -15.523  -14.437  -13.524  -12.978  -13.019  -13.784  -15.266  -17.258  -19.392  -21.352  -22.912  -23.970  -24.467  -24.380  -23.714  -22.608  -21.251  -19.858  -18.564  -17.404  -16.324  -15.269  -14.154  -12.983  -11.887  -11.149  -11.047  -11.584  -12.382  -12.912  -12.919  -12.580  -12.295  -12.330  -12.572  -12.688  -12.377  -11.714  -11.159  -11.305  -12.449  -14.367  -16.458  -18.127  -19.065  -19.328  -19.277  -19.338  -19.722  -20.272  -20.629  -20.535  -20.117  -19.778  -19.876  -20.345  -20.808  -20.964  -20.852  -20.673  -20.477  -20.198  -19.757  -19.185  -18.500  -17.638  -16.589  -15.543  -14.737  -14.317  -14.228  -14.321  -14.485  -14.578  -14.453  -13.994  -13.244  -12.358  -11.512  -10.859  -10.488  -10.417  -10.603  -10.909  -11.127  -11.106  -10.761  -10.128   -9.313   -8.463   -7.660   -6.878   -6.103   -5.375   -4.821   -4.660
 -16.943  -16.614  -16.062  -15.317  -14.444  -13.579  -12.894  -12.595  -12.870  -13.814  -15.327  -17.210  -19.170  -20.989  -22.510  -23.642  -24.284  -24.369  -23.894  -22.966  -21.742  -20.436  -19.195  -18.097  -17.157  -16.333  -15.555  -14.796  -14.167  -13.889  -14.168  -14.930  -15.713  -15.948  -15.355  -14.156  -12.863  -11.890  -11.338  -10.998  -10.618  -10.185  -10.012  -10.542  -11.974  -14.096  -16.318  -18.024  -18.854  -18.862  -18.436  -18.059  -18.005  -18.176  -18.240  -17.941  -17.347  -16.793  -16.600  -16.738  -16.908  -16.873  -16.678  -16.547  -16.540  -16.572  -16.501  -16.274  -15.855  -15.203  -14.372  -13.601  -13.180  -13.304  -13.913  -14.753  -15.514  -15.893  -15.689  -14.898  -13.742  -12.533  -11.534  -10.813  -10.301   -9.914   -9.630   -9.393   -9.132   -8.699   -8.040   -7.192   -6.281   -5.455   -4.784   -4.230   -3.772   -3.389   -3.118   -3.106
 -14.695  -14.337  -13.829  -13.188  -12.532  -11.968  -11.630  -11.683  -12.244  -13.323  -14.784  -16.461  -18.185  -19.842  -21.364  -22.665  -23.606  -24.079  -24.036  -23.519  -22.664  -21.641  -20.607  -19.670  -18.896  -18.262  -17.705  -17.188  -16.784  -16.689  -17.053  -17.765  -18.382  -18.364  -17.443  -15.823  -13.990  -12.384  -11.187  -10.341   -9.748   -9.434   -9.622  -10.554  -12.299  -14.565  -16.764  -18.275  -18.774  -18.334  -17.396  -16.510  -16.009  -15.834  -15.671  -15.271  -14.608  -13.899  -13.379  -13.092  -12.858  -12.572  -12.329  -12.354  -12.727  -13.343  -13.952  -14.363  -14.442  -14.168  -13.664  -13.188  -13.064  -13.514  -14.500  -15.729  -16.748  -17.142  -16.666  -15.424  -13.811  -12.310  -11.195  -10.457   -9.878   -9.277   -8.614   -7.951   -7.297   -6.598   -5.801   -4.945   -4.128   -3.473   -3.012   -2.696   -2.476   -2.349   -2.286   -2.382
 -12.581  -12.141  -11.558  -10.929  -10.422  -10.150  -10.193  -10.594  -11.388  -12.497  -13.791  -15.169  -16.582  -18.039  -19.543  -21.038  -22.353  -23.339  -23.875  -23.953  -23.636  -23.047  -22.336  -21.628  -21.007  -20.463  -19.952  -19.435  -18.989  -18.788  -18.939  -19.353  -19.668  -19.438  -18.451  -16.848  -15.013  -13.300  -11.890  -10.862  -10.254  -10.207  -10.850  -12.253  -14.295  -16.581  -18.513  -19.527  -19.373  -18.205  -16.540  -14.989  -13.928  -13.337  -12.947  -12.483  -11.855  -11.120  -10.448   -9.888   -9.408   -9.013   -8.843   -9.152  -10.032  -11.325  -12.684  -13.760  -14.365  -14.488  -14.287  -14.024  -14.000  -14.425  -15.310  -16.389  -17.176  -17.217  -16.286  -14.596  -12.658  -11.016   -9.923   -9.258   -8.703   -8.043   -7.230   -6.380   -5.577   -4.824   -4.105   -3.427   -2.859   -2.457   -2.221   -2.098   -2.055   -2.073   -2.124   -2.273
 -11.420  -10.856  -10.110   -9.373   -8.912   -8.851   -9.174   -9.819  -10.688  -11.669  -12.657  -13.609  -14.607  -15.765  -17.161  -18.776  -20.445  -21.955  -23.140  -23.913  -24.247  -24.213  -23.912  -23.472  -22.971  -22.421  -21.783  -21.069  -20.360  -19.808  -19.528  -19.470  -19.394  -18.990  -18.101  -16.820  -15.397  -14.061  -12.952  -12.211  -11.996  -12.481  -13.727  -15.659  -17.981  -20.193  -21.690  -21.998  -20.981  -18.894  -16.340  -13.965  -12.196  -11.067  -10.341   -9.757   -9.153   -8.490   -7.834   -7.238   -6.762   -6.465   -6.543   -7.224   -8.601  -10.466  -12.407  -13.989  -14.995  -15.425  -15.466  -15.344  -15.277  -15.429  -15.834  -16.325  -16.497  -15.951  -14.545  -12.562  -10.531   -8.950   -7.975   -7.416   -6.933   -6.324   -5.555   -4.765   -4.047   -3.441   -2.930   -2.524   -2.261   -2.138   -2.098   -2.111   -2.168   -2.256   -2.355   -2.520
 -11.742  -11.056  -10.092   -9.172   -8.653   -8.653   -9.094   -9.776  -10.526  -11.193  -11.707  -12.101  -12.552  -13.280  -14.431  -16.013  -17.889  -19.844  -21.667  -23.159  -24.209  -24.810  -25.005  -24.874  -24.489  -23.863  -23.015  -21.985  -20.885  -19.866  -19.053  -18.449  -17.955  -17.382  -16.645  -15.796  -14.970  -14.289  -13.841  -13.750  -14.197  -15.347  -17.207  -19.599  -22.115  -24.204  -25.273  -24.932  -23.137  -20.256  -16.927  -13.806  -11.331   -9.603   -8.457   -7.646   -6.974   -6.353   -5.767   -5.276   -4.937   -4.877   -5.261   -6.309   -8.048  -10.246  -12.469  -14.282  -15.484  -16.118  -16.367  -16.394  -16.292  -16.149  -15.996  -15.753  -15.183  -14.036  -12.285  -10.214   -8.296   -6.881   -6.018   -5.501   -5.052   -4.532   -3.919   -3.325   -2.834   -2.459   -2.206   -2.092   -2.099   -2.190   -2.299   -2.388   -2.479   -2.596   -2.715   -2.874
 -13.423  -12.663  -11.534  -10.439   -9.802   -9.766  -10.164  -10.706  -11.154  -11.337  -11.250  -10.976  -10.799  -10.975  -11.728  -13.105  -14.997  -17.221  -19.532  -21.679  -23.445  -24.705  -25.437  -25.659  -25.414  -24.736  -23.673  -22.320  -20.817  -19.328  -18.000  -16.905  -16.021  -15.288  -14.670  -14.206  -13.971  -13.998  -14.297  -14.931  -16.019  -17.674  -19.883  -22.446  -24.950  -26.853  -27.591  -26.847  -24.669  -21.460  -17.840  -14.395  -11.527   -9.357   -7.809   -6.714   -5.877   -5.201   -4.649   -4.253   -4.085   -4.257   -4.923   -6.198   -8.065  -10.279  -12.440  -14.178  -15.357  -16.063  -16.490  -16.711  -16.698  -16.399  -15.828  -14.975  -13.794  -12.214  -10.306   -8.318   -6.582   -5.302   -4.478   -3.945   -3.524   -3.100   -2.689   -2.331   -2.079   -1.945   -1.915   -2.009   -2.187   -2.384   -2.546   -2.634   -2.713   -2.820   -2.922   -3.077
 -15.711  -14.979  -13.820  -12.670  -11.987  -11.902  -12.197  -12.510  -12.564  -12.201  -11.461  -10.534   -9.719   -9.351   -9.639  -10.663  -12.359  -14.602  -17.169  -19.770  -22.097  -23.924  -25.139  -25.708  -25.648  -24.994  -23.811  -22.230  -20.412  -18.557  -16.838  -15.377  -14.224  -13.362  -12.815  -12.628  -12.856  -13.475  -14.396  -15.576  -17.014  -18.792  -20.902  -23.215  -25.390  -26.942  -27.410  -26.551  -24.466  -21.549  -18.308  -15.181  -12.424  -10.163   -8.400   -7.053   -6.028   -5.256   -4.691   -4.368   -4.338   -4.684   -5.488   -6.791   -8.514  -10.427  -12.197  -13.567  -14.486  -15.118  -15.637  -16.061  -16.203  -15.889  -15.097  -13.889  -12.353  -10.579   -8.699   -6.912   -5.376   -4.217   -3.427   -2.895   -2.521   -2.236   -2.017   -1.873   -1.827   -1.869   -2.007   -2.206   -2.442   -2.638   -2.740   -2.760   -2.761   -2.810   -2.883   -3.018
 -17.829  -17.211  -16.211  -15.205  -14.614  -14.535  -14.739  -14.839  -14.524  -13.683  -12.419  -10.968   -9.669   -8.853   -8.730   -9.356  -10.729  -12.751  -15.264  -17.972  -20.533  -22.655  -24.158  -24.990  -25.111  -24.556  -23.378  -21.712  -19.742  -17.676  -15.737  -14.083  -12.791  -11.885  -11.394  -11.390  -11.927  -12.933  -14.245  -15.684  -17.156  -18.682  -20.305  -21.979  -23.494  -24.505  -24.702  -23.927  -22.315  -20.185  -17.870  -15.590  -13.434  -11.456   -9.714   -8.260   -7.116   -6.269   -5.711   -5.447   -5.502   -5.895   -6.661   -7.765   -9.099  -10.445  -11.590  -12.381  -12.876  -13.287  -13.784  -14.303  -14.563  -14.296  -13.440  -12.119  -10.517   -8.821   -7.178   -5.698   -4.452   -3.468   -2.765   -2.300   -2.030   -1.892   -1.833   -1.859   -1.955   -2.127   -2.348   -2.590   -2.798   -2.908   -2.883   -2.767   -2.652   -2.612   -2.635   -2.765
 -19.344  -18.917  -18.221  -17.545  -17.167  -17.169  -17.335  -17.295  -16.754  -15.626  -14.058  -12.330  -10.781   -9.720   -9.329   -9.643  -10.648  -12.284  -14.431  -16.835  -19.189  -21.199  -22.682  -23.562  -23.799  -23.369  -22.299  -20.696  -18.726  -16.617  -14.615  -12.907  -11.601  -10.726  -10.321  -10.451  -11.155  -12.347  -13.798  -15.253  -16.557  -17.673  -18.663  -19.567  -20.298  -20.704  -20.631  -20.060  -19.104  -17.968  -16.776  -15.532  -14.174  -12.697  -11.177   -9.758   -8.577   -7.714   -7.171   -6.937   -6.969   -7.262   -7.795   -8.492   -9.247   -9.912  -10.356  -10.542  -10.579  -10.715  -11.082  -11.573  -11.845  -11.614  -10.828   -9.625   -8.244   -6.876   -5.648   -4.593   -3.706   -2.994   -2.466   -2.132   -1.983   -1.956   -2.009   -2.130   -2.313   -2.546   -2.803   -3.035   -3.178   -3.171   -3.009   -2.743   -2.500   -2.371   -2.351   -2.463
 -20.266  -20.055  -19.757  -19.485  -19.408  -19.546  -19.717  -19.626  -19.011  -17.831  -16.210  -14.459  -12.887  -11.783  -11.284  -11.405  -12.088  -13.274  -14.836  -16.596  -18.331  -19.830  -20.962  -21.665  -21.883  -21.549  -20.640  -19.192  -17.349  -15.336  -13.398  -11.736  -10.483   -9.677   -9.350   -9.556  -10.303  -11.492  -12.882  -14.218  -15.301  -16.088  -16.602  -16.917  -17.054  -17.024  -16.842  -16.569  -16.272  -16.013  -15.742  -15.354  -14.689  -13.687  -12.434  -11.112   -9.926   -9.020   -8.423   -8.079   -7.953   -7.996   -8.157   -8.349   -8.507   -8.553   -8.427   -8.170   -7.902   -7.825   -8.049   -8.421   -8.649   -8.469   -7.865   -6.978   -6.026   -5.167   -4.452   -3.865   -3.348   -2.910   -2.577   -2.391   -2.334   -2.378   -2.483   -2.631   -2.818   -3.044   -3.262   -3.414   -3.456   -3.343   -3.080   -2.732   -2.420   -2.245   -2.183   -2.292
 -20.765  -20.782  -20.872  -21.031  -21.260  -21.544  -21.760  -21.682  -21.128  -20.052  -18.572  -16.954  -15.497  -14.452  -13.934  -13.928  -14.367  -15.111  -16.017  -16.981  -17.878  -18.634  -19.219  -19.597  -19.685  -19.396  -18.640  -17.402  -15.783  -13.978  -12.200  -10.648   -9.456   -8.671   -8.344   -8.508   -9.159  -10.190  -11.389  -12.540  -13.461  -14.084  -14.406  -14.494  -14.433  -14.342  -14.328  -14.456  -14.721  -15.067  -15.358  -15.436  -15.164  -14.452  -13.354  -12.069  -10.824   -9.781   -8.993   -8.413   -7.990   -7.693   -7.453   -7.219   -6.939   -6.597   -6.198   -5.792   -5.471   -5.358   -5.505   -5.775   -5.956   -5.888   -5.551   -5.082   -4.619   -4.259   -4.004   -3.783   -3.563   -3.346   -3.191   -3.133   -3.166   -3.258   -3.371   -3.492   -3.599   -3.678   -3.722   -3.708   -3.614   -3.415   -3.125   -2.792   -2.506   -2.348   -2.291   -2.386
 -21.007  -21.210  -21.632  -22.156  -22.657  -23.069  -23.311  -23.258  -22.799  -21.898  -20.644  -19.243  -17.951  -16.966  -16.415  -16.290  -16.482  -16.821  -17.142  -17.353  -17.449  -17.490  -17.524  -17.565  -17.527  -17.277  -16.686  -15.701  -14.393  -12.899  -11.383   -9.973   -8.798   -7.938   -7.466   -7.420   -7.804   -8.538   -9.445  -10.355  -11.143  -11.718  -12.062  -12.228  -12.322  -12.512  -12.912  -13.527  -14.265  -14.972  -15.511  -15.750  -15.584  -14.936  -13.850  -12.506  -11.132   -9.896   -8.836   -7.949   -7.208   -6.605   -6.076   -5.600   -5.147   -4.740   -4.377   -4.087   -3.916   -3.933   -4.112   -4.379   -4.585   -4.662   -4.607   -4.486   -4.387   -4.368   -4.388   -4.386   -4.341   -4.305   -4.341   -4.442   -4.598   -4.756   -4.876   -4.922   -4.851   -4.659   -4.401   -4.090   -3.784   -3.498   -3.235   -2.999   -2.819   -2.736   -2.720   -2.834
 -21.048  -21.370  -22.018  -22.788  -23.456  -23.917  -24.125  -24.041  -23.634  -22.892  -21.861  -20.692  -19.560  -18.635  -18.018  -17.728  -17.657  -17.628  -17.469  -17.118  -16.645  -16.177  -15.843  -15.677  -15.599  -15.453  -15.093  -14.454  -13.566  -12.506  -11.343  -10.142   -8.980   -7.944   -7.156   -6.715   -6.667   -6.959   -7.460   -8.057   -8.657   -9.178   -9.592   -9.946  -10.354  -10.966  -11.854  -12.932  -14.033  -14.965  -15.596  -15.847  -15.644  -14.945  -13.790  -12.360  -10.871   -9.480   -8.232   -7.134   -6.193   -5.413   -4.784   -4.289   -3.911   -3.660   -3.523   -3.479   -3.552   -3.733   -4.025   -4.349   -4.648   -4.889   -5.047   -5.132   -5.200   -5.295   -5.389   -5.453   -5.521   -5.665   -5.937   -6.290   -6.652   -6.933   -7.078   -7.025   -6.714   -6.175   -5.492   -4.811   -4.231   -3.806   -3.543   -3.388   -3.329   -3.348   -3.408   -3.554
 -20.891  -21.277  -22.039  -22.906  -23.600  -23.987  -24.034  -23.796  -23.327  -22.644  -21.792  -20.839  -19.892  -19.048  -18.384  -17.920  -17.574  -17.221  -16.723  -16.041  -15.283  -14.597  -14.122  -13.921  -13.922  -13.994  -13.985  -13.820  -13.491  -13.009  -12.329  -11.440  -10.326   -9.079   -7.876   -6.902   -6.279   -6.002   -5.996   -6.174   -6.485   -6.870   -7.293   -7.787   -8.454   -9.401  -10.629  -12.004  -13.311  -14.355  -15.030  -15.266  -15.010  -14.254  -13.060  -11.609  -10.115   -8.739   -7.516   -6.432   -5.503   -4.754   -4.199   -3.850   -3.690   -3.697   -3.817   -4.006   -4.261   -4.585   -4.954   -5.345   -5.743   -6.109   -6.366   -6.499   -6.544   -6.579   -6.621   -6.684   -6.845   -7.213   -7.796   -8.494   -9.137   -9.595   -9.790   -9.642   -9.104   -8.228   -7.135   -6.052   -5.130   -4.462   -4.087   -3.924   -3.911   -3.983   -4.100   -4.277
 -20.605  -21.005  -21.781  -22.618  -23.201  -23.357  -23.091  -22.543  -21.858  -21.113  -20.353  -19.588  -18.848  -18.142  -17.499  -16.914  -16.355  -15.760  -15.073  -14.281  -13.472  -12.790  -12.364  -12.251  -12.424  -12.784  -13.229  -13.661  -14.027  -14.241  -14.179  -13.701  -12.731  -11.341   -9.765   -8.259   -7.038   -6.150   -5.576   -5.268   -5.207   -5.375   -5.717   -6.239   -6.999   -8.035   -9.311  -10.679  -11.954  -12.970  -13.615  -13.840  -13.582  -12.839  -11.697  -10.349   -9.016   -7.851   -6.888   -6.069   -5.377   -4.854   -4.538   -4.442   -4.567   -4.819   -5.144   -5.470   -5.812   -6.165   -6.538   -6.937   -7.366   -7.752   -7.986   -8.035   -7.929   -7.814   -7.758   -7.825   -8.118   -8.755   -9.700  -10.784  -11.736  -12.391  -12.644  -12.438  -11.750  -10.616   -9.206   -7.745   -6.448   -5.462   -4.829   -4.494   -4.405   -4.458   -4.586   -4.775
 -20.343  -20.721  -21.456  -22.184  -22.553  -22.360  -21.654  -20.650  -19.594  -18.659  -17.886  -17.260  -16.727  -16.206  -15.656  -15.050  -14.389  -13.690  -12.954  -12.205  -11.495  -10.935  -10.619  -10.626  -10.970  -11.629  -12.542  -13.616  -14.727  -15.701  -16.300  -16.313  -15.611  -14.254  -12.479  -10.608   -8.923   -7.529   -6.443   -5.679   -5.263   -5.193   -5.409   -5.854   -6.515   -7.372   -8.365   -9.383  -10.314  -11.073  -11.570  -11.749  -11.519  -10.875   -9.903   -8.792   -7.768   -6.975   -6.429   -6.053   -5.803   -5.661   -5.697   -5.935   -6.330   -6.791   -7.232   -7.602   -7.912   -8.194   -8.489   -8.817   -9.157   -9.448   -9.541   -9.398   -9.110   -8.844   -8.726   -8.847   -9.312  -10.222  -11.504  -12.916  -14.133  -14.944  -15.251  -15.014  -14.237  -12.953  -11.321   -9.552   -7.900   -6.565   -5.627   -5.058   -4.791   -4.763   -4.860   -5.056
 -20.234  -20.591  -21.267  -21.861  -21.979  -21.404  -20.207  -18.663  -17.141  -15.890  -15.006  -14.448  -14.082  -13.753  -13.347  -12.824  -12.191  -11.517  -10.857  -10.232   -9.672   -9.249   -9.024   -9.112   -9.570  -10.444  -11.740  -13.376  -15.167  -16.824  -18.045  -18.563  -18.237  -17.101  -15.389  -13.436  -11.539   -9.848   -8.437   -7.369   -6.708   -6.460   -6.542   -6.840   -7.261   -7.722   -8.158   -8.541   -8.849   -9.108   -9.297   -9.333   -9.127   -8.648   -7.951   -7.203   -6.595   -6.272   -6.243   -6.408   -6.667   -6.996   -7.441   -8.020   -8.658   -9.252   -9.708  -10.021  -10.245  -10.420  -10.585  -10.778  -10.976  -11.102  -11.011  -10.684  -10.241   -9.883   -9.772   -9.990  -10.627  -11.729  -13.194  -14.748  -16.068  -16.903  -17.178  -16.893  -16.056  -14.689  -12.919  -10.946   -9.060   -7.482   -6.308   -5.537   -5.124   -4.998   -5.076   -5.275
 -20.278  -20.631  -21.268  -21.754  -21.661  -20.757  -19.110  -17.044  -15.020  -13.403  -12.339  -11.774  -11.515  -11.341  -11.089  -10.701  -10.202   -9.663   -9.148   -8.675   -8.257   -7.928   -7.772   -7.882   -8.366   -9.342  -10.865  -12.874  -15.152  -17.333  -19.061  -20.040  -20.123  -19.357  -17.937  -16.155  -14.306  -12.586  -11.092   -9.927   -9.172   -8.822   -8.784   -8.887   -8.970   -8.911   -8.668   -8.263   -7.811   -7.430   -7.187   -7.006   -6.803   -6.497   -6.125   -5.807   -5.683   -5.873   -6.378   -7.090   -7.875   -8.676   -9.502  -10.354  -11.144  -11.767  -12.175  -12.405  -12.518  -12.590  -12.660  -12.745  -12.822  -12.800  -12.586  -12.163  -11.675  -11.333  -11.283  -11.583  -12.273  -13.362  -14.729  -16.137  -17.272  -17.919  -18.023  -17.608  -16.692  -15.284  -13.471  -11.451   -9.527   -7.916   -6.703   -5.882   -5.415   -5.283   -5.360   -5.578
 -20.246  -20.600  -21.233  -21.684  -21.472  -20.351  -18.372  -15.898  -13.442  -11.467  -10.194   -9.582   -9.382   -9.331   -9.222   -9.000   -8.684   -8.331   -7.984   -7.660   -7.350   -7.088   -6.968   -7.074   -7.522   -8.459  -10.020  -12.195  -14.740  -17.258  -19.336  -20.683  -21.166  -20.815  -19.786  -18.333  -16.722  -15.171  -13.810  -12.735  -12.011  -11.609  -11.427  -11.288  -10.986  -10.391   -9.475   -8.329   -7.168   -6.196   -5.535   -5.150   -4.930   -4.780   -4.708   -4.793   -5.150   -5.841   -6.835   -8.026   -9.271  -10.469  -11.594  -12.605  -13.436  -14.016  -14.340  -14.481  -14.522  -14.554  -14.595  -14.639  -14.667  -14.609  -14.397  -14.032  -13.638  -13.385  -13.391  -13.679  -14.235  -15.027  -15.967  -16.871  -17.526  -17.765  -17.548  -16.919  -15.898  -14.495  -12.774  -10.921   -9.194   -7.787   -6.748   -6.050   -5.672   -5.587   -5.702   -5.957
 -19.671  -20.047  -20.709  -21.175  -20.957  -19.770  -17.634  -14.921  -12.191   -9.959   -8.531   -7.872   -7.707   -7.737   -7.754   -7.684   -7.566   -7.427   -7.249   -7.047   -6.820   -6.620   -6.529   -6.612   -6.978   -7.795   -9.256  -11.400  -14.021  -16.684  -18.971  -20.584  -21.385  -21.402  -20.754  -19.662  -18.379  -17.116  -16.015  -15.141  -14.505  -14.071  -13.728  -13.318  -12.641  -11.551  -10.073   -8.369   -6.719   -5.394   -4.523   -4.046   -3.840   -3.813   -3.953   -4.338   -5.066   -6.141   -7.525   -9.080  -10.660  -12.143  -13.443  -14.508  -15.288  -15.783  -16.032  -16.124  -16.153  -16.185  -16.251  -16.328  -16.384  -16.370  -16.262  -16.051  -15.824  -15.690  -15.716  -15.885  -16.141  -16.433  -16.696  -16.867  -16.838  -16.520  -15.895  -15.021  -13.908  -12.581  -11.103   -9.609   -8.291   -7.269   -6.551   -6.087   -5.853   -5.868   -6.034   -6.316
 -18.147  -18.516  -19.211  -19.757  -19.628  -18.515  -16.414  -13.688  -10.903   -8.610   -7.134   -6.458   -6.311   -6.380   -6.472   -6.530   -6.581   -6.603   -6.580   -6.485   -6.348   -6.222   -6.157   -6.216   -6.490   -7.167   -8.465  -10.458  -12.981  -15.625  -17.977  -19.731  -20.742  -21.028  -20.692  -19.928  -18.986  -18.061  -17.272  -16.631  -16.102  -15.632  -15.131  -14.469  -13.459  -11.997  -10.141   -8.132   -6.295   -4.922   -4.094   -3.711   -3.607   -3.675   -3.947   -4.505   -5.427   -6.721   -8.302  -10.044  -11.796  -13.419  -14.783  -15.815  -16.499  -16.901  -17.095  -17.169  -17.202  -17.262  -17.368  -17.495  -17.599  -17.669  -17.683  -17.639  -17.573  -17.517  -17.517  -17.519  -17.436  -17.197  -16.771  -16.188  -15.453  -14.576  -13.577  -12.497  -11.366  -10.212   -9.075   -8.036   -7.202   -6.616   -6.250   -6.062   -6.017   -6.127   -6.356   -6.655
 -15.608  -15.927  -16.635  -17.261  -17.291  -16.389  -14.519  -12.006   -9.409   -7.268   -5.888   -5.249   -5.097   -5.151   -5.262   -5.375   -5.499   -5.623   -5.701   -5.715   -5.668   -5.634   -5.620   -5.682   -5.908   -6.475   -7.593   -9.363  -11.633  -14.090  -16.354  -18.114  -19.224  -19.666  -19.543  -19.062  -18.442  -17.865  -17.381  -16.963  -16.541  -16.033  -15.391  -14.513  -13.278  -11.605   -9.599   -7.549   -5.814   -4.639   -4.049   -3.892   -3.966   -4.162   -4.510   -5.122   -6.085   -7.382   -8.954  -10.673  -12.411  -14.017  -15.330  -16.266  -16.835  -17.146  -17.287  -17.340  -17.368  -17.445  -17.572  -17.726  -17.870  -18.000  -18.100  -18.164  -18.187  -18.169  -18.119  -17.971  -17.632  -16.999  -16.072  -14.931  -13.691  -12.427  -11.196  -10.043   -8.990   -8.072   -7.302   -6.700   -6.301   -6.080   -6.023   -6.070   -6.210   -6.444   -6.721   -7.061
 -12.464  -12.702  -13.381  -14.054  -14.265  -13.655  -12.160  -10.055   -7.853   -6.051   -4.883   -4.318   -4.139   -4.138   -4.188   -4.276   -4.402   -4.540   -4.667   -4.769   -4.844   -4.922   -5.008   -5.136   -5.379   -5.887   -6.839   -8.311  -10.218  -12.327  -14.334  -15.964  -17.040  -17.532  -17.538  -17.270  -16.934  -16.667  -16.454  -16.223  -15.875  -15.342  -14.604  -13.605  -12.264  -10.570   -8.648   -6.793   -5.333   -4.479   -4.197   -4.298   -4.569   -4.897   -5.313   -5.905   -6.755   -7.880   -9.235  -10.742  -12.280  -13.708  -14.868  -15.659  -16.104  -16.316  -16.398  -16.414  -16.420  -16.473  -16.590  -16.748  -16.900  -17.050  -17.181  -17.285  -17.329  -17.305  -17.207  -16.978  -16.516  -15.714  -14.575  -13.207  -11.769  -10.377   -9.130   -8.065   -7.208   -6.555   -6.117   -5.852   -5.756   -5.784   -5.926   -6.155   -6.470   -6.827   -7.179   -7.553
  -9.529   -9.664  -10.257  -10.930  -11.274  -10.961   -9.880   -8.271   -6.579   -5.198   -4.298   -3.823   -3.612   -3.530   -3.496   -3.512   -3.588   -3.701   -3.855   -4.029   -4.230   -4.442   -4.661   -4.898   -5.193   -5.685   -6.491   -7.672   -9.166  -10.828  -12.449  -13.811  -14.736  -15.182  -15.245  -15.125  -15.008  -14.976  -14.951  -14.826  -14.516  -13.984  -13.225  -12.222  -10.937   -9.408   -7.769   -6.271   -5.170   -4.626   -4.570   -4.831   -5.233   -5.659   -6.116   -6.657   -7.317   -8.128   -9.106  -10.219  -11.388  -12.501  -13.413  -14.023  -14.339  -14.454  -14.472  -14.437  -14.407  -14.420  -14.508  -14.650  -14.799  -14.934  -15.055  -15.139  -15.150  -15.098  -14.981  -14.749  -14.292  -13.532  -12.441  -11.156   -9.806   -8.556   -7.495   -6.664   -6.073   -5.703   -5.523   -5.491   -5.555   -5.706   -5.954   -6.288   -6.716   -7.178   -7.591   -7.983
  -7.649   -7.660   -8.107   -8.682   -9.058   -8.937   -8.219   -7.083   -5.883   -4.901   -4.251   -3.860   -3.613   -3.440   -3.332   -3.278   -3.305   -3.410   -3.584   -3.828   -4.132   -4.463   -4.810   -5.144   -5.512   -6.023   -6.744   -7.717   -8.874  -10.116  -11.323  -12.335  -13.036  -13.371  -13.433  -13.419  -13.460  -13.557  -13.602  -13.477  -13.175  -12.689  -12.011  -11.144  -10.077   -8.868   -7.634   -6.561   -5.815   -5.485   -5.517   -5.789   -6.196   -6.641   -7.093   -7.536   -7.958   -8.388   -8.865   -9.442  -10.098  -10.770  -11.340  -11.721  -11.893  -11.921  -11.878  -11.801  -11.748  -11.733  -11.804  -11.929  -12.058  -12.176  -12.259  -12.286  -12.247  -12.168  -12.061  -11.880  -11.534  -10.924  -10.064   -9.042   -7.995   -7.054   -6.307   -5.781   -5.471   -5.358   -5.394   -5.501   -5.654   -5.839   -6.092   -6.442   -6.891   -7.380   -7.809   -8.224
  -7.288   -7.190   -7.445   -7.804   -8.071   -7.987   -7.465   -6.660   -5.837   -5.159   -4.672   -4.308   -4.016   -3.782   -3.615   -3.531   -3.547   -3.659   -3.875   -4.170   -4.538   -4.942   -5.353   -5.747   -6.183   -6.733   -7.478   -8.407   -9.432  -10.443  -11.342  -12.054  -12.530  -12.758  -12.839  -12.923  -13.070  -13.198  -13.188  -12.995  -12.671  -12.268  -11.774  -11.161  -10.424   -9.616   -8.829   -8.170   -7.730   -7.531   -7.542   -7.713   -8.000   -8.372   -8.752   -9.049   -9.203   -9.194   -9.103   -9.039   -9.051   -9.156   -9.285   -9.373   -9.382   -9.322   -9.223   -9.127   -9.072   -9.059   -9.126   -9.244   -9.364   -9.471   -9.519   -9.493   -9.411   -9.318   -9.247   -9.141   -8.931   -8.535   -7.958   -7.262   -6.581   -6.002   -5.591   -5.378   -5.341   -5.431   -5.616   -5.816   -6.015   -6.195   -6.394   -6.667   -7.050   -7.479   -7.870   -8.285
  -8.472   -8.270   -8.318   -8.412   -8.419   -8.168   -7.625   -6.934   -6.275   -5.738   -5.310   -4.935   -4.598   -4.328   -4.145   -4.064   -4.099   -4.240   -4.479   -4.801   -5.182   -5.586   -5.991   -6.387   -6.861   -7.510   -8.414   -9.506  -10.650  -11.686  -12.514  -13.097  -13.457  -13.671  -13.833  -14.036  -14.242  -14.336  -14.222  -13.921  -13.577  -13.276  -13.002  -12.681  -12.296  -11.882  -11.513  -11.232  -11.052  -10.939  -10.883  -10.902  -11.040  -11.283  -11.534  -11.665  -11.534  -11.085  -10.401   -9.616   -8.888   -8.310   -7.903   -7.636   -7.442   -7.284   -7.152   -7.039   -6.985   -6.983   -7.053   -7.175   -7.293   -7.396   -7.429   -7.386   -7.299   -7.225   -7.191   -7.170   -7.087   -6.884   -6.562   -6.171   -5.808   -5.540   -5.414   -5.440   -5.599   -5.851   -6.144   -6.417   -6.643   -6.803   -6.943   -7.117   -7.403   -7.753   -8.094   -8.521
 -10.937  -10.667  -10.552  -10.376  -10.027   -9.408   -8.585   -7.737   -7.006   -6.424   -5.953   -5.552   -5.211   -4.960   -4.802   -4.755   -4.815   -4.962   -5.181   -5.471   -5.789   -6.125   -6.448   -6.810   -7.311   -8.099   -9.252  -10.677  -12.167  -13.486  -14.489  -15.146  -15.560  -15.861  -16.163  -16.481  -16.719  -16.759  -16.550  -16.183  -15.845  -15.631  -15.520  -15.431  -15.325  -15.236  -15.204  -15.225  -15.246  -15.219  -15.121  -15.043  -15.067  -15.189  -15.319  -15.279  -14.896  -14.079  -12.867  -11.406   -9.917   -8.611   -7.627   -6.969   -6.559   -6.295   -6.126   -6.001   -5.929   -5.920   -5.977   -6.091   -6.213   -6.318   -6.384   -6.380   -6.335   -6.299   -6.308   -6.342   -6.352   -6.301   -6.161   -5.984   -5.841   -5.781   -5.832   -5.999   -6.274   -6.612   -6.993   -7.344   -7.635   -7.824   -7.952   -8.081   -8.298   -8.608   -8.918   -9.368
 -14.273  -14.006  -13.802  -13.393  -12.660  -11.564  -10.259   -8.994   -7.955   -7.176   -6.597   -6.175   -5.875   -5.697   -5.595   -5.569   -5.625   -5.719   -5.861   -6.032   -6.227   -6.418   -6.630   -6.918   -7.437   -8.362   -9.788  -11.605  -13.541  -15.290  -16.649  -17.559  -18.144  -18.597  -19.029  -19.417  -19.660  -19.659  -19.422  -19.067  -18.760  -18.601  -18.562  -18.592  -18.658  -18.778  -18.960  -19.167  -19.336  -19.384  -19.308  -19.216  -19.201  -19.261  -19.298  -19.139  -18.601  -17.556  -15.989  -14.018  -11.902   -9.981   -8.503   -7.530   -6.956   -6.623   -6.417   -6.269   -6.181   -6.151   -6.189   -6.267   -6.389   -6.520   -6.628   -6.702   -6.741   -6.769   -6.830   -6.913   -6.991   -7.032   -7.004   -6.942   -6.886   -6.880   -6.966   -7.157   -7.457   -7.856   -8.324   -8.815   -9.243   -9.556   -9.739   -9.863  -10.043  -10.327  -10.623  -11.099
 -18.055  -17.806  -17.561  -16.996  -15.917  -14.332  -12.460  -10.657   -9.180   -8.099   -7.366   -6.914   -6.663   -6.543   -6.475   -6.438   -6.436   -6.435   -6.442   -6.459   -6.467   -6.492   -6.561   -6.749   -7.241   -8.251   -9.873  -12.012  -14.374  -16.592  -18.374  -19.612  -20.433  -21.031  -21.540  -21.942  -22.163  -22.146  -21.945  -21.662  -21.419  -21.281  -21.267  -21.334  -21.469  -21.668  -21.923  -22.204  -22.429  -22.527  -22.515  -22.473  -22.488  -22.556  -22.560  -22.356  -21.774  -20.665  -18.955  -16.730  -14.289  -12.046  -10.330   -9.245   -8.645   -8.323   -8.131   -7.995   -7.899   -7.862   -7.890   -7.970   -8.087   -8.251   -8.423   -8.600   -8.768   -8.911   -9.041   -9.173   -9.300   -9.396   -9.404   -9.345   -9.239   -9.136   -9.095   -9.185   -9.447   -9.906  -10.528  -11.246  -11.913  -12.420  -12.687  -12.794  -12.892  -13.079  -13.314  -13.782
 -21.909  -21.662  -21.368  -20.660  -19.313  -17.324  -14.953  -12.619  -10.656   -9.217   -8.282   -7.744   -7.488   -7.364   -7.284   -7.201   -7.108   -6.997   -6.861   -6.720   -6.569   -6.431   -6.350   -6.430   -6.864   -7.875   -9.585  -11.923  -14.596  -17.200  -19.376  -20.954  -22.006  -22.725  -23.251  -23.618  -23.792  -23.787  -23.664  -23.498  -23.346  -23.261  -23.259  -23.334  -23.474  -23.657  -23.874  -24.102  -24.301  -24.414  -24.458  -24.494  -24.581  -24.694  -24.718  -24.523  -23.975  -22.920  -21.272  -19.104  -16.712  -14.552  -12.973  -12.049  -11.610  -11.427  -11.340  -11.266  -11.211  -11.203  -11.273  -11.393  -11.550  -11.757  -12.004  -12.307  -12.644  -12.971  -13.245  -13.461  -13.646  -13.770  -13.783  -13.643  -13.353  -12.976  -12.640  -12.497  -12.673  -13.212  -14.075  -15.121  -16.125  -16.867  -17.226  -17.272  -17.212  -17.223  -17.323  -17.794
 -25.985  -25.680  -25.259  -24.358  -22.749  -20.429  -17.641  -14.820  -12.360  -10.511   -9.294   -8.602   -8.256   -8.081   -7.959   -7.821   -7.652   -7.455   -7.229   -6.984   -6.724   -6.489   -6.319   -6.321   -6.690   -7.654   -9.349  -11.750  -14.593  -17.454  -19.919  -21.776  -23.032  -23.839  -24.353  -24.654  -24.788  -24.816  -24.802  -24.784  -24.779  -24.799  -24.865  -24.974  -25.098  -25.227  -25.344  -25.456  -25.554  -25.628  -25.691  -25.786  -25.937  -26.096  -26.164  -26.026  -25.573  -24.684  -23.284  -21.463  -19.503  -17.818  -16.714  -16.209  -16.109  -16.172  -16.239  -16.267  -16.285  -16.347  -16.479  -16.670  -16.881  -17.127  -17.449  -17.897  -18.463  -19.055  -19.564  -19.957  -20.256  -20.455  -20.493  -20.259  -19.721  -18.949  -18.170  -17.684  -17.730  -18.398  -19.589  -21.081  -22.545  -23.641  -24.189  -24.266  -24.170  -24.168  -24.286  -24.892
 -31.333  -30.886  -30.201  -28.951  -26.974  -24.269  -21.031  -17.670  -14.634  -12.262  -10.645   -9.691   -9.190   -8.945   -8.785   -8.619   -8.418   -8.181   -7.925   -7.656   -7.385   -7.131   -6.958   -6.957   -7.304   -8.211   -9.844  -12.202  -15.071  -18.028  -20.661  -22.706  -24.110  -24.979  -25.468  -25.712  -25.824  -25.909  -26.032  -26.213  -26.432  -26.668  -26.908  -27.125  -27.292  -27.386  -27.410  -27.389  -27.354  -27.340  -27.364  -27.454  -27.615  -27.807  -27.944  -27.933  -27.682  -27.101  -26.164  -24.958  -23.723  -22.787  -22.372  -22.438  -22.770  -23.112  -23.338  -23.451  -23.521  -23.628  -23.783  -23.971  -24.166  -24.398  -24.760  -25.366  -26.227  -27.178  -28.044  -28.740  -29.289  -29.721  -29.924  -29.738  -29.036  -27.928  -26.739  -25.949  -25.935  -26.850  -28.546  -30.718  -32.908  -34.707  -35.876  -36.560  -37.115  -37.799  -38.504  -39.574
 -39.564  -38.964  -37.851  -36.040  -33.479  -30.194  -26.326  -22.228  -18.391  -15.271  -13.072  -11.719  -10.982  -10.617  -10.417  -10.246  -10.045   -9.820   -9.583   -9.353   -9.142   -8.980   -8.897   -8.960   -9.329  -10.188  -11.726  -13.977  -16.738  -19.662  -22.323  -24.455  -25.940  -26.838  -27.303  -27.502  -27.618  -27.774  -28.069  -28.522  -29.100  -29.729  -30.319  -30.796  -31.111  -31.248  -31.222  -31.083  -30.903  -30.750  -30.662  -30.663  -30.771  -30.978  -31.247  -31.489  -31.619  -31.566  -31.320  -30.948  -30.629  -30.584  -30.938  -31.617  -32.380  -32.990  -33.347  -33.508  -33.585  -33.652  -33.717  -33.771  -33.822  -33.960  -34.345  -35.137  -36.340  -37.748  -39.105  -40.301  -41.363  -42.306  -42.979  -43.142  -42.645  -41.609  -40.472  -39.844  -40.234  -41.814  -44.425  -47.686  -51.096  -54.208  -56.818  -59.103  -61.386  -63.706  -65.600  -67.156
 -51.591  -50.948  -49.352  -46.847  -43.530  -39.452  -34.723  -29.629  -24.710  -20.565  -17.549  -15.610  -14.504  -13.932  -13.636  -13.439  -13.232  -13.014  -12.803  -12.646  -12.544  -12.524  -12.602  -12.816  -13.254  -14.070  -15.473  -17.513  -20.076  -22.843  -25.428  -27.543  -29.044  -29.941  -30.371  -30.532  -30.647  -30.893  -31.403  -32.224  -33.313  -34.541  -35.705  -36.639  -37.244  -37.501  -37.469  -37.230  -36.895  -36.567  -36.300  -36.144  -36.143  -36.380  -36.863  -37.527  -38.254  -38.955  -39.590  -40.186  -40.842  -41.691  -42.798  -44.062  -45.240  -46.113  -46.631  -46.886  -47.002  -47.036  -46.993  -46.884  -46.797  -46.900  -47.410  -48.496  -50.140  -52.092  -54.081  -55.985  -57.824  -59.584  -61.079  -62.060  -62.404  -62.289  -62.209  -62.798  -64.522  -67.508  -71.544  -76.230  -81.112  -85.820  -90.226  -94.449  -98.586 -102.315 -104.871 -105.915
 -66.321  -65.878  -63.910  -60.790  -56.747  -51.869  -46.222  -40.051  -33.941  -28.631  -24.622  -21.942  -20.326  -19.431  -18.955  -18.662  -18.395  -18.132  -17.914  -17.794  -17.814  -17.974  -18.276  -18.686  -19.221  -20.000  -21.212  -22.974  -25.235  -27.744  -30.172  -32.221  -33.699  -34.572  -34.947  -35.050  -35.145  -35.477  -36.226  -37.482  -39.198  -41.171  -43.068  -44.597  -45.587  -46.021  -45.996  -45.665  -45.192  -44.695  -44.249  -43.922  -43.830  -44.135  -44.919  -46.126  -47.587  -49.145  -50.702  -52.239  -53.797  -55.445  -57.213  -58.997  -60.587  -61.806  -62.634  -63.173  -63.539  -63.774  -63.894  -63.946  -64.073  -64.489  -65.433  -67.033  -69.234  -71.785  -74.447  -77.116  -79.799  -82.466  -84.964  -87.115  -88.892  -90.520  -92.438  -95.120  -98.826 -103.511 -108.908 -114.667 -120.473 -126.108 -131.499 -136.654 -141.418 -145.247 -147.234 -146.581
 -81.047  -81.017  -78.912  -75.428  -70.903  -65.454  -59.117  -52.115  -45.047  -38.753  -33.857  -30.466  -28.315  -27.041  -26.302  -25.835  -25.427  -25.040  -24.718  -24.571  -24.670  -25.020  -25.580  -26.232  -26.900  -27.654  -28.677  -30.136  -32.051  -34.271  -36.523  -38.500  -39.965  -40.808  -41.112  -41.127  -41.177  -41.567  -42.527  -44.191  -46.502  -49.177  -51.771  -53.865  -55.226  -55.832  -55.834  -55.455  -54.905  -54.326  -53.794  -53.400  -53.314  -53.772  -54.914  -56.682  -58.850  -61.184  -63.526  -65.814  -68.065  -70.326  -72.613  -74.840  -76.855  -78.535  -79.885  -80.998  -81.973  -82.856  -83.666  -84.468  -85.398  -86.651  -88.404  -90.722  -93.518  -96.592  -99.774 -102.998 -106.279 -109.614 -112.933 -116.176 -119.398 -122.804 -126.680 -131.245 -136.532 -142.373 -148.504 -154.671 -160.684 -166.427 -171.833 -176.777 -180.905 -183.540 -183.720 -180.888
 -93.086  -93.522  -91.486  -87.909  -83.210  -77.531  -70.903  -63.542  -56.044  -49.270  -43.892  -40.058  -37.516  -35.908  -34.908  -34.225  -33.617  -33.019  -32.507  -32.227  -32.322  -32.829  -33.650  -34.580  -35.446  -36.248  -37.146  -38.361  -40.002  -42.010  -44.164  -46.147  -47.654  -48.508  -48.762  -48.694  -48.682  -49.083  -50.159  -52.071  -54.749  -57.857  -60.879  -63.324  -64.920  -65.659  -65.723  -65.384  -64.887  -64.382  -63.946  -63.676  -63.770  -64.503  -66.032  -68.285  -70.997  -73.882  -76.744  -79.507  -82.183  -84.823  -87.455  -90.032  -92.469  -94.701  -96.752  -98.706 -100.639 -102.586 -104.554 -106.575 -108.726 -111.114 -113.823 -116.860 -120.143 -123.545 -126.971 -130.407 -133.899 -137.498 -141.229 -145.126 -149.276 -153.816 -158.865 -164.438 -170.402 -176.523 -182.558 -188.321 -193.701 -198.625 -202.987 -206.552 -208.949 -209.618 -207.560 -205.213
-100.728 -101.518  -99.644  -96.163  -91.544  -85.953  -79.442  -72.235  -64.910  -58.282  -52.964  -49.088  -46.416  -44.633  -43.451  -42.571  -41.753  -40.908  -40.131  -39.636  -39.644  -40.240  -41.301  -42.536  -43.676  -44.635  -45.556  -46.699  -48.258  -50.253  -52.493  -54.638  -56.307  -57.273  -57.567  -57.489  -57.449  -57.826  -58.897  -60.810  -63.499  -66.623  -69.665  -72.145  -73.792  -74.605  -74.779  -74.593  -74.296  -74.036  -73.888  -73.951  -74.417  -75.538  -77.455  -80.071  -83.109  -86.275  -89.369  -92.320  -95.155  -97.945 -100.747 -103.572 -106.394 -109.206 -112.045 -114.974 -118.036 -121.223 -124.496 -127.819 -131.186 -134.615 -138.119 -141.677 -145.233 -148.729 -152.135 -155.486 -158.863 -162.366 -166.083 -170.105 -174.512 -179.361 -184.637 -190.220 -195.920 -201.533 -206.920 -212.001 -216.735 -221.063 -224.892 -228.074 -230.366 -231.194 -228.736 -233.057
-103.244 -104.178 -102.458  -99.164  -94.789  -89.524  -83.461  -76.838  -70.197  -64.240  -59.460  -55.918  -53.396  -51.637  -50.395  -49.399  -48.422  -47.364  -46.337  -45.616  -45.491  -46.122  -47.387  -48.938  -50.416  -51.674  -52.836  -54.176  -55.948  -58.218  -60.802  -63.320  -65.337  -66.588  -67.102  -67.169  -67.201  -67.570  -68.533  -70.229  -72.596  -75.343  -78.028  -80.244  -81.764  -82.588  -82.895  -82.931  -82.919  -82.998  -83.246  -83.757  -84.691  -86.242  -88.495  -91.329  -94.483  -97.685 -100.761 -103.662 -106.442 -109.199 -112.030 -114.998 -118.139 -121.485 -125.079 -128.945 -133.066 -137.370 -141.747 -146.095 -150.343 -154.455 -158.409 -162.187 -165.767 -169.139 -172.327 -175.401 -178.469 -181.658 -185.100 -188.903 -193.150 -197.876 -203.042 -208.561 -214.307 -220.144 -225.921 -231.483 -236.684 -241.381 -245.510 -248.911 -251.278 -251.797 -248.097 -258.943
-100.679 -101.517  -99.878  -96.786  -92.732  -87.940  -82.546  -76.799  -71.167  -66.207  -62.252  -59.292  -57.128  -55.566  -54.406  -53.419  -52.392  -51.241  -50.083  -49.221  -49.018  -49.692  -51.155  -53.038  -54.947  -56.685  -58.354  -60.233  -62.583  -65.478  -68.707  -71.849  -74.442  -76.209  -77.169  -77.590  -77.844  -78.269  -79.102  -80.464  -82.323  -84.465  -86.566  -88.326  -89.586  -90.344  -90.734  -90.950  -91.169  -91.520  -92.091  -92.974  -94.292  -96.166  -98.611 -101.491 -104.566 -107.609 -110.484 -113.176 -115.766 -118.383 -121.159 -124.197 -127.573 -131.345 -135.537 -140.125 -145.020 -150.077 -155.134 -160.048 -164.722 -169.104 -173.174 -176.926 -180.365 -183.513 -186.419 -189.167 -191.881 -194.704 -197.785 -201.253 -205.207 -209.685 -214.670 -220.072 -225.748 -231.523 -237.167 -242.513 -247.399 -251.710 -255.312 -257.967 -259.287 -258.421 -253.010 -263.706
 -93.720  -94.247  -92.594  -89.668  -85.945  -81.684  -77.061  -72.316  -67.818  -63.959  -60.917  -58.639  -56.951  -55.707  -54.756  -53.910  -52.991  -51.937  -50.866  -50.088  -49.992  -50.842  -52.596  -54.922  -57.427  -59.907  -62.434  -65.251  -68.583  -72.452  -76.606  -80.591  -83.957  -86.437  -88.038  -88.982  -89.587  -90.144  -90.878  -91.913  -93.249  -94.755  -96.224  -97.467  -98.379  -98.958  -99.286  -99.496  -99.729 -100.108 -100.738 -101.717 -103.143 -105.071 -107.465 -110.174 -112.988 -115.724 -118.287 -120.695 -123.052 -125.506 -128.204 -131.265 -134.778 -138.799 -143.325 -148.279 -153.515 -158.845 -164.084 -169.088 -173.766 -178.074 -181.997 -185.538 -188.710 -191.543 -194.096 -196.459 -198.751 -201.122 -203.726 -206.688 -210.102 -213.988 -218.309 -222.948 -227.758 -232.575 -237.269 -241.768 -245.968 -249.821 -253.110 -255.584 -256.777 -255.859 -250.741 -256.742
 -83.642  -83.719  -81.979  -79.163  -75.732  -71.984  -68.119  -64.345  -60.919  -58.076  -55.885  -54.269  -53.093  -52.241  -51.603  -51.041  -50.432  -49.731  -49.067  -48.728  -49.096  -50.439  -52.768  -55.812  -59.228  -62.812  -66.585  -70.708  -75.315  -80.354  -85.531  -90.406  -94.567  -97.789 -100.064 -101.565 -102.546 -103.264 -103.935 -104.696 -105.588 -106.549 -107.458 -108.202 -108.712 -108.978 -109.045 -108.998 -108.958 -109.051 -109.397 -110.109 -111.273 -112.911 -114.958 -117.265 -119.654 -121.979 -124.181 -126.298 -128.443 -130.759 -133.380 -136.411 -139.925 -143.955 -148.469 -153.357 -158.448 -163.549 -168.487 -173.137 -177.426 -181.322 -184.820 -187.926 -190.664 -193.070 -195.205 -197.156 -199.036 -200.979 -203.124 -205.591 -208.463 -211.767 -215.476 -219.511 -223.751 -228.084 -232.415 -236.660 -240.743 -244.536 -247.873 -250.469 -251.932 -251.481 -247.397 -248.524
 -72.235  -71.845  -69.996  -67.256  -64.073  -60.773  -57.566  -54.610  -52.066  -50.046  -48.552  -47.516  -46.833  -46.422  -46.201  -46.094  -46.036  -46.021  -46.172  -46.748  -48.079  -50.415  -53.775  -57.956  -62.657  -67.649  -72.868  -78.367  -84.178  -90.195  -96.135 -101.624 -106.330 -110.072 -112.840 -114.755 -116.016 -116.845 -117.447 -117.978 -118.511 -119.032 -119.474 -119.765 -119.850 -119.710 -119.366 -118.887 -118.379 -117.969 -117.791 -117.967 -118.583 -119.657 -121.123 -122.852 -124.700 -126.560 -128.392 -130.241 -132.203 -134.391 -136.902 -139.802 -143.130 -146.888 -151.024 -155.423 -159.926 -164.368 -168.607 -172.551 -176.156 -179.408 -182.314 -184.888 -187.152 -189.145 -190.920 -192.547 -194.122 -195.760 -197.582 -199.694 -202.180 -205.079 -208.385 -212.051 -216.000 -220.140 -224.383 -228.627 -232.766 -236.649 -240.098 -242.813 -244.439 -244.292 -241.074 -238.893
 -61.577  -60.832  -58.942  -56.316  -53.387  -50.487  -47.816  -45.492  -43.600  -42.185  -41.238  -40.697  -40.492  -40.570  -40.895  -41.446  -42.214  -43.226  -44.595  -46.517  -49.255  -52.996  -57.747  -63.311  -69.385  -75.686  -82.070  -88.504  -94.975 -101.385 -107.527 -113.129 -117.949 -121.849 -124.808 -126.906 -128.288 -129.137 -129.643 -129.964 -130.195 -130.354 -130.407 -130.296 -129.973 -129.415 -128.637 -127.701 -126.707 -125.779 -125.046 -124.633 -124.626 -125.050 -125.859 -126.956 -128.239 -129.629 -131.102 -132.690 -134.458 -136.472 -138.778 -141.397 -144.332 -147.560 -151.024 -154.623 -158.234 -161.737 -165.042 -168.099 -170.890 -173.420 -175.700 -177.742 -179.566 -181.198 -182.678 -184.063 -185.425 -186.858 -188.459 -190.323 -192.522 -195.095 -198.049 -201.359 -204.978 -208.843 -212.884 -217.018 -221.137 -225.093 -228.673 -231.572 -233.400 -233.578 -231.110 -227.245
 -53.660  -52.771  -50.997  -48.626  -46.053  -43.583  -41.393  -39.568  -38.166  -37.211  -36.702  -36.603  -36.880  -37.499  -38.470  -39.819  -41.574  -43.761  -46.445  -49.759  -53.876  -58.918  -64.869  -71.507  -78.497  -85.520  -92.387  -99.037 -105.468 -111.641 -117.440 -122.697 -127.247 -130.983 -133.871 -135.951 -137.319 -138.117 -138.510 -138.647 -138.630 -138.496 -138.228 -137.783 -137.118 -136.212 -135.084 -133.796 -132.444 -131.140 -130.002 -129.141 -128.637 -128.520 -128.764 -129.311 -130.092 -131.058 -132.190 -133.501 -135.021 -136.770 -138.749 -140.943 -143.329 -145.869 -148.509 -151.175 -153.786 -156.275 -158.600 -160.749 -162.730 -164.555 -166.234 -167.780 -169.203 -170.524 -171.773 -172.987 -174.220 -175.540 -177.024 -178.744 -180.756 -183.095 -185.766 -188.760 -192.046 -195.586 -199.333 -203.223 -207.170 -211.040 -214.627 -217.646 -219.694 -220.236 -218.465 -214.222
 -49.918  -49.139  -47.705  -45.811  -43.786  -41.874  -40.203  -38.844  -37.834  -37.222  -37.032  -37.284  -37.948  -39.033  -40.561  -42.583  -45.127  -48.181  -51.741  -55.879  -60.711  -66.345  -72.752  -79.710  -86.870  -93.899 -100.588 -106.875 -112.781 -118.323 -123.467 -128.123 -132.188 -135.576 -138.242 -140.192 -141.479 -142.207 -142.509 -142.517 -142.328 -141.988 -141.497 -140.822 -139.928 -138.804 -137.478 -136.014 -134.501 -133.037 -131.720 -130.639 -129.860 -129.409 -129.278 -129.432 -129.833 -130.450 -131.269 -132.288 -133.506 -134.913 -136.481 -138.175 -139.957 -141.786 -143.618 -145.404 -147.099 -148.679 -150.143 -151.507 -152.796 -154.024 -155.201 -156.332 -157.426 -158.499 -159.572 -160.672 -161.836 -163.108 -164.544 -166.195 -168.103 -170.292 -172.765 -175.512 -178.512 -181.741 -185.164 -188.737 -192.390 -196.011 -199.429 -202.385 -204.515 -205.327 -204.124 -200.236
 -50.796  -50.367  -49.466  -48.258  -46.973  -45.754  -44.668  -43.731  -42.987  -42.506  -42.375  -42.667  -43.390  -44.573  -46.241  -48.442  -51.179  -54.394  -58.029  -62.117  -66.773  -72.120  -78.158  -84.692  -91.380  -97.885 -103.983 -109.600 -114.770 -119.543 -123.938 -127.924 -131.442 -134.427 -136.829 -138.628 -139.846 -140.546 -140.833 -140.815 -140.579 -140.171 -139.600 -138.846 -137.887 -136.723 -135.389 -133.951 -132.488 -131.080 -129.804 -128.722 -127.882 -127.307 -126.992 -126.920 -127.072 -127.431 -127.985 -128.725 -129.633 -130.681 -131.831 -133.042 -134.275 -135.493 -136.662 -137.749 -138.738 -139.634 -140.460 -141.250 -142.034 -142.827 -143.635 -144.458 -145.301 -146.180 -147.114 -148.123 -149.230 -150.466 -151.868 -153.473 -155.312 -157.398 -159.729 -162.289 -165.058 -168.014 -171.131 -174.374 -177.690 -180.992 -184.139 -186.911 -188.992 -189.942 -189.148 -185.837
 -55.377  -55.458  -55.133  -54.632  -54.094  -53.552  -52.982  -52.331  -51.609  -50.922  -50.429  -50.279  -50.546  -51.275  -52.503  -54.258  -56.510  -59.179  -62.176  -65.510  -69.310  -73.728  -78.813  -84.415  -90.219  -95.890 -101.189 -106.027 -110.426 -114.448 -118.140 -121.508 -124.527 -127.154 -129.343 -131.058 -132.292 -133.081 -133.495 -133.616 -133.514 -133.230 -132.775 -132.141 -131.317 -130.313 -129.170 -127.949 -126.717 -125.535 -124.456 -123.524 -122.773 -122.219 -121.862 -121.695 -121.711 -121.904 -122.266 -122.784 -123.433 -124.178 -124.982 -125.807 -126.623 -127.399 -128.108 -128.730 -129.262 -129.722 -130.148 -130.577 -131.039 -131.548 -132.105 -132.709 -133.365 -134.086 -134.894 -135.805 -136.840 -138.021 -139.373 -140.927 -142.704 -144.715 -146.947 -149.373 -151.967 -154.703 -157.558 -160.510 -163.521 -166.527 -169.413 -171.998 -174.006 -175.048 -174.576 -171.840
 -61.492  -62.067  -62.152  -62.117  -62.057  -61.935  -61.632  -61.017  -60.054  -58.856  -57.648  -56.662  -56.055  -55.901  -56.243  -57.094  -58.417  -60.109  -62.069  -64.293  -66.905  -70.081  -73.916  -78.313  -83.011  -87.691  -92.112  -96.167  -99.857 -103.234 -106.349 -109.229 -111.874 -114.266 -116.368 -118.139 -119.552 -120.612 -121.356 -121.835 -122.093 -122.160 -122.043 -121.737 -121.244 -120.581 -119.786 -118.914 -118.017 -117.139 -116.321 -115.595 -114.990 -114.524 -114.202 -114.026 -113.996 -114.116 -114.380 -114.772 -115.263 -115.817 -116.399 -116.980 -117.539 -118.054 -118.500 -118.865 -119.150 -119.378 -119.586 -119.812 -120.083 -120.411 -120.797 -121.241 -121.748 -122.333 -123.016 -123.819 -124.761 -125.865 -127.157 -128.663 -130.404 -132.379 -134.563 -136.915 -139.393 -141.966 -144.617 -147.337 -150.109 -152.891 -155.593 -158.062 -160.051 -161.206 -161.031 -158.817
 -66.532  -67.394  -67.548  -67.552  -67.529  -67.427  -67.064  -66.235  -64.852  -63.014  -60.977  -59.046  -57.444  -56.279  -55.596  -55.401  -55.650  -56.247  -57.091  -58.166  -59.573  -61.492  -64.034  -67.163  -70.690  -74.340  -77.895  -81.239  -84.349  -87.251  -89.980  -92.564  -95.023  -97.361  -99.558 -101.573 -103.361 -104.899 -106.187 -107.236 -108.061 -108.669 -109.056 -109.221 -109.172 -108.931 -108.535 -108.029 -107.453 -106.846 -106.245 -105.688 -105.209 -104.833 -104.576 -104.442 -104.439 -104.577 -104.849 -105.234 -105.696 -106.192 -106.690 -107.168 -107.613 -108.008 -108.338 -108.590 -108.768 -108.889 -108.991 -109.108 -109.261 -109.466 -109.726 -110.043 -110.422 -110.879 -111.435 -112.117 -112.955 -113.981 -115.228 -116.725 -118.486 -120.499 -122.714 -125.065 -127.490 -129.953 -132.448 -134.987 -137.581 -140.210 -142.811 -145.243 -147.279 -148.583 -148.695 -146.949
 -68.417  -69.224  -69.052  -68.627  -68.172  -67.681  -66.956  -65.744  -63.896  -61.479  -58.754  -56.064  -53.666  -51.683  -50.155  -49.074  -48.405  -48.075  -47.993  -48.133  -48.572  -49.465  -50.915  -52.927  -55.386  -58.104  -60.914  -63.712  -66.453  -69.118  -71.711  -74.248  -76.751  -79.239  -81.707  -84.117  -86.416  -88.551  -90.484  -92.186  -93.633  -94.809  -95.704  -96.318  -96.668  -96.779  -96.692  -96.442  -96.066  -95.606  -95.112  -94.634  -94.223  -93.913  -93.728  -93.676  -93.766  -94.006  -94.386  -94.874  -95.417  -95.967  -96.486  -96.957  -97.373  -97.729  -98.017  -98.228  -98.365  -98.444  -98.497  -98.550  -98.628  -98.744  -98.904  -99.112  -99.374  -99.704 -100.126 -100.678 -101.407 -102.367 -103.608 -105.163 -107.035 -109.187 -111.531 -113.964 -116.399 -118.798 -121.172 -123.563 -126.013 -128.537 -131.086 -133.533 -135.654 -137.123 -137.503 -136.172
 -66.071  -66.460  -65.623  -64.379  -63.101  -61.890  -60.588  -58.916  -56.683  -53.908  -50.842  -47.811  -45.074  -42.736  -40.806  -39.259  -38.073  -37.195  -36.574  -36.178  -36.062  -36.326  -37.058  -38.284  -39.964  -42.008  -44.328  -46.846  -49.498  -52.211  -54.948  -57.686  -60.439  -63.220  -66.025  -68.830  -71.583  -74.213  -76.655  -78.846  -80.732  -82.285  -83.493  -84.367  -84.930  -85.217  -85.263  -85.102  -84.772  -84.327  -83.835  -83.367  -82.986  -82.736  -82.639  -82.707  -82.940  -83.339  -83.883  -84.521  -85.191  -85.830  -86.399  -86.882  -87.280  -87.600  -87.847  -88.024  -88.132  -88.188  -88.214  -88.233  -88.263  -88.320  -88.409  -88.529  -88.686  -88.890  -89.169  -89.580  -90.198  -91.107  -92.382  -94.065  -96.141  -98.532 -101.102 -103.697 -106.204 -108.583 -110.865 -113.126 -115.449 -117.880 -120.395 -122.869 -125.080 -126.702 -127.318 -126.350
 -59.511  -59.236  -57.563  -55.308  -53.005  -50.908  -48.942  -46.854  -44.429  -41.647  -38.720  -35.906  -33.413  -31.282  -29.493  -28.007  -26.794  -25.843  -25.116  -24.612  -24.350  -24.395  -24.810  -25.625  -26.879  -28.575  -30.707  -33.227  -36.051  -39.057  -42.137  -45.235  -48.327  -51.404  -54.466  -57.496  -60.457  -63.286  -65.907  -68.246  -70.243  -71.870  -73.125  -74.027  -74.610  -74.907  -74.950  -74.769  -74.405  -73.925  -73.417  -72.966  -72.641  -72.486  -72.515  -72.727  -73.117  -73.665  -74.336  -75.070  -75.798  -76.457  -77.007  -77.437  -77.752  -77.971  -78.122  -78.220  -78.274  -78.296  -78.301  -78.306  -78.322  -78.359  -78.412  -78.478  -78.550  -78.634  -78.768  -79.031  -79.534  -80.401  -81.735  -83.589  -85.930  -88.629  -91.490  -94.308  -96.941  -99.340 -101.555 -103.700 -105.896 -108.228 -110.696 -113.185 -115.469 -117.220 -118.035 -117.378
 -49.837  -48.890  -46.509  -43.410  -40.247  -37.402  -34.919  -32.599  -30.255  -27.839  -25.488  -23.346  -21.524  -19.994  -18.721  -17.651  -16.762  -16.060  -15.537  -15.187  -15.032  -15.102  -15.448  -16.120  -17.192  -18.762  -20.883  -23.545  -26.650  -30.025  -33.497  -36.960  -40.343  -43.616  -46.768  -49.797  -52.692  -55.411  -57.898  -60.081  -61.920  -63.399  -64.534  -65.353  -65.885  -66.156  -66.191  -66.014  -65.672  -65.235  -64.805  -64.468  -64.288  -64.292  -64.478  -64.825  -65.312  -65.908  -66.568  -67.235  -67.853  -68.371  -68.760  -69.011  -69.138  -69.171  -69.149  -69.105  -69.062  -69.028  -69.008  -69.011  -69.044  -69.100  -69.161  -69.213  -69.232  -69.219  -69.220  -69.342  -69.733  -70.565  -71.972  -74.015  -76.642  -79.675  -82.854  -85.921  -88.700  -91.134  -93.290  -95.310  -97.357  -99.558 -101.944 -104.416 -106.746 -108.600 -109.582 -109.189
 -39.128  -37.773  -35.135  -31.758  -28.307  -25.207  -22.560  -20.281  -18.228  -16.361  -14.714  -13.322  -12.191  -11.279  -10.532   -9.905   -9.397   -9.018   -8.753   -8.614   -8.610   -8.760   -9.105   -9.702  -10.672  -12.146  -14.246  -16.995  -20.288  -23.923  -27.677  -31.380  -34.921  -38.239  -41.326  -44.189  -46.846  -49.281  -51.465  -53.361  -54.953  -56.244  -57.265  -58.043  -58.602  -58.955  -59.111  -59.090  -58.930  -58.707  -58.514  -58.427  -58.482  -58.688  -59.019  -59.431  -59.894  -60.374  -60.830  -61.227  -61.536  -61.737  -61.815  -61.774  -61.630  -61.416  -61.176  -60.957  -60.783  -60.671  -60.621  -60.631  -60.698  -60.797  -60.900  -60.969  -60.972  -60.900  -60.807  -60.825  -61.146  -61.977  -63.488  -65.748  -68.670  -72.030  -75.507  -78.790  -81.677  -84.103  -86.149  -87.992  -89.836  -91.847  -94.094  -96.503  -98.840 -100.769 -101.887 -101.713
 -29.901  -28.509  -26.109  -23.049  -19.881  -16.979  -14.476  -12.390  -10.660   -9.264   -8.156   -7.296   -6.606   -6.051   -5.585   -5.231   -4.962   -4.777   -4.685   -4.669   -4.750   -4.928   -5.228   -5.736   -6.552   -7.857   -9.790  -12.421  -15.666  -19.323  -23.135  -26.881  -30.407  -33.629  -36.540  -39.158  -41.524  -43.646  -45.524  -47.156  -48.559  -49.757  -50.783  -51.655  -52.393  -52.996  -53.455  -53.774  -53.982  -54.142  -54.326  -54.578  -54.908  -55.299  -55.703  -56.073  -56.376  -56.581  -56.672  -56.640  -56.501  -56.268  -55.959  -55.582  -55.156  -54.706  -54.272  -53.894  -53.603  -53.416  -53.340  -53.361  -53.454  -53.597  -53.744  -53.848  -53.865  -53.788  -53.678  -53.687  -54.040  -54.973  -56.681  -59.218  -62.456  -66.106  -69.794  -73.179  -76.044  -78.338  -80.167  -81.736  -83.291  -85.042  -87.089  -89.374  -91.675  -93.639  -94.857  -94.863
 -23.923  -22.707  -20.697  -18.095  -15.294  -12.617  -10.265   -8.342   -6.873   -5.822   -5.090   -4.549   -4.082   -3.645   -3.260   -2.963   -2.767   -2.647   -2.609   -2.632   -2.716   -2.865   -3.089   -3.460   -4.088   -5.112   -6.724   -8.995  -11.909  -15.284  -18.880  -22.433  -25.772  -28.788  -31.467  -33.831  -35.932  -37.802  -39.460  -40.932  -42.260  -43.481  -44.627  -45.719  -46.758  -47.734  -48.623  -49.406  -50.100  -50.731  -51.340  -51.941  -52.515  -53.027  -53.422  -53.656  -53.703  -53.545  -53.193  -52.683  -52.070  -51.408  -50.734  -50.069  -49.432  -48.827  -48.282  -47.823  -47.474  -47.253  -47.166  -47.194  -47.307  -47.479  -47.662  -47.815  -47.885  -47.872  -47.850  -47.991  -48.538  -49.750  -51.800  -54.696  -58.242  -62.084  -65.814  -69.096  -71.737  -73.721  -75.188  -76.386  -77.586  -79.025  -80.826  -82.944  -85.159  -87.115  -88.392  -88.541
 -21.132  -20.090  -18.300  -15.886  -13.179  -10.511   -8.161   -6.315   -5.047   -4.285   -3.852   -3.539   -3.201   -2.801   -2.413   -2.098   -1.878   -1.746   -1.700   -1.712   -1.775   -1.868   -2.016   -2.263   -2.673   -3.392   -4.566   -6.314   -8.650  -11.488  -14.598  -17.737  -20.721  -23.444  -25.863  -27.993  -29.895  -31.598  -33.132  -34.542  -35.879  -37.183  -38.497  -39.835  -41.190  -42.549  -43.872  -45.125  -46.292  -47.367  -48.356  -49.244  -49.996  -50.567  -50.906  -50.976  -50.754  -50.250  -49.504  -48.594  -47.607  -46.628  -45.715  -44.895  -44.173  -43.541  -43.000  -42.562  -42.235  -42.042  -41.981  -42.036  -42.176  -42.382  -42.614  -42.830  -43.002  -43.135  -43.322  -43.744  -44.660  -46.313  -48.825  -52.109  -55.875  -59.723  -63.255  -66.185  -68.383  -69.892  -70.900  -71.676  -72.511  -73.645  -75.203  -77.139  -79.235  -81.137  -82.430  -82.682
 -19.842  -18.912  -17.185  -14.784  -12.017   -9.252   -6.852   -5.074   -3.969   -3.433   -3.229   -3.090   -2.854   -2.509   -2.132   -1.802   -1.549   -1.393   -1.333   -1.323   -1.358   -1.409   -1.509   -1.645   -1.898   -2.340   -3.092   -4.272   -5.948   -8.070  -10.502  -13.053  -15.561  -17.893  -20.016  -21.939  -23.682  -25.271  -26.744  -28.140  -29.500  -30.878  -32.315  -33.820  -35.391  -37.011  -38.638  -40.228  -41.732  -43.121  -44.370  -45.450  -46.317  -46.921  -47.214  -47.169  -46.768  -46.045  -45.072  -43.946  -42.788  -41.703  -40.744  -39.940  -39.283  -38.756  -38.333  -38.013  -37.799  -37.703  -37.727  -37.856  -38.062  -38.334  -38.643  -38.956  -39.273  -39.612  -40.085  -40.896  -42.291  -44.458  -47.437  -51.015  -54.824  -58.442  -61.538  -63.908  -65.515  -66.470  -67.000  -67.385  -67.913  -68.804  -70.166  -71.938  -73.901  -75.712  -76.975  -77.293
 -18.129  -17.298  -15.690  -13.416  -10.765   -8.104   -5.801   -4.149   -3.175   -2.785   -2.698   -2.659   -2.507   -2.245   -1.931   -1.637   -1.401   -1.242   -1.159   -1.145   -1.160   -1.196   -1.260   -1.341   -1.471   -1.713   -2.147   -2.848   -3.914   -5.329   -7.049   -8.933  -10.856  -12.738  -14.521  -16.202  -17.778  -19.262  -20.676  -22.055  -23.422  -24.819  -26.276  -27.807  -29.414  -31.086  -32.796  -34.485  -36.108  -37.612  -38.968  -40.128  -41.053  -41.694  -42.004  -41.957  -41.546  -40.815  -39.854  -38.778  -37.715  -36.759  -35.963  -35.341  -34.882  -34.560  -34.341  -34.218  -34.187  -34.260  -34.433  -34.691  -35.019  -35.399  -35.815  -36.255  -36.724  -37.285  -38.069  -39.281  -41.139  -43.760  -47.065  -50.743  -54.372  -57.565  -60.070  -61.790  -62.778  -63.213  -63.341  -63.436  -63.758  -64.493  -65.715  -67.347  -69.170  -70.865  -72.060  -72.404
 -15.047  -14.344  -13.042  -11.176   -8.978   -6.747   -4.807   -3.382   -2.546   -2.208   -2.144   -2.132   -2.048   -1.872   -1.651   -1.437   -1.256   -1.131   -1.063   -1.056   -1.072   -1.101   -1.141   -1.176   -1.237   -1.359   -1.580   -1.969   -2.570   -3.428   -4.513   -5.773   -7.123   -8.512   -9.912  -11.293  -12.661  -14.002  -15.328  -16.657  -18.007  -19.374  -20.771  -22.190  -23.651  -25.155  -26.691  -28.227  -29.721  -31.133  -32.424  -33.564  -34.499  -35.193  -35.603  -35.688  -35.459  -34.958  -34.264  -33.497  -32.761  -32.133  -31.657  -31.331  -31.147  -31.072  -31.096  -31.206  -31.406  -31.699  -32.069  -32.504  -32.983  -33.497  -34.029  -34.577  -35.180  -35.925  -36.966  -38.497  -40.692  -43.583  -46.995  -50.553  -53.831  -56.496  -58.386  -59.502  -59.971  -60.009  -59.870  -59.808  -60.036  -60.691  -61.812  -63.317  -64.997  -66.555  -67.664  -68.003
 -10.947  -10.405   -9.532   -8.275   -6.763   -5.188   -3.765   -2.684   -2.014   -1.709   -1.630   -1.606   -1.564   -1.466   -1.349   -1.222   -1.107   -1.030   -1.004   -1.022   -1.045   -1.069   -1.094   -1.102   -1.131   -1.178   -1.274   -1.467   -1.786   -2.250   -2.885   -3.654   -4.511   -5.452   -6.450   -7.504   -8.595   -9.742  -10.949  -12.210  -13.519  -14.835  -16.116  -17.342  -18.533  -19.708  -20.890  -22.073  -23.248  -24.392  -25.493  -26.513  -27.425  -28.190  -28.761  -29.102  -29.210  -29.116  -28.887  -28.604  -28.337  -28.145  -28.052  -28.053  -28.147  -28.322  -28.579  -28.916  -29.347  -29.857  -30.429  -31.037  -31.659  -32.284  -32.892  -33.507  -34.183  -35.039  -36.232  -37.936  -40.279  -43.220  -46.530  -49.807  -52.658  -54.812  -56.181  -56.833  -56.945  -56.751  -56.494  -56.396  -56.614  -57.248  -58.300  -59.691  -61.233  -62.660  -63.686  -64.013
  -6.925   -6.567   -6.103   -5.420   -4.564   -3.636   -2.748   -2.030   -1.561   -1.312   -1.233   -1.205   -1.194   -1.155   -1.097   -1.040   -0.991   -0.969   -0.989   -1.030   -1.075   -1.098   -1.110   -1.090   -1.071   -1.081   -1.114   -1.200   -1.350   -1.592   -1.938   -2.360   -2.864   -3.439   -4.087   -4.803   -5.615   -6.529   -7.583   -8.748   -9.994  -11.223  -12.355  -13.363  -14.237  -15.033  -15.790  -16.542  -17.319  -18.119  -18.954  -19.813  -20.681  -21.518  -22.280  -22.934  -23.463  -23.863  -24.167  -24.418  -24.651  -24.906  -25.188  -25.496  -25.844  -26.236  -26.683  -27.206  -27.811  -28.480  -29.185  -29.897  -30.590  -31.251  -31.867  -32.480  -33.152  -34.021  -35.243  -36.970  -39.282  -42.094  -45.167  -48.108  -50.564  -52.319  -53.322  -53.687  -53.614  -53.333  -53.074  -53.019  -53.287  -53.939  -54.960  -56.273  -57.713  -59.048  -60.014  -60.347
  -3.954   -3.732   -3.532   -3.231   -2.829   -2.358   -1.886   -1.475   -1.183   -1.027   -0.981   -0.971   -0.988   -0.984   -0.962   -0.948   -0.934   -0.965   -1.029   -1.110   -1.171   -1.184   -1.157   -1.113   -1.054   -1.018   -1.014   -1.046   -1.114   -1.240   -1.407   -1.628   -1.897   -2.214   -2.592   -3.045   -3.581   -4.270   -5.126   -6.139   -7.253   -8.331   -9.284  -10.051  -10.636  -11.099  -11.487  -11.856  -12.261  -12.736  -13.317  -14.010  -14.825  -15.716  -16.662  -17.619  -18.550  -19.419  -20.217  -20.953  -21.650  -22.319  -22.949  -23.550  -24.125  -24.699  -25.289  -25.927  -26.614  -27.334  -28.055  -28.752  -29.396  -29.987  -30.529  -31.055  -31.658  -32.468  -33.620  -35.251  -37.407  -40.006  -42.799  -45.443  -47.609  -49.112  -49.924  -50.168  -50.044  -49.781  -49.587  -49.611  -49.959  -50.659  -51.692  -52.985  -54.386  -55.688  -56.645  -57.004
  -2.235   -2.084   -2.021   -1.897   -1.720   -1.509   -1.289   -1.085   -0.932   -0.864   -0.847   -0.860   -0.890   -0.911   -0.913   -0.914   -0.942   -1.027   -1.136   -1.232   -1.288   -1.273   -1.207   -1.116   -1.028   -0.979   -0.949   -0.952   -0.980   -1.031   -1.113   -1.223   -1.364   -1.520   -1.719   -1.973   -2.314   -2.781   -3.414   -4.204   -5.088   -5.945   -6.664   -7.210   -7.566   -7.785   -7.916   -8.036   -8.184   -8.427   -8.800   -9.352  -10.090  -11.006  -12.073  -13.251  -14.473  -15.688  -16.860  -17.998  -19.097  -20.145  -21.115  -21.997  -22.794  -23.528  -24.223  -24.907  -25.583  -26.242  -26.851  -27.399  -27.885  -28.319  -28.711  -29.111  -29.608  -30.317  -31.369  -32.861  -34.832  -37.206  -39.753  -42.170  -44.171  -45.570  -46.344  -46.607  -46.542  -46.365  -46.269  -46.389  -46.820  -47.587  -48.665  -49.986  -51.410  -52.732  -53.708  -54.102
  -1.425   -1.303   -1.264   -1.221   -1.138   -1.038   -0.945   -0.849   -0.795   -0.764   -0.764   -0.804   -0.853   -0.880   -0.900   -0.920   -0.982   -1.106   -1.266   -1.389   -1.419   -1.346   -1.226   -1.097   -0.984   -0.923   -0.888   -0.877   -0.884   -0.911   -0.950   -1.007   -1.069   -1.147   -1.249   -1.382   -1.573   -1.864   -2.271   -2.809   -3.418   -4.006   -4.491   -4.833   -5.028   -5.109   -5.124   -5.116   -5.132   -5.244   -5.480   -5.901   -6.538   -7.397   -8.468   -9.707  -11.037  -12.429  -13.832  -15.253  -16.677  -18.066  -19.374  -20.545  -21.576  -22.474  -23.257  -23.945  -24.553  -25.068  -25.492  -25.826  -26.099  -26.338  -26.566  -26.847  -27.253  -27.894  -28.866  -30.253  -32.074  -34.259  -36.619  -38.885  -40.803  -42.198  -43.039  -43.421  -43.499  -43.468  -43.498  -43.726  -44.240  -45.071  -46.205  -47.574  -49.037  -50.388  -51.384  -51.794
  -1.090   -0.976   -0.944   -0.913   -0.865   -0.823   -0.774   -0.732   -0.716   -0.703   -0.723   -0.755   -0.801   -0.839   -0.865   -0.901   -0.997   -1.172   -1.367   -1.496   -1.491   -1.365   -1.189   -1.025   -0.915   -0.855   -0.822   -0.810   -0.824   -0.828   -0.853   -0.887   -0.919   -0.962   -1.006   -1.082   -1.180   -1.335   -1.570   -1.878   -2.223   -2.574   -2.845   -3.034   -3.135   -3.166   -3.144   -3.107   -3.093   -3.150   -3.297   -3.596   -4.093   -4.803   -5.737   -6.856   -8.113   -9.468  -10.928  -12.485  -14.131  -15.805  -17.419  -18.886  -20.167  -21.240  -22.115  -22.817  -23.360  -23.739  -23.979  -24.120  -24.209  -24.294  -24.420  -24.637  -25.018  -25.653  -26.608  -27.942  -29.667  -31.695  -33.886  -36.023  -37.870  -39.289  -40.235  -40.783  -41.057  -41.222  -41.414  -41.770  -42.368  -43.269  -44.450  -45.844  -47.324  -48.677  -49.664  -50.050
  -0.936   -0.829   -0.813   -0.776   -0.745   -0.721   -0.696   -0.671   -0.661   -0.667   -0.676   -0.699   -0.739   -0.767   -0.798   -0.855   -0.970   -1.159   -1.371   -1.501   -1.483   -1.324   -1.113   -0.943   -0.838   -0.782   -0.760   -0.758   -0.755   -0.765   -0.783   -0.801   -0.826   -0.847   -0.883   -0.916   -0.969   -1.049   -1.168   -1.313   -1.487   -1.649   -1.789   -1.884   -1.929   -1.948   -1.934   -1.919   -1.905   -1.938   -2.033   -2.228   -2.559   -3.070   -3.754   -4.615   -5.633   -6.802   -8.141   -9.675  -11.394  -13.238  -15.081  -16.809  -18.328  -19.598  -20.604  -21.361  -21.884  -22.199  -22.343  -22.382  -22.385  -22.420  -22.535  -22.776  -23.203  -23.883  -24.865  -26.168  -27.783  -29.635  -31.621  -33.563  -35.283  -36.673  -37.694  -38.390  -38.868  -39.242  -39.621  -40.122  -40.836  -41.806  -43.030  -44.437  -45.898  -47.217  -48.172  -48.502
  -0.862   -0.760   -0.734   -0.708   -0.688   -0.665   -0.650   -0.638   -0.629   -0.623   -0.636   -0.647   -0.672   -0.688   -0.716   -0.773   -0.885   -1.064   -1.270   -1.391   -1.358   -1.200   -1.013   -0.853   -0.760   -0.713   -0.705   -0.698   -0.705   -0.720   -0.734   -0.750   -0.766   -0.782   -0.799   -0.823   -0.858   -0.894   -0.944   -1.017   -1.092   -1.161   -1.223   -1.265   -1.300   -1.305   -1.311   -1.309   -1.321   -1.340   -1.397   -1.501   -1.694   -1.997   -2.433   -2.997   -3.696   -4.562   -5.641   -6.987   -8.607  -10.434  -12.359  -14.236  -15.946  -17.402  -18.559  -19.416  -20.004  -20.352  -20.516  -20.584  -20.620  -20.710  -20.906  -21.251  -21.773  -22.519  -23.506  -24.727  -26.159  -27.764  -29.453  -31.098  -32.594  -33.855  -34.861  -35.641  -36.263  -36.811  -37.365  -38.021  -38.853  -39.912  -41.180  -42.596  -44.031  -45.306  -46.219  -46.508
  -0.822   -0.724   -0.699   -0.675   -0.655   -0.640   -0.627   -0.616   -0.607   -0.599   -0.595   -0.611   -0.618   -0.620   -0.644   -0.696   -0.780   -0.925   -1.075   -1.168   -1.155   -1.030   -0.889   -0.765   -0.696   -0.663   -0.652   -0.657   -0.669   -0.680   -0.693   -0.706   -0.720   -0.734   -0.748   -0.763   -0.778   -0.800   -0.832   -0.860   -0.896   -0.920   -0.954   -0.979   -0.998   -1.011   -1.019   -1.033   -1.035   -1.058   -1.089   -1.150   -1.245   -1.400   -1.626   -1.939   -2.354   -2.908   -3.670   -4.691   -6.029   -7.646   -9.447  -11.305  -13.068  -14.623  -15.891  -16.868  -17.567  -18.030  -18.318  -18.510  -18.683  -18.922  -19.277  -19.764  -20.411  -21.204  -22.134  -23.193  -24.367  -25.623  -26.921  -28.191  -29.366  -30.397  -31.280  -32.039  -32.710  -33.352  -34.024  -34.787  -35.716  -36.831  -38.133  -39.544  -40.950  -42.192  -43.088  -43.387
  -0.793   -0.699   -0.675   -0.652   -0.634   -0.619   -0.606   -0.596   -0.588   -0.581   -0.575   -0.571   -0.573   -0.584   -0.591   -0.622   -0.679   -0.768   -0.865   -0.930   -0.926   -0.847   -0.760   -0.673   -0.634   -0.623   -0.616   -0.626   -0.636   -0.647   -0.657   -0.669   -0.681   -0.692   -0.705   -0.717   -0.731   -0.743   -0.757   -0.776   -0.790   -0.818   -0.833   -0.850   -0.867   -0.877   -0.887   -0.901   -0.915   -0.929   -0.947   -0.973   -1.023   -1.095   -1.193   -1.341   -1.547   -1.858   -2.321   -2.996   -3.958   -5.201   -6.679   -8.289   -9.905  -11.393  -12.664  -13.696  -14.496  -15.099  -15.550  -15.914  -16.286  -16.731  -17.311  -17.995  -18.773  -19.599  -20.436  -21.272  -22.129  -22.983  -23.836  -24.676  -25.468  -26.194  -26.862  -27.494  -28.108  -28.737  -29.417  -30.203  -31.139  -32.245  -33.507  -34.867  -36.213  -37.414  -38.301  -38.653
  -0.768   -0.677   -0.654   -0.632   -0.615   -0.600   -0.589   -0.579   -0.570   -0.564   -0.558   -0.554   -0.550   -0.548   -0.556   -0.571   -0.602   -0.641   -0.698   -0.730   -0.730   -0.695   -0.649   -0.616   -0.595   -0.584   -0.591   -0.600   -0.608   -0.618   -0.627   -0.636   -0.646   -0.657   -0.668   -0.679   -0.690   -0.701   -0.712   -0.724   -0.736   -0.748   -0.759   -0.772   -0.784   -0.795   -0.807   -0.819   -0.832   -0.844   -0.857   -0.876   -0.904   -0.933   -0.982   -1.037   -1.133   -1.281   -1.519   -1.908   -2.501   -3.321   -4.361   -5.565   -6.842   -8.074   -9.200  -10.161  -10.976  -11.650  -12.229  -12.772  -13.354  -14.054  -14.880  -15.806  -16.737  -17.603  -18.341  -18.954  -19.474  -19.923  -20.338  -20.726  -21.106  -21.490  -21.881  -22.301  -22.773  -23.290  -23.880  -24.578  -25.412  -26.390  -27.505  -28.701  -29.912  -31.015  -31.852  -32.275
  -0.746   -0.658   -0.636   -0.614   -0.597   -0.584   -0.572   -0.563   -0.555   -0.549   -0.543   -0.539   -0.536   -0.534   -0.532   -0.532   -0.554   -0.571   -0.591   -0.615   -0.614   -0.597   -0.583   -0.570   -0.558   -0.563   -0.570   -0.577   -0.584   -0.592   -0.600   -0.608   -0.618   -0.627   -0.636   -0.645   -0.655   -0.665   -0.675   -0.686   -0.696   -0.706   -0.716   -0.727   -0.738   -0.748   -0.759   -0.770   -0.781   -0.791   -0.802   -0.814   -0.826   -0.842   -0.864   -0.894   -0.935   -0.998   -1.113   -1.307   -1.615   -2.079   -2.693   -3.450   -4.300   -5.173   -6.003   -6.776   -7.473   -8.116   -8.738   -9.395  -10.153  -11.075  -12.144  -13.286  -14.376  -15.277  -15.931  -16.350  -16.569  -16.665  -16.672  -16.651  -16.634  -16.670  -16.784  -16.978  -17.261  -17.616  -18.052  -18.579  -19.219  -19.975  -20.844  -21.770  -22.730  -23.634  -24.345  -24.809
  -0.727   -0.642   -0.620   -0.599   -0.583   -0.570   -0.559   -0.550   -0.542   -0.536   -0.531   -0.527   -0.523   -0.521   -0.519   -0.518   -0.520   -0.530   -0.543   -0.550   -0.551   -0.549   -0.539   -0.535   -0.540   -0.545   -0.551   -0.557   -0.564   -0.570   -0.577   -0.584   -0.592   -0.600   -0.608   -0.617   -0.626   -0.634   -0.643   -0.652   -0.661   -0.670   -0.680   -0.689   -0.698   -0.708   -0.717   -0.727   -0.737   -0.746   -0.756   -0.766   -0.776   -0.788   -0.798   -0.813   -0.837   -0.866   -0.918   -0.999   -1.141   -1.361   -1.673   -2.075   -2.542   -3.055   -3.573   -4.074   -4.588   -5.103   -5.661   -6.324   -7.148   -8.175   -9.374  -10.626  -11.772  -12.678  -13.254  -13.521  -13.527  -13.354  -13.057  -12.712  -12.375  -12.137  -12.012  -12.024  -12.144  -12.346  -12.625  -12.981  -13.410  -13.923  -14.506  -15.132  -15.794  -16.426  -16.944  -17.393
  -0.711   -0.627   -0.606   -0.587   -0.571   -0.558   -0.548   -0.539   -0.531   -0.525   -0.520   -0.516   -0.513   -0.510   -0.509   -0.508   -0.507   -0.507   -0.508   -0.510   -0.512   -0.514   -0.518   -0.521   -0.525   -0.530   -0.534   -0.540   -0.545   -0.552   -0.558   -0.564   -0.571   -0.578   -0.585   -0.592   -0.600   -0.607   -0.615   -0.624   -0.632   -0.640   -0.648   -0.657   -0.665   -0.673   -0.682   -0.691   -0.699   -0.708   -0.717   -0.726   -0.735   -0.745   -0.755   -0.765   -0.776   -0.790   -0.814   -0.855   -0.905   -1.002   -1.135   -1.318   -1.530   -1.778   -2.043   -2.331   -2.633   -2.979   -3.411   -3.978   -4.733   -5.690   -6.826   -7.989   -9.047   -9.854  -10.320  -10.480  -10.370  -10.052   -9.603   -9.084   -8.593   -8.207   -7.962   -7.863   -7.883   -7.985   -8.153   -8.379   -8.673   -9.007   -9.395   -9.814  -10.238  -10.644  -10.992  -11.373
  -0.698   -0.615   -0.595   -0.576   -0.561   -0.548   -0.538   -0.530   -0.523   -0.517   -0.512   -0.508   -0.504   -0.502   -0.500   -0.499   -0.498   -0.498   -0.499   -0.500   -0.502   -0.504   -0.507   -0.510   -0.513   -0.517   -0.521   -0.526   -0.530   -0.535   -0.541   -0.546   -0.553   -0.559   -0.566   -0.572   -0.579   -0.586   -0.593   -0.600   -0.607   -0.614   -0.621   -0.629   -0.637   -0.645   -0.652   -0.660   -0.668   -0.676   -0.684   -0.692   -0.700   -0.709   -0.718   -0.727   -0.737   -0.747   -0.757   -0.774   -0.803   -0.842   -0.890   -0.956   -1.048   -1.149   -1.264   -1.400   -1.553   -1.758   -2.038   -2.444   -3.025   -3.771   -4.652   -5.562   -6.380   -6.991   -7.331   -7.403   -7.262   -6.947   -6.491   -5.984   -5.516   -5.136   -4.892   -4.770   -4.743   -4.801   -4.908   -5.084   -5.303   -5.595   -5.930   -6.282   -6.638   -6.966   -7.227   -7.556
  -0.687   -0.606   -0.587   -0.568   -0.553   -0.541   -0.531   -0.523   -0.516   -0.510   -0.505   -0.501   -0.498   -0.495   -0.493   -0.492   -0.491   -0.491   -0.491   -0.492   -0.493   -0.495   -0.497   -0.500   -0.503   -0.507   -0.510   -0.514   -0.518   -0.523   -0.528   -0.533   -0.538   -0.543   -0.549   -0.555   -0.561   -0.568   -0.574   -0.580   -0.586   -0.593   -0.600   -0.606   -0.613   -0.620   -0.627   -0.634   -0.641   -0.649   -0.656   -0.663   -0.671   -0.679   -0.687   -0.695   -0.704   -0.713   -0.722   -0.731   -0.741   -0.757   -0.786   -0.810   -0.843   -0.883   -0.925   -0.985   -1.057   -1.166   -1.319   -1.565   -1.928   -2.418   -2.974   -3.557   -4.079   -4.461   -4.663   -4.698   -4.585   -4.347   -4.019   -3.653   -3.309   -3.038   -2.861   -2.763   -2.745   -2.780   -2.873   -3.028   -3.257   -3.580   -3.962   -4.387   -4.806   -5.176   -5.455   -5.754
  -0.680   -0.600   -0.581   -0.562   -0.548   -0.536   -0.526   -0.518   -0.511   -0.506   -0.501   -0.497   -0.494   -0.491   -0.489   -0.488   -0.487   -0.486   -0.486   -0.487   -0.488   -0.489   -0.491   -0.493   -0.496   -0.499   -0.502   -0.506   -0.509   -0.513   -0.518   -0.522   -0.527   -0.531   -0.536   -0.541   -0.547   -0.552   -0.558   -0.564   -0.570   -0.576   -0.582   -0.588   -0.594   -0.600   -0.607   -0.613   -0.619   -0.626   -0.633   -0.640   -0.647   -0.654   -0.661   -0.669   -0.676   -0.684   -0.692   -0.701   -0.710   -0.719   -0.728   -0.742   -0.754   -0.782   -0.796   -0.826   -0.854   -0.907   -0.990   -1.111   -1.306   -1.549   -1.845   -2.148   -2.418   -2.620   -2.720   -2.743   -2.676   -2.537   -2.357   -2.149   -1.962   -1.811   -1.725   -1.677   -1.670   -1.703   -1.784   -1.931   -2.163   -2.513   -2.959   -3.470   -3.987   -4.446   -4.794   -5.111
  -0.677   -0.598   -0.579   -0.560   -0.546   -0.534   -0.524   -0.517   -0.510   -0.504   -0.499   -0.495   -0.492   -0.490   -0.488   -0.486   -0.485   -0.484   -0.484   -0.485   -0.485   -0.486   -0.488   -0.490   -0.492   -0.494   -0.497   -0.500   -0.504   -0.507   -0.511   -0.515   -0.519   -0.523   -0.528   -0.532   -0.537   -0.542   -0.547   -0.552   -0.557   -0.562   -0.568   -0.573   -0.580   -0.585   -0.591   -0.597   -0.603   -0.609   -0.615   -0.621   -0.628   -0.634   -0.641   -0.648   -0.655   -0.662   -0.669   -0.677   -0.685   -0.693   -0.701   -0.710   -0.718   -0.727   -0.737   -0.750   -0.772   -0.798   -0.834   -0.890   -0.974   -1.075   -1.213   -1.346   -1.452   -1.547   -1.588   -1.598   -1.567   -1.516   -1.443   -1.355   -1.279   -1.221   -1.184   -1.164   -1.171   -1.205   -1.263   -1.386   -1.603   -1.945   -2.391   -2.914   -3.486   -4.032   -4.443   -4.778
  -0.680   -0.600   -0.580   -0.562   -0.547   -0.536   -0.526   -0.519   -0.512   -0.506   -0.502   -0.498   -0.494   -0.492   -0.490   -0.488   -0.487   -0.486   -0.486   -0.486   -0.486   -0.487   -0.488   -0.490   -0.491   -0.493   -0.496   -0.499   -0.502   -0.505   -0.508   -0.512   -0.515   -0.519   -0.523   -0.527   -0.532   -0.536   -0.540   -0.545   -0.550   -0.555   -0.560   -0.565   -0.570   -0.575   -0.580   -0.586   -0.592   -0.597   -0.603   -0.608   -0.614   -0.620   -0.626   -0.633   -0.639   -0.645   -0.652   -0.659   -0.666   -0.674   -0.681   -0.689   -0.697   -0.705   -0.713   -0.721   -0.729   -0.741   -0.764   -0.788   -0.823   -0.862   -0.913   -0.958   -1.004   -1.038   -1.049   -1.059   -1.062   -1.048   -1.028   -1.007   -0.988   -0.966   -0.954   -0.962   -0.969   -0.995   -1.036   -1.127   -1.297   -1.566   -1.951   -2.439   -2.997   -3.551   -4.006   -4.363
  -0.689   -0.602   -0.583   -0.565   -0.550   -0.538   -0.529   -0.521   -0.514   -0.509   -0.504   -0.500   -0.497   -0.494   -0.492   -0.490   -0.489   -0.488   -0.488   -0.487   -0.488   -0.488   -0.489   -0.490   -0.492   -0.494   -0.496   -0.498   -0.500   -0.503   -0.506   -0.509   -0.513   -0.516   -0.520   -0.523   -0.527   -0.531   -0.535   -0.540   -0.544   -0.548   -0.553   -0.557   -0.562   -0.567   -0.571   -0.576   -0.582   -0.587   -0.592   -0.598   -0.603   -0.609   -0.614   -0.620   -0.626   -0.632   -0.638   -0.644   -0.650   -0.657   -0.664   -0.671   -0.678   -0.685   -0.693   -0.700   -0.708   -0.716   -0.723   -0.734   -0.755   -0.773   -0.787   -0.812   -0.831   -0.838   -0.847   -0.855   -0.864   -0.873   -0.865   -0.864   -0.866   -0.870   -0.863   -0.866   -0.876   -0.899   -0.935   -0.994   -1.106   -1.304   -1.595   -2.020   -2.532   -3.082   -3.539   -3.915
  -0.880   -0.670   -0.645   -0.625   -0.609   -0.597   -0.587   -0.579   -0.572   -0.566   -0.561   -0.557   -0.554   -0.551   -0.548   -0.546   -0.545   -0.543   -0.543   -0.542   -0.542   -0.542   -0.543   -0.544   -0.545   -0.546   -0.548   -0.550   -0.552   -0.554   -0.557   -0.560   -0.563   -0.566   -0.569   -0.572   -0.576   -0.580   -0.583   -0.587   -0.591   -0.595   -0.599   -0.604   -0.608   -0.613   -0.617   -0.622   -0.627   -0.631   -0.637   -0.642   -0.647   -0.653   -0.658   -0.664   -0.669   -0.675   -0.681   -0.687   -0.693   -0.700   -0.706   -0.713   -0.720   -0.727   -0.734   -0.741   -0.749   -0.757   -0.764   -0.772   -0.779   -0.787   -0.799   -0.810   -0.838   -0.847   -0.856   -0.864   -0.872   -0.864   -0.864   -0.872   -0.877   -0.885   -0.893   -0.902   -0.910   -0.921   -0.956   -0.996   -1.083   -1.246   -1.499   -1.867   -2.358   -2.886   -3.354   -3.886
