DSAA
 100 100
 0.0 400.0
 0.0 400.0
 -41.58873 -0.074646585
  -4.505   -4.552   -4.621   -4.724   -4.863   -5.028   -5.204   -5.370   -5.496   -5.555   -5.518   -5.346   -5.012   -4.512   -3.896   -3.263   -2.732   -2.392   -2.260   -2.297   -2.448   -2.670   -2.943   -3.255   -3.581   -3.870   -4.062   -4.110   -4.004   -3.757   -3.394   -2.954   -2.494   -2.090   -1.818   -1.698   -1.698   -1.761   -1.828   -1.864   -1.859   -1.822   -1.769   -1.720   -1.691   -1.691   -1.717   -1.761   -1.812   -1.868   -1.929   -1.997   -2.067   -2.110   -2.087   -1.959   -1.702   -1.351   -0.969   -0.633   -0.391   -0.243   -0.164   -0.128   -0.114   -0.106   -0.104   -0.102   -0.100   -0.098   -0.096   -0.096   -0.097   -0.097   -0.098   -0.098   -0.096   -0.096   -0.097   -0.101   -0.104   -0.106   -0.109   -0.114   -0.122   -0.135   -0.156   -0.190   -0.242   -0.321   -0.436   -0.585   -0.766   -0.976   -1.220   -1.508   -1.840   -2.181   -2.462   -2.645
  -4.460   -4.500   -4.560   -4.649   -4.768   -4.913   -5.070   -5.217   -5.330   -5.383   -5.346   -5.187   -4.871   -4.397   -3.806   -3.196   -2.676   -2.334   -2.191   -2.212   -2.343   -2.546   -2.801   -3.098   -3.411   -3.696   -3.898   -3.975   -3.914   -3.722   -3.416   -3.018   -2.587   -2.195   -1.908   -1.750   -1.704   -1.722   -1.761   -1.786   -1.782   -1.752   -1.708   -1.669   -1.650   -1.655   -1.685   -1.729   -1.778   -1.830   -1.888   -1.955   -2.025   -2.076   -2.068   -1.961   -1.736   -1.412   -1.049   -0.718   -0.465   -0.300   -0.207   -0.160   -0.137   -0.126   -0.120   -0.115   -0.109   -0.105   -0.101   -0.097   -0.097   -0.096   -0.095   -0.095   -0.096   -0.097   -0.098   -0.100   -0.102   -0.108   -0.112   -0.122   -0.138   -0.165   -0.209   -0.276   -0.370   -0.503   -0.681   -0.903   -1.155   -1.427   -1.723   -2.049   -2.405   -2.758   -3.040   -3.208
  -4.334   -4.364   -4.405   -4.466   -4.548   -4.650   -4.765   -4.876   -4.957   -4.991   -4.954   -4.815   -4.546   -4.138   -3.622   -3.075   -2.596   -2.263   -2.102   -2.091   -2.181   -2.342   -2.556   -2.811   -3.085   -3.344   -3.549   -3.670   -3.688   -3.599   -3.399   -3.103   -2.750   -2.397   -2.100   -1.884   -1.746   -1.675   -1.650   -1.647   -1.648   -1.639   -1.627   -1.620   -1.629   -1.655   -1.691   -1.727   -1.759   -1.794   -1.835   -1.891   -1.956   -2.012   -2.027   -1.965   -1.802   -1.544   -1.233   -0.923   -0.663   -0.471   -0.348   -0.276   -0.238   -0.219   -0.205   -0.191   -0.176   -0.160   -0.148   -0.140   -0.135   -0.133   -0.132   -0.130   -0.129   -0.130   -0.132   -0.134   -0.140   -0.148   -0.160   -0.184   -0.225   -0.295   -0.398   -0.541   -0.731   -0.976   -1.277   -1.626   -1.994   -2.359   -2.716   -3.076   -3.438   -3.776   -4.037   -4.167
  -4.099   -4.116   -4.134   -4.157   -4.191   -4.241   -4.305   -4.370   -4.415   -4.425   -4.383   -4.270   -4.061   -3.745   -3.336   -2.888   -2.477   -2.172   -2.003   -1.958   -2.002   -2.108   -2.263   -2.455   -2.667   -2.878   -3.069   -3.220   -3.317   -3.339   -3.271   -3.111   -2.878   -2.605   -2.321   -2.048   -1.808   -1.627   -1.517   -1.476   -1.479   -1.510   -1.562   -1.629   -1.708   -1.782   -1.833   -1.851   -1.840   -1.823   -1.817   -1.837   -1.880   -1.931   -1.969   -1.958   -1.869   -1.701   -1.470   -1.212   -0.967   -0.765   -0.616   -0.520   -0.464   -0.434   -0.408   -0.382   -0.347   -0.310   -0.279   -0.260   -0.250   -0.246   -0.242   -0.236   -0.230   -0.228   -0.231   -0.240   -0.252   -0.270   -0.300   -0.351   -0.442   -0.590   -0.798   -1.069   -1.396   -1.779   -2.214   -2.676   -3.132   -3.548   -3.920   -4.260   -4.580   -4.866   -5.076   -5.156
  -3.737   -3.735   -3.725   -3.708   -3.693   -3.692   -3.707   -3.727   -3.738   -3.725   -3.682   -3.598   -3.456   -3.245   -2.962   -2.638   -2.324   -2.076   -1.920   -1.856   -1.861   -1.914   -2.001   -2.116   -2.248   -2.387   -2.534   -2.683   -2.824   -2.941   -3.009   -3.012   -2.941   -2.783   -2.538   -2.227   -1.896   -1.606   -1.408   -1.321   -1.328   -1.415   -1.563   -1.755   -1.955   -2.120   -2.209   -2.206   -2.127   -2.017   -1.923   -1.870   -1.862   -1.884   -1.923   -1.949   -1.934   -1.859   -1.724   -1.548   -1.354   -1.173   -1.025   -0.920   -0.858   -0.822   -0.792   -0.750   -0.691   -0.624   -0.570   -0.536   -0.521   -0.514   -0.505   -0.492   -0.480   -0.475   -0.481   -0.500   -0.527   -0.564   -0.619   -0.718   -0.886   -1.144   -1.487   -1.900   -2.361   -2.858   -3.376   -3.887   -4.351   -4.739   -5.053   -5.318   -5.553   -5.757   -5.900   -5.927
  -3.265   -3.242   -3.203   -3.147   -3.085   -3.037   -3.011   -2.997   -2.982   -2.954   -2.914   -2.860   -2.788   -2.683   -2.536   -2.352   -2.157   -1.991   -1.877   -1.818   -1.802   -1.811   -1.839   -1.877   -1.919   -1.971   -2.042   -2.147   -2.291   -2.471   -2.670   -2.859   -2.979   -2.966   -2.782   -2.450   -2.048   -1.668   -1.388   -1.243   -1.242   -1.378   -1.638   -1.981   -2.344   -2.642   -2.804   -2.802   -2.661   -2.453   -2.248   -2.087   -1.984   -1.938   -1.943   -1.977   -2.012   -2.018   -1.980   -1.895   -1.779   -1.653   -1.538   -1.451   -1.402   -1.375   -1.351   -1.305   -1.232   -1.147   -1.075   -1.032   -1.016   -1.009   -1.000   -0.982   -0.965   -0.959   -0.972   -1.005   -1.051   -1.116   -1.210   -1.366   -1.618   -1.982   -2.442   -2.959   -3.503   -4.051   -4.584   -5.071   -5.471   -5.763   -5.963   -6.111   -6.241   -6.357   -6.437   -6.425
  -2.758   -2.711   -2.641   -2.547   -2.446   -2.360   -2.304   -2.268   -2.240   -2.206   -2.172   -2.146   -2.137   -2.138   -2.126   -2.087   -2.022   -1.955   -1.903   -1.874   -1.856   -1.844   -1.828   -1.802   -1.765   -1.725   -1.704   -1.731   -1.835   -2.042   -2.355   -2.724   -3.039   -3.176   -3.071   -2.749   -2.310   -1.873   -1.524   -1.307   -1.257   -1.400   -1.737   -2.219   -2.744   -3.190   -3.458   -3.504   -3.357   -3.097   -2.804   -2.530   -2.304   -2.149   -2.081   -2.092   -2.148   -2.206   -2.236   -2.230   -2.192   -2.134   -2.071   -2.022   -2.002   -2.002   -2.000   -1.972   -1.908   -1.829   -1.762   -1.728   -1.721   -1.724   -1.721   -1.707   -1.692   -1.690   -1.712   -1.759   -1.830   -1.924   -2.058   -2.265   -2.576   -3.005   -3.519   -4.070   -4.626   -5.167   -5.672   -6.100   -6.401   -6.561   -6.616   -6.631   -6.655   -6.695   -6.725   -6.683
  -2.316   -2.247   -2.146   -2.015   -1.881   -1.771   -1.700   -1.657   -1.627   -1.594   -1.568   -1.567   -1.612   -1.705   -1.817   -1.915   -1.979   -2.014   -2.034   -2.045   -2.045   -2.028   -1.991   -1.925   -1.831   -1.716   -1.605   -1.539   -1.570   -1.757   -2.128   -2.622   -3.086   -3.357   -3.347   -3.086   -2.684   -2.253   -1.865   -1.562   -1.406   -1.477   -1.814   -2.366   -3.009   -3.585   -3.972   -4.112   -4.029   -3.795   -3.481   -3.135   -2.796   -2.520   -2.360   -2.328   -2.380   -2.456   -2.517   -2.552   -2.563   -2.556   -2.541   -2.532   -2.545   -2.578   -2.611   -2.621   -2.594   -2.547   -2.510   -2.501   -2.515   -2.534   -2.541   -2.538   -2.533   -2.540   -2.573   -2.634   -2.727   -2.847   -3.010   -3.246   -3.580   -4.014   -4.515   -5.035   -5.552   -6.056   -6.523   -6.889   -7.093   -7.118   -7.024   -6.905   -6.829   -6.806   -6.799   -6.738
  -2.034   -1.944   -1.807   -1.639   -1.479   -1.356   -1.284   -1.249   -1.229   -1.206   -1.189   -1.210   -1.302   -1.472   -1.686   -1.899   -2.074   -2.199   -2.284   -2.334   -2.354   -2.345   -2.301   -2.219   -2.095   -1.934   -1.753   -1.595   -1.529   -1.641   -1.983   -2.497   -3.023   -3.383   -3.483   -3.354   -3.086   -2.757   -2.391   -2.012   -1.708   -1.618   -1.850   -2.381   -3.069   -3.734   -4.224   -4.475   -4.497   -4.347   -4.077   -3.719   -3.321   -2.965   -2.739   -2.671   -2.709   -2.778   -2.831   -2.863   -2.880   -2.890   -2.897   -2.916   -2.957   -3.024   -3.097   -3.152   -3.174   -3.174   -3.178   -3.199   -3.234   -3.263   -3.276   -3.277   -3.281   -3.300   -3.345   -3.420   -3.527   -3.666   -3.845   -4.085   -4.406   -4.804   -5.247   -5.701   -6.155   -6.612   -7.039   -7.352   -7.472   -7.382   -7.156   -6.922   -6.761   -6.684   -6.645   -6.569
  -1.949   -1.835   -1.662   -1.455   -1.268   -1.141   -1.077   -1.060   -1.059   -1.054   -1.056   -1.107   -1.242   -1.471   -1.762   -2.058   -2.311   -2.501   -2.629   -2.705   -2.737   -2.732   -2.688   -2.604   -2.469   -2.283   -2.054   -1.818   -1.647   -1.637   -1.860   -2.282   -2.769   -3.164   -3.382   -3.441   -3.393   -3.252   -2.981   -2.569   -2.117   -1.826   -1.875   -2.298   -2.959   -3.656   -4.212   -4.547   -4.664   -4.607   -4.411   -4.096   -3.712   -3.354   -3.124   -3.052   -3.081   -3.127   -3.147   -3.142   -3.131   -3.124   -3.131   -3.163   -3.227   -3.324   -3.437   -3.537   -3.605   -3.647   -3.681   -3.721   -3.760   -3.780   -3.778   -3.765   -3.766   -3.796   -3.855   -3.948   -4.068   -4.213   -4.386   -4.603   -4.881   -5.221   -5.591   -5.965   -6.346   -6.747   -7.130   -7.397   -7.450   -7.274   -6.955   -6.636   -6.409   -6.281   -6.208   -6.120
  -2.039   -1.909   -1.698   -1.452   -1.241   -1.109   -1.056   -1.055   -1.073   -1.091   -1.126   -1.215   -1.397   -1.673   -2.009   -2.347   -2.640   -2.860   -3.005   -3.083   -3.112   -3.102   -3.055   -2.968   -2.830   -2.631   -2.369   -2.071   -1.802   -1.654   -1.708   -1.965   -2.341   -2.722   -3.042   -3.301   -3.501   -3.585   -3.454   -3.069   -2.525   -2.058   -1.914   -2.184   -2.763   -3.433   -3.998   -4.363   -4.527   -4.533   -4.412   -4.181   -3.882   -3.604   -3.434   -3.392   -3.417   -3.436   -3.416   -3.369   -3.318   -3.282   -3.276   -3.308   -3.389   -3.513   -3.660   -3.798   -3.901   -3.966   -4.007   -4.040   -4.057   -4.040   -3.994   -3.945   -3.928   -3.961   -4.040   -4.150   -4.275   -4.408   -4.547   -4.714   -4.928   -5.193   -5.484   -5.777   -6.084   -6.421   -6.752   -6.970   -6.975   -6.750   -6.386   -6.024   -5.752   -5.576   -5.462   -5.369
  -2.255   -2.112   -1.875   -1.603   -1.373   -1.232   -1.180   -1.185   -1.210   -1.249   -1.323   -1.465   -1.695   -2.004   -2.353   -2.695   -2.986   -3.200   -3.331   -3.389   -3.396   -3.367   -3.307   -3.213   -3.069   -2.859   -2.575   -2.232   -1.885   -1.618   -1.514   -1.600   -1.843   -2.178   -2.562   -2.977   -3.379   -3.654   -3.670   -3.357   -2.806   -2.250   -1.965   -2.088   -2.549   -3.142   -3.661   -4.002   -4.166   -4.201   -4.147   -4.025   -3.862   -3.720   -3.650   -3.651   -3.674   -3.667   -3.618   -3.545   -3.469   -3.412   -3.390   -3.419   -3.505   -3.643   -3.808   -3.966   -4.083   -4.146   -4.168   -4.162   -4.128   -4.052   -3.942   -3.839   -3.792   -3.823   -3.915   -4.032   -4.148   -4.244   -4.326   -4.418   -4.551   -4.734   -4.948   -5.168   -5.405   -5.674   -5.943   -6.115   -6.092   -5.862   -5.507   -5.148   -4.858   -4.641   -4.486   -4.391
  -2.527   -2.387   -2.147   -1.868   -1.630   -1.477   -1.409   -1.397   -1.416   -1.470   -1.585   -1.783   -2.061   -2.389   -2.726   -3.038   -3.291   -3.465   -3.553   -3.569   -3.536   -3.474   -3.390   -3.280   -3.126   -2.909   -2.613   -2.247   -1.858   -1.520   -1.311   -1.279   -1.417   -1.696   -2.088   -2.567   -3.067   -3.453   -3.580   -3.369   -2.888   -2.348   -2.007   -2.020   -2.357   -2.841   -3.280   -3.572   -3.716   -3.766   -3.774   -3.764   -3.751   -3.756   -3.788   -3.828   -3.844   -3.822   -3.767   -3.700   -3.631   -3.572   -3.543   -3.561   -3.635   -3.757   -3.906   -4.047   -4.145   -4.180   -4.158   -4.095   -3.995   -3.852   -3.679   -3.524   -3.444   -3.459   -3.542   -3.647   -3.730   -3.774   -3.785   -3.796   -3.847   -3.958   -4.109   -4.275   -4.457   -4.663   -4.868   -4.993   -4.962   -4.766   -4.469   -4.156   -3.874   -3.634   -3.449   -3.354
  -2.790   -2.665   -2.445   -2.184   -1.948   -1.781   -1.682   -1.639   -1.640   -1.705   -1.857   -2.109   -2.425   -2.762   -3.075   -3.336   -3.529   -3.640   -3.665   -3.620   -3.533   -3.425   -3.309   -3.175   -3.009   -2.790   -2.497   -2.137   -1.748   -1.400   -1.166   -1.093   -1.181   -1.407   -1.749   -2.184   -2.658   -3.057   -3.243   -3.140   -2.786   -2.341   -2.022   -1.978   -2.209   -2.585   -2.948   -3.197   -3.329   -3.394   -3.448   -3.522   -3.624   -3.740   -3.843   -3.902   -3.908   -3.881   -3.849   -3.823   -3.793   -3.756   -3.729   -3.732   -3.774   -3.847   -3.936   -4.016   -4.060   -4.043   -3.964   -3.840   -3.683   -3.494   -3.286   -3.102   -2.995   -2.980   -3.033   -3.096   -3.130   -3.116   -3.064   -3.012   -3.007   -3.072   -3.189   -3.329   -3.478   -3.633   -3.774   -3.850   -3.817   -3.671   -3.450   -3.201   -2.948   -2.709   -2.516   -2.424
  -2.976   -2.875   -2.692   -2.465   -2.243   -2.060   -1.930   -1.852   -1.838   -1.914   -2.103   -2.394   -2.737   -3.071   -3.356   -3.568   -3.699   -3.744   -3.702   -3.592   -3.444   -3.287   -3.131   -2.974   -2.799   -2.583   -2.312   -1.990   -1.647   -1.348   -1.158   -1.112   -1.199   -1.376   -1.621   -1.926   -2.271   -2.589   -2.781   -2.769   -2.558   -2.247   -1.999   -1.944   -2.111   -2.417   -2.731   -2.967   -3.103   -3.174   -3.240   -3.342   -3.488   -3.648   -3.774   -3.829   -3.820   -3.794   -3.799   -3.832   -3.858   -3.856   -3.836   -3.823   -3.826   -3.834   -3.839   -3.834   -3.802   -3.723   -3.592   -3.422   -3.238   -3.043   -2.850   -2.681   -2.572   -2.535   -2.544   -2.557   -2.536   -2.473   -2.381   -2.300   -2.271   -2.316   -2.421   -2.554   -2.682   -2.792   -2.870   -2.891   -2.839   -2.722   -2.558   -2.363   -2.151   -1.936   -1.759   -1.683
  -3.031   -2.955   -2.813   -2.626   -2.427   -2.241   -2.089   -1.994   -1.980   -2.075   -2.291   -2.602   -2.952   -3.277   -3.536   -3.715   -3.804   -3.801   -3.710   -3.551   -3.356   -3.157   -2.969   -2.791   -2.613   -2.416   -2.187   -1.928   -1.665   -1.453   -1.348   -1.369   -1.475   -1.606   -1.728   -1.854   -2.010   -2.185   -2.325   -2.361   -2.262   -2.076   -1.913   -1.886   -2.040   -2.323   -2.631   -2.876   -3.020   -3.084   -3.125   -3.196   -3.317   -3.458   -3.561   -3.587   -3.554   -3.523   -3.551   -3.628   -3.698   -3.722   -3.709   -3.684   -3.657   -3.616   -3.557   -3.483   -3.390   -3.264   -3.098   -2.915   -2.742   -2.595   -2.470   -2.371   -2.307   -2.278   -2.261   -2.228   -2.160   -2.059   -1.947   -1.855   -1.815   -1.842   -1.925   -2.034   -2.130   -2.191   -2.202   -2.159   -2.069   -1.950   -1.810   -1.655   -1.486   -1.315   -1.178   -1.126
  -2.923   -2.863   -2.756   -2.608   -2.437   -2.267   -2.124   -2.038   -2.045   -2.165   -2.397   -2.710   -3.045   -3.353   -3.598   -3.764   -3.842   -3.828   -3.724   -3.550   -3.337   -3.118   -2.915   -2.733   -2.563   -2.398   -2.222   -2.038   -1.866   -1.751   -1.734   -1.819   -1.944   -2.028   -2.029   -1.975   -1.930   -1.936   -1.974   -1.992   -1.943   -1.839   -1.752   -1.775   -1.955   -2.256   -2.584   -2.846   -2.994   -3.035   -3.027   -3.037   -3.097   -3.183   -3.239   -3.224   -3.159   -3.106   -3.121   -3.195   -3.267   -3.292   -3.274   -3.246   -3.215   -3.171   -3.103   -3.013   -2.905   -2.769   -2.605   -2.441   -2.314   -2.248   -2.234   -2.249   -2.275   -2.289   -2.269   -2.197   -2.080   -1.941   -1.808   -1.705   -1.646   -1.636   -1.665   -1.713   -1.747   -1.744   -1.690   -1.590   -1.463   -1.329   -1.203   -1.080   -0.958   -0.844   -0.757   -0.732
  -2.660   -2.609   -2.522   -2.405   -2.268   -2.133   -2.025   -1.978   -2.021   -2.169   -2.407   -2.702   -3.010   -3.296   -3.535   -3.712   -3.813   -3.826   -3.752   -3.606   -3.414   -3.209   -3.014   -2.842   -2.694   -2.565   -2.442   -2.323   -2.225   -2.181   -2.224   -2.344   -2.467   -2.504   -2.411   -2.223   -2.020   -1.867   -1.780   -1.727   -1.667   -1.599   -1.572   -1.655   -1.880   -2.213   -2.562   -2.830   -2.960   -2.962   -2.895   -2.836   -2.827   -2.854   -2.864   -2.817   -2.724   -2.637   -2.606   -2.628   -2.655   -2.650   -2.619   -2.598   -2.597   -2.602   -2.591   -2.556   -2.490   -2.388   -2.257   -2.136   -2.070   -2.089   -2.185   -2.317   -2.436   -2.496   -2.463   -2.339   -2.158   -1.968   -1.811   -1.698   -1.618   -1.557   -1.512   -1.475   -1.434   -1.366   -1.263   -1.129   -0.986   -0.857   -0.752   -0.664   -0.592   -0.533   -0.490   -0.488
  -2.307   -2.251   -2.172   -2.071   -1.968   -1.880   -1.827   -1.834   -1.923   -2.092   -2.322   -2.585   -2.856   -3.115   -3.354   -3.559   -3.707   -3.781   -3.774   -3.693   -3.559   -3.398   -3.236   -3.089   -2.967   -2.868   -2.780   -2.699   -2.635   -2.620   -2.678   -2.790   -2.887   -2.884   -2.739   -2.485   -2.197   -1.945   -1.757   -1.624   -1.531   -1.481   -1.511   -1.657   -1.931   -2.287   -2.632   -2.869   -2.948   -2.879   -2.732   -2.592   -2.514   -2.486   -2.461   -2.398   -2.294   -2.182   -2.101   -2.056   -2.019   -1.974   -1.936   -1.940   -1.998   -2.095   -2.191   -2.256   -2.268   -2.225   -2.146   -2.070   -2.051   -2.122   -2.277   -2.470   -2.630   -2.692   -2.617   -2.422   -2.169   -1.933   -1.758   -1.642   -1.551   -1.457   -1.353   -1.248   -1.145   -1.036   -0.911   -0.776   -0.648   -0.545   -0.473   -0.424   -0.389   -0.368   -0.359   -0.374
  -1.976   -1.906   -1.815   -1.716   -1.636   -1.594   -1.600   -1.663   -1.788   -1.963   -2.166   -2.382   -2.604   -2.833   -3.069   -3.303   -3.510   -3.665   -3.749   -3.761   -3.712   -3.619   -3.507   -3.396   -3.299   -3.213   -3.133   -3.052   -2.982   -2.950   -2.974   -3.039   -3.089   -3.052   -2.898   -2.646   -2.358   -2.088   -1.867   -1.706   -1.610   -1.603   -1.704   -1.924   -2.245   -2.603   -2.907   -3.067   -3.042   -2.858   -2.597   -2.354   -2.187   -2.094   -2.033   -1.960   -1.862   -1.746   -1.641   -1.553   -1.477   -1.415   -1.389   -1.437   -1.575   -1.778   -1.992   -2.161   -2.255   -2.275   -2.244   -2.202   -2.198   -2.265   -2.404   -2.574   -2.697   -2.703   -2.558   -2.292   -1.988   -1.730   -1.558   -1.454   -1.366   -1.263   -1.136   -1.002   -0.876   -0.758   -0.644   -0.538   -0.449   -0.385   -0.349   -0.329   -0.323   -0.325   -0.334   -0.357
  -1.793   -1.705   -1.587   -1.472   -1.399   -1.390   -1.440   -1.542   -1.679   -1.832   -1.987   -2.137   -2.294   -2.476   -2.694   -2.948   -3.210   -3.447   -3.634   -3.755   -3.808   -3.802   -3.755   -3.685   -3.607   -3.521   -3.420   -3.308   -3.197   -3.110   -3.067   -3.058   -3.045   -2.982   -2.842   -2.641   -2.418   -2.208   -2.034   -1.918   -1.884   -1.960   -2.156   -2.459   -2.824   -3.171   -3.406   -3.454   -3.294   -2.967   -2.566   -2.193   -1.915   -1.738   -1.624   -1.532   -1.438   -1.333   -1.230   -1.137   -1.062   -1.015   -1.027   -1.134   -1.351   -1.643   -1.948   -2.196   -2.355   -2.422   -2.428   -2.409   -2.399   -2.423   -2.486   -2.564   -2.590   -2.505   -2.284   -1.973   -1.653   -1.405   -1.252   -1.165   -1.089   -0.993   -0.872   -0.748   -0.636   -0.541   -0.460   -0.396   -0.355   -0.336   -0.330   -0.332   -0.340   -0.354   -0.370   -0.396
  -1.844   -1.736   -1.585   -1.440   -1.359   -1.359   -1.428   -1.535   -1.653   -1.758   -1.839   -1.900   -1.971   -2.085   -2.266   -2.515   -2.809   -3.116   -3.403   -3.636   -3.801   -3.896   -3.926   -3.906   -3.845   -3.747   -3.614   -3.452   -3.280   -3.119   -2.992   -2.897   -2.820   -2.730   -2.613   -2.480   -2.351   -2.243   -2.173   -2.159   -2.229   -2.410   -2.702   -3.077   -3.473   -3.800   -3.968   -3.915   -3.633   -3.181   -2.658   -2.168   -1.779   -1.508   -1.328   -1.201   -1.095   -0.997   -0.905   -0.828   -0.775   -0.766   -0.826   -0.991   -1.264   -1.609   -1.958   -2.242   -2.431   -2.531   -2.570   -2.574   -2.558   -2.536   -2.512   -2.474   -2.384   -2.204   -1.929   -1.604   -1.303   -1.081   -0.945   -0.864   -0.793   -0.712   -0.615   -0.522   -0.445   -0.386   -0.347   -0.329   -0.330   -0.344   -0.361   -0.375   -0.389   -0.408   -0.427   -0.451
  -2.107   -1.989   -1.811   -1.639   -1.539   -1.533   -1.596   -1.681   -1.751   -1.780   -1.767   -1.724   -1.696   -1.723   -1.842   -2.058   -2.355   -2.704   -3.067   -3.404   -3.681   -3.879   -3.994   -4.029   -3.991   -3.884   -3.717   -3.505   -3.269   -3.035   -2.826   -2.655   -2.516   -2.401   -2.304   -2.231   -2.194   -2.198   -2.245   -2.345   -2.515   -2.775   -3.122   -3.524   -3.918   -4.217   -4.332   -4.216   -3.873   -3.370   -2.802   -2.260   -1.810   -1.469   -1.226   -1.054   -0.923   -0.817   -0.730   -0.668   -0.641   -0.669   -0.773   -0.973   -1.267   -1.614   -1.954   -2.226   -2.411   -2.522   -2.589   -2.624   -2.622   -2.575   -2.485   -2.351   -2.166   -1.918   -1.618   -1.306   -1.034   -0.833   -0.703   -0.620   -0.554   -0.486   -0.422   -0.366   -0.327   -0.306   -0.301   -0.315   -0.343   -0.374   -0.399   -0.414   -0.426   -0.443   -0.459   -0.483
  -2.467   -2.352   -2.170   -1.990   -1.882   -1.869   -1.915   -1.964   -1.973   -1.916   -1.800   -1.654   -1.526   -1.468   -1.513   -1.675   -1.940   -2.293   -2.696   -3.104   -3.470   -3.757   -3.947   -4.037   -4.028   -3.924   -3.739   -3.491   -3.205   -2.914   -2.644   -2.415   -2.234   -2.098   -2.013   -1.983   -2.019   -2.116   -2.260   -2.446   -2.672   -2.951   -3.282   -3.646   -3.987   -4.230   -4.304   -4.169   -3.842   -3.383   -2.874   -2.384   -1.951   -1.596   -1.319   -1.108   -0.946   -0.825   -0.737   -0.686   -0.681   -0.736   -0.862   -1.066   -1.337   -1.637   -1.915   -2.130   -2.275   -2.374   -2.455   -2.522   -2.544   -2.495   -2.371   -2.181   -1.940   -1.661   -1.366   -1.085   -0.844   -0.662   -0.538   -0.454   -0.396   -0.351   -0.317   -0.294   -0.287   -0.294   -0.315   -0.347   -0.384   -0.414   -0.430   -0.434   -0.434   -0.441   -0.452   -0.474
  -2.799   -2.703   -2.546   -2.387   -2.295   -2.283   -2.315   -2.330   -2.281   -2.148   -1.950   -1.723   -1.519   -1.390   -1.371   -1.469   -1.685   -2.002   -2.397   -2.822   -3.224   -3.557   -3.793   -3.924   -3.943   -3.856   -3.671   -3.409   -3.100   -2.775   -2.471   -2.211   -2.008   -1.866   -1.789   -1.789   -1.873   -2.031   -2.237   -2.463   -2.694   -2.933   -3.189   -3.451   -3.689   -3.848   -3.878   -3.757   -3.504   -3.170   -2.806   -2.448   -2.110   -1.799   -1.525   -1.297   -1.117   -0.985   -0.897   -0.855   -0.864   -0.926   -1.046   -1.219   -1.428   -1.640   -1.820   -1.944   -2.022   -2.086   -2.164   -2.246   -2.287   -2.245   -2.110   -1.903   -1.652   -1.385   -1.128   -0.895   -0.699   -0.545   -0.434   -0.361   -0.319   -0.297   -0.288   -0.292   -0.307   -0.334   -0.369   -0.407   -0.439   -0.457   -0.453   -0.435   -0.417   -0.410   -0.414   -0.434
  -3.037   -2.970   -2.861   -2.755   -2.696   -2.696   -2.722   -2.716   -2.631   -2.454   -2.208   -1.936   -1.693   -1.526   -1.465   -1.514   -1.672   -1.929   -2.266   -2.643   -3.013   -3.329   -3.562   -3.700   -3.737   -3.669   -3.502   -3.250   -2.941   -2.610   -2.295   -2.027   -1.822   -1.684   -1.621   -1.641   -1.752   -1.939   -2.167   -2.395   -2.600   -2.775   -2.931   -3.072   -3.187   -3.251   -3.240   -3.150   -3.000   -2.821   -2.634   -2.439   -2.226   -1.994   -1.755   -1.532   -1.347   -1.211   -1.126   -1.090   -1.094   -1.141   -1.224   -1.333   -1.452   -1.556   -1.626   -1.655   -1.661   -1.682   -1.740   -1.817   -1.860   -1.824   -1.700   -1.511   -1.295   -1.080   -0.887   -0.721   -0.582   -0.470   -0.387   -0.335   -0.311   -0.307   -0.315   -0.335   -0.363   -0.400   -0.440   -0.477   -0.499   -0.498   -0.473   -0.431   -0.393   -0.372   -0.369   -0.387
  -3.182   -3.149   -3.102   -3.059   -3.048   -3.069   -3.096   -3.082   -2.985   -2.800   -2.545   -2.270   -2.024   -1.851   -1.772   -1.791   -1.898   -2.084   -2.330   -2.606   -2.878   -3.114   -3.292   -3.402   -3.437   -3.384   -3.241   -3.014   -2.724   -2.408   -2.104   -1.843   -1.646   -1.519   -1.468   -1.501   -1.618   -1.805   -2.023   -2.233   -2.403   -2.526   -2.607   -2.656   -2.678   -2.674   -2.645   -2.602   -2.555   -2.514   -2.472   -2.411   -2.307   -2.149   -1.952   -1.745   -1.559   -1.416   -1.322   -1.269   -1.249   -1.256   -1.281   -1.311   -1.336   -1.343   -1.323   -1.283   -1.241   -1.229   -1.264   -1.323   -1.358   -1.330   -1.235   -1.096   -0.946   -0.811   -0.699   -0.607   -0.526   -0.457   -0.404   -0.376   -0.367   -0.373   -0.390   -0.413   -0.442   -0.478   -0.512   -0.536   -0.543   -0.525   -0.484   -0.429   -0.380   -0.352   -0.343   -0.360
  -3.261   -3.263   -3.277   -3.302   -3.339   -3.383   -3.417   -3.405   -3.317   -3.149   -2.916   -2.662   -2.434   -2.269   -2.188   -2.187   -2.256   -2.373   -2.515   -2.666   -2.807   -2.926   -3.018   -3.077   -3.091   -3.046   -2.927   -2.733   -2.478   -2.195   -1.916   -1.672   -1.485   -1.362   -1.310   -1.336   -1.438   -1.600   -1.788   -1.969   -2.114   -2.211   -2.262   -2.276   -2.267   -2.252   -2.250   -2.270   -2.311   -2.366   -2.412   -2.424   -2.381   -2.269   -2.097   -1.895   -1.699   -1.536   -1.412   -1.321   -1.255   -1.208   -1.170   -1.134   -1.090   -1.036   -0.973   -0.910   -0.859   -0.841   -0.864   -0.906   -0.935   -0.924   -0.872   -0.798   -0.725   -0.669   -0.629   -0.594   -0.560   -0.526   -0.501   -0.492   -0.497   -0.511   -0.529   -0.548   -0.565   -0.577   -0.584   -0.582   -0.567   -0.536   -0.491   -0.438   -0.394   -0.369   -0.360   -0.375
  -3.299   -3.330   -3.397   -3.479   -3.558   -3.622   -3.660   -3.652   -3.580   -3.439   -3.241   -3.022   -2.819   -2.664   -2.578   -2.558   -2.588   -2.642   -2.692   -2.725   -2.740   -2.746   -2.752   -2.758   -2.752   -2.713   -2.620   -2.466   -2.260   -2.026   -1.787   -1.566   -1.382   -1.247   -1.173   -1.165   -1.225   -1.341   -1.483   -1.626   -1.750   -1.840   -1.894   -1.920   -1.935   -1.965   -2.028   -2.124   -2.240   -2.351   -2.436   -2.473   -2.447   -2.345   -2.175   -1.964   -1.748   -1.554   -1.388   -1.248   -1.132   -1.037   -0.954   -0.879   -0.808   -0.744   -0.687   -0.642   -0.615   -0.618   -0.645   -0.687   -0.720   -0.732   -0.723   -0.704   -0.689   -0.686   -0.689   -0.689   -0.682   -0.676   -0.682   -0.697   -0.722   -0.747   -0.766   -0.773   -0.762   -0.732   -0.691   -0.642   -0.594   -0.549   -0.508   -0.471   -0.442   -0.430   -0.427   -0.445
  -3.305   -3.355   -3.457   -3.578   -3.683   -3.756   -3.788   -3.775   -3.711   -3.594   -3.433   -3.249   -3.071   -2.926   -2.829   -2.784   -2.773   -2.768   -2.743   -2.688   -2.614   -2.540   -2.488   -2.462   -2.449   -2.427   -2.370   -2.270   -2.130   -1.964   -1.781   -1.593   -1.410   -1.248   -1.124   -1.054   -1.047   -1.093   -1.171   -1.265   -1.359   -1.441   -1.506   -1.562   -1.626   -1.722   -1.862   -2.031   -2.203   -2.350   -2.449   -2.489   -2.456   -2.347   -2.165   -1.941   -1.707   -1.488   -1.293   -1.120   -0.973   -0.850   -0.751   -0.674   -0.614   -0.574   -0.553   -0.546   -0.558   -0.586   -0.632   -0.683   -0.730   -0.768   -0.793   -0.806   -0.817   -0.831   -0.846   -0.856   -0.867   -0.889   -0.932   -0.987   -1.045   -1.088   -1.112   -1.103   -1.054   -0.970   -0.862   -0.755   -0.664   -0.598   -0.556   -0.532   -0.523   -0.526   -0.535   -0.558
  -3.281   -3.341   -3.461   -3.597   -3.706   -3.766   -3.774   -3.737   -3.663   -3.555   -3.422   -3.272   -3.123   -2.991   -2.887   -2.814   -2.759   -2.704   -2.626   -2.519   -2.400   -2.292   -2.217   -2.186   -2.186   -2.198   -2.196   -2.170   -2.118   -2.042   -1.936   -1.796   -1.622   -1.426   -1.237   -1.084   -0.986   -0.942   -0.942   -0.969   -1.018   -1.079   -1.145   -1.223   -1.327   -1.476   -1.669   -1.885   -2.090   -2.254   -2.360   -2.397   -2.357   -2.238   -2.051   -1.823   -1.588   -1.372   -1.180   -1.010   -0.864   -0.747   -0.660   -0.605   -0.580   -0.580   -0.599   -0.629   -0.669   -0.720   -0.778   -0.839   -0.902   -0.959   -1.000   -1.020   -1.027   -1.033   -1.040   -1.049   -1.075   -1.133   -1.224   -1.334   -1.435   -1.507   -1.537   -1.514   -1.430   -1.292   -1.121   -0.950   -0.805   -0.701   -0.642   -0.616   -0.614   -0.625   -0.644   -0.671
  -3.235   -3.298   -3.420   -3.551   -3.643   -3.667   -3.626   -3.540   -3.433   -3.315   -3.196   -3.076   -2.960   -2.849   -2.748   -2.656   -2.568   -2.475   -2.367   -2.242   -2.116   -2.008   -1.941   -1.924   -1.951   -2.007   -2.078   -2.145   -2.203   -2.236   -2.227   -2.152   -1.999   -1.781   -1.533   -1.297   -1.105   -0.966   -0.875   -0.827   -0.818   -0.844   -0.898   -0.980   -1.099   -1.262   -1.462   -1.677   -1.877   -2.037   -2.138   -2.173   -2.133   -2.016   -1.837   -1.625   -1.416   -1.233   -1.082   -0.953   -0.844   -0.762   -0.712   -0.698   -0.717   -0.757   -0.808   -0.859   -0.913   -0.968   -1.026   -1.089   -1.157   -1.218   -1.254   -1.262   -1.245   -1.227   -1.218   -1.229   -1.275   -1.375   -1.523   -1.693   -1.843   -1.946   -1.985   -1.953   -1.845   -1.667   -1.445   -1.216   -1.012   -0.857   -0.759   -0.706   -0.691   -0.700   -0.720   -0.750
  -3.194   -3.253   -3.369   -3.483   -3.541   -3.511   -3.400   -3.243   -3.076   -2.930   -2.808   -2.710   -2.626   -2.545   -2.458   -2.363   -2.259   -2.150   -2.034   -1.916   -1.805   -1.717   -1.668   -1.669   -1.722   -1.826   -1.969   -2.138   -2.312   -2.465   -2.559   -2.562   -2.451   -2.238   -1.959   -1.666   -1.401   -1.182   -1.011   -0.892   -0.827   -0.815   -0.849   -0.919   -1.023   -1.158   -1.313   -1.474   -1.619   -1.739   -1.817   -1.845   -1.809   -1.707   -1.555   -1.381   -1.220   -1.095   -1.010   -0.951   -0.911   -0.889   -0.895   -0.932   -0.994   -1.066   -1.135   -1.194   -1.242   -1.286   -1.333   -1.384   -1.438   -1.483   -1.498   -1.476   -1.431   -1.389   -1.370   -1.389   -1.462   -1.605   -1.807   -2.028   -2.219   -2.346   -2.395   -2.358   -2.235   -2.034   -1.778   -1.500   -1.241   -1.031   -0.884   -0.794   -0.752   -0.748   -0.763   -0.794
  -3.177   -3.233   -3.339   -3.433   -3.451   -3.361   -3.173   -2.930   -2.691   -2.495   -2.356   -2.269   -2.212   -2.159   -2.096   -2.014   -1.914   -1.809   -1.705   -1.607   -1.519   -1.452   -1.417   -1.431   -1.502   -1.640   -1.844   -2.100   -2.382   -2.642   -2.833   -2.915   -2.864   -2.685   -2.416   -2.109   -1.812   -1.546   -1.325   -1.157   -1.053   -1.014   -1.027   -1.074   -1.140   -1.213   -1.281   -1.341   -1.390   -1.430   -1.460   -1.466   -1.433   -1.358   -1.249   -1.131   -1.035   -0.985   -0.980   -1.006   -1.047   -1.098   -1.169   -1.259   -1.360   -1.453   -1.524   -1.573   -1.609   -1.636   -1.662   -1.692   -1.723   -1.743   -1.729   -1.678   -1.608   -1.552   -1.534   -1.569   -1.669   -1.842   -2.072   -2.316   -2.523   -2.654   -2.697   -2.652   -2.521   -2.307   -2.029   -1.719   -1.423   -1.175   -0.991   -0.870   -0.804   -0.785   -0.797   -0.828
  -3.184   -3.239   -3.339   -3.416   -3.401   -3.259   -3.001   -2.676   -2.358   -2.104   -1.938   -1.849   -1.808   -1.780   -1.741   -1.680   -1.602   -1.517   -1.436   -1.362   -1.297   -1.245   -1.220   -1.238   -1.314   -1.467   -1.706   -2.021   -2.379   -2.722   -2.993   -3.147   -3.160   -3.040   -2.817   -2.537   -2.246   -1.977   -1.742   -1.559   -1.440   -1.385   -1.379   -1.395   -1.408   -1.399   -1.361   -1.298   -1.226   -1.166   -1.129   -1.100   -1.068   -1.020   -0.962   -0.912   -0.892   -0.922   -1.001   -1.114   -1.237   -1.362   -1.492   -1.626   -1.750   -1.848   -1.912   -1.948   -1.966   -1.977   -1.988   -2.001   -2.013   -2.010   -1.976   -1.910   -1.833   -1.780   -1.771   -1.819   -1.927   -2.098   -2.313   -2.534   -2.712   -2.814   -2.830   -2.765   -2.621   -2.400   -2.115   -1.798   -1.496   -1.243   -1.052   -0.924   -0.850   -0.829   -0.842   -0.876
  -3.179   -3.235   -3.334   -3.405   -3.371   -3.196   -2.885   -2.496   -2.110   -1.801   -1.601   -1.505   -1.473   -1.465   -1.448   -1.413   -1.364   -1.308   -1.254   -1.203   -1.154   -1.113   -1.094   -1.111   -1.181   -1.328   -1.574   -1.915   -2.314   -2.710   -3.036   -3.248   -3.324   -3.269   -3.107   -2.879   -2.626   -2.382   -2.169   -2.000   -1.886   -1.823   -1.794   -1.772   -1.725   -1.632   -1.488   -1.308   -1.126   -0.973   -0.869   -0.809   -0.774   -0.751   -0.739   -0.753   -0.809   -0.917   -1.073   -1.260   -1.456   -1.644   -1.820   -1.979   -2.110   -2.201   -2.252   -2.274   -2.280   -2.285   -2.292   -2.299   -2.303   -2.294   -2.261   -2.203   -2.142   -2.102   -2.103   -2.148   -2.235   -2.359   -2.507   -2.650   -2.752   -2.790   -2.755   -2.657   -2.496   -2.276   -2.006   -1.715   -1.443   -1.223   -1.060   -0.950   -0.890   -0.877   -0.895   -0.935
  -3.089   -3.148   -3.252   -3.325   -3.291   -3.104   -2.769   -2.343   -1.914   -1.564   -1.340   -1.236   -1.210   -1.215   -1.218   -1.207   -1.188   -1.166   -1.138   -1.107   -1.071   -1.039   -1.025   -1.038   -1.096   -1.224   -1.454   -1.790   -2.202   -2.620   -2.979   -3.232   -3.358   -3.361   -3.259   -3.088   -2.886   -2.688   -2.515   -2.378   -2.278   -2.210   -2.156   -2.091   -1.985   -1.814   -1.582   -1.314   -1.055   -0.847   -0.710   -0.635   -0.603   -0.598   -0.621   -0.681   -0.796   -0.964   -1.182   -1.426   -1.674   -1.907   -2.111   -2.278   -2.400   -2.479   -2.517   -2.532   -2.536   -2.541   -2.552   -2.564   -2.573   -2.570   -2.553   -2.520   -2.485   -2.464   -2.468   -2.494   -2.534   -2.581   -2.622   -2.649   -2.644   -2.594   -2.496   -2.359   -2.184   -1.976   -1.743   -1.509   -1.302   -1.141   -1.029   -0.956   -0.919   -0.921   -0.947   -0.992
  -2.850   -2.907   -3.017   -3.102   -3.082   -2.907   -2.577   -2.150   -1.712   -1.352   -1.120   -1.014   -0.991   -1.001   -1.016   -1.026   -1.033   -1.037   -1.033   -1.018   -0.997   -0.977   -0.967   -0.976   -1.019   -1.126   -1.329   -1.642   -2.039   -2.453   -2.823   -3.098   -3.257   -3.302   -3.249   -3.129   -2.981   -2.836   -2.712   -2.611   -2.528   -2.455   -2.376   -2.272   -2.113   -1.884   -1.592   -1.277   -0.989   -0.773   -0.643   -0.583   -0.566   -0.577   -0.620   -0.707   -0.852   -1.055   -1.304   -1.577   -1.852   -2.107   -2.321   -2.483   -2.591   -2.654   -2.684   -2.696   -2.701   -2.711   -2.727   -2.747   -2.763   -2.775   -2.777   -2.770   -2.759   -2.751   -2.750   -2.751   -2.738   -2.701   -2.633   -2.542   -2.426   -2.289   -2.132   -1.963   -1.785   -1.604   -1.425   -1.262   -1.131   -1.039   -0.981   -0.952   -0.945   -0.962   -0.998   -1.045
  -2.451   -2.501   -2.612   -2.710   -2.715   -2.573   -2.279   -1.885   -1.477   -1.141   -0.925   -0.824   -0.800   -0.809   -0.826   -0.844   -0.863   -0.883   -0.895   -0.897   -0.890   -0.885   -0.882   -0.892   -0.928   -1.017   -1.192   -1.470   -1.827   -2.213   -2.568   -2.844   -3.019   -3.088   -3.069   -2.993   -2.896   -2.805   -2.729   -2.664   -2.597   -2.517   -2.417   -2.279   -2.085   -1.822   -1.507   -1.185   -0.913   -0.728   -0.636   -0.611   -0.623   -0.653   -0.708   -0.804   -0.956   -1.159   -1.406   -1.676   -1.949   -2.201   -2.407   -2.554   -2.643   -2.693   -2.715   -2.723   -2.727   -2.740   -2.759   -2.783   -2.806   -2.827   -2.842   -2.852   -2.856   -2.853   -2.845   -2.821   -2.769   -2.669   -2.524   -2.345   -2.150   -1.951   -1.758   -1.577   -1.412   -1.268   -1.146   -1.052   -0.990   -0.955   -0.946   -0.953   -0.975   -1.012   -1.055   -1.109
  -1.958   -1.995   -2.101   -2.207   -2.240   -2.144   -1.909   -1.579   -1.233   -0.950   -0.767   -0.678   -0.650   -0.650   -0.658   -0.672   -0.691   -0.713   -0.733   -0.749   -0.761   -0.773   -0.787   -0.807   -0.845   -0.924   -1.074   -1.305   -1.605   -1.935   -2.251   -2.507   -2.676   -2.753   -2.754   -2.712   -2.659   -2.617   -2.584   -2.547   -2.493   -2.409   -2.293   -2.136   -1.926   -1.660   -1.358   -1.067   -0.837   -0.703   -0.659   -0.675   -0.717   -0.769   -0.834   -0.927   -1.061   -1.237   -1.450   -1.687   -1.928   -2.153   -2.335   -2.459   -2.529   -2.562   -2.575   -2.577   -2.578   -2.587   -2.605   -2.630   -2.654   -2.677   -2.698   -2.714   -2.721   -2.717   -2.702   -2.666   -2.593   -2.467   -2.289   -2.074   -1.848   -1.630   -1.434   -1.266   -1.132   -1.029   -0.960   -0.919   -0.904   -0.908   -0.931   -0.967   -1.016   -1.072   -1.127   -1.186
  -1.496   -1.517   -1.610   -1.716   -1.770   -1.721   -1.552   -1.298   -1.033   -0.816   -0.675   -0.600   -0.567   -0.554   -0.549   -0.552   -0.563   -0.581   -0.606   -0.633   -0.665   -0.698   -0.732   -0.769   -0.815   -0.893   -1.019   -1.205   -1.439   -1.700   -1.955   -2.169   -2.314   -2.384   -2.394   -2.375   -2.357   -2.351   -2.347   -2.328   -2.279   -2.196   -2.077   -1.919   -1.717   -1.477   -1.220   -0.985   -0.812   -0.726   -0.718   -0.759   -0.822   -0.888   -0.960   -1.045   -1.149   -1.276   -1.430   -1.605   -1.788   -1.963   -2.106   -2.202   -2.251   -2.270   -2.273   -2.267   -2.262   -2.264   -2.278   -2.300   -2.324   -2.345   -2.364   -2.377   -2.379   -2.371   -2.352   -2.316   -2.244   -2.125   -1.953   -1.751   -1.540   -1.344   -1.177   -1.047   -0.954   -0.895   -0.867   -0.863   -0.872   -0.896   -0.935   -0.987   -1.054   -1.127   -1.192   -1.254
  -1.201   -1.203   -1.273   -1.363   -1.422   -1.403   -1.291   -1.112   -0.924   -0.770   -0.667   -0.606   -0.567   -0.540   -0.523   -0.515   -0.519   -0.535   -0.563   -0.601   -0.649   -0.701   -0.756   -0.808   -0.866   -0.946   -1.059   -1.212   -1.393   -1.588   -1.778   -1.937   -2.047   -2.100   -2.109   -2.107   -2.114   -2.129   -2.136   -2.116   -2.069   -1.992   -1.886   -1.750   -1.582   -1.392   -1.199   -1.030   -0.913   -0.861   -0.866   -0.909   -0.973   -1.043   -1.114   -1.183   -1.250   -1.317   -1.392   -1.483   -1.586   -1.691   -1.781   -1.840   -1.867   -1.872   -1.865   -1.853   -1.845   -1.842   -1.854   -1.873   -1.893   -1.912   -1.925   -1.929   -1.923   -1.911   -1.894   -1.866   -1.811   -1.715   -1.580   -1.420   -1.255   -1.108   -0.991   -0.908   -0.859   -0.842   -0.847   -0.864   -0.888   -0.917   -0.957   -1.012   -1.082   -1.159   -1.226   -1.291
  -1.145   -1.129   -1.169   -1.225   -1.267   -1.254   -1.172   -1.045   -0.916   -0.810   -0.733   -0.676   -0.630   -0.594   -0.568   -0.555   -0.557   -0.575   -0.608   -0.655   -0.712   -0.776   -0.840   -0.902   -0.971   -1.057   -1.174   -1.320   -1.481   -1.640   -1.781   -1.893   -1.967   -2.003   -2.016   -2.029   -2.053   -2.072   -2.071   -2.041   -1.990   -1.926   -1.849   -1.752   -1.637   -1.510   -1.387   -1.283   -1.214   -1.182   -1.184   -1.211   -1.256   -1.315   -1.374   -1.421   -1.445   -1.444   -1.429   -1.419   -1.421   -1.438   -1.458   -1.472   -1.473   -1.464   -1.448   -1.433   -1.424   -1.422   -1.433   -1.452   -1.471   -1.487   -1.495   -1.490   -1.478   -1.463   -1.452   -1.436   -1.402   -1.340   -1.250   -1.140   -1.034   -0.942   -0.878   -0.844   -0.838   -0.853   -0.882   -0.913   -0.944   -0.973   -1.004   -1.047   -1.107   -1.174   -1.236   -1.301
  -1.331   -1.299   -1.306   -1.321   -1.322   -1.283   -1.197   -1.089   -0.986   -0.901   -0.834   -0.775   -0.722   -0.679   -0.651   -0.638   -0.644   -0.666   -0.703   -0.754   -0.814   -0.877   -0.941   -1.003   -1.077   -1.179   -1.321   -1.493   -1.673   -1.835   -1.965   -2.057   -2.113   -2.147   -2.172   -2.204   -2.236   -2.251   -2.233   -2.186   -2.132   -2.085   -2.042   -1.991   -1.931   -1.866   -1.808   -1.764   -1.736   -1.718   -1.709   -1.712   -1.733   -1.771   -1.811   -1.832   -1.811   -1.740   -1.633   -1.510   -1.396   -1.305   -1.241   -1.199   -1.169   -1.144   -1.123   -1.105   -1.097   -1.096   -1.107   -1.127   -1.145   -1.161   -1.167   -1.160   -1.146   -1.134   -1.130   -1.126   -1.113   -1.081   -1.030   -0.969   -0.912   -0.870   -0.850   -0.854   -0.879   -0.919   -0.965   -1.008   -1.043   -1.068   -1.090   -1.117   -1.163   -1.217   -1.271   -1.338
  -1.717   -1.675   -1.657   -1.629   -1.574   -1.477   -1.348   -1.215   -1.100   -1.008   -0.935   -0.872   -0.819   -0.779   -0.754   -0.747   -0.756   -0.779   -0.814   -0.859   -0.909   -0.962   -1.013   -1.069   -1.148   -1.272   -1.453   -1.676   -1.910   -2.117   -2.275   -2.378   -2.443   -2.491   -2.538   -2.588   -2.626   -2.632   -2.599   -2.541   -2.488   -2.454   -2.437   -2.423   -2.406   -2.392   -2.387   -2.391   -2.394   -2.390   -2.375   -2.362   -2.366   -2.385   -2.405   -2.399   -2.339   -2.211   -2.021   -1.791   -1.557   -1.352   -1.198   -1.094   -1.030   -0.988   -0.962   -0.942   -0.931   -0.930   -0.939   -0.956   -0.976   -0.992   -1.002   -1.002   -0.995   -0.989   -0.990   -0.996   -0.998   -0.990   -0.967   -0.940   -0.917   -0.908   -0.915   -0.942   -0.985   -1.039   -1.098   -1.153   -1.199   -1.228   -1.249   -1.269   -1.303   -1.351   -1.400   -1.471
  -2.241   -2.199   -2.168   -2.103   -1.988   -1.816   -1.611   -1.412   -1.249   -1.127   -1.036   -0.970   -0.922   -0.894   -0.878   -0.875   -0.883   -0.898   -0.920   -0.947   -0.978   -1.008   -1.041   -1.086   -1.167   -1.313   -1.537   -1.822   -2.127   -2.401   -2.614   -2.757   -2.849   -2.920   -2.988   -3.049   -3.087   -3.087   -3.050   -2.994   -2.946   -2.921   -2.915   -2.919   -2.930   -2.949   -2.977   -3.010   -3.036   -3.044   -3.032   -3.017   -3.015   -3.024   -3.030   -3.005   -2.921   -2.757   -2.511   -2.201   -1.869   -1.567   -1.335   -1.182   -1.092   -1.040   -1.008   -0.984   -0.970   -0.966   -0.972   -0.984   -1.004   -1.024   -1.041   -1.053   -1.058   -1.063   -1.073   -1.086   -1.098   -1.104   -1.100   -1.090   -1.081   -1.081   -1.094   -1.124   -1.171   -1.233   -1.307   -1.384   -1.451   -1.501   -1.529   -1.548   -1.577   -1.622   -1.668   -1.743
  -2.835   -2.796   -2.757   -2.669   -2.499   -2.251   -1.956   -1.674   -1.442   -1.272   -1.157   -1.086   -1.047   -1.027   -1.017   -1.011   -1.011   -1.010   -1.012   -1.015   -1.016   -1.019   -1.030   -1.060   -1.137   -1.296   -1.550   -1.886   -2.257   -2.606   -2.885   -3.079   -3.209   -3.303   -3.382   -3.445   -3.480   -3.478   -3.446   -3.401   -3.363   -3.341   -3.340   -3.350   -3.371   -3.402   -3.442   -3.487   -3.522   -3.537   -3.536   -3.529   -3.531   -3.542   -3.543   -3.510   -3.419   -3.245   -2.977   -2.627   -2.244   -1.891   -1.622   -1.452   -1.358   -1.307   -1.277   -1.256   -1.240   -1.235   -1.239   -1.252   -1.270   -1.296   -1.323   -1.351   -1.377   -1.399   -1.420   -1.440   -1.461   -1.476   -1.477   -1.467   -1.451   -1.435   -1.428   -1.442   -1.483   -1.556   -1.653   -1.766   -1.871   -1.950   -1.992   -2.009   -2.025   -2.054   -2.090   -2.164
  -3.440   -3.401   -3.356   -3.244   -3.033   -2.720   -2.348   -1.982   -1.673   -1.447   -1.300   -1.216   -1.176   -1.157   -1.144   -1.131   -1.116   -1.098   -1.077   -1.055   -1.031   -1.010   -0.997   -1.009   -1.078   -1.236   -1.505   -1.872   -2.292   -2.701   -3.043   -3.290   -3.456   -3.568   -3.651   -3.708   -3.736   -3.735   -3.716   -3.690   -3.666   -3.653   -3.652   -3.664   -3.686   -3.715   -3.749   -3.784   -3.816   -3.834   -3.840   -3.846   -3.860   -3.878   -3.881   -3.851   -3.765   -3.599   -3.340   -3.000   -2.624   -2.285   -2.037   -1.892   -1.823   -1.794   -1.780   -1.769   -1.760   -1.759   -1.770   -1.789   -1.814   -1.846   -1.885   -1.932   -1.985   -2.037   -2.080   -2.114   -2.143   -2.162   -2.165   -2.142   -2.096   -2.038   -1.985   -1.962   -1.990   -2.075   -2.210   -2.374   -2.532   -2.648   -2.705   -2.712   -2.703   -2.704   -2.720   -2.794
  -4.080   -4.033   -3.966   -3.825   -3.572   -3.208   -2.770   -2.327   -1.941   -1.651   -1.460   -1.351   -1.297   -1.269   -1.250   -1.228   -1.201   -1.171   -1.135   -1.097   -1.056   -1.019   -0.992   -0.992   -1.050   -1.202   -1.468   -1.845   -2.292   -2.741   -3.128   -3.419   -3.617   -3.743   -3.824   -3.871   -3.892   -3.897   -3.895   -3.891   -3.891   -3.894   -3.905   -3.922   -3.941   -3.961   -3.980   -3.997   -4.013   -4.024   -4.034   -4.049   -4.073   -4.098   -4.109   -4.087   -4.016   -3.876   -3.656   -3.370   -3.062   -2.798   -2.625   -2.545   -2.529   -2.539   -2.550   -2.555   -2.557   -2.567   -2.588   -2.617   -2.651   -2.689   -2.740   -2.810   -2.899   -2.992   -3.072   -3.134   -3.181   -3.212   -3.218   -3.181   -3.097   -2.976   -2.853   -2.777   -2.784   -2.889   -3.076   -3.310   -3.540   -3.712   -3.799   -3.810   -3.795   -3.795   -3.814   -3.908
  -4.920   -4.850   -4.742   -4.546   -4.236   -3.811   -3.302   -2.775   -2.298   -1.925   -1.672   -1.522   -1.443   -1.405   -1.379   -1.353   -1.322   -1.285   -1.244   -1.202   -1.160   -1.120   -1.093   -1.092   -1.147   -1.289   -1.546   -1.916   -2.367   -2.831   -3.244   -3.566   -3.786   -3.922   -3.999   -4.037   -4.055   -4.068   -4.088   -4.116   -4.150   -4.187   -4.225   -4.259   -4.286   -4.300   -4.304   -4.301   -4.296   -4.293   -4.297   -4.311   -4.336   -4.366   -4.388   -4.387   -4.347   -4.256   -4.109   -3.919   -3.725   -3.578   -3.513   -3.523   -3.576   -3.629   -3.664   -3.683   -3.693   -3.710   -3.735   -3.764   -3.795   -3.831   -3.888   -3.983   -4.118   -4.268   -4.404   -4.513   -4.599   -4.667   -4.699   -4.670   -4.559   -4.385   -4.198   -4.075   -4.072   -4.216   -4.482   -4.823   -5.167   -5.450   -5.634   -5.741   -5.828   -5.935   -6.046   -6.214
  -6.212   -6.118   -5.943   -5.659   -5.257   -4.741   -4.134   -3.490   -2.888   -2.398   -2.053   -1.840   -1.724   -1.667   -1.636   -1.609   -1.578   -1.542   -1.505   -1.469   -1.436   -1.410   -1.397   -1.407   -1.465   -1.600   -1.841   -2.195   -2.628   -3.088   -3.505   -3.840   -4.073   -4.214   -4.287   -4.319   -4.337   -4.361   -4.408   -4.479   -4.570   -4.668   -4.761   -4.836   -4.885   -4.907   -4.903   -4.881   -4.853   -4.829   -4.815   -4.815   -4.832   -4.864   -4.906   -4.944   -4.965   -4.956   -4.918   -4.860   -4.810   -4.803   -4.858   -4.964   -5.085   -5.180   -5.236   -5.261   -5.274   -5.284   -5.295   -5.303   -5.311   -5.332   -5.393   -5.517   -5.706   -5.927   -6.140   -6.328   -6.495   -6.643   -6.749   -6.774   -6.696   -6.534   -6.355   -6.257   -6.317   -6.566   -6.976   -7.488   -8.023   -8.512   -8.922   -9.280   -9.639  -10.003  -10.301  -10.545
  -8.101   -8.000   -7.750   -7.356   -6.835   -6.195   -5.453   -4.653   -3.880   -3.229   -2.756   -2.451   -2.277   -2.188   -2.141   -2.111   -2.078   -2.043   -2.010   -1.986   -1.970   -1.967   -1.979   -2.012   -2.081   -2.210   -2.430   -2.750   -3.152   -3.587   -3.993   -4.325   -4.560   -4.702   -4.769   -4.794   -4.812   -4.851   -4.931   -5.060   -5.231   -5.424   -5.607   -5.753   -5.848   -5.889   -5.884   -5.846   -5.793   -5.742   -5.700   -5.676   -5.675   -5.713   -5.788   -5.893   -6.007   -6.117   -6.217   -6.310   -6.413   -6.546   -6.720   -6.919   -7.104   -7.241   -7.322   -7.362   -7.380   -7.386   -7.379   -7.362   -7.349   -7.364   -7.445   -7.615   -7.873   -8.180   -8.492   -8.791   -9.080   -9.357   -9.591   -9.745   -9.799   -9.781   -9.768   -9.860  -10.131  -10.600  -11.234  -11.970  -12.737  -13.476  -14.168  -14.831  -15.480  -16.066  -16.467  -16.631
 -10.414  -10.345  -10.036   -9.545   -8.911   -8.145   -7.258   -6.289   -5.330   -4.496   -3.866   -3.445   -3.192   -3.051   -2.977   -2.931   -2.888   -2.847   -2.813   -2.794   -2.797   -2.822   -2.870   -2.934   -3.018   -3.140   -3.331   -3.608   -3.962   -4.356   -4.738   -5.060   -5.292   -5.429   -5.488   -5.503   -5.518   -5.571   -5.688   -5.885   -6.155   -6.465   -6.763   -7.003   -7.158   -7.227   -7.222   -7.170   -7.096   -7.018   -6.948   -6.897   -6.882   -6.930   -7.053   -7.243   -7.472   -7.717   -7.962   -8.203   -8.447   -8.706   -8.984   -9.264   -9.513   -9.705   -9.835   -9.920   -9.977  -10.014  -10.033  -10.041  -10.061  -10.126  -10.275  -10.526  -10.872  -11.272  -11.690  -12.109  -12.530  -12.949  -13.341  -13.679  -13.958  -14.214  -14.515  -14.936  -15.518  -16.254  -17.101  -18.005  -18.917  -19.802  -20.649  -21.458  -22.206  -22.808  -23.120  -23.017
 -12.726  -12.722  -12.392  -11.844  -11.134  -10.278   -9.283   -8.184   -7.074   -6.085   -5.316   -4.784   -4.446   -4.246   -4.130   -4.057   -3.993   -3.932   -3.881   -3.858   -3.874   -3.929   -4.016   -4.119   -4.224   -4.342   -4.503   -4.732   -5.033   -5.381   -5.735   -6.045   -6.275   -6.408   -6.456   -6.458   -6.466   -6.527   -6.678   -6.939   -7.302   -7.722   -8.129   -8.458   -8.672   -8.767   -8.767   -8.708   -8.621   -8.530   -8.447   -8.385   -8.372   -8.444   -8.623   -8.900   -9.241   -9.607   -9.975  -10.335  -10.688  -11.043  -11.402  -11.752  -12.068  -12.332  -12.544  -12.719  -12.872  -13.010  -13.138  -13.263  -13.410  -13.607  -13.882  -14.246  -14.685  -15.167  -15.667  -16.173  -16.688  -17.212  -17.733  -18.243  -18.749  -19.284  -19.892  -20.609  -21.439  -22.356  -23.319  -24.287  -25.231  -26.134  -26.982  -27.759  -28.407  -28.820  -28.849  -28.404
 -14.617  -14.685  -14.366  -13.804  -13.066  -12.175  -11.134   -9.978   -8.800   -7.737   -6.892   -6.290   -5.891   -5.639   -5.482   -5.374   -5.279   -5.185   -5.105   -5.060   -5.075   -5.155   -5.284   -5.430   -5.566   -5.692   -5.833   -6.023   -6.281   -6.597   -6.935   -7.246   -7.483   -7.617   -7.657   -7.646   -7.644   -7.707   -7.876   -8.176   -8.597   -9.085   -9.560   -9.943  -10.194  -10.310  -10.320  -10.267  -10.189  -10.110  -10.041   -9.999  -10.013  -10.129  -10.369  -10.723  -11.148  -11.601  -12.051  -12.484  -12.905  -13.319  -13.733  -14.137  -14.520  -14.870  -15.193  -15.499  -15.803  -16.108  -16.418  -16.735  -17.073  -17.448  -17.873  -18.350  -18.865  -19.399  -19.937  -20.477  -21.025  -21.591  -22.177  -22.788  -23.440  -24.153  -24.946  -25.821  -26.757  -27.719  -28.666  -29.571  -30.416  -31.189  -31.874  -32.434  -32.810  -32.915  -32.592  -32.223
 -15.817  -15.940  -15.646  -15.100  -14.374  -13.497  -12.474  -11.343  -10.193   -9.152   -8.317   -7.708   -7.288   -7.009   -6.823   -6.685   -6.556   -6.423   -6.302   -6.224   -6.225   -6.319   -6.485   -6.679   -6.858   -7.009   -7.153   -7.333   -7.578   -7.891   -8.242   -8.579   -8.841   -8.993   -9.039   -9.028   -9.021   -9.080   -9.248   -9.549   -9.971  -10.462  -10.939  -11.328  -11.587  -11.715  -11.742  -11.713  -11.666  -11.626  -11.602  -11.612  -11.685  -11.861  -12.162  -12.573  -13.050  -13.548  -14.033  -14.497  -14.942  -15.380  -15.820  -16.263  -16.706  -17.148  -17.594  -18.054  -18.534  -19.035  -19.549  -20.071  -20.599  -21.138  -21.688  -22.247  -22.805  -23.354  -23.889  -24.415  -24.945  -25.496  -26.079  -26.711  -27.403  -28.164  -28.992  -29.869  -30.764  -31.646  -32.492  -33.290  -34.033  -34.712  -35.314  -35.813  -36.173  -36.303  -35.917  -36.596
 -16.212  -16.359  -16.088  -15.571  -14.884  -14.058  -13.105  -12.065  -11.022  -10.087   -9.336   -8.780   -8.384   -8.108   -7.913   -7.757   -7.603   -7.438   -7.276   -7.163   -7.143   -7.242   -7.441   -7.684   -7.917   -8.114   -8.297   -8.507   -8.785   -9.142   -9.547   -9.943  -10.260  -10.456  -10.537  -10.547  -10.552  -10.610  -10.761  -11.028  -11.399  -11.831  -12.252  -12.600  -12.839  -12.969  -13.017  -13.022  -13.020  -13.033  -13.072  -13.152  -13.299  -13.542  -13.896  -14.341  -14.836  -15.339  -15.822  -16.277  -16.714  -17.147  -17.591  -18.058  -18.551  -19.076  -19.641  -20.248  -20.895  -21.570  -22.258  -22.941  -23.608  -24.253  -24.874  -25.467  -26.029  -26.559  -27.060  -27.542  -28.024  -28.525  -29.065  -29.663  -30.330  -31.072  -31.883  -32.749  -33.652  -34.568  -35.475  -36.349  -37.165  -37.903  -38.551  -39.085  -39.457  -39.538  -38.957  -40.660
 -15.809  -15.941  -15.683  -15.198  -14.561  -13.809  -12.962  -12.059  -11.175  -10.396   -9.775   -9.310   -8.971   -8.725   -8.543   -8.388   -8.227   -8.046   -7.865   -7.729   -7.697   -7.803   -8.033   -8.329   -8.628   -8.901   -9.163   -9.458   -9.827  -10.282  -10.789  -11.282  -11.689  -11.967  -12.117  -12.183  -12.224  -12.290  -12.421  -12.635  -12.927  -13.263  -13.593  -13.869  -14.067  -14.186  -14.247  -14.281  -14.316  -14.371  -14.461  -14.599  -14.806  -15.101  -15.485  -15.936  -16.419  -16.897  -17.349  -17.772  -18.178  -18.589  -19.025  -19.502  -20.032  -20.624  -21.282  -22.003  -22.772  -23.566  -24.360  -25.131  -25.866  -26.554  -27.193  -27.782  -28.322  -28.816  -29.272  -29.704  -30.130  -30.573  -31.057  -31.602  -32.222  -32.926  -33.708  -34.557  -35.448  -36.355  -37.241  -38.081  -38.848  -39.525  -40.091  -40.507  -40.715  -40.578  -39.729  -41.408
 -14.716  -14.799  -14.540  -14.080  -13.495  -12.826  -12.101  -11.355  -10.649  -10.043   -9.566   -9.208   -8.943   -8.747   -8.598   -8.465   -8.321   -8.155   -7.987   -7.865   -7.850   -7.983   -8.259   -8.624   -9.017   -9.407   -9.804  -10.246  -10.769  -11.377  -12.029  -12.655  -13.183  -13.572  -13.824  -13.972  -14.067  -14.155  -14.270  -14.432  -14.642  -14.879  -15.110  -15.305  -15.448  -15.539  -15.591  -15.623  -15.660  -15.719  -15.819  -15.972  -16.196  -16.499  -16.875  -17.300  -17.742  -18.172  -18.574  -18.952  -19.322  -19.708  -20.131  -20.612  -21.164  -21.795  -22.506  -23.284  -24.106  -24.943  -25.765  -26.551  -27.286  -27.962  -28.578  -29.134  -29.632  -30.077  -30.478  -30.849  -31.209  -31.581  -31.990  -32.455  -32.991  -33.601  -34.280  -35.009  -35.763  -36.520  -37.257  -37.963  -38.624  -39.228  -39.744  -40.133  -40.320  -40.176  -39.372  -40.315
 -13.134  -13.146  -12.873  -12.431  -11.892  -11.303  -10.697  -10.103   -9.566   -9.119   -8.776   -8.522   -8.337   -8.203   -8.103   -8.015   -7.919   -7.809   -7.705   -7.651   -7.709   -7.920   -8.286   -8.764   -9.300   -9.863  -10.456  -11.103  -11.826  -12.617  -13.430  -14.196  -14.849  -15.355  -15.713  -15.948  -16.102  -16.215  -16.320  -16.440  -16.580  -16.731  -16.873  -16.990  -17.070  -17.112  -17.123  -17.115  -17.109  -17.124  -17.178  -17.290  -17.473  -17.730  -18.051  -18.413  -18.789  -19.153  -19.500  -19.832  -20.169  -20.533  -20.944  -21.420  -21.972  -22.605  -23.314  -24.081  -24.880  -25.681  -26.457  -27.187  -27.860  -28.472  -29.021  -29.509  -29.939  -30.317  -30.652  -30.958  -31.253  -31.559  -31.896  -32.283  -32.734  -33.253  -33.835  -34.469  -35.134  -35.815  -36.495  -37.161  -37.803  -38.398  -38.922  -39.330  -39.560  -39.489  -38.847  -39.025
 -11.343  -11.281  -10.991  -10.561  -10.061   -9.543   -9.039   -8.575   -8.176   -7.858   -7.624   -7.461   -7.354   -7.289   -7.255   -7.238   -7.229   -7.227   -7.250   -7.341   -7.550   -7.916   -8.444   -9.101   -9.839  -10.623  -11.442  -12.306  -13.218  -14.163  -15.096  -15.957  -16.697  -17.284  -17.719  -18.020  -18.218  -18.348  -18.442  -18.525  -18.609  -18.691  -18.761  -18.806  -18.819  -18.797  -18.743  -18.668  -18.588  -18.524  -18.496  -18.524  -18.620  -18.789  -19.019  -19.291  -19.581  -19.873  -20.161  -20.451  -20.759  -21.103  -21.497  -21.952  -22.475  -23.065  -23.714  -24.405  -25.113  -25.810  -26.476  -27.095  -27.661  -28.172  -28.628  -29.032  -29.388  -29.701  -29.979  -30.235  -30.482  -30.739  -31.025  -31.357  -31.747  -32.203  -32.721  -33.297  -33.917  -34.567  -35.234  -35.900  -36.550  -37.160  -37.701  -38.128  -38.383  -38.360  -37.855  -37.512
  -9.669   -9.552   -9.255   -8.843   -8.383   -7.928   -7.508   -7.143   -6.846   -6.624   -6.475   -6.391   -6.358   -6.371   -6.421   -6.508   -6.629   -6.788   -7.002   -7.304   -7.734   -8.322   -9.068   -9.941  -10.895  -11.885  -12.887  -13.897  -14.914  -15.920  -16.884  -17.764  -18.521  -19.133  -19.598  -19.928  -20.144  -20.278  -20.357  -20.408  -20.444  -20.469  -20.477  -20.460  -20.409  -20.321  -20.199  -20.052  -19.896  -19.750  -19.635  -19.571  -19.570  -19.636  -19.763  -19.935  -20.137  -20.355  -20.586  -20.836  -21.114  -21.429  -21.792  -22.203  -22.664  -23.171  -23.715  -24.280  -24.847  -25.397  -25.916  -26.396  -26.834  -27.231  -27.589  -27.910  -28.196  -28.453  -28.685  -28.903  -29.116  -29.341  -29.593  -29.885  -30.230  -30.635  -31.099  -31.618  -32.186  -32.794  -33.428  -34.077  -34.724  -35.345  -35.907  -36.363  -36.650  -36.678  -36.290  -35.683
  -8.426   -8.286   -8.008   -7.635   -7.231   -6.844   -6.500   -6.213   -5.993   -5.843   -5.763   -5.748   -5.791   -5.888   -6.041   -6.252   -6.528   -6.871   -7.293   -7.813   -8.460   -9.252  -10.186  -11.229  -12.326  -13.429  -14.507  -15.551  -16.561  -17.531  -18.441  -19.266  -19.981  -20.567  -21.021  -21.348  -21.562  -21.688  -21.750  -21.771  -21.768  -21.747  -21.705  -21.635  -21.531  -21.389  -21.211  -21.009  -20.797  -20.592  -20.413  -20.278  -20.199  -20.181  -20.219  -20.305  -20.427  -20.579  -20.757  -20.963  -21.201  -21.476  -21.787  -22.132  -22.506  -22.905  -23.320  -23.738  -24.148  -24.539  -24.904  -25.242  -25.553  -25.839  -26.103  -26.346  -26.569  -26.776  -26.972  -27.163  -27.357  -27.564  -27.797  -28.067  -28.383  -28.750  -29.170  -29.640  -30.156  -30.712  -31.300  -31.911  -32.531  -33.139  -33.702  -34.176  -34.497  -34.583  -34.304  -33.638
  -7.838   -7.716   -7.491   -7.194   -6.875   -6.575   -6.313   -6.100   -5.941   -5.845   -5.815   -5.854   -5.959   -6.129   -6.369   -6.686   -7.086   -7.566   -8.124   -8.774   -9.533  -10.418  -11.424  -12.516  -13.641  -14.744  -15.795  -16.782  -17.709  -18.580  -19.387  -20.119  -20.756  -21.289  -21.707  -22.014  -22.216  -22.330  -22.377  -22.379  -22.349  -22.296  -22.218  -22.113  -21.972  -21.796  -21.588  -21.358  -21.120  -20.890  -20.683  -20.513  -20.391  -20.320  -20.300  -20.324  -20.387  -20.484  -20.612  -20.772  -20.964  -21.185  -21.431  -21.697  -21.976  -22.264  -22.552  -22.832  -23.098  -23.346  -23.576  -23.790  -23.993  -24.186  -24.370  -24.548  -24.719  -24.888  -25.056  -25.229  -25.412  -25.612  -25.837  -26.097  -26.396  -26.740  -27.128  -27.560  -28.031  -28.538  -29.075  -29.636  -30.210  -30.779  -31.315  -31.779  -32.114  -32.241  -32.053  -31.442
  -7.976   -7.909   -7.767   -7.577   -7.376   -7.184   -7.014   -6.867   -6.750   -6.675   -6.654   -6.700   -6.813   -6.999   -7.261   -7.607   -8.036   -8.541   -9.112   -9.754  -10.485  -11.325  -12.273  -13.299  -14.349  -15.370  -16.328  -17.210  -18.022  -18.771  -19.461  -20.087  -20.640  -21.109  -21.485  -21.768  -21.959  -22.069  -22.114  -22.111  -22.074  -22.010  -21.921  -21.802  -21.651  -21.469  -21.259  -21.034  -20.804  -20.583  -20.382  -20.213  -20.081  -19.990  -19.941  -19.930  -19.953  -20.010  -20.097  -20.213  -20.355  -20.520  -20.701  -20.891  -21.085  -21.276  -21.459  -21.630  -21.785  -21.926  -22.056  -22.180  -22.303  -22.427  -22.555  -22.683  -22.816  -22.954  -23.100  -23.259  -23.433  -23.627  -23.847  -24.099  -24.388  -24.716  -25.081  -25.484  -25.918  -26.383  -26.872  -27.381  -27.902  -28.420  -28.914  -29.350  -29.677  -29.825  -29.701  -29.181
  -8.695   -8.709   -8.657   -8.579   -8.494   -8.409   -8.319   -8.217   -8.104   -7.996   -7.919   -7.895   -7.937   -8.051   -8.245   -8.520   -8.873   -9.293   -9.763  -10.287  -10.883  -11.577  -12.375  -13.255  -14.167  -15.057  -15.889  -16.649  -17.340  -17.971  -18.551  -19.080  -19.554  -19.966  -20.310  -20.579  -20.773  -20.897  -20.962  -20.981  -20.965  -20.920  -20.849  -20.749  -20.620  -20.462  -20.283  -20.091  -19.898  -19.712  -19.543  -19.397  -19.278  -19.191  -19.135  -19.109  -19.112  -19.142  -19.199  -19.280  -19.382  -19.499  -19.625  -19.755  -19.883  -20.005  -20.116  -20.214  -20.297  -20.370  -20.436  -20.504  -20.576  -20.656  -20.744  -20.839  -20.942  -21.055  -21.181  -21.325  -21.488  -21.673  -21.885  -22.129  -22.408  -22.724  -23.074  -23.456  -23.863  -24.292  -24.740  -25.204  -25.677  -26.149  -26.602  -27.008  -27.324  -27.487  -27.413  -26.983
  -9.656   -9.746   -9.760   -9.754   -9.744   -9.725   -9.678   -9.581   -9.430   -9.242   -9.052   -8.897   -8.802   -8.778   -8.832   -8.965   -9.173   -9.439   -9.746  -10.095  -10.506  -11.005  -11.607  -12.297  -13.035  -13.770  -14.464  -15.101  -15.680  -16.210  -16.700  -17.152  -17.567  -17.943  -18.273  -18.551  -18.773  -18.939  -19.056  -19.131  -19.172  -19.182  -19.164  -19.116  -19.038  -18.934  -18.810  -18.672  -18.532  -18.394  -18.265  -18.151  -18.056  -17.983  -17.933  -17.905  -17.900  -17.919  -17.961  -18.022  -18.099  -18.186  -18.278  -18.369  -18.456  -18.537  -18.607  -18.665  -18.710  -18.746  -18.778  -18.813  -18.856  -18.907  -18.968  -19.038  -19.118  -19.209  -19.316  -19.443  -19.591  -19.764  -19.967  -20.203  -20.477  -20.786  -21.129  -21.499  -21.888  -22.292  -22.708  -23.136  -23.571  -24.008  -24.432  -24.819  -25.132  -25.314  -25.286  -24.938
 -10.447  -10.583  -10.606  -10.607  -10.604  -10.588  -10.531  -10.400  -10.183   -9.895   -9.575   -9.272   -9.020   -8.837   -8.730   -8.700   -8.738   -8.832   -8.965   -9.133   -9.354   -9.656  -10.055  -10.547  -11.100  -11.673  -12.232  -12.757  -13.245  -13.701  -14.129  -14.535  -14.921  -15.288  -15.633  -15.949  -16.230  -16.472  -16.674  -16.839  -16.968  -17.064  -17.125  -17.150  -17.143  -17.105  -17.043  -16.963  -16.873  -16.778  -16.683  -16.595  -16.521  -16.461  -16.421  -16.400  -16.400  -16.421  -16.464  -16.524  -16.597  -16.674  -16.753  -16.828  -16.898  -16.960  -17.012  -17.051  -17.079  -17.098  -17.114  -17.133  -17.157  -17.189  -17.230  -17.279  -17.339  -17.411  -17.498  -17.605  -17.736  -17.898  -18.094  -18.329  -18.606  -18.921  -19.269  -19.638  -20.019  -20.406  -20.798  -21.196  -21.603  -22.017  -22.425  -22.806  -23.127  -23.331  -23.349  -23.075
 -10.743  -10.870  -10.843  -10.776  -10.705  -10.628  -10.514  -10.323  -10.033   -9.654   -9.226   -8.803   -8.427   -8.116   -7.875   -7.706   -7.601   -7.549   -7.536   -7.558   -7.627   -7.767   -7.995   -8.311   -8.697   -9.124   -9.565  -10.004  -10.435  -10.853  -11.260  -11.659  -12.052  -12.443  -12.830  -13.209  -13.569  -13.904  -14.208  -14.475  -14.703  -14.887  -15.028  -15.124  -15.179  -15.197  -15.183  -15.144  -15.085  -15.013  -14.935  -14.860  -14.795  -14.747  -14.718  -14.709  -14.723  -14.761  -14.821  -14.897  -14.983  -15.069  -15.151  -15.225  -15.290  -15.346  -15.391  -15.424  -15.446  -15.458  -15.466  -15.475  -15.487  -15.505  -15.531  -15.563  -15.604  -15.656  -15.722  -15.809  -15.923  -16.074  -16.269  -16.513  -16.807  -17.145  -17.513  -17.895  -18.278  -18.654  -19.027  -19.403  -19.787  -20.183  -20.583  -20.968  -21.301  -21.532  -21.591  -21.383
 -10.375  -10.436  -10.304  -10.109   -9.908   -9.718   -9.514   -9.251   -8.900   -8.465   -7.983   -7.508   -7.078   -6.710   -6.407   -6.165   -5.978   -5.841   -5.743   -5.681   -5.662   -5.704   -5.819   -6.012   -6.275   -6.596   -6.961   -7.356   -7.772   -8.198   -8.628   -9.058   -9.491   -9.927  -10.368  -10.808  -11.240  -11.653  -12.037  -12.381  -12.677  -12.921  -13.111  -13.248  -13.336  -13.381  -13.388  -13.363  -13.311  -13.242  -13.164  -13.091  -13.031  -12.991  -12.977  -12.987  -13.023  -13.086  -13.171  -13.272  -13.377  -13.478  -13.567  -13.643  -13.705  -13.755  -13.794  -13.822  -13.839  -13.848  -13.852  -13.855  -13.859  -13.868  -13.882  -13.901  -13.926  -13.958  -14.001  -14.066  -14.163  -14.306  -14.506  -14.770  -15.097  -15.472  -15.875  -16.283  -16.677  -17.050  -17.408  -17.763  -18.129  -18.510  -18.905  -19.293  -19.641  -19.895  -19.992  -19.840
  -9.345   -9.302   -9.039   -8.685   -8.323   -7.994   -7.685   -7.358   -6.977   -6.540   -6.080   -5.638   -5.247   -4.912   -4.631   -4.398   -4.207   -4.058   -3.944   -3.865   -3.824   -3.831   -3.896   -4.024   -4.221   -4.487   -4.822   -5.218   -5.661   -6.133   -6.617   -7.103   -7.589   -8.072   -8.552   -9.028   -9.493   -9.937  -10.349  -10.716  -11.030  -11.285  -11.482  -11.624  -11.716  -11.762  -11.769  -11.740  -11.683  -11.608  -11.528  -11.457  -11.406  -11.382  -11.387  -11.420  -11.481  -11.567  -11.673  -11.788  -11.902  -12.005  -12.092  -12.160  -12.209  -12.243  -12.267  -12.283  -12.291  -12.295  -12.295  -12.296  -12.298  -12.305  -12.313  -12.323  -12.334  -12.348  -12.368  -12.410  -12.489  -12.625  -12.835  -13.126  -13.493  -13.917  -14.366  -14.809  -15.222  -15.599  -15.946  -16.283  -16.628  -16.995  -17.382  -17.773  -18.131  -18.406  -18.534  -18.431
  -7.825   -7.677   -7.303   -6.817   -6.320   -5.873   -5.483   -5.119   -4.751   -4.372   -4.002   -3.666   -3.380   -3.140   -2.940   -2.771   -2.632   -2.522   -2.440   -2.385   -2.360   -2.371   -2.426   -2.531   -2.700   -2.946   -3.279   -3.697   -4.185   -4.715   -5.260   -5.804   -6.335   -6.849   -7.344   -7.820   -8.274   -8.701   -9.091   -9.434   -9.723   -9.955  -10.134  -10.262  -10.345  -10.388  -10.394  -10.366  -10.312  -10.243  -10.176  -10.123  -10.095  -10.096  -10.125  -10.179  -10.256  -10.349  -10.453  -10.558  -10.654  -10.736  -10.797  -10.836  -10.857  -10.862  -10.858  -10.851  -10.845  -10.839  -10.836  -10.836  -10.842  -10.851  -10.860  -10.868  -10.871  -10.869  -10.869  -10.888  -10.950  -11.081  -11.301  -11.622  -12.035  -12.511  -13.010  -13.492  -13.928  -14.310  -14.649  -14.966  -15.287  -15.633  -16.008  -16.396  -16.762  -17.053  -17.207  -17.146
  -6.144   -5.931   -5.517   -4.987   -4.445   -3.958   -3.543   -3.185   -2.862   -2.569   -2.311   -2.092   -1.914   -1.771   -1.654   -1.555   -1.476   -1.416   -1.374   -1.353   -1.352   -1.375   -1.429   -1.523   -1.675   -1.907   -2.237   -2.669   -3.186   -3.756   -4.346   -4.928   -5.483   -6.004   -6.489   -6.939   -7.356   -7.738   -8.081   -8.379   -8.629   -8.832   -8.992   -9.114   -9.202   -9.257   -9.282   -9.279   -9.254   -9.219   -9.188   -9.174   -9.183   -9.216   -9.268   -9.332   -9.405   -9.480   -9.552   -9.614   -9.663   -9.694   -9.706   -9.700   -9.678   -9.644   -9.606   -9.572   -9.544   -9.527   -9.519   -9.521   -9.531   -9.547   -9.563   -9.573   -9.574   -9.563   -9.548   -9.551   -9.602   -9.732   -9.969  -10.324  -10.783  -11.311  -11.856  -12.372  -12.825  -13.206  -13.528  -13.817  -14.107  -14.422  -14.775  -15.153  -15.521  -15.823  -15.999  -15.972
  -4.695   -4.477   -4.100   -3.619   -3.122   -2.666   -2.273   -1.946   -1.674   -1.455   -1.281   -1.146   -1.037   -0.950   -0.877   -0.821   -0.779   -0.750   -0.736   -0.733   -0.746   -0.774   -0.821   -0.901   -1.028   -1.234   -1.537   -1.950   -2.460   -3.034   -3.633   -4.221   -4.774   -5.280   -5.738   -6.149   -6.520   -6.853   -7.148   -7.405   -7.625   -7.813   -7.974   -8.111   -8.227   -8.322   -8.394   -8.444   -8.477   -8.501   -8.530   -8.570   -8.622   -8.684   -8.747   -8.805   -8.853   -8.885   -8.899   -8.894   -8.872   -8.836   -8.787   -8.728   -8.661   -8.590   -8.522   -8.463   -8.417   -8.388   -8.376   -8.379   -8.394   -8.416   -8.439   -8.456   -8.458   -8.446   -8.429   -8.430   -8.486   -8.632   -8.900   -9.299   -9.807  -10.380  -10.960  -11.491  -11.941  -12.301  -12.588  -12.835  -13.079  -13.353  -13.675  -14.034  -14.395  -14.703  -14.895  -14.896
  -3.756   -3.565   -3.250   -2.842   -2.402   -1.981   -1.612   -1.310   -1.079   -0.914   -0.799   -0.714   -0.641   -0.573   -0.512   -0.465   -0.434   -0.415   -0.410   -0.413   -0.426   -0.450   -0.485   -0.544   -0.642   -0.803   -1.056   -1.412   -1.870   -2.400   -2.965   -3.522   -4.047   -4.520   -4.941   -5.312   -5.642   -5.936   -6.196   -6.427   -6.636   -6.828   -7.007   -7.179   -7.342   -7.495   -7.635   -7.758   -7.867   -7.966   -8.062   -8.156   -8.246   -8.327   -8.389   -8.425   -8.432   -8.408   -8.353   -8.273   -8.177   -8.072   -7.966   -7.862   -7.762   -7.667   -7.582   -7.510   -7.455   -7.420   -7.406   -7.410   -7.428   -7.455   -7.484   -7.508   -7.519   -7.517   -7.514   -7.536   -7.622   -7.812   -8.134   -8.589   -9.145   -9.749  -10.334  -10.850  -11.264  -11.576  -11.807  -11.995  -12.183  -12.408  -12.692  -13.024  -13.372  -13.679  -13.880  -13.903
  -3.318   -3.154   -2.873   -2.494   -2.069   -1.650   -1.282   -0.991   -0.792   -0.673   -0.605   -0.556   -0.503   -0.440   -0.379   -0.329   -0.295   -0.274   -0.267   -0.269   -0.279   -0.294   -0.317   -0.356   -0.419   -0.533   -0.717   -0.992   -1.358   -1.804   -2.292   -2.785   -3.254   -3.681   -4.061   -4.396   -4.694   -4.962   -5.203   -5.424   -5.634   -5.838   -6.045   -6.255   -6.468   -6.681   -6.889   -7.086   -7.269   -7.438   -7.593   -7.732   -7.851   -7.940   -7.993   -8.005   -7.970   -7.890   -7.774   -7.630   -7.475   -7.322   -7.178   -7.050   -6.936   -6.837   -6.752   -6.683   -6.632   -6.602   -6.592   -6.601   -6.623   -6.655   -6.691   -6.726   -6.752   -6.773   -6.802   -6.869   -7.013   -7.273   -7.667   -8.182   -8.774   -9.378   -9.932  -10.393  -10.738  -10.975  -11.133  -11.255  -11.386  -11.564  -11.809  -12.113  -12.442  -12.740  -12.943  -12.983
  -3.115   -2.969   -2.699   -2.321   -1.887   -1.453   -1.076   -0.797   -0.623   -0.539   -0.507   -0.486   -0.448   -0.394   -0.335   -0.283   -0.243   -0.219   -0.209   -0.208   -0.213   -0.221   -0.237   -0.259   -0.298   -0.367   -0.486   -0.671   -0.934   -1.267   -1.649   -2.050   -2.443   -2.809   -3.143   -3.445   -3.719   -3.968   -4.200   -4.418   -4.632   -4.849   -5.074   -5.310   -5.558   -5.812   -6.067   -6.316   -6.553   -6.771   -6.967   -7.137   -7.273   -7.368   -7.414   -7.407   -7.344   -7.230   -7.077   -6.901   -6.719   -6.548   -6.398   -6.272   -6.168   -6.086   -6.019   -5.969   -5.935   -5.921   -5.924   -5.944   -5.977   -6.019   -6.068   -6.117   -6.167   -6.220   -6.294   -6.422   -6.641   -6.981   -7.449   -8.011   -8.609   -9.176   -9.663  -10.036  -10.287  -10.438  -10.520  -10.581  -10.664  -10.804  -11.018  -11.296  -11.604  -11.889  -12.087  -12.137
  -2.846   -2.716   -2.464   -2.106   -1.690   -1.273   -0.911   -0.651   -0.498   -0.438   -0.423   -0.418   -0.394   -0.352   -0.303   -0.257   -0.220   -0.195   -0.182   -0.180   -0.182   -0.188   -0.198   -0.211   -0.231   -0.269   -0.337   -0.447   -0.615   -0.837   -1.107   -1.403   -1.705   -2.000   -2.280   -2.544   -2.792   -3.025   -3.246   -3.463   -3.678   -3.897   -4.126   -4.367   -4.619   -4.881   -5.150   -5.415   -5.670   -5.906   -6.119   -6.301   -6.446   -6.547   -6.596   -6.588   -6.524   -6.409   -6.258   -6.089   -5.922   -5.772   -5.647   -5.550   -5.477   -5.427   -5.392   -5.373   -5.369   -5.380   -5.407   -5.447   -5.499   -5.558   -5.624   -5.693   -5.767   -5.854   -5.978   -6.168   -6.460   -6.871   -7.390   -7.968   -8.538   -9.039   -9.432   -9.703   -9.858   -9.926   -9.946   -9.961  -10.012  -10.127  -10.319  -10.575  -10.861  -11.128  -11.315  -11.370
  -2.362   -2.252   -2.048   -1.755   -1.410   -1.059   -0.755   -0.531   -0.400   -0.346   -0.337   -0.335   -0.322   -0.294   -0.259   -0.226   -0.197   -0.178   -0.167   -0.166   -0.168   -0.173   -0.179   -0.185   -0.194   -0.214   -0.248   -0.309   -0.403   -0.538   -0.709   -0.907   -1.119   -1.336   -1.556   -1.773   -1.988   -2.199   -2.407   -2.616   -2.828   -3.042   -3.261   -3.485   -3.714   -3.950   -4.191   -4.432   -4.667   -4.889   -5.092   -5.270   -5.417   -5.526   -5.590   -5.604   -5.568   -5.489   -5.380   -5.260   -5.144   -5.045   -4.971   -4.920   -4.891   -4.879   -4.883   -4.900   -4.932   -4.977   -5.035   -5.104   -5.179   -5.260   -5.344   -5.430   -5.524   -5.641   -5.804   -6.045   -6.389   -6.844   -7.379   -7.938   -8.453   -8.871   -9.168   -9.343   -9.417   -9.423   -9.401   -9.391   -9.428   -9.530   -9.706   -9.942  -10.206  -10.450  -10.625  -10.678
  -1.719   -1.634   -1.497   -1.299   -1.062   -0.815   -0.591   -0.422   -0.316   -0.269   -0.256   -0.252   -0.246   -0.230   -0.212   -0.192   -0.174   -0.162   -0.158   -0.161   -0.164   -0.168   -0.172   -0.173   -0.178   -0.185   -0.200   -0.230   -0.281   -0.353   -0.453   -0.574   -0.708   -0.856   -1.013   -1.179   -1.350   -1.530   -1.719   -1.917   -2.123   -2.329   -2.531   -2.723   -2.910   -3.094   -3.280   -3.466   -3.650   -3.830   -4.003   -4.163   -4.306   -4.427   -4.516   -4.570   -4.587   -4.572   -4.536   -4.492   -4.449   -4.419   -4.405   -4.405   -4.420   -4.447   -4.487   -4.540   -4.608   -4.688   -4.778   -4.873   -4.972   -5.069   -5.165   -5.261   -5.367   -5.502   -5.689   -5.957   -6.325   -6.787   -7.306   -7.821   -8.268   -8.607   -8.822   -8.924   -8.942   -8.911   -8.871   -8.855   -8.890   -8.989   -9.154   -9.373   -9.615   -9.839  -10.000  -10.052
  -1.088   -1.031   -0.958   -0.851   -0.717   -0.571   -0.431   -0.319   -0.245   -0.206   -0.194   -0.189   -0.187   -0.181   -0.173   -0.163   -0.155   -0.152   -0.155   -0.162   -0.169   -0.173   -0.174   -0.171   -0.168   -0.170   -0.175   -0.188   -0.212   -0.250   -0.304   -0.371   -0.450   -0.540   -0.642   -0.754   -0.881   -1.025   -1.190   -1.373   -1.569   -1.762   -1.940   -2.098   -2.236   -2.361   -2.479   -2.597   -2.719   -2.845   -2.976   -3.111   -3.248   -3.379   -3.499   -3.601   -3.684   -3.747   -3.795   -3.834   -3.871   -3.911   -3.955   -4.004   -4.059   -4.119   -4.190   -4.272   -4.367   -4.472   -4.583   -4.695   -4.803   -4.907   -5.004   -5.100   -5.206   -5.342   -5.534   -5.805   -6.168   -6.610   -7.093   -7.554   -7.940   -8.215   -8.373   -8.430   -8.419   -8.375   -8.334   -8.325   -8.368   -8.470   -8.630   -8.836   -9.062   -9.272   -9.424   -9.476
  -0.621   -0.586   -0.555   -0.507   -0.444   -0.370   -0.296   -0.232   -0.186   -0.161   -0.154   -0.152   -0.155   -0.154   -0.151   -0.149   -0.147   -0.151   -0.161   -0.175   -0.184   -0.186   -0.182   -0.175   -0.165   -0.160   -0.159   -0.164   -0.175   -0.195   -0.221   -0.256   -0.298   -0.348   -0.407   -0.478   -0.562   -0.670   -0.805   -0.964   -1.139   -1.308   -1.458   -1.578   -1.670   -1.743   -1.804   -1.862   -1.925   -2.000   -2.091   -2.200   -2.328   -2.468   -2.616   -2.767   -2.912   -3.049   -3.175   -3.290   -3.400   -3.505   -3.603   -3.698   -3.789   -3.878   -3.971   -4.071   -4.179   -4.292   -4.406   -4.515   -4.616   -4.708   -4.794   -4.877   -4.971   -5.098   -5.279   -5.536   -5.874   -6.282   -6.721   -7.136   -7.476   -7.711   -7.839   -7.877   -7.858   -7.817   -7.787   -7.790   -7.845   -7.955   -8.117   -8.320   -8.540   -8.744   -8.895   -8.951
  -0.351   -0.327   -0.318   -0.298   -0.270   -0.237   -0.202   -0.170   -0.146   -0.136   -0.133   -0.135   -0.140   -0.143   -0.143   -0.143   -0.148   -0.161   -0.179   -0.193   -0.202   -0.200   -0.190   -0.175   -0.161   -0.154   -0.149   -0.150   -0.154   -0.162   -0.175   -0.192   -0.214   -0.239   -0.270   -0.310   -0.363   -0.437   -0.536   -0.660   -0.799   -0.933   -1.046   -1.132   -1.188   -1.222   -1.243   -1.262   -1.285   -1.323   -1.382   -1.468   -1.584   -1.728   -1.896   -2.081   -2.273   -2.464   -2.647   -2.826   -2.999   -3.163   -3.315   -3.454   -3.579   -3.694   -3.803   -3.911   -4.017   -4.121   -4.217   -4.302   -4.378   -4.447   -4.508   -4.571   -4.649   -4.761   -4.926   -5.160   -5.469   -5.842   -6.243   -6.622   -6.936   -7.156   -7.277   -7.319   -7.309   -7.281   -7.265   -7.284   -7.352   -7.472   -7.641   -7.849   -8.072   -8.280   -8.433   -8.496
  -0.223   -0.204   -0.198   -0.191   -0.179   -0.163   -0.148   -0.133   -0.125   -0.120   -0.120   -0.126   -0.134   -0.139   -0.141   -0.144   -0.154   -0.173   -0.199   -0.218   -0.223   -0.211   -0.192   -0.172   -0.154   -0.145   -0.139   -0.138   -0.139   -0.143   -0.149   -0.158   -0.168   -0.180   -0.196   -0.217   -0.247   -0.293   -0.357   -0.441   -0.537   -0.629   -0.705   -0.759   -0.790   -0.802   -0.805   -0.803   -0.806   -0.823   -0.860   -0.927   -1.026   -1.161   -1.330   -1.524   -1.733   -1.952   -2.172   -2.395   -2.619   -2.837   -3.042   -3.226   -3.388   -3.529   -3.652   -3.760   -3.856   -3.936   -4.003   -4.055   -4.098   -4.136   -4.171   -4.215   -4.279   -4.380   -4.533   -4.750   -5.036   -5.379   -5.750   -6.106   -6.407   -6.626   -6.758   -6.818   -6.831   -6.826   -6.830   -6.866   -6.947   -7.077   -7.255   -7.470   -7.701   -7.913   -8.069   -8.133
  -0.172   -0.154   -0.149   -0.143   -0.136   -0.129   -0.121   -0.115   -0.113   -0.110   -0.114   -0.118   -0.126   -0.132   -0.136   -0.141   -0.156   -0.184   -0.215   -0.235   -0.234   -0.214   -0.187   -0.161   -0.144   -0.134   -0.129   -0.127   -0.130   -0.130   -0.134   -0.139   -0.144   -0.151   -0.158   -0.170   -0.185   -0.210   -0.247   -0.295   -0.349   -0.404   -0.447   -0.477   -0.492   -0.497   -0.494   -0.488   -0.486   -0.494   -0.518   -0.564   -0.643   -0.754   -0.901   -1.076   -1.274   -1.487   -1.716   -1.961   -2.219   -2.482   -2.735   -2.966   -3.166   -3.335   -3.473   -3.583   -3.668   -3.727   -3.765   -3.787   -3.802   -3.814   -3.835   -3.868   -3.928   -4.028   -4.178   -4.387   -4.659   -4.977   -5.321   -5.657   -5.947   -6.170   -6.318   -6.404   -6.447   -6.473   -6.503   -6.559   -6.653   -6.794   -6.980   -7.199   -7.431   -7.643   -7.799   -7.859
  -0.147   -0.130   -0.128   -0.122   -0.117   -0.113   -0.109   -0.106   -0.104   -0.105   -0.106   -0.110   -0.116   -0.120   -0.125   -0.134   -0.153   -0.182   -0.216   -0.236   -0.233   -0.208   -0.175   -0.148   -0.131   -0.122   -0.119   -0.119   -0.119   -0.120   -0.123   -0.126   -0.130   -0.133   -0.139   -0.144   -0.152   -0.165   -0.183   -0.206   -0.233   -0.259   -0.281   -0.296   -0.303   -0.306   -0.304   -0.302   -0.299   -0.304   -0.319   -0.350   -0.402   -0.482   -0.589   -0.725   -0.885   -1.068   -1.279   -1.519   -1.789   -2.079   -2.368   -2.639   -2.878   -3.077   -3.236   -3.354   -3.436   -3.486   -3.509   -3.514   -3.515   -3.521   -3.538   -3.576   -3.643   -3.750   -3.904   -4.109   -4.363   -4.653   -4.965   -5.271   -5.540   -5.759   -5.919   -6.028   -6.104   -6.162   -6.221   -6.300   -6.412   -6.564   -6.757   -6.978   -7.207   -7.414   -7.564   -7.616
  -0.136   -0.120   -0.115   -0.111   -0.108   -0.104   -0.102   -0.100   -0.099   -0.097   -0.099   -0.102   -0.106   -0.108   -0.112   -0.122   -0.139   -0.167   -0.200   -0.219   -0.213   -0.188   -0.159   -0.134   -0.120   -0.112   -0.111   -0.110   -0.111   -0.113   -0.116   -0.118   -0.120   -0.123   -0.125   -0.130   -0.135   -0.141   -0.149   -0.160   -0.172   -0.182   -0.192   -0.199   -0.204   -0.205   -0.206   -0.205   -0.207   -0.211   -0.219   -0.236   -0.266   -0.314   -0.382   -0.471   -0.580   -0.716   -0.886   -1.097   -1.352   -1.638   -1.940   -2.235   -2.504   -2.732   -2.914   -3.049   -3.141   -3.196   -3.222   -3.232   -3.238   -3.252   -3.283   -3.337   -3.419   -3.536   -3.691   -3.883   -4.107   -4.359   -4.625   -4.883   -5.118   -5.316   -5.474   -5.596   -5.694   -5.780   -5.867   -5.970   -6.101   -6.267   -6.467   -6.688   -6.914   -7.114   -7.257   -7.303
  -0.129   -0.114   -0.110   -0.106   -0.103   -0.100   -0.098   -0.097   -0.095   -0.094   -0.093   -0.095   -0.097   -0.098   -0.101   -0.109   -0.122   -0.145   -0.169   -0.184   -0.182   -0.162   -0.140   -0.120   -0.110   -0.104   -0.102   -0.103   -0.105   -0.107   -0.109   -0.111   -0.113   -0.115   -0.118   -0.120   -0.122   -0.126   -0.131   -0.135   -0.141   -0.145   -0.150   -0.154   -0.157   -0.159   -0.160   -0.162   -0.163   -0.166   -0.171   -0.181   -0.196   -0.220   -0.255   -0.305   -0.370   -0.457   -0.576   -0.737   -0.946   -1.201   -1.483   -1.775   -2.052   -2.296   -2.495   -2.648   -2.758   -2.831   -2.877   -2.907   -2.934   -2.972   -3.027   -3.103   -3.205   -3.329   -3.475   -3.642   -3.826   -4.024   -4.227   -4.427   -4.611   -4.773   -4.912   -5.031   -5.136   -5.237   -5.343   -5.462   -5.608   -5.784   -5.988   -6.210   -6.430   -6.625   -6.766   -6.813
  -0.124   -0.110   -0.106   -0.102   -0.099   -0.097   -0.095   -0.093   -0.092   -0.091   -0.090   -0.089   -0.090   -0.091   -0.093   -0.097   -0.107   -0.121   -0.136   -0.146   -0.145   -0.133   -0.119   -0.106   -0.100   -0.098   -0.097   -0.098   -0.100   -0.102   -0.104   -0.105   -0.107   -0.109   -0.111   -0.113   -0.115   -0.117   -0.119   -0.122   -0.124   -0.128   -0.131   -0.133   -0.136   -0.138   -0.139   -0.141   -0.144   -0.146   -0.149   -0.153   -0.161   -0.172   -0.187   -0.210   -0.243   -0.292   -0.364   -0.470   -0.622   -0.817   -1.049   -1.302   -1.555   -1.789   -1.989   -2.150   -2.276   -2.371   -2.441   -2.499   -2.558   -2.627   -2.718   -2.826   -2.948   -3.078   -3.209   -3.340   -3.475   -3.609   -3.743   -3.875   -3.999   -4.113   -4.218   -4.317   -4.414   -4.513   -4.619   -4.743   -4.890   -5.063   -5.261   -5.475   -5.687   -5.875   -6.015   -6.070
  -0.120   -0.106   -0.103   -0.099   -0.096   -0.094   -0.092   -0.091   -0.089   -0.088   -0.088   -0.087   -0.086   -0.086   -0.088   -0.090   -0.095   -0.101   -0.110   -0.115   -0.115   -0.109   -0.102   -0.097   -0.094   -0.092   -0.093   -0.094   -0.095   -0.097   -0.099   -0.100   -0.102   -0.103   -0.105   -0.107   -0.109   -0.110   -0.112   -0.114   -0.116   -0.118   -0.119   -0.121   -0.123   -0.125   -0.127   -0.129   -0.131   -0.133   -0.135   -0.138   -0.142   -0.147   -0.155   -0.163   -0.178   -0.201   -0.239   -0.300   -0.393   -0.521   -0.685   -0.874   -1.074   -1.268   -1.445   -1.596   -1.724   -1.829   -1.920   -2.006   -2.097   -2.206   -2.337   -2.482   -2.628   -2.764   -2.880   -2.976   -3.058   -3.128   -3.193   -3.254   -3.314   -3.375   -3.436   -3.502   -3.576   -3.657   -3.750   -3.860   -3.990   -4.144   -4.319   -4.507   -4.697   -4.870   -5.002   -5.068
  -0.117   -0.103   -0.100   -0.096   -0.094   -0.092   -0.090   -0.088   -0.087   -0.086   -0.085   -0.085   -0.084   -0.084   -0.083   -0.083   -0.087   -0.090   -0.093   -0.097   -0.096   -0.094   -0.091   -0.090   -0.087   -0.088   -0.089   -0.090   -0.091   -0.093   -0.094   -0.095   -0.097   -0.099   -0.100   -0.102   -0.103   -0.105   -0.106   -0.108   -0.109   -0.111   -0.113   -0.114   -0.116   -0.118   -0.119   -0.121   -0.123   -0.124   -0.126   -0.128   -0.130   -0.132   -0.135   -0.140   -0.147   -0.156   -0.175   -0.205   -0.254   -0.326   -0.423   -0.541   -0.675   -0.813   -0.943   -1.064   -1.174   -1.274   -1.372   -1.476   -1.594   -1.739   -1.907   -2.086   -2.258   -2.399   -2.501   -2.568   -2.602   -2.617   -2.618   -2.614   -2.612   -2.617   -2.636   -2.666   -2.710   -2.766   -2.835   -2.917   -3.018   -3.136   -3.273   -3.418   -3.570   -3.711   -3.823   -3.895
  -0.114   -0.101   -0.097   -0.094   -0.092   -0.089   -0.088   -0.086   -0.085   -0.084   -0.083   -0.083   -0.082   -0.082   -0.082   -0.081   -0.081   -0.083   -0.085   -0.086   -0.086   -0.086   -0.084   -0.084   -0.085   -0.085   -0.086   -0.087   -0.088   -0.089   -0.090   -0.091   -0.093   -0.094   -0.096   -0.097   -0.098   -0.100   -0.101   -0.103   -0.104   -0.105   -0.107   -0.108   -0.110   -0.111   -0.113   -0.114   -0.116   -0.117   -0.119   -0.120   -0.122   -0.124   -0.125   -0.128   -0.131   -0.136   -0.144   -0.157   -0.179   -0.214   -0.262   -0.326   -0.399   -0.480   -0.561   -0.640   -0.720   -0.801   -0.889   -0.994   -1.122   -1.284   -1.472   -1.668   -1.848   -1.990   -2.082   -2.123   -2.124   -2.097   -2.050   -1.996   -1.943   -1.906   -1.886   -1.888   -1.907   -1.938   -1.983   -2.039   -2.106   -2.186   -2.278   -2.376   -2.480   -2.579   -2.661   -2.731
  -0.112   -0.098   -0.095   -0.092   -0.090   -0.088   -0.086   -0.085   -0.083   -0.082   -0.082   -0.081   -0.081   -0.080   -0.080   -0.080   -0.080   -0.080   -0.080   -0.080   -0.080   -0.081   -0.081   -0.082   -0.082   -0.083   -0.084   -0.085   -0.085   -0.086   -0.087   -0.088   -0.089   -0.090   -0.092   -0.093   -0.094   -0.096   -0.097   -0.098   -0.099   -0.101   -0.102   -0.103   -0.105   -0.106   -0.107   -0.109   -0.110   -0.111   -0.113   -0.114   -0.116   -0.117   -0.119   -0.120   -0.122   -0.124   -0.128   -0.134   -0.142   -0.157   -0.178   -0.207   -0.240   -0.279   -0.321   -0.366   -0.414   -0.468   -0.536   -0.624   -0.743   -0.894   -1.072   -1.255   -1.420   -1.548   -1.621   -1.646   -1.628   -1.578   -1.508   -1.426   -1.350   -1.288   -1.250   -1.235   -1.238   -1.253   -1.281   -1.316   -1.362   -1.414   -1.475   -1.541   -1.608   -1.671   -1.726   -1.786
  -0.110   -0.097   -0.093   -0.090   -0.088   -0.086   -0.085   -0.083   -0.082   -0.081   -0.080   -0.080   -0.079   -0.079   -0.079   -0.078   -0.078   -0.078   -0.078   -0.078   -0.079   -0.079   -0.079   -0.080   -0.080   -0.081   -0.082   -0.082   -0.083   -0.084   -0.085   -0.086   -0.087   -0.088   -0.089   -0.090   -0.091   -0.092   -0.093   -0.094   -0.096   -0.097   -0.098   -0.099   -0.100   -0.101   -0.103   -0.104   -0.105   -0.106   -0.108   -0.109   -0.110   -0.112   -0.113   -0.114   -0.116   -0.117   -0.119   -0.122   -0.126   -0.132   -0.140   -0.150   -0.165   -0.181   -0.199   -0.220   -0.244   -0.276   -0.320   -0.384   -0.475   -0.592   -0.731   -0.873   -1.002   -1.098   -1.151   -1.163   -1.141   -1.091   -1.019   -0.940   -0.866   -0.806   -0.768   -0.749   -0.744   -0.754   -0.771   -0.799   -0.833   -0.879   -0.931   -0.986   -1.043   -1.094   -1.135   -1.187
  -0.108   -0.095   -0.092   -0.089   -0.087   -0.085   -0.083   -0.082   -0.081   -0.080   -0.079   -0.079   -0.078   -0.078   -0.077   -0.077   -0.077   -0.077   -0.077   -0.077   -0.077   -0.078   -0.078   -0.078   -0.079   -0.079   -0.080   -0.081   -0.081   -0.082   -0.083   -0.083   -0.084   -0.085   -0.086   -0.087   -0.088   -0.089   -0.090   -0.091   -0.092   -0.093   -0.094   -0.095   -0.096   -0.098   -0.099   -0.100   -0.101   -0.102   -0.103   -0.104   -0.106   -0.107   -0.108   -0.109   -0.111   -0.112   -0.113   -0.115   -0.117   -0.119   -0.124   -0.127   -0.133   -0.139   -0.145   -0.155   -0.166   -0.183   -0.207   -0.246   -0.303   -0.380   -0.467   -0.558   -0.641   -0.700   -0.732   -0.737   -0.720   -0.682   -0.631   -0.574   -0.520   -0.477   -0.449   -0.434   -0.431   -0.436   -0.451   -0.476   -0.511   -0.562   -0.622   -0.689   -0.755   -0.813   -0.857   -0.903
  -0.107   -0.094   -0.091   -0.088   -0.086   -0.084   -0.083   -0.081   -0.080   -0.079   -0.079   -0.078   -0.078   -0.077   -0.077   -0.077   -0.076   -0.076   -0.076   -0.076   -0.077   -0.077   -0.077   -0.077   -0.078   -0.078   -0.079   -0.079   -0.080   -0.080   -0.081   -0.082   -0.083   -0.083   -0.084   -0.085   -0.086   -0.087   -0.087   -0.088   -0.089   -0.090   -0.091   -0.092   -0.093   -0.094   -0.095   -0.096   -0.097   -0.099   -0.100   -0.101   -0.102   -0.103   -0.104   -0.105   -0.106   -0.108   -0.109   -0.110   -0.112   -0.113   -0.115   -0.117   -0.119   -0.123   -0.125   -0.129   -0.134   -0.142   -0.155   -0.175   -0.205   -0.243   -0.290   -0.337   -0.379   -0.411   -0.427   -0.431   -0.420   -0.398   -0.370   -0.337   -0.309   -0.285   -0.271   -0.263   -0.263   -0.267   -0.280   -0.303   -0.340   -0.395   -0.465   -0.545   -0.626   -0.698   -0.753   -0.802
  -0.106   -0.094   -0.091   -0.088   -0.086   -0.084   -0.082   -0.081   -0.080   -0.079   -0.078   -0.078   -0.077   -0.077   -0.077   -0.076   -0.076   -0.076   -0.076   -0.076   -0.076   -0.076   -0.077   -0.077   -0.077   -0.078   -0.078   -0.078   -0.079   -0.080   -0.080   -0.081   -0.081   -0.082   -0.083   -0.083   -0.084   -0.085   -0.086   -0.087   -0.087   -0.088   -0.089   -0.090   -0.091   -0.092   -0.093   -0.094   -0.095   -0.096   -0.097   -0.098   -0.099   -0.100   -0.101   -0.102   -0.103   -0.104   -0.105   -0.106   -0.108   -0.109   -0.110   -0.112   -0.113   -0.114   -0.116   -0.118   -0.121   -0.126   -0.131   -0.140   -0.153   -0.169   -0.190   -0.211   -0.228   -0.243   -0.250   -0.251   -0.246   -0.238   -0.227   -0.213   -0.201   -0.192   -0.185   -0.183   -0.184   -0.190   -0.198   -0.217   -0.252   -0.305   -0.375   -0.458   -0.548   -0.633   -0.698   -0.751
  -0.107   -0.094   -0.091   -0.088   -0.086   -0.084   -0.083   -0.081   -0.080   -0.079   -0.079   -0.078   -0.078   -0.077   -0.077   -0.077   -0.076   -0.076   -0.076   -0.076   -0.076   -0.076   -0.077   -0.077   -0.077   -0.077   -0.078   -0.078   -0.079   -0.079   -0.080   -0.080   -0.081   -0.081   -0.082   -0.083   -0.083   -0.084   -0.085   -0.085   -0.086   -0.087   -0.088   -0.088   -0.089   -0.090   -0.091   -0.092   -0.093   -0.094   -0.095   -0.096   -0.097   -0.098   -0.099   -0.100   -0.101   -0.102   -0.103   -0.104   -0.105   -0.106   -0.107   -0.108   -0.110   -0.111   -0.112   -0.113   -0.115   -0.116   -0.120   -0.124   -0.129   -0.135   -0.143   -0.151   -0.158   -0.163   -0.165   -0.166   -0.167   -0.165   -0.162   -0.159   -0.156   -0.152   -0.150   -0.151   -0.152   -0.156   -0.163   -0.177   -0.203   -0.246   -0.306   -0.383   -0.470   -0.558   -0.629   -0.685
  -0.108   -0.094   -0.092   -0.089   -0.086   -0.085   -0.083   -0.082   -0.081   -0.080   -0.079   -0.079   -0.078   -0.078   -0.077   -0.077   -0.077   -0.077   -0.077   -0.077   -0.077   -0.077   -0.077   -0.077   -0.077   -0.078   -0.078   -0.078   -0.079   -0.079   -0.079   -0.080   -0.080   -0.081   -0.081   -0.082   -0.083   -0.083   -0.084   -0.085   -0.085   -0.086   -0.087   -0.087   -0.088   -0.089   -0.090   -0.090   -0.091   -0.092   -0.093   -0.094   -0.095   -0.096   -0.097   -0.097   -0.098   -0.099   -0.100   -0.101   -0.102   -0.103   -0.104   -0.106   -0.107   -0.108   -0.109   -0.110   -0.111   -0.113   -0.114   -0.115   -0.118   -0.122   -0.124   -0.127   -0.130   -0.132   -0.133   -0.134   -0.136   -0.137   -0.135   -0.135   -0.136   -0.137   -0.135   -0.136   -0.138   -0.141   -0.147   -0.156   -0.173   -0.205   -0.250   -0.317   -0.398   -0.483   -0.556   -0.614
  -0.138   -0.105   -0.101   -0.098   -0.096   -0.094   -0.092   -0.091   -0.090   -0.089   -0.088   -0.087   -0.087   -0.086   -0.086   -0.086   -0.086   -0.085   -0.085   -0.085   -0.085   -0.085   -0.085   -0.085   -0.086   -0.086   -0.086   -0.086   -0.087   -0.087   -0.087   -0.088   -0.088   -0.089   -0.089   -0.090   -0.090   -0.091   -0.091   -0.092   -0.093   -0.093   -0.094   -0.095   -0.095   -0.096   -0.097   -0.097   -0.098   -0.099   -0.100   -0.101   -0.102   -0.103   -0.103   -0.104   -0.105   -0.106   -0.107   -0.108   -0.109   -0.110   -0.111   -0.112   -0.113   -0.114   -0.115   -0.117   -0.118   -0.119   -0.120   -0.121   -0.123   -0.124   -0.126   -0.128   -0.132   -0.133   -0.135   -0.136   -0.137   -0.135   -0.136   -0.137   -0.138   -0.139   -0.140   -0.142   -0.143   -0.145   -0.150   -0.157   -0.170   -0.195   -0.235   -0.293   -0.370   -0.453   -0.527   -0.610
