DSAA
 100 100
 0.0 400.0
 0.0 400.0
 -191.1717 -2.467323
  -3.677   -3.268   -3.470   -3.859   -4.415   -5.053   -5.715   -6.277   -6.635   -6.710   -6.431   -5.820   -5.008   -4.162   -3.449   -2.982   -2.852   -3.081   -3.736   -4.772   -5.975   -6.957   -7.348   -7.068   -6.412   -5.823   -5.612   -5.723   -5.891   -5.901   -5.697   -5.364   -5.049   -4.772   -4.555   -4.363   -4.235   -4.257   -4.534   -5.116   -5.944   -6.853   -7.711   -8.443   -8.952   -9.133   -8.937   -8.534   -8.206   -8.103   -8.176   -8.288   -8.335   -8.303   -8.186   -7.962   -7.569   -7.043   -6.522   -6.176   -6.162   -6.357   -6.473   -6.229   -5.568   -4.708   -3.987   -3.654   -3.710   -4.006   -4.326   -4.598   -4.874   -5.180   -5.413   -5.387   -5.055   -4.589   -4.185   -3.970   -3.963   -4.104   -4.346   -4.569   -4.729   -4.868   -5.117   -5.587   -6.319   -7.252   -8.234   -9.064   -9.510   -9.379   -8.609   -7.390   -6.011   -4.781   -3.952   -4.053
  -3.912   -3.754   -4.027   -4.470   -5.046   -5.708   -6.356   -6.887   -7.203   -7.205   -6.850   -6.166   -5.271   -4.342   -3.554   -3.015   -2.823   -3.002   -3.587   -4.539   -5.648   -6.553   -6.906   -6.647   -6.030   -5.477   -5.254   -5.346   -5.526   -5.607   -5.517   -5.303   -5.040   -4.769   -4.525   -4.311   -4.183   -4.200   -4.452   -4.964   -5.677   -6.446   -7.165   -7.768   -8.212   -8.423   -8.371   -8.198   -8.132   -8.280   -8.529   -8.731   -8.798   -8.726   -8.538   -8.210   -7.687   -7.014   -6.317   -5.832   -5.678   -5.773   -5.837   -5.620   -5.041   -4.298   -3.699   -3.449   -3.544   -3.858   -4.173   -4.412   -4.647   -4.935   -5.163   -5.164   -4.872   -4.459   -4.123   -3.966   -4.002   -4.189   -4.429   -4.663   -4.853   -5.066   -5.404   -5.976   -6.822   -7.876   -9.004   -9.994  -10.549  -10.440   -9.576   -8.157   -6.543   -5.107   -4.118   -3.944
  -5.371   -5.274   -5.597   -6.095   -6.709   -7.358   -7.960   -8.405   -8.602   -8.469   -7.988   -7.189   -6.184   -5.120   -4.188   -3.502   -3.161   -3.198   -3.630   -4.378   -5.272   -5.993   -6.276   -6.076   -5.579   -5.120   -4.907   -4.955   -5.138   -5.329   -5.435   -5.414   -5.254   -5.015   -4.754   -4.549   -4.443   -4.476   -4.692   -5.090   -5.605   -6.142   -6.629   -7.038   -7.366   -7.574   -7.701   -7.849   -8.160   -8.632   -9.105   -9.414   -9.491   -9.366   -9.068   -8.589   -7.900   -7.058   -6.201   -5.554   -5.230   -5.167   -5.142   -4.953   -4.530   -4.017   -3.623   -3.488   -3.631   -3.908   -4.177   -4.381   -4.566   -4.811   -5.041   -5.103   -4.918   -4.640   -4.449   -4.417   -4.540   -4.741   -4.963   -5.162   -5.371   -5.681   -6.163   -6.887   -7.865   -9.084  -10.430  -11.678  -12.460  -12.436  -11.511   -9.892   -8.012   -6.334   -5.179   -4.892
  -7.378   -7.328   -7.679   -8.198   -8.795   -9.398   -9.893  -10.223  -10.284  -10.020   -9.423   -8.512   -7.385   -6.177   -5.058   -4.169   -3.610   -3.420   -3.592   -4.057   -4.650   -5.143   -5.356   -5.229   -4.903   -4.574   -4.393   -4.397   -4.564   -4.843   -5.108   -5.254   -5.217   -5.036   -4.827   -4.696   -4.678   -4.774   -4.974   -5.268   -5.627   -5.996   -6.319   -6.593   -6.807   -6.991   -7.174   -7.458   -7.921   -8.516   -9.059   -9.383   -9.439   -9.247   -8.881   -8.333   -7.627   -6.803   -6.006   -5.368   -4.995   -4.825   -4.695   -4.496   -4.194   -3.880   -3.658   -3.610   -3.732   -3.950   -4.176   -4.343   -4.513   -4.745   -4.994   -5.133   -5.108   -5.024   -5.022   -5.139   -5.327   -5.502   -5.639   -5.743   -5.914   -6.249   -6.817   -7.629   -8.696  -10.039  -11.581  -13.094  -14.148  -14.334  -13.503  -11.879   -9.940   -8.181   -6.959   -6.624
  -9.541   -9.512   -9.846  -10.319  -10.831  -11.324  -11.712  -11.910  -11.861  -11.508  -10.842   -9.882   -8.686   -7.382   -6.117   -5.023   -4.198   -3.715   -3.574   -3.696   -3.969   -4.227   -4.363   -4.313   -4.142   -3.941   -3.795   -3.755   -3.880   -4.154   -4.467   -4.685   -4.737   -4.653   -4.573   -4.573   -4.678   -4.855   -5.069   -5.333   -5.631   -5.962   -6.275   -6.529   -6.713   -6.844   -6.970   -7.166   -7.488   -7.904   -8.280   -8.495   -8.487   -8.277   -7.935   -7.479   -6.947   -6.394   -5.875   -5.445   -5.137   -4.894   -4.640   -4.355   -4.074   -3.854   -3.742   -3.732   -3.826   -3.988   -4.174   -4.353   -4.551   -4.789   -5.041   -5.250   -5.388   -5.523   -5.728   -5.982   -6.186   -6.284   -6.279   -6.250   -6.335   -6.644   -7.203   -8.015   -9.092  -10.492  -12.189  -13.923  -15.243  -15.692  -15.132  -13.763  -12.044  -10.447   -9.326   -9.011
 -11.532  -11.496  -11.751  -12.115  -12.506  -12.862  -13.108  -13.200  -13.092  -12.723  -12.064  -11.135   -9.964   -8.657   -7.331   -6.102   -5.074   -4.325   -3.860   -3.643   -3.598   -3.629   -3.672   -3.657   -3.589   -3.473   -3.355   -3.270   -3.317   -3.507   -3.775   -3.985   -4.073   -4.094   -4.134   -4.242   -4.413   -4.622   -4.851   -5.117   -5.422   -5.781   -6.157   -6.482   -6.728   -6.877   -6.957   -7.002   -7.053   -7.143   -7.230   -7.272   -7.198   -7.040   -6.813   -6.554   -6.303   -6.086   -5.879   -5.680   -5.429   -5.095   -4.687   -4.277   -3.949   -3.756   -3.700   -3.730   -3.837   -4.008   -4.235   -4.476   -4.715   -4.945   -5.167   -5.388   -5.645   -5.962   -6.337   -6.661   -6.841   -6.854   -6.760   -6.671   -6.706   -6.990   -7.528   -8.322   -9.402  -10.858  -12.680  -14.599  -16.147  -16.880  -16.643  -15.648  -14.280  -12.940  -11.979  -11.684
 -13.117  -13.051  -13.206  -13.442  -13.690  -13.895  -14.022  -14.037  -13.906  -13.566  -12.984  -12.153  -11.095   -9.891   -8.608   -7.377   -6.259   -5.331   -4.619   -4.127   -3.816   -3.657   -3.585   -3.563   -3.535   -3.465   -3.352   -3.251   -3.224   -3.329   -3.514   -3.693   -3.803   -3.878   -3.930   -3.992   -4.098   -4.233   -4.406   -4.645   -4.934   -5.281   -5.670   -6.045   -6.376   -6.621   -6.744   -6.734   -6.628   -6.483   -6.362   -6.257   -6.181   -6.102   -6.035   -5.967   -5.916   -5.894   -5.843   -5.710   -5.425   -4.993   -4.476   -3.982   -3.632   -3.479   -3.486   -3.596   -3.771   -4.024   -4.339   -4.676   -4.959   -5.160   -5.331   -5.545   -5.870   -6.286   -6.705   -6.999   -7.119   -7.094   -7.015   -7.010   -7.168   -7.530   -8.111   -8.939  -10.066  -11.612  -13.575  -15.672  -17.457  -18.465  -18.558  -17.895  -16.787  -15.596  -14.659  -14.343
 -14.232  -14.123  -14.185  -14.304  -14.409  -14.493  -14.530  -14.493  -14.357  -14.072  -13.580  -12.877  -11.967  -10.931   -9.806   -8.668   -7.570   -6.572   -5.724   -5.041   -4.547   -4.234   -4.084   -4.048   -4.038   -3.989   -3.903   -3.835   -3.828   -3.920   -4.084   -4.257   -4.375   -4.407   -4.350   -4.226   -4.108   -4.037   -4.066   -4.182   -4.359   -4.593   -4.886   -5.226   -5.587   -5.908   -6.126   -6.189   -6.094   -5.891   -5.684   -5.553   -5.517   -5.557   -5.614   -5.651   -5.659   -5.616   -5.524   -5.320   -4.974   -4.498   -3.972   -3.538   -3.281   -3.221   -3.294   -3.472   -3.728   -4.061   -4.466   -4.884   -5.205   -5.418   -5.584   -5.815   -6.167   -6.571   -6.917   -7.101   -7.130   -7.108   -7.176   -7.403   -7.811   -8.378   -9.095   -9.995  -11.198  -12.830  -14.919  -17.205  -19.224  -20.556  -20.983  -20.594  -19.635  -18.442  -17.410  -17.009
 -14.925  -14.782  -14.771  -14.794  -14.811  -14.812  -14.782  -14.711  -14.577  -14.340  -13.927  -13.331  -12.561  -11.684  -10.731   -9.724   -8.705   -7.702   -6.792   -6.003   -5.405   -5.016   -4.845   -4.809   -4.833   -4.847   -4.860   -4.925   -5.072   -5.286   -5.532   -5.736   -5.824   -5.746   -5.480   -5.087   -4.662   -4.328   -4.130   -4.055   -4.063   -4.112   -4.234   -4.437   -4.714   -5.029   -5.296   -5.443   -5.412   -5.255   -5.046   -4.926   -4.935   -5.058   -5.217   -5.304   -5.284   -5.167   -4.975   -4.708   -4.351   -3.943   -3.582   -3.339   -3.263   -3.315   -3.431   -3.591   -3.828   -4.163   -4.585   -5.031   -5.403   -5.687   -5.942   -6.253   -6.621   -6.972   -7.191   -7.252   -7.232   -7.286   -7.555   -8.063   -8.744   -9.511  -10.342  -11.306  -12.542  -14.233  -16.388  -18.817  -21.066  -22.703  -23.483  -23.391  -22.617  -21.465  -20.383  -19.905
 -15.297  -15.126  -15.080  -15.047  -15.024  -14.982  -14.926  -14.854  -14.728  -14.519  -14.154  -13.625  -12.945  -12.170  -11.319  -10.402   -9.417   -8.423   -7.475   -6.637   -5.988   -5.585   -5.434   -5.461   -5.569   -5.719   -5.934   -6.256   -6.677   -7.152   -7.560   -7.793   -7.803   -7.550   -7.044   -6.373   -5.692   -5.129   -4.736   -4.482   -4.300   -4.171   -4.107   -4.124   -4.252   -4.454   -4.670   -4.814   -4.798   -4.632   -4.408   -4.254   -4.251   -4.404   -4.605   -4.736   -4.739   -4.633   -4.460   -4.242   -3.996   -3.780   -3.672   -3.701   -3.830   -3.949   -4.016   -4.060   -4.154   -4.386   -4.744   -5.151   -5.544   -5.917   -6.301   -6.724   -7.156   -7.499   -7.676   -7.723   -7.778   -7.980   -8.460   -9.160   -9.979  -10.814  -11.652  -12.591  -13.805  -15.484  -17.657  -20.149  -22.536  -24.407  -25.498  -25.756  -25.301  -24.403  -23.481  -23.031
 -15.459  -15.276  -15.207  -15.166  -15.125  -15.087  -15.051  -14.994  -14.893  -14.708  -14.376  -13.885  -13.245  -12.489  -11.639  -10.713   -9.697   -8.657   -7.651   -6.767   -6.105   -5.731   -5.639   -5.763   -6.043   -6.426   -6.939   -7.602   -8.370   -9.122   -9.677   -9.915   -9.792   -9.330   -8.601   -7.736   -6.904   -6.220   -5.712   -5.325   -5.016   -4.754   -4.541   -4.411   -4.369   -4.421   -4.511   -4.558   -4.473   -4.226   -3.891   -3.628   -3.539   -3.644   -3.855   -4.051   -4.171   -4.212   -4.198   -4.158   -4.119   -4.151   -4.314   -4.585   -4.858   -4.998   -4.945   -4.803   -4.720   -4.807   -5.056   -5.396   -5.762   -6.161   -6.627   -7.158   -7.678   -8.115   -8.414   -8.633   -8.894   -9.301   -9.916  -10.663  -11.433  -12.157  -12.859  -13.680  -14.822  -16.452  -18.597  -21.061  -23.491  -25.474  -26.772  -27.333  -27.271  -26.802  -26.237  -25.932
 -15.519  -15.317  -15.255  -15.205  -15.173  -15.159  -15.141  -15.123  -15.053  -14.909  -14.618  -14.162  -13.531  -12.765  -11.855  -10.827   -9.698   -8.547   -7.448   -6.510   -5.833   -5.488   -5.483   -5.770   -6.271   -6.956   -7.811   -8.821   -9.892  -10.835  -11.451  -11.634  -11.352  -10.700   -9.814   -8.865   -8.016   -7.330   -6.764   -6.291   -5.872   -5.523   -5.247   -5.035   -4.897   -4.838   -4.814   -4.747   -4.533   -4.147   -3.665   -3.248   -3.030   -3.054   -3.245   -3.518   -3.789   -4.030   -4.238   -4.415   -4.610   -4.883   -5.253   -5.674   -6.012   -6.111   -5.946   -5.685   -5.521   -5.571   -5.799   -6.093   -6.408   -6.754   -7.210   -7.783   -8.395   -8.984   -9.511   -9.996  -10.497  -11.071  -11.720  -12.376  -12.965  -13.454  -13.956  -14.619  -15.659  -17.198  -19.248  -21.633  -24.001  -25.991  -27.380  -28.147  -28.408  -28.348  -28.163  -28.033
 -15.512  -15.314  -15.250  -15.202  -15.176  -15.176  -15.186  -15.195  -15.160  -15.054  -14.824  -14.423  -13.832  -13.051  -12.081  -10.927   -9.659   -8.359   -7.144   -6.138   -5.440   -5.122   -5.194   -5.632   -6.363   -7.331   -8.490   -9.752  -10.986  -11.988  -12.584  -12.667  -12.262  -11.495  -10.566   -9.666   -8.903   -8.249   -7.639   -7.052   -6.517   -6.101   -5.827   -5.643   -5.514   -5.438   -5.355   -5.200   -4.882   -4.376   -3.776   -3.237   -2.914   -2.861   -3.029   -3.348   -3.725   -4.125   -4.509   -4.874   -5.262   -5.703   -6.198   -6.683   -7.024   -7.095   -6.935   -6.748   -6.746   -6.972   -7.328   -7.655   -7.931   -8.190   -8.571   -9.103   -9.757  -10.467  -11.165  -11.838  -12.476  -13.098  -13.687  -14.193  -14.558  -14.825  -15.120  -15.632  -16.544  -17.934  -19.815  -22.028  -24.265  -26.197  -27.603  -28.473  -28.928  -29.115  -29.167  -29.171
 -15.490  -15.286  -15.213  -15.170  -15.145  -15.146  -15.165  -15.182  -15.178  -15.109  -14.944  -14.630  -14.108  -13.359  -12.369  -11.144   -9.752   -8.328   -7.009   -5.922   -5.182   -4.857   -4.959   -5.479   -6.345   -7.490   -8.816  -10.190  -11.457  -12.434  -12.969  -12.976  -12.509  -11.732  -10.879  -10.117   -9.472   -8.871   -8.194   -7.483   -6.849   -6.407   -6.180   -6.090   -6.068   -6.047   -5.985   -5.798   -5.417   -4.834   -4.154   -3.547   -3.159   -3.039   -3.182   -3.514   -3.952   -4.448   -4.932   -5.428   -5.966   -6.542   -7.145   -7.688   -8.066   -8.211   -8.232   -8.333   -8.704   -9.280   -9.865  -10.294  -10.554  -10.753  -11.057  -11.523  -12.133  -12.830  -13.545  -14.215  -14.823  -15.355  -15.812  -16.146  -16.341  -16.443  -16.600  -16.988  -17.743  -18.925  -20.547  -22.499  -24.531  -26.351  -27.740  -28.649  -29.177  -29.445  -29.572  -29.640
 -15.459  -15.249  -15.176  -15.126  -15.099  -15.096  -15.106  -15.120  -15.122  -15.084  -14.975  -14.750  -14.333  -13.666  -12.728  -11.509  -10.100   -8.623   -7.250   -6.105   -5.306   -4.901   -4.932   -5.372   -6.189   -7.311   -8.624   -9.988  -11.237  -12.199  -12.707  -12.698  -12.246  -11.540  -10.818  -10.226   -9.714   -9.158   -8.455   -7.695   -7.044   -6.661   -6.547   -6.605   -6.713   -6.773   -6.734   -6.514   -6.066   -5.405   -4.660   -3.997   -3.554   -3.387   -3.489   -3.826   -4.296   -4.847   -5.439   -6.091   -6.815   -7.594   -8.389   -9.106   -9.649  -10.008  -10.347  -10.850  -11.619  -12.508  -13.290  -13.802  -14.062  -14.252  -14.510  -14.906  -15.408  -15.971  -16.529  -17.048  -17.494  -17.855  -18.153  -18.348  -18.434  -18.453  -18.535  -18.820  -19.411  -20.348  -21.665  -23.278  -25.026  -26.654  -27.965  -28.876  -29.418  -29.690  -29.807  -29.884
 -15.418  -15.206  -15.142  -15.096  -15.071  -15.056  -15.055  -15.050  -15.051  -15.019  -14.956  -14.799  -14.490  -13.961  -13.153  -12.058  -10.733   -9.321   -7.960   -6.791   -5.914   -5.367   -5.184   -5.384   -5.943   -6.838   -7.997   -9.286  -10.539  -11.545  -12.115  -12.150  -11.739  -11.094  -10.480  -10.010   -9.618   -9.156   -8.546   -7.901   -7.406   -7.196   -7.271   -7.492   -7.701   -7.806   -7.730   -7.411   -6.834   -6.040   -5.179   -4.410   -3.875   -3.641   -3.722   -4.080   -4.636   -5.326   -6.122   -7.043   -8.095   -9.234  -10.365  -11.397  -12.234  -12.896  -13.546  -14.336  -15.315  -16.322  -17.131  -17.640  -17.909  -18.101  -18.344  -18.678  -19.051  -19.428  -19.786  -20.096  -20.336  -20.525  -20.672  -20.773  -20.802  -20.802  -20.844  -21.051  -21.488  -22.199  -23.211  -24.466  -25.858  -27.206  -28.350  -29.206  -29.750  -30.035  -30.156  -30.237
 -15.398  -15.184  -15.124  -15.081  -15.058  -15.046  -15.029  -15.010  -14.996  -14.968  -14.923  -14.830  -14.623  -14.246  -13.621  -12.733  -11.609  -10.361   -9.093   -7.946   -6.975   -6.253   -5.797   -5.642   -5.812   -6.349   -7.262   -8.452   -9.729  -10.841  -11.521  -11.635  -11.253  -10.623  -10.028   -9.607   -9.319   -9.013   -8.642   -8.280   -8.091   -8.175   -8.473   -8.841   -9.119   -9.192   -9.014   -8.537   -7.759   -6.760   -5.694   -4.749   -4.073   -3.754   -3.843   -4.295   -5.048   -6.028   -7.210   -8.586  -10.118  -11.716  -13.280  -14.670  -15.798  -16.697  -17.500  -18.340  -19.257  -20.137  -20.817  -21.239  -21.483  -21.673  -21.909  -22.189  -22.467  -22.700  -22.889  -23.010  -23.078  -23.121  -23.165  -23.214  -23.236  -23.235  -23.264  -23.402  -23.715  -24.243  -24.990  -25.918  -26.934  -27.946  -28.851  -29.599  -30.144  -30.478  -30.654  -30.757
 -15.400  -15.183  -15.115  -15.085  -15.063  -15.047  -15.025  -14.992  -14.974  -14.945  -14.920  -14.860  -14.747  -14.503  -14.084  -13.444  -12.583  -11.562  -10.458   -9.372   -8.376   -7.525   -6.822   -6.317   -6.083   -6.231   -6.851   -7.899   -9.191  -10.406  -11.190  -11.370  -11.006  -10.348   -9.722   -9.307   -9.102   -8.995   -8.916   -8.916   -9.086   -9.457   -9.953  -10.434  -10.732  -10.765  -10.466   -9.827   -8.860   -7.636   -6.315   -5.135   -4.277   -3.879   -4.018   -4.683   -5.779   -7.232   -8.949  -10.870  -12.911  -14.952  -16.852  -18.470  -19.740  -20.701  -21.454  -22.143  -22.818  -23.437  -23.911  -24.205  -24.398  -24.572  -24.784  -25.022  -25.243  -25.399  -25.472  -25.472  -25.425  -25.374  -25.363  -25.384  -25.416  -25.432  -25.452  -25.536  -25.741  -26.126  -26.677  -27.338  -28.031  -28.703  -29.347  -29.955  -30.488  -30.898  -31.166  -31.311
 -15.407  -15.190  -15.131  -15.095  -15.071  -15.050  -15.029  -14.997  -14.977  -14.947  -14.932  -14.910  -14.854  -14.733  -14.483  -14.072  -13.478  -12.703  -11.816  -10.872   -9.938   -9.036   -8.203   -7.461   -6.912   -6.721   -7.041   -7.907   -9.126  -10.353  -11.206  -11.453  -11.126  -10.474   -9.844   -9.445   -9.310   -9.374   -9.545   -9.833  -10.265  -10.819  -11.412  -11.918  -12.218  -12.221  -11.879  -11.169  -10.082   -8.689   -7.148   -5.716   -4.657   -4.197   -4.459   -5.425   -6.988   -8.985  -11.272  -13.707  -16.143  -18.445  -20.461  -22.095  -23.303  -24.144  -24.721  -25.174  -25.573  -25.935  -26.221  -26.413  -26.548  -26.687  -26.859  -27.060  -27.238  -27.358  -27.383  -27.314  -27.200  -27.102  -27.060  -27.082  -27.128  -27.148  -27.155  -27.191  -27.315  -27.583  -27.988  -28.457  -28.896  -29.290  -29.689  -30.147  -30.656  -31.129  -31.491  -31.685
 -15.419  -15.198  -15.141  -15.109  -15.093  -15.065  -15.044  -15.019  -14.995  -14.975  -14.968  -14.959  -14.945  -14.898  -14.770  -14.536  -14.159  -13.632  -12.979  -12.234  -11.452  -10.638   -9.799   -8.961   -8.232   -7.796   -7.850   -8.486   -9.541  -10.691  -11.536  -11.845  -11.612  -11.071  -10.522  -10.190  -10.119  -10.268  -10.567  -10.982  -11.491  -12.066  -12.631  -13.086  -13.350  -13.348  -13.023  -12.349  -11.273   -9.823   -8.148   -6.515   -5.282   -4.788   -5.207   -6.508   -8.535  -11.041  -13.794  -16.597  -19.250  -21.598  -23.521  -24.981  -25.983  -26.610  -26.981  -27.224  -27.415  -27.604  -27.771  -27.898  -27.992  -28.097  -28.226  -28.392  -28.545  -28.636  -28.625  -28.521  -28.371  -28.260  -28.220  -28.248  -28.289  -28.301  -28.276  -28.263  -28.326  -28.505  -28.805  -29.143  -29.406  -29.600  -29.809  -30.131  -30.590  -31.090  -31.505  -31.751
 -15.450  -15.227  -15.167  -15.134  -15.110  -15.094  -15.072  -15.050  -15.029  -15.014  -15.007  -15.002  -15.004  -14.995  -14.940  -14.816  -14.603  -14.284  -13.858  -13.350  -12.768  -12.112  -11.377  -10.580   -9.808   -9.242   -9.104   -9.497  -10.318  -11.304  -12.095  -12.462  -12.377  -12.014  -11.620  -11.388  -11.370  -11.537  -11.829  -12.211  -12.652  -13.114  -13.547  -13.894  -14.092  -14.099  -13.835  -13.247  -12.263  -10.857   -9.148   -7.403   -6.058   -5.530   -6.079   -7.675  -10.072  -12.957  -16.040  -19.052  -21.769  -24.026  -25.748  -26.936  -27.681  -28.094  -28.300  -28.409  -28.493  -28.592  -28.708  -28.802  -28.884  -28.968  -29.068  -29.195  -29.309  -29.357  -29.321  -29.202  -29.053  -28.951  -28.921  -28.954  -28.977  -28.951  -28.883  -28.821  -28.828  -28.957  -29.184  -29.417  -29.576  -29.652  -29.733  -29.948  -30.330  -30.807  -31.230  -31.493
 -15.478  -15.250  -15.191  -15.163  -15.137  -15.121  -15.102  -15.088  -15.072  -15.052  -15.043  -15.038  -15.040  -15.033  -15.012  -14.953  -14.852  -14.692  -14.459  -14.150  -13.771  -13.290  -12.718  -12.051  -11.355  -10.788  -10.543  -10.730  -11.304  -12.074  -12.761  -13.152  -13.212  -13.046  -12.832  -12.703  -12.712  -12.835  -13.041  -13.303  -13.606  -13.910  -14.187  -14.406  -14.534  -14.520  -14.306  -13.806  -12.932  -11.628   -9.945   -8.160   -6.737   -6.182   -6.796   -8.569  -11.208  -14.343  -17.629  -20.768  -23.501  -25.641  -27.150  -28.098  -28.622  -28.866  -28.969  -29.017  -29.057  -29.128  -29.216  -29.297  -29.375  -29.449  -29.527  -29.614  -29.674  -29.688  -29.634  -29.520  -29.399  -29.321  -29.309  -29.330  -29.317  -29.246  -29.131  -29.025  -29.003  -29.094  -29.267  -29.433  -29.528  -29.550  -29.572  -29.714  -30.012  -30.416  -30.795  -31.051
 -15.512  -15.279  -15.215  -15.177  -15.151  -15.148  -15.135  -15.122  -15.098  -15.079  -15.070  -15.062  -15.054  -15.045  -15.036  -15.015  -14.974  -14.911  -14.808  -14.651  -14.423  -14.113  -13.703  -13.206  -12.668  -12.198  -11.930  -11.975  -12.334  -12.882  -13.430  -13.810  -13.959  -13.938  -13.851  -13.797  -13.804  -13.866  -13.973  -14.111  -14.271  -14.440  -14.581  -14.690  -14.743  -14.692  -14.475  -14.014  -13.200  -11.962  -10.331   -8.537   -7.070   -6.469   -7.085   -8.916  -11.683  -14.983  -18.441  -21.703  -24.482  -26.581  -27.958  -28.738  -29.104  -29.248  -29.294  -29.322  -29.351  -29.405  -29.470  -29.536  -29.593  -29.646  -29.693  -29.734  -29.762  -29.752  -29.699  -29.621  -29.536  -29.486  -29.482  -29.495  -29.456  -29.360  -29.219  -29.103  -29.065  -29.125  -29.237  -29.346  -29.405  -29.416  -29.433  -29.540  -29.755  -30.067  -30.366  -30.588
 -15.548  -15.305  -15.229  -15.188  -15.162  -15.154  -15.143  -15.133  -15.112  -15.088  -15.073  -15.065  -15.063  -15.057  -15.046  -15.030  -15.017  -14.999  -14.968  -14.894  -14.773  -14.589  -14.327  -14.007  -13.650  -13.317  -13.098  -13.075  -13.266  -13.636  -14.037  -14.352  -14.523  -14.565  -14.547  -14.521  -14.507  -14.520  -14.556  -14.603  -14.669  -14.732  -14.788  -14.811  -14.780  -14.652  -14.364  -13.837  -12.993  -11.747  -10.130   -8.349   -6.864   -6.226   -6.797   -8.613  -11.430  -14.865  -18.520  -21.985  -24.904  -27.049  -28.388  -29.086  -29.369  -29.454  -29.475  -29.493  -29.525  -29.564  -29.601  -29.622  -29.632  -29.643  -29.654  -29.664  -29.665  -29.656  -29.631  -29.593  -29.554  -29.529  -29.531  -29.536  -29.501  -29.419  -29.306  -29.214  -29.176  -29.198  -29.249  -29.301  -29.333  -29.343  -29.380  -29.465  -29.623  -29.843  -30.058  -30.243
 -15.542  -15.296  -15.229  -15.189  -15.162  -15.143  -15.129  -15.118  -15.102  -15.081  -15.061  -15.057  -15.057  -15.058  -15.036  -15.017  -15.007  -15.001  -14.992  -14.965  -14.902  -14.792  -14.658  -14.487  -14.295  -14.096  -13.950  -13.914  -14.015  -14.238  -14.512  -14.742  -14.882  -14.930  -14.929  -14.902  -14.877  -14.855  -14.847  -14.843  -14.857  -14.857  -14.844  -14.796  -14.661  -14.394  -13.948  -13.255  -12.260  -10.921   -9.278   -7.542   -6.114   -5.474   -5.981   -7.743  -10.578  -14.144  -18.041  -21.776  -24.927  -27.210  -28.594  -29.270  -29.515  -29.562  -29.572  -29.593  -29.624  -29.649  -29.650  -29.626  -29.591  -29.554  -29.529  -29.520  -29.512  -29.517  -29.521  -29.525  -29.521  -29.506  -29.500  -29.502  -29.498  -29.474  -29.443  -29.408  -29.387  -29.384  -29.375  -29.370  -29.361  -29.371  -29.410  -29.486  -29.603  -29.752  -29.907  -30.056
 -15.515  -15.265  -15.199  -15.159  -15.133  -15.121  -15.116  -15.104  -15.088  -15.062  -15.047  -15.041  -15.037  -15.028  -15.009  -14.980  -14.956  -14.946  -14.948  -14.936  -14.906  -14.857  -14.805  -14.728  -14.650  -14.559  -14.483  -14.459  -14.514  -14.645  -14.809  -14.958  -15.059  -15.086  -15.076  -15.043  -15.010  -14.979  -14.950  -14.930  -14.911  -14.876  -14.797  -14.641  -14.368  -13.903  -13.211  -12.247  -11.018   -9.547   -7.905   -6.273   -4.986   -4.426   -4.917   -6.601   -9.407  -13.084  -17.219  -21.253  -24.675  -27.143  -28.627  -29.320  -29.538  -29.558  -29.557  -29.583  -29.622  -29.644  -29.624  -29.576  -29.512  -29.458  -29.429  -29.416  -29.414  -29.424  -29.442  -29.461  -29.463  -29.449  -29.435  -29.429  -29.452  -29.500  -29.557  -29.602  -29.630  -29.623  -29.586  -29.536  -29.494  -29.481  -29.506  -29.562  -29.637  -29.740  -29.854  -29.979
 -15.496  -15.241  -15.175  -15.143  -15.125  -15.113  -15.104  -15.099  -15.080  -15.055  -15.030  -15.014  -15.005  -14.993  -14.965  -14.931  -14.901  -14.893  -14.890  -14.899  -14.895  -14.887  -14.869  -14.843  -14.815  -14.775  -14.737  -14.729  -14.772  -14.844  -14.934  -15.030  -15.087  -15.093  -15.077  -15.046  -15.015  -14.986  -14.967  -14.942  -14.895  -14.808  -14.644  -14.342  -13.859  -13.132  -12.130  -10.870   -9.402   -7.829   -6.271   -4.848   -3.814   -3.425   -3.935   -5.541   -8.276  -12.009  -16.312  -20.592  -24.251  -26.904  -28.489  -29.217  -29.421  -29.423  -29.412  -29.447  -29.500  -29.520  -29.503  -29.448  -29.400  -29.375  -29.376  -29.382  -29.385  -29.386  -29.383  -29.392  -29.392  -29.371  -29.342  -29.326  -29.363  -29.442  -29.560  -29.677  -29.765  -29.792  -29.772  -29.723  -29.668  -29.632  -29.624  -29.639  -29.675  -29.734  -29.819  -29.923
 -15.535  -15.279  -15.221  -15.197  -15.180  -15.171  -15.169  -15.165  -15.149  -15.115  -15.080  -15.049  -15.032  -15.003  -14.971  -14.940  -14.920  -14.925  -14.936  -14.959  -14.971  -14.975  -14.965  -14.946  -14.908  -14.871  -14.835  -14.819  -14.839  -14.881  -14.935  -14.993  -15.022  -15.023  -15.011  -14.991  -14.973  -14.957  -14.945  -14.909  -14.822  -14.653  -14.348  -13.844  -13.082  -12.046  -10.733   -9.219   -7.621   -6.081   -4.720   -3.625   -2.918   -2.752   -3.323   -4.864   -7.510  -11.199  -15.565  -19.976  -23.775  -26.553  -28.219  -28.984  -29.190  -29.177  -29.158  -29.192  -29.246  -29.271  -29.249  -29.221  -29.211  -29.239  -29.290  -29.328  -29.333  -29.308  -29.278  -29.267  -29.262  -29.236  -29.204  -29.170  -29.185  -29.261  -29.394  -29.537  -29.666  -29.754  -29.789  -29.786  -29.760  -29.727  -29.693  -29.665  -29.649  -29.661  -29.706  -29.786
 -15.803  -15.536  -15.485  -15.453  -15.445  -15.427  -15.425  -15.420  -15.405  -15.368  -15.324  -15.279  -15.250  -15.219  -15.192  -15.171  -15.180  -15.195  -15.234  -15.266  -15.289  -15.285  -15.259  -15.200  -15.110  -15.021  -14.934  -14.871  -14.845  -14.859  -14.894  -14.929  -14.950  -14.953  -14.946  -14.940  -14.936  -14.932  -14.911  -14.842  -14.679  -14.368  -13.854  -13.085  -12.018  -10.665   -9.110   -7.481   -5.925   -4.595   -3.564   -2.864   -2.510   -2.574   -3.226   -4.707   -7.244  -10.832  -15.128  -19.518  -23.333  -26.140  -27.845  -28.633  -28.843  -28.815  -28.776  -28.790  -28.824  -28.838  -28.820  -28.815  -28.840  -28.914  -29.006  -29.069  -29.074  -29.036  -28.986  -28.956  -28.951  -28.943  -28.916  -28.876  -28.861  -28.898  -28.989  -29.112  -29.248  -29.378  -29.478  -29.543  -29.580  -29.581  -29.551  -29.498  -29.441  -29.398  -29.401  -29.467
 -16.496  -16.226  -16.161  -16.123  -16.105  -16.084  -16.068  -16.057  -16.041  -16.007  -15.966  -15.926  -15.885  -15.865  -15.854  -15.855  -15.876  -15.911  -15.957  -15.999  -16.020  -16.000  -15.932  -15.790  -15.595  -15.378  -15.168  -15.006  -14.907  -14.875  -14.876  -14.900  -14.918  -14.929  -14.932  -14.928  -14.932  -14.925  -14.868  -14.714  -14.404  -13.889  -13.115  -12.040  -10.667   -9.087   -7.428   -5.848   -4.523   -3.553   -2.964   -2.698   -2.695   -2.978   -3.702   -5.132   -7.519  -10.918  -15.014  -19.213  -22.888  -25.610  -27.280  -28.063  -28.272  -28.233  -28.165  -28.137  -28.133  -28.120  -28.100  -28.100  -28.144  -28.229  -28.321  -28.383  -28.391  -28.351  -28.307  -28.287  -28.295  -28.312  -28.304  -28.267  -28.228  -28.214  -28.240  -28.311  -28.416  -28.544  -28.683  -28.802  -28.896  -28.950  -28.953  -28.908  -28.835  -28.770  -28.748  -28.798
 -17.801  -17.518  -17.439  -17.388  -17.349  -17.311  -17.292  -17.278  -17.264  -17.235  -17.211  -17.179  -17.157  -17.146  -17.140  -17.157  -17.183  -17.227  -17.271  -17.311  -17.317  -17.270  -17.130  -16.858  -16.490  -16.060  -15.638  -15.300  -15.071  -14.960  -14.930  -14.936  -14.952  -14.963  -14.970  -14.964  -14.962  -14.916  -14.791  -14.503  -13.995  -13.215  -12.136  -10.770   -9.190   -7.515   -5.908   -4.542   -3.565   -3.029   -2.908   -3.088   -3.449   -3.968   -4.774   -6.134   -8.313  -11.391  -15.108  -18.925  -22.281  -24.779  -26.320  -27.040  -27.233  -27.193  -27.111  -27.045  -26.997  -26.960  -26.930  -26.924  -26.959  -27.013  -27.072  -27.114  -27.121  -27.095  -27.064  -27.068  -27.105  -27.139  -27.150  -27.119  -27.064  -27.010  -26.985  -26.995  -27.051  -27.156  -27.285  -27.420  -27.546  -27.641  -27.688  -27.677  -27.624  -27.574  -27.558  -27.622
 -19.738  -19.457  -19.365  -19.294  -19.229  -19.188  -19.160  -19.147  -19.143  -19.133  -19.121  -19.109  -19.099  -19.091  -19.089  -19.107  -19.129  -19.167  -19.206  -19.232  -19.223  -19.123  -18.879  -18.437  -17.813  -17.076  -16.339  -15.737  -15.322  -15.100  -15.008  -14.991  -15.001  -15.011  -15.016  -15.007  -14.986  -14.902  -14.682  -14.241  -13.492  -12.419  -11.061   -9.488   -7.827   -6.223   -4.817   -3.751   -3.130   -2.986   -3.285   -3.882   -4.615   -5.400   -6.325   -7.600   -9.489  -12.096  -15.237  -18.479  -21.331  -23.458  -24.770  -25.383  -25.543  -25.503  -25.430  -25.363  -25.300  -25.245  -25.204  -25.188  -25.193  -25.211  -25.227  -25.244  -25.244  -25.228  -25.225  -25.240  -25.279  -25.321  -25.333  -25.311  -25.255  -25.187  -25.136  -25.117  -25.134  -25.203  -25.296  -25.408  -25.531  -25.637  -25.711  -25.736  -25.730  -25.719  -25.733  -25.844
 -22.089  -21.834  -21.734  -21.655  -21.592  -21.546  -21.525  -21.521  -21.531  -21.541  -21.536  -21.526  -21.515  -21.505  -21.501  -21.509  -21.528  -21.555  -21.583  -21.591  -21.550  -21.391  -21.018  -20.359  -19.418  -18.295  -17.176  -16.244  -15.595  -15.229  -15.072  -15.028  -15.022  -15.025  -15.026  -15.015  -14.987  -14.871  -14.567  -13.973  -13.019  -11.708  -10.144   -8.486   -6.898   -5.489   -4.367   -3.596   -3.236   -3.360   -3.950   -4.872   -5.948   -7.015   -8.058   -9.229  -10.767  -12.808  -15.244  -17.773  -19.999  -21.659  -22.667  -23.123  -23.238  -23.213  -23.171  -23.132  -23.091  -23.038  -22.996  -22.972  -22.956  -22.952  -22.941  -22.942  -22.931  -22.922  -22.924  -22.939  -22.966  -22.988  -22.991  -22.970  -22.923  -22.866  -22.824  -22.807  -22.816  -22.855  -22.914  -22.990  -23.072  -23.153  -23.222  -23.267  -23.292  -23.329  -23.389  -23.555
 -24.507  -24.291  -24.198  -24.123  -24.071  -24.041  -24.026  -24.029  -24.047  -24.062  -24.061  -24.046  -24.025  -23.999  -23.989  -23.998  -24.015  -24.037  -24.054  -24.048  -23.975  -23.743  -23.229  -22.340  -21.069  -19.552  -18.027  -16.737  -15.834  -15.315  -15.085  -15.014  -14.998  -14.996  -15.002  -14.997  -14.960  -14.822  -14.472  -13.795  -12.720  -11.288   -9.673   -8.068   -6.666   -5.520   -4.665   -4.107   -3.897   -4.132   -4.851   -5.953   -7.260   -8.524   -9.651  -10.700  -11.880  -13.344  -15.073  -16.871  -18.454  -19.618  -20.304  -20.584  -20.647  -20.639  -20.639  -20.657  -20.663  -20.645  -20.619  -20.593  -20.575  -20.566  -20.556  -20.555  -20.539  -20.526  -20.517  -20.519  -20.518  -20.513  -20.493  -20.465  -20.433  -20.403  -20.390  -20.392  -20.411  -20.446  -20.480  -20.518  -20.551  -20.585  -20.621  -20.657  -20.702  -20.763  -20.850  -21.079
 -26.637  -26.453  -26.368  -26.311  -26.273  -26.257  -26.248  -26.258  -26.270  -26.279  -26.275  -26.246  -26.211  -26.176  -26.163  -26.169  -26.185  -26.211  -26.232  -26.211  -26.110  -25.808  -25.167  -24.077  -22.519  -20.651  -18.761  -17.157  -16.021  -15.367  -15.072  -14.981  -14.962  -14.963  -14.975  -14.981  -14.947  -14.808  -14.450  -13.756  -12.691  -11.318   -9.818   -8.405   -7.235   -6.338   -5.685   -5.265   -5.123   -5.362   -6.048   -7.153   -8.497   -9.817  -10.935  -11.845  -12.709  -13.682  -14.809  -15.980  -16.998  -17.721  -18.115  -18.248  -18.258  -18.251  -18.300  -18.371  -18.438  -18.472  -18.473  -18.459  -18.453  -18.456  -18.457  -18.458  -18.444  -18.425  -18.408  -18.397  -18.373  -18.336  -18.297  -18.259  -18.237  -18.234  -18.242  -18.268  -18.307  -18.338  -18.359  -18.362  -18.350  -18.339  -18.344  -18.366  -18.407  -18.469  -18.562  -18.832
 -28.247  -28.076  -27.997  -27.954  -27.929  -27.916  -27.915  -27.918  -27.925  -27.918  -27.901  -27.859  -27.815  -27.772  -27.751  -27.757  -27.778  -27.814  -27.838  -27.814  -27.691  -27.341  -26.607  -25.360  -23.595  -21.464  -19.301  -17.463  -16.157  -15.402  -15.063  -14.962  -14.960  -14.979  -14.999  -15.004  -14.972  -14.843  -14.520  -13.899  -12.966  -11.792  -10.544   -9.395   -8.465   -7.765   -7.261   -6.940   -6.829   -7.021   -7.598   -8.560   -9.762  -10.970  -11.977  -12.723  -13.333  -13.953  -14.633  -15.333  -15.921  -16.309  -16.476  -16.495  -16.463  -16.462  -16.527  -16.635  -16.742  -16.817  -16.852  -16.853  -16.852  -16.869  -16.882  -16.891  -16.884  -16.865  -16.850  -16.836  -16.810  -16.761  -16.711  -16.667  -16.652  -16.655  -16.675  -16.720  -16.759  -16.790  -16.795  -16.762  -16.722  -16.690  -16.679  -16.691  -16.721  -16.776  -16.863  -17.151
 -29.283  -29.108  -29.041  -28.999  -28.972  -28.961  -28.952  -28.952  -28.943  -28.929  -28.895  -28.848  -28.793  -28.745  -28.714  -28.719  -28.738  -28.784  -28.812  -28.795  -28.660  -28.283  -27.498  -26.154  -24.254  -21.968  -19.642  -17.646  -16.235  -15.423  -15.080  -15.006  -15.024  -15.062  -15.090  -15.098  -15.068  -14.944  -14.670  -14.174  -13.452  -12.567  -11.631  -10.764  -10.040   -9.484   -9.090   -8.854   -8.794   -8.960   -9.407  -10.152  -11.097  -12.069  -12.876  -13.450  -13.868  -14.244  -14.645  -15.035  -15.337  -15.514  -15.544  -15.501  -15.443  -15.427  -15.463  -15.555  -15.659  -15.752  -15.806  -15.825  -15.833  -15.855  -15.873  -15.887  -15.872  -15.870  -15.866  -15.875  -15.865  -15.829  -15.778  -15.728  -15.700  -15.700  -15.730  -15.778  -15.826  -15.847  -15.824  -15.780  -15.721  -15.692  -15.687  -15.705  -15.738  -15.785  -15.866  -16.146
 -29.858  -29.679  -29.607  -29.555  -29.524  -29.509  -29.494  -29.481  -29.467  -29.446  -29.406  -29.350  -29.288  -29.236  -29.202  -29.195  -29.213  -29.254  -29.286  -29.279  -29.147  -28.760  -27.947  -26.560  -24.595  -22.225  -19.813  -17.744  -16.274  -15.438  -15.109  -15.078  -15.140  -15.200  -15.234  -15.227  -15.183  -15.065  -14.840  -14.482  -13.998  -13.419  -12.792  -12.176  -11.620  -11.168  -10.850  -10.698  -10.703  -10.883  -11.235  -11.759  -12.409  -13.086  -13.652  -14.047  -14.326  -14.563  -14.800  -15.025  -15.183  -15.258  -15.241  -15.170  -15.090  -15.030  -15.003  -15.026  -15.083  -15.161  -15.217  -15.243  -15.269  -15.294  -15.311  -15.312  -15.308  -15.313  -15.342  -15.373  -15.381  -15.360  -15.306  -15.252  -15.215  -15.217  -15.262  -15.326  -15.380  -15.393  -15.353  -15.293  -15.233  -15.220  -15.241  -15.279  -15.328  -15.385  -15.455  -15.719
 -30.132  -29.937  -29.863  -29.805  -29.772  -29.749  -29.730  -29.716  -29.701  -29.678  -29.639  -29.581  -29.523  -29.464  -29.418  -29.402  -29.414  -29.446  -29.484  -29.477  -29.348  -28.964  -28.139  -26.736  -24.740  -22.337  -19.888  -17.775  -16.277  -15.438  -15.130  -15.132  -15.233  -15.322  -15.358  -15.334  -15.256  -15.131  -14.949  -14.718  -14.445  -14.137  -13.771  -13.366  -12.939  -12.570  -12.313  -12.219  -12.293  -12.494  -12.784  -13.143  -13.537  -13.924  -14.241  -14.478  -14.649  -14.814  -14.990  -15.154  -15.277  -15.329  -15.319  -15.261  -15.160  -15.044  -14.939  -14.869  -14.857  -14.888  -14.923  -14.953  -14.992  -15.025  -15.044  -15.038  -15.020  -15.028  -15.070  -15.123  -15.146  -15.143  -15.098  -15.032  -14.989  -14.994  -15.061  -15.158  -15.229  -15.252  -15.205  -15.132  -15.071  -15.065  -15.100  -15.175  -15.248  -15.319  -15.388  -15.636
 -30.260  -30.045  -29.963  -29.909  -29.876  -29.853  -29.837  -29.835  -29.822  -29.799  -29.771  -29.724  -29.671  -29.614  -29.563  -29.529  -29.531  -29.553  -29.583  -29.577  -29.451  -29.062  -28.233  -26.822  -24.811  -22.396  -19.925  -17.798  -16.278  -15.431  -15.122  -15.132  -15.253  -15.351  -15.373  -15.321  -15.210  -15.071  -14.922  -14.799  -14.708  -14.609  -14.450  -14.209  -13.902  -13.612  -13.412  -13.357  -13.460  -13.677  -13.942  -14.200  -14.407  -14.561  -14.669  -14.758  -14.850  -14.975  -15.123  -15.274  -15.396  -15.468  -15.489  -15.458  -15.359  -15.212  -15.051  -14.915  -14.834  -14.800  -14.795  -14.814  -14.856  -14.896  -14.912  -14.896  -14.870  -14.867  -14.912  -14.972  -15.017  -15.023  -14.984  -14.924  -14.888  -14.907  -14.991  -15.120  -15.215  -15.243  -15.196  -15.108  -15.040  -15.028  -15.075  -15.166  -15.261  -15.338  -15.414  -15.661
 -30.327  -30.092  -30.000  -29.958  -29.930  -29.916  -29.910  -29.913  -29.913  -29.909  -29.893  -29.866  -29.823  -29.774  -29.721  -29.673  -29.654  -29.662  -29.678  -29.657  -29.526  -29.134  -28.302  -26.885  -24.868  -22.449  -19.973  -17.834  -16.299  -15.428  -15.091  -15.074  -15.166  -15.242  -15.239  -15.162  -15.037  -14.898  -14.788  -14.747  -14.783  -14.836  -14.833  -14.726  -14.539  -14.338  -14.193  -14.166  -14.277  -14.488  -14.738  -14.947  -15.041  -15.043  -14.995  -14.955  -14.965  -15.031  -15.148  -15.272  -15.389  -15.478  -15.536  -15.536  -15.475  -15.348  -15.196  -15.039  -14.905  -14.797  -14.730  -14.712  -14.745  -14.789  -14.813  -14.795  -14.764  -14.763  -14.807  -14.884  -14.947  -14.967  -14.942  -14.892  -14.860  -14.887  -14.978  -15.114  -15.211  -15.240  -15.189  -15.091  -15.005  -14.980  -15.021  -15.102  -15.194  -15.279  -15.359  -15.616
 -30.366  -30.111  -30.027  -29.989  -29.968  -29.961  -29.964  -29.977  -29.988  -30.006  -30.014  -30.011  -29.983  -29.940  -29.885  -29.821  -29.779  -29.753  -29.746  -29.717  -29.580  -29.185  -28.351  -26.925  -24.908  -22.490  -20.023  -17.882  -16.338  -15.438  -15.047  -14.963  -14.993  -15.020  -14.991  -14.913  -14.803  -14.699  -14.638  -14.661  -14.768  -14.897  -14.983  -14.983  -14.905  -14.802  -14.720  -14.719  -14.824  -15.021  -15.247  -15.413  -15.461  -15.376  -15.222  -15.081  -14.998  -14.996  -15.047  -15.120  -15.208  -15.303  -15.387  -15.436  -15.434  -15.381  -15.277  -15.134  -14.970  -14.800  -14.661  -14.586  -14.596  -14.638  -14.667  -14.677  -14.676  -14.715  -14.790  -14.887  -14.960  -14.992  -14.966  -14.923  -14.889  -14.905  -14.972  -15.075  -15.154  -15.164  -15.107  -15.006  -14.911  -14.872  -14.886  -14.946  -15.019  -15.084  -15.161  -15.432
 -30.418  -30.140  -30.057  -30.014  -29.994  -29.994  -29.996  -30.011  -30.031  -30.069  -30.099  -30.111  -30.097  -30.062  -29.994  -29.915  -29.843  -29.793  -29.765  -29.724  -29.580  -29.182  -28.347  -26.923  -24.910  -22.493  -20.037  -17.916  -16.381  -15.457  -15.010  -14.851  -14.810  -14.793  -14.749  -14.701  -14.642  -14.607  -14.595  -14.641  -14.758  -14.897  -15.011  -15.071  -15.074  -15.047  -15.018  -15.048  -15.140  -15.300  -15.493  -15.625  -15.641  -15.516  -15.305  -15.095  -14.948  -14.886  -14.871  -14.897  -14.949  -15.034  -15.132  -15.225  -15.282  -15.296  -15.250  -15.132  -14.964  -14.761  -14.572  -14.462  -14.442  -14.478  -14.530  -14.571  -14.628  -14.737  -14.868  -14.989  -15.059  -15.079  -15.034  -14.972  -14.914  -14.896  -14.929  -14.985  -15.023  -15.018  -14.963  -14.878  -14.796  -14.757  -14.752  -14.781  -14.810  -14.846  -14.897  -15.187
 -30.526  -30.219  -30.121  -30.071  -30.046  -30.036  -30.031  -30.036  -30.046  -30.084  -30.117  -30.141  -30.137  -30.094  -30.020  -29.936  -29.848  -29.791  -29.755  -29.703  -29.554  -29.155  -28.321  -26.894  -24.885  -22.477  -20.038  -17.943  -16.423  -15.490  -15.012  -14.802  -14.710  -14.661  -14.635  -14.634  -14.666  -14.696  -14.723  -14.763  -14.840  -14.938  -15.025  -15.085  -15.115  -15.125  -15.137  -15.171  -15.242  -15.365  -15.500  -15.584  -15.567  -15.427  -15.200  -14.978  -14.823  -14.734  -14.698  -14.701  -14.730  -14.813  -14.923  -15.034  -15.119  -15.161  -15.135  -15.034  -14.877  -14.689  -14.526  -14.422  -14.403  -14.434  -14.479  -14.535  -14.637  -14.792  -14.977  -15.107  -15.167  -15.151  -15.073  -14.977  -14.892  -14.835  -14.831  -14.852  -14.867  -14.866  -14.844  -14.809  -14.770  -14.771  -14.775  -14.779  -14.770  -14.761  -14.793  -15.090
 -30.768  -30.428  -30.311  -30.254  -30.213  -30.184  -30.159  -30.145  -30.135  -30.149  -30.165  -30.185  -30.183  -30.149  -30.084  -30.002  -29.924  -29.873  -29.842  -29.790  -29.637  -29.230  -28.386  -26.957  -24.942  -22.546  -20.122  -18.050  -16.540  -15.594  -15.092  -14.848  -14.737  -14.683  -14.696  -14.767  -14.882  -14.982  -15.047  -15.076  -15.098  -15.122  -15.135  -15.135  -15.131  -15.130  -15.136  -15.164  -15.216  -15.280  -15.339  -15.350  -15.281  -15.134  -14.929  -14.747  -14.634  -14.580  -14.569  -14.576  -14.612  -14.707  -14.822  -14.933  -15.014  -15.028  -14.988  -14.893  -14.779  -14.668  -14.588  -14.550  -14.547  -14.554  -14.547  -14.570  -14.661  -14.828  -15.016  -15.149  -15.190  -15.141  -15.044  -14.930  -14.811  -14.734  -14.701  -14.721  -14.768  -14.833  -14.903  -14.976  -15.050  -15.142  -15.213  -15.237  -15.208  -15.171  -15.195  -15.489
 -31.296  -30.924  -30.791  -30.718  -30.663  -30.615  -30.567  -30.527  -30.486  -30.470  -30.467  -30.468  -30.460  -30.431  -30.382  -30.326  -30.279  -30.256  -30.241  -30.200  -30.043  -29.624  -28.764  -27.321  -25.300  -22.903  -20.480  -18.401  -16.867  -15.885  -15.330  -15.043  -14.903  -14.867  -14.932  -15.086  -15.298  -15.493  -15.615  -15.655  -15.623  -15.543  -15.433  -15.314  -15.210  -15.149  -15.138  -15.161  -15.177  -15.169  -15.126  -15.042  -14.917  -14.757  -14.595  -14.479  -14.444  -14.459  -14.492  -14.525  -14.581  -14.684  -14.807  -14.913  -14.968  -14.959  -14.890  -14.803  -14.750  -14.746  -14.785  -14.830  -14.845  -14.794  -14.701  -14.640  -14.677  -14.815  -14.979  -15.088  -15.107  -15.063  -14.972  -14.860  -14.745  -14.661  -14.640  -14.696  -14.835  -15.034  -15.289  -15.577  -15.892  -16.197  -16.442  -16.573  -16.588  -16.561  -16.565  -16.867
 -32.286  -31.884  -31.743  -31.661  -31.592  -31.535  -31.473  -31.409  -31.347  -31.293  -31.270  -31.254  -31.240  -31.214  -31.176  -31.147  -31.137  -31.144  -31.157  -31.125  -30.966  -30.534  -29.660  -28.204  -26.178  -23.768  -21.310  -19.168  -17.542  -16.451  -15.788  -15.421  -15.241  -15.216  -15.351  -15.628  -15.981  -16.311  -16.538  -16.615  -16.528  -16.306  -16.004  -15.679  -15.420  -15.265  -15.214  -15.219  -15.203  -15.115  -14.964  -14.789  -14.612  -14.451  -14.330  -14.285  -14.329  -14.417  -14.496  -14.552  -14.611  -14.706  -14.824  -14.918  -14.959  -14.943  -14.877  -14.820  -14.840  -14.930  -15.062  -15.163  -15.162  -15.057  -14.876  -14.731  -14.706  -14.782  -14.902  -14.979  -14.981  -14.938  -14.870  -14.793  -14.718  -14.673  -14.706  -14.842  -15.123  -15.537  -16.111  -16.806  -17.568  -18.306  -18.907  -19.273  -19.419  -19.434  -19.438  -19.713
 -33.850  -33.433  -33.296  -33.211  -33.147  -33.086  -33.014  -32.932  -32.855  -32.786  -32.740  -32.712  -32.685  -32.654  -32.631  -32.611  -32.621  -32.654  -32.682  -32.659  -32.503  -32.071  -31.200  -29.741  -27.704  -25.265  -22.738  -20.469  -18.662  -17.371  -16.515  -15.990  -15.733  -15.726  -15.972  -16.435  -17.005  -17.549  -17.921  -18.034  -17.850  -17.417  -16.839  -16.245  -15.772  -15.483  -15.368  -15.348  -15.303  -15.155  -14.927  -14.671  -14.470  -14.319  -14.240  -14.248  -14.359  -14.501  -14.616  -14.670  -14.696  -14.747  -14.823  -14.904  -14.957  -14.961  -14.946  -14.937  -15.003  -15.154  -15.319  -15.433  -15.415  -15.264  -15.041  -14.850  -14.769  -14.789  -14.845  -14.865  -14.841  -14.796  -14.762  -14.738  -14.736  -14.759  -14.870  -15.117  -15.581  -16.318  -17.386  -18.738  -20.245  -21.693  -22.857  -23.620  -23.981  -24.083  -24.098  -24.310
 -36.000  -35.577  -35.442  -35.365  -35.307  -35.244  -35.157  -35.068  -34.976  -34.897  -34.839  -34.798  -34.759  -34.724  -34.690  -34.669  -34.678  -34.710  -34.740  -34.730  -34.582  -34.165  -33.307  -31.860  -29.813  -27.329  -24.692  -22.228  -20.167  -18.589  -17.464  -16.735  -16.372  -16.389  -16.789  -17.514  -18.385  -19.194  -19.731  -19.852  -19.508  -18.770  -17.826  -16.898  -16.173  -15.723  -15.534  -15.485  -15.428  -15.249  -14.968  -14.686  -14.479  -14.365  -14.335  -14.385  -14.525  -14.681  -14.792  -14.824  -14.792  -14.778  -14.806  -14.868  -14.949  -15.003  -15.034  -15.071  -15.151  -15.297  -15.447  -15.547  -15.514  -15.366  -15.162  -14.983  -14.873  -14.846  -14.834  -14.787  -14.723  -14.665  -14.666  -14.699  -14.766  -14.865  -15.058  -15.426  -16.110  -17.266  -19.003  -21.268  -23.792  -26.203  -28.125  -29.401  -30.060  -30.277  -30.311  -30.417
 -38.612  -38.195  -38.069  -38.002  -37.936  -37.847  -37.725  -37.594  -37.460  -37.360  -37.293  -37.244  -37.201  -37.156  -37.108  -37.072  -37.068  -37.078  -37.101  -37.089  -36.954  -36.553  -35.711  -34.276  -32.220  -29.675  -26.900  -24.212  -21.858  -19.948  -18.514  -17.551  -17.073  -17.127  -17.723  -18.763  -19.982  -21.076  -21.770  -21.858  -21.288  -20.185  -18.814  -17.506  -16.498  -15.885  -15.615  -15.536  -15.474  -15.292  -15.008  -14.730  -14.558  -14.506  -14.538  -14.621  -14.750  -14.878  -14.954  -14.938  -14.857  -14.786  -14.770  -14.832  -14.929  -15.020  -15.082  -15.127  -15.193  -15.288  -15.395  -15.459  -15.433  -15.330  -15.196  -15.073  -14.980  -14.915  -14.853  -14.761  -14.676  -14.624  -14.645  -14.726  -14.834  -14.972  -15.204  -15.663  -16.573  -18.209  -20.745  -24.075  -27.772  -31.257  -34.023  -35.859  -36.842  -37.216  -37.280  -37.261
 -41.700  -41.285  -41.174  -41.093  -40.983  -40.800  -40.538  -40.255  -40.003  -39.825  -39.720  -39.666  -39.621  -39.570  -39.511  -39.455  -39.428  -39.421  -39.424  -39.401  -39.265  -38.871  -38.040  -36.607  -34.528  -31.911  -28.998  -26.090  -23.443  -21.218  -19.496  -18.313  -17.735  -17.852  -18.661  -20.008  -21.560  -22.908  -23.716  -23.746  -22.938  -21.461  -19.668  -17.965  -16.658  -15.862  -15.501  -15.409  -15.354  -15.203  -14.957  -14.736  -14.641  -14.678  -14.778  -14.878  -14.958  -15.014  -15.029  -14.978  -14.873  -14.779  -14.746  -14.795  -14.894  -14.990  -15.047  -15.066  -15.090  -15.131  -15.185  -15.219  -15.209  -15.169  -15.122  -15.077  -15.036  -14.980  -14.907  -14.819  -14.750  -14.735  -14.794  -14.877  -14.971  -15.081  -15.282  -15.771  -16.879  -18.996  -22.338  -26.738  -31.588  -36.098  -39.651  -42.018  -43.317  -43.857  -43.970  -43.825
 -45.703  -45.307  -45.210  -45.090  -44.810  -44.328  -43.684  -42.997  -42.417  -42.022  -41.806  -41.708  -41.659  -41.608  -41.545  -41.480  -41.437  -41.414  -41.400  -41.363  -41.217  -40.814  -39.974  -38.523  -36.407  -33.716  -30.671  -27.565  -24.672  -22.189  -20.242  -18.907  -18.288  -18.491  -19.507  -21.120  -22.919  -24.445  -25.311  -25.256  -24.244  -22.453  -20.291  -18.229  -16.639  -15.657  -15.215  -15.120  -15.111  -15.018  -14.848  -14.710  -14.712  -14.837  -14.983  -15.065  -15.083  -15.064  -15.020  -14.963  -14.879  -14.793  -14.750  -14.778  -14.852  -14.922  -14.955  -14.945  -14.924  -14.922  -14.936  -14.956  -14.962  -14.973  -14.998  -15.029  -15.051  -15.031  -14.986  -14.936  -14.923  -14.970  -15.062  -15.139  -15.174  -15.188  -15.292  -15.770  -17.031  -19.555  -23.615  -28.934  -34.743  -40.100  -44.300  -47.106  -48.666  -49.346  -49.509  -49.249
 -51.721  -51.392  -51.324  -51.051  -50.348  -49.164  -47.637  -46.064  -44.751  -43.877  -43.404  -43.200  -43.119  -43.064  -43.009  -42.951  -42.907  -42.879  -42.859  -42.809  -42.641  -42.217  -41.349  -39.862  -37.691  -34.913  -31.750  -28.482  -25.413  -22.758  -20.695  -19.315  -18.749  -19.086  -20.275  -22.063  -23.993  -25.579  -26.422  -26.278  -25.103  -23.093  -20.666  -18.339  -16.519  -15.392  -14.909  -14.837  -14.902  -14.889  -14.794  -14.732  -14.793  -14.947  -15.083  -15.127  -15.086  -15.024  -14.982  -14.952  -14.900  -14.832  -14.777  -14.770  -14.819  -14.869  -14.888  -14.862  -14.818  -14.790  -14.790  -14.815  -14.843  -14.886  -14.941  -15.009  -15.044  -15.046  -15.031  -15.047  -15.123  -15.243  -15.363  -15.412  -15.362  -15.264  -15.273  -15.717  -17.085  -19.934  -24.530  -30.533  -37.034  -42.988  -47.643  -50.755  -52.493  -53.265  -53.452  -53.118
 -61.315  -61.144  -61.040  -60.364  -58.771  -56.226  -53.065  -49.877  -47.256  -45.507  -44.559  -44.156  -44.013  -43.949  -43.903  -43.863  -43.829  -43.811  -43.789  -43.733  -43.547  -43.094  -42.181  -40.639  -38.391  -35.519  -32.242  -28.848  -25.667  -22.952  -20.898  -19.626  -19.235  -19.746  -21.078  -22.930  -24.851  -26.363  -27.097  -26.832  -25.532  -23.393  -20.831  -18.352  -16.401  -15.203  -14.720  -14.708  -14.849  -14.911  -14.867  -14.823  -14.876  -14.990  -15.071  -15.064  -15.010  -14.955  -14.942  -14.939  -14.910  -14.847  -14.783  -14.765  -14.811  -14.881  -14.917  -14.890  -14.828  -14.796  -14.811  -14.862  -14.919  -14.962  -15.002  -15.021  -15.007  -14.988  -15.003  -15.100  -15.269  -15.462  -15.595  -15.608  -15.487  -15.314  -15.265  -15.692  -17.146  -20.206  -25.138  -31.547  -38.456  -44.757  -49.674  -52.947  -54.771  -55.574  -55.759  -55.381
 -75.497  -75.552  -75.179  -73.657  -70.551  -65.894  -60.281  -54.695  -50.123  -47.075  -45.433  -44.730  -44.489  -44.413  -44.378  -44.353  -44.336  -44.328  -44.313  -44.253  -44.052  -43.569  -42.601  -40.983  -38.642  -35.663  -32.269  -28.785  -25.558  -22.893  -21.003  -19.985  -19.878  -20.625  -22.057  -23.862  -25.638  -26.959  -27.508  -27.092  -25.688  -23.490  -20.881  -18.371  -16.385  -15.173  -14.714  -14.743  -14.936  -15.033  -14.996  -14.931  -14.937  -14.992  -15.012  -14.983  -14.936  -14.894  -14.889  -14.888  -14.854  -14.779  -14.712  -14.726  -14.815  -14.940  -15.010  -14.998  -14.930  -14.899  -14.940  -15.025  -15.100  -15.129  -15.107  -15.024  -14.912  -14.845  -14.884  -15.053  -15.307  -15.551  -15.692  -15.677  -15.524  -15.327  -15.277  -15.735  -17.247  -20.411  -25.488  -32.058  -39.114  -45.531  -50.526  -53.838  -55.663  -56.443  -56.604  -56.211
 -93.427  -93.660  -92.619  -89.714  -84.540  -77.250  -68.670  -60.194  -53.263  -48.646  -46.169  -45.108  -44.749  -44.650  -44.621  -44.604  -44.592  -44.580  -44.567  -44.506  -44.301  -43.792  -42.778  -41.078  -38.622  -35.517  -32.022  -28.489  -25.303  -22.797  -21.189  -20.536  -20.782  -21.763  -23.241  -24.916  -26.456  -27.518  -27.847  -27.280  -25.801  -23.588  -21.003  -18.514  -16.539  -15.321  -14.841  -14.848  -15.014  -15.103  -15.068  -14.994  -14.977  -15.005  -15.018  -14.991  -14.937  -14.882  -14.831  -14.783  -14.709  -14.615  -14.561  -14.614  -14.770  -14.959  -15.074  -15.075  -15.012  -14.979  -15.022  -15.123  -15.212  -15.229  -15.154  -14.985  -14.790  -14.675  -14.717  -14.923  -15.213  -15.463  -15.593  -15.578  -15.433  -15.277  -15.281  -15.794  -17.345  -20.524  -25.562  -32.064  -39.048  -45.389  -50.310  -53.556  -55.321  -56.055  -56.189  -55.797
-112.342 -112.575 -110.494 -105.800  -98.265  -88.217  -76.689  -65.395  -56.181  -50.063  -46.797  -45.407  -44.937  -44.813  -44.780  -44.755  -44.725  -44.696  -44.665  -44.605  -44.414  -43.903  -42.853  -41.077  -38.510  -35.286  -31.711  -28.190  -25.136  -22.880  -21.622  -21.367  -21.947  -23.092  -24.530  -26.010  -27.272  -28.073  -28.206  -27.533  -26.034  -23.852  -21.316  -18.861  -16.884  -15.618  -15.043  -14.928  -14.996  -15.037  -15.006  -14.983  -15.019  -15.097  -15.151  -15.132  -15.030  -14.894  -14.766  -14.656  -14.547  -14.438  -14.386  -14.455  -14.650  -14.880  -15.030  -15.034  -14.962  -14.908  -14.933  -15.032  -15.142  -15.190  -15.125  -14.941  -14.715  -14.559  -14.567  -14.740  -14.990  -15.206  -15.315  -15.302  -15.215  -15.133  -15.226  -15.801  -17.355  -20.434  -25.277  -31.520  -38.219  -44.306  -49.022  -52.116  -53.784  -54.463  -54.578  -54.219
-129.452 -129.382 -126.020 -119.257 -109.219  -96.555  -82.519  -69.029  -58.161  -51.021  -47.242  -45.644  -45.109  -44.971  -44.933  -44.886  -44.824  -44.764  -44.723  -44.678  -44.524  -44.044  -42.979  -41.127  -38.452  -35.126  -31.518  -28.080  -25.236  -23.307  -22.415  -22.503  -23.302  -24.494  -25.801  -27.018  -27.980  -28.530  -28.510  -27.787  -26.325  -24.216  -21.754  -19.334  -17.348  -15.997  -15.263  -14.957  -14.865  -14.842  -14.853  -14.928  -15.084  -15.254  -15.345  -15.286  -15.106  -14.897  -14.717  -14.591  -14.480  -14.364  -14.303  -14.357  -14.531  -14.747  -14.881  -14.874  -14.776  -14.692  -14.696  -14.801  -14.959  -15.089  -15.111  -14.984  -14.769  -14.585  -14.515  -14.584  -14.724  -14.863  -14.932  -14.936  -14.908  -14.920  -15.100  -15.716  -17.202  -20.060  -24.532  -30.307  -36.521  -42.174  -46.551  -49.419  -50.957  -51.576  -51.679  -51.378
-143.371 -142.487 -137.416 -128.245 -115.659 -100.692  -84.812  -70.100  -58.611  -51.235  -47.389  -45.782  -45.260  -45.143  -45.122  -45.084  -45.018  -44.961  -44.950  -44.969  -44.897  -44.466  -43.378  -41.422  -38.599  -35.169  -31.561  -28.275  -25.712  -24.127  -23.566  -23.889  -24.776  -25.901  -26.994  -27.903  -28.542  -28.817  -28.630  -27.863  -26.450  -24.441  -22.072  -19.711  -17.719  -16.295  -15.414  -14.938  -14.712  -14.646  -14.711  -14.898  -15.166  -15.389  -15.463  -15.339  -15.099  -14.880  -14.759  -14.717  -14.659  -14.548  -14.452  -14.444  -14.543  -14.689  -14.765  -14.717  -14.584  -14.481  -14.482  -14.617  -14.853  -15.096  -15.227  -15.169  -14.967  -14.734  -14.580  -14.533  -14.560  -14.606  -14.620  -14.628  -14.637  -14.711  -14.937  -15.524  -16.849  -19.351  -23.268  -28.346  -33.852  -38.878  -42.780  -45.337  -46.700  -47.245  -47.343  -47.130
-152.916 -150.597 -143.265 -131.587 -116.759  -99.997  -83.087  -68.306  -57.363  -50.604  -47.166  -45.769  -45.376  -45.381  -45.498  -45.601  -45.668  -45.743  -45.886  -46.079  -46.141  -45.742  -44.529  -42.308  -39.187  -35.539  -31.890  -28.762  -26.509  -25.261  -24.971  -25.421  -26.297  -27.282  -28.136  -28.740  -29.036  -28.996  -28.579  -27.699  -26.291  -24.360  -22.095  -19.819  -17.858  -16.406  -15.465  -14.905  -14.625  -14.567  -14.704  -14.980  -15.286  -15.486  -15.475  -15.271  -15.034  -14.925  -14.992  -15.116  -15.163  -15.083  -14.951  -14.862  -14.859  -14.897  -14.880  -14.769  -14.614  -14.512  -14.540  -14.705  -14.981  -15.285  -15.464  -15.428  -15.220  -14.951  -14.745  -14.632  -14.588  -14.569  -14.546  -14.522  -14.522  -14.591  -14.776  -15.265  -16.336  -18.364  -21.550  -25.721  -30.270  -34.463  -37.734  -39.881  -41.015  -41.452  -41.526  -41.434
-155.846 -152.047 -142.660 -129.119 -112.693  -94.800  -77.842  -64.167  -54.780  -49.290  -46.612  -45.626  -45.551  -45.931  -46.500  -47.098  -47.663  -48.214  -48.791  -49.319  -49.534  -48.998  -47.330  -44.429  -40.589  -36.410  -32.547  -29.490  -27.486  -26.522  -26.429  -26.933  -27.736  -28.572  -29.227  -29.571  -29.565  -29.205  -28.511  -27.455  -25.988  -24.108  -21.936  -19.755  -17.852  -16.424  -15.493  -14.970  -14.749  -14.776  -14.983  -15.283  -15.542  -15.631  -15.499  -15.248  -15.085  -15.181  -15.501  -15.847  -16.021  -15.979  -15.817  -15.654  -15.550  -15.478  -15.371  -15.216  -15.066  -14.986  -15.024  -15.165  -15.381  -15.606  -15.721  -15.654  -15.440  -15.190  -14.996  -14.894  -14.843  -14.801  -14.749  -14.686  -14.651  -14.649  -14.745  -15.068  -15.819  -17.287  -19.623  -22.708  -26.102  -29.258  -31.736  -33.345  -34.169  -34.450  -34.469  -34.507
-150.749 -146.274 -136.058 -121.676 -104.372  -86.270  -70.439  -58.854  -51.576  -47.597  -45.822  -45.446  -46.027  -47.306  -49.014  -50.882  -52.703  -54.379  -55.834  -56.868  -57.073  -55.924  -53.086  -48.675  -43.342  -38.032  -33.567  -30.380  -28.499  -27.723  -27.740  -28.229  -28.934  -29.622  -30.120  -30.295  -30.089  -29.504  -28.588  -27.376  -25.851  -24.002  -21.921  -19.831  -17.993  -16.618  -15.764  -15.358  -15.280  -15.428  -15.685  -15.937  -16.075  -16.015  -15.774  -15.509  -15.470  -15.793  -16.363  -16.909  -17.198  -17.200  -17.024  -16.821  -16.644  -16.498  -16.344  -16.197  -16.071  -16.003  -15.985  -15.999  -16.040  -16.081  -16.068  -15.968  -15.789  -15.615  -15.495  -15.446  -15.422  -15.384  -15.327  -15.230  -15.141  -15.071  -15.058  -15.203  -15.641  -16.528  -17.960  -19.861  -21.972  -23.927  -25.444  -26.396  -26.823  -26.884  -26.813  -26.949
-139.381 -134.937 -124.890 -110.428  -93.226  -76.285  -62.713  -53.663  -48.431  -45.780  -44.855  -45.316  -47.123  -50.222  -54.253  -58.650  -62.865  -66.511  -69.290  -70.810  -70.540  -67.956  -62.887  -55.810  -47.894  -40.592  -34.974  -31.346  -29.430  -28.725  -28.761  -29.180  -29.740  -30.267  -30.631  -30.716  -30.447  -29.814  -28.860  -27.623  -26.107  -24.319  -22.341  -20.358  -18.617  -17.341  -16.604  -16.354  -16.433  -16.671  -16.920  -17.059  -17.037  -16.833  -16.515  -16.284  -16.371  -16.866  -17.611  -18.284  -18.664  -18.725  -18.586  -18.390  -18.207  -18.054  -17.917  -17.814  -17.725  -17.633  -17.513  -17.346  -17.174  -17.038  -16.925  -16.834  -16.742  -16.664  -16.621  -16.608  -16.608  -16.583  -16.524  -16.420  -16.286  -16.159  -16.080  -16.097  -16.260  -16.619  -17.188  -17.921  -18.704  -19.379  -19.835  -20.017  -19.944  -19.709  -19.492  -19.684
-124.919 -120.439 -110.861  -97.159  -81.529  -67.122  -56.331  -49.523  -45.725  -43.911  -43.672  -45.240  -49.071  -55.237  -63.056  -71.327  -78.895  -84.986  -89.091  -90.727  -89.367  -84.584  -76.399  -65.659  -54.135  -43.980  -36.641  -32.284  -30.183  -29.466  -29.461  -29.758  -30.140  -30.477  -30.700  -30.743  -30.537  -30.054  -29.273  -28.187  -26.801  -25.140  -23.302  -21.476  -19.903  -18.786  -18.206  -18.094  -18.277  -18.528  -18.692  -18.686  -18.507  -18.196  -17.867  -17.690  -17.870  -18.452  -19.280  -20.033  -20.504  -20.661  -20.621  -20.504  -20.389  -20.290  -20.226  -20.195  -20.154  -20.037  -19.820  -19.531  -19.246  -19.025  -18.912  -18.868  -18.854  -18.843  -18.827  -18.811  -18.807  -18.792  -18.739  -18.630  -18.474  -18.329  -18.230  -18.181  -18.146  -18.058  -17.865  -17.535  -17.069  -16.498  -15.868  -15.200  -14.525  -13.915  -13.489  -13.669
-110.091 -105.596  -97.098  -85.398  -72.565  -61.089  -52.519  -46.939  -43.600  -41.952  -42.168  -45.138  -51.841  -62.278  -74.954  -87.633  -98.499 -106.576 -111.415 -112.673 -109.917 -102.768  -91.331  -76.667  -61.087  -47.605  -38.240  -33.015  -30.687  -29.938  -29.882  -30.060  -30.257  -30.398  -30.482  -30.504  -30.424  -30.182  -29.701  -28.894  -27.742  -26.292  -24.672  -23.086  -21.763  -20.857  -20.434  -20.423  -20.619  -20.810  -20.846  -20.702  -20.415  -20.063  -19.763  -19.658  -19.899  -20.543  -21.429  -22.274  -22.877  -23.195  -23.320  -23.345  -23.343  -23.350  -23.385  -23.430  -23.429  -23.320  -23.101  -22.811  -22.554  -22.379  -22.326  -22.348  -22.373  -22.368  -22.334  -22.294  -22.278  -22.283  -22.245  -22.130  -21.962  -21.809  -21.715  -21.630  -21.447  -21.011  -20.205  -19.000  -17.490  -15.830  -14.163  -12.626  -11.284  -10.232   -9.548   -9.665
 -99.856  -95.951  -89.274  -80.103  -69.810  -60.089  -52.133  -46.246  -42.193  -39.957  -40.327  -44.886  -55.043  -70.314  -87.834 -104.225 -117.423 -126.673 -131.771 -132.478 -128.312 -118.938 -104.640  -86.532  -67.211  -50.561  -39.302  -33.348  -30.896  -30.175  -30.111  -30.206  -30.260  -30.248  -30.214  -30.206  -30.224  -30.198  -29.997  -29.489  -28.623  -27.458  -26.135  -24.856  -23.814  -23.133  -22.837  -22.851  -22.994  -23.091  -23.024  -22.795  -22.479  -22.156  -21.932  -21.920  -22.258  -22.996  -24.003  -25.024  -25.846  -26.398  -26.729  -26.923  -27.049  -27.151  -27.252  -27.350  -27.398  -27.336  -27.189  -27.010  -26.876  -26.827  -26.851  -26.912  -26.948  -26.922  -26.857  -26.818  -26.833  -26.885  -26.870  -26.757  -26.572  -26.407  -26.300  -26.182  -25.878  -25.185  -23.946  -22.135  -19.875  -17.374  -14.868  -12.544  -10.560   -9.037   -8.084   -8.102
 -99.750  -96.885  -91.707  -84.042  -74.593  -64.596  -55.314  -47.556  -41.681  -38.170  -38.340  -44.384  -57.942  -77.600  -98.887 -117.769 -132.625 -142.991 -148.499 -148.579 -142.626 -130.802 -114.013  -93.274  -71.075  -52.020  -39.477  -33.194  -30.823  -30.233  -30.225  -30.289  -30.272  -30.175  -30.061  -30.016  -30.059  -30.124  -30.077  -29.787  -29.186  -28.327  -27.336  -26.378  -25.600  -25.096  -24.869  -24.855  -24.917  -24.930  -24.807  -24.572  -24.292  -24.060  -23.953  -24.086  -24.592  -25.525  -26.764  -28.075  -29.203  -30.023  -30.566  -30.900  -31.109  -31.261  -31.390  -31.497  -31.559  -31.558  -31.508  -31.459  -31.462  -31.531  -31.628  -31.723  -31.769  -31.747  -31.706  -31.712  -31.806  -31.925  -31.950  -31.840  -31.642  -31.458  -31.328  -31.170  -30.778  -29.929  -28.457  -26.342  -23.694  -20.725  -17.677  -14.808  -12.328  -10.440   -9.267   -9.192
-108.452 -106.546 -101.897  -94.334  -84.215  -72.556  -60.804  -50.312  -42.013  -36.838  -36.491  -43.561  -59.642  -82.303 -105.830 -126.212 -142.551 -154.265 -160.205 -159.260 -151.073 -136.835 -118.157  -95.719  -71.812  -51.575  -38.697  -32.616  -30.572  -30.208  -30.293  -30.371  -30.332  -30.209  -30.065  -29.986  -29.987  -30.032  -30.008  -29.814  -29.406  -28.807  -28.111  -27.433  -26.871  -26.480  -26.273  -26.207  -26.188  -26.139  -26.006  -25.814  -25.618  -25.497  -25.530  -25.840  -26.578  -27.796  -29.362  -31.018  -32.476  -33.565  -34.280  -34.706  -34.948  -35.097  -35.207  -35.289  -35.343  -35.363  -35.380  -35.422  -35.512  -35.651  -35.799  -35.922  -35.998  -36.023  -36.050  -36.140  -36.320  -36.507  -36.584  -36.500  -36.310  -36.128  -35.987  -35.802  -35.369  -34.483  -32.995  -30.877  -28.211  -25.193  -22.035  -18.989  -16.305  -14.247  -12.960  -12.797
-119.384 -118.039 -113.240 -105.028  -93.731  -80.266  -66.161  -53.160  -42.688  -36.018  -35.011  -42.310  -59.319  -83.055 -107.304 -128.165 -145.044 -157.124 -162.759 -160.738 -151.186 -135.926 -116.526  -93.414  -69.181  -49.286  -37.163  -31.815  -30.272  -30.163  -30.347  -30.455  -30.426  -30.306  -30.170  -30.075  -30.027  -29.997  -29.928  -29.755  -29.453  -29.041  -28.565  -28.097  -27.687  -27.380  -27.180  -27.063  -26.987  -26.898  -26.772  -26.633  -26.517  -26.490  -26.657  -27.148  -28.118  -29.623  -31.516  -33.505  -35.255  -36.562  -37.405  -37.876  -38.115  -38.231  -38.300  -38.342  -38.371  -38.390  -38.424  -38.491  -38.603  -38.754  -38.909  -39.051  -39.162  -39.242  -39.336  -39.496  -39.734  -39.966  -40.079  -40.031  -39.882  -39.732  -39.616  -39.438  -39.037  -38.240  -36.931  -35.082  -32.767  -30.112  -27.288  -24.486  -21.962  -19.973  -18.706  -18.477
-127.495 -126.211 -120.888 -111.785  -99.398  -84.651  -69.088  -54.644  -42.996  -35.512  -33.918  -40.548  -56.564  -79.245 -102.737 -122.894 -138.675 -149.434 -154.028 -151.669 -142.615 -128.137 -109.140  -86.444  -63.492  -45.547  -35.189  -30.968  -29.996  -30.121  -30.386  -30.510  -30.493  -30.398  -30.286  -30.187  -30.110  -30.033  -29.925  -29.755  -29.516  -29.226  -28.909  -28.589  -28.302  -28.062  -27.882  -27.747  -27.636  -27.530  -27.420  -27.312  -27.248  -27.295  -27.549  -28.177  -29.323  -31.042  -33.173  -35.393  -37.348  -38.805  -39.733  -40.226  -40.448  -40.536  -40.566  -40.576  -40.578  -40.580  -40.600  -40.644  -40.725  -40.843  -40.976  -41.107  -41.226  -41.332  -41.457  -41.634  -41.869  -42.088  -42.206  -42.192  -42.096  -42.002  -41.930  -41.807  -41.509  -40.906  -39.938  -38.603  -36.962  -35.072  -32.999  -30.832  -28.754  -27.020  -25.857  -25.565
-129.940 -128.408 -122.556 -112.805  -99.781  -84.494  -68.586  -54.041  -42.466  -35.032  -33.057  -38.269  -51.618  -71.200  -92.354 -110.886 -124.951 -133.978 -137.580 -135.456 -127.611 -114.415  -96.465  -75.517  -55.568  -40.938  -33.028  -30.135  -29.715  -30.027  -30.328  -30.455  -30.445  -30.378  -30.294  -30.210  -30.134  -30.054  -29.949  -29.805  -29.626  -29.432  -29.238  -29.042  -28.861  -28.702  -28.564  -28.441  -28.333  -28.230  -28.128  -28.044  -28.007  -28.083  -28.384  -29.077  -30.307  -32.124  -34.364  -36.698  -38.763  -40.306  -41.285  -41.802  -42.025  -42.100  -42.110  -42.102  -42.085  -42.072  -42.068  -42.076  -42.110  -42.175  -42.263  -42.364  -42.458  -42.548  -42.651  -42.782  -42.953  -43.106  -43.191  -43.182  -43.131  -43.084  -43.058  -43.014  -42.869  -42.564  -42.103  -41.536  -40.909  -40.193  -39.263  -38.038  -36.592  -35.191  -34.143  -33.787
-126.504 -124.657 -118.525 -108.570  -95.476  -80.424  -65.204  -51.673  -41.119  -34.335  -32.126  -35.554  -45.279  -60.257  -77.424  -93.305 -105.644 -113.506 -116.577 -114.670 -107.655  -95.698  -79.745  -62.190  -46.673  -36.085  -30.817  -29.212  -29.271  -29.707  -30.018  -30.141  -30.147  -30.107  -30.056  -30.007  -29.959  -29.911  -29.849  -29.763  -29.662  -29.564  -29.474  -29.394  -29.315  -29.239  -29.160  -29.089  -29.009  -28.925  -28.849  -28.779  -28.759  -28.843  -29.146  -29.831  -31.061  -32.866  -35.102  -37.451  -39.548  -41.143  -42.176  -42.736  -42.992  -43.080  -43.093  -43.081  -43.058  -43.035  -43.008  -42.990  -42.982  -43.002  -43.046  -43.106  -43.168  -43.221  -43.272  -43.333  -43.406  -43.467  -43.492  -43.468  -43.429  -43.410  -43.422  -43.464  -43.520  -43.622  -43.876  -44.407  -45.241  -46.177  -46.816  -46.814  -46.129  -45.078  -44.110  -43.625
-119.273 -117.106 -110.912 -101.123  -88.500  -74.389  -60.553  -48.549  -39.293  -33.242  -30.779  -32.420  -38.492  -48.454  -60.557  -72.481  -82.280  -88.791  -91.404  -89.790  -83.854  -73.999  -61.501  -48.653  -38.097  -31.443  -28.529  -27.992  -28.400  -28.901  -29.216  -29.343  -29.372  -29.366  -29.363  -29.371  -29.396  -29.422  -29.436  -29.439  -29.435  -29.443  -29.458  -29.479  -29.497  -29.499  -29.498  -29.490  -29.471  -29.443  -29.408  -29.365  -29.345  -29.415  -29.684  -30.310  -31.454  -33.162  -35.320  -37.620  -39.721  -41.369  -42.480  -43.129  -43.457  -43.601  -43.641  -43.635  -43.612  -43.583  -43.548  -43.516  -43.487  -43.485  -43.498  -43.531  -43.561  -43.587  -43.597  -43.599  -43.598  -43.578  -43.545  -43.494  -43.451  -43.439  -43.489  -43.631  -43.943  -44.597  -45.843  -47.895  -50.710  -53.821  -56.449  -57.947  -58.181  -57.555  -56.674  -55.954
-110.545 -108.167 -102.181  -92.973  -81.350  -68.620  -56.315  -45.671  -37.362  -31.693  -28.820  -28.915  -31.998  -37.676  -44.957  -52.464  -58.915  -63.381  -65.235  -64.090  -59.882  -53.079  -44.828  -36.817  -30.674  -27.182  -26.024  -26.215  -26.827  -27.354  -27.663  -27.806  -27.869  -27.915  -27.975  -28.064  -28.194  -28.341  -28.482  -28.616  -28.745  -28.882  -29.018  -29.140  -29.237  -29.320  -29.398  -29.484  -29.560  -29.621  -29.652  -29.644  -29.624  -29.655  -29.841  -30.355  -31.341  -32.889  -34.910  -37.136  -39.240  -40.964  -42.203  -42.999  -43.455  -43.689  -43.778  -43.796  -43.778  -43.749  -43.716  -43.690  -43.664  -43.658  -43.670  -43.688  -43.714  -43.736  -43.746  -43.731  -43.697  -43.645  -43.587  -43.535  -43.497  -43.499  -43.583  -43.843  -44.482  -45.828  -48.305  -52.206  -57.355  -62.921  -67.730  -70.897  -72.254  -72.281  -71.640  -70.603
-102.174  -99.810  -94.323  -86.049  -75.713  -64.410  -53.360  -43.567  -35.647  -29.902  -26.457  -25.314  -26.310  -29.012  -32.755  -36.706  -40.126  -42.490  -43.412  -42.646  -40.157  -36.278  -31.744  -27.565  -24.614  -23.242  -23.156  -23.732  -24.419  -24.930  -25.239  -25.405  -25.506  -25.596  -25.718  -25.902  -26.164  -26.477  -26.803  -27.117  -27.427  -27.727  -28.001  -28.228  -28.414  -28.570  -28.744  -28.939  -29.142  -29.324  -29.444  -29.479  -29.451  -29.415  -29.484  -29.820  -30.605  -31.939  -33.779  -35.904  -38.012  -39.841  -41.255  -42.242  -42.874  -43.230  -43.394  -43.444  -43.442  -43.421  -43.402  -43.400  -43.408  -43.431  -43.469  -43.523  -43.589  -43.658  -43.714  -43.742  -43.739  -43.716  -43.683  -43.657  -43.648  -43.675  -43.801  -44.195  -45.168  -47.210  -50.907  -56.597  -63.921  -71.697  -78.461  -83.235  -85.862  -86.818  -86.677  -85.379
 -95.156  -92.982  -88.123  -80.868  -71.797  -61.747  -51.652  -42.357  -34.481  -28.426  -24.371  -22.289  -21.930  -22.851  -24.462  -26.184  -27.586  -28.422  -28.559  -27.933  -26.575  -24.675  -22.593  -20.828  -19.768  -19.553  -19.974  -20.662  -21.318  -21.801  -22.120  -22.318  -22.437  -22.525  -22.659  -22.911  -23.306  -23.796  -24.334  -24.867  -25.394  -25.886  -26.316  -26.658  -26.920  -27.152  -27.417  -27.730  -28.070  -28.382  -28.601  -28.689  -28.651  -28.532  -28.455  -28.589  -29.136  -30.223  -31.854  -33.848  -35.936  -37.860  -39.445  -40.635  -41.448  -41.936  -42.181  -42.271  -42.291  -42.295  -42.319  -42.370  -42.451  -42.552  -42.683  -42.842  -43.028  -43.223  -43.403  -43.551  -43.654  -43.715  -43.756  -43.785  -43.821  -43.881  -44.052  -44.540  -45.738  -48.253  -52.761  -59.637  -68.396  -77.656  -85.842  -91.974  -95.885  -97.959  -98.550  -97.210
 -89.452  -87.497  -83.218  -76.871  -68.910  -59.970  -50.760  -41.972  -34.211  -27.945  -23.431  -20.683  -19.462  -19.313  -19.710  -20.185  -20.449  -20.387  -19.993  -19.332  -18.487  -17.555  -16.706  -16.111  -15.930  -16.186  -16.729  -17.368  -17.966  -18.458  -18.823  -19.059  -19.145  -19.147  -19.198  -19.423  -19.878  -20.509  -21.232  -21.969  -22.698  -23.372  -23.943  -24.382  -24.707  -24.982  -25.305  -25.705  -26.152  -26.574  -26.895  -27.042  -27.010  -26.818  -26.605  -26.539  -26.849  -27.690  -29.092  -30.916  -32.926  -34.874  -36.559  -37.889  -38.825  -39.407  -39.715  -39.849  -39.900  -39.956  -40.056  -40.209  -40.410  -40.664  -40.979  -41.342  -41.762  -42.200  -42.629  -43.002  -43.303  -43.521  -43.675  -43.784  -43.870  -43.958  -44.143  -44.644  -45.864  -48.425  -53.033  -60.110  -69.215  -79.000  -87.920  -95.017 -100.090 -103.350 -104.850 -103.809
 -84.562  -82.764  -78.944  -73.343  -66.365  -58.505  -50.300  -42.304  -35.024  -28.909  -24.247  -21.112  -19.296  -18.418  -18.020  -17.732  -17.320  -16.720  -15.964  -15.130  -14.317  -13.627  -13.140  -12.908  -12.966  -13.278  -13.765  -14.340  -14.945  -15.528  -16.009  -16.286  -16.295  -16.108  -15.940  -16.004  -16.389  -17.046  -17.855  -18.708  -19.552  -20.323  -20.974  -21.454  -21.789  -22.065  -22.387  -22.804  -23.288  -23.773  -24.161  -24.369  -24.359  -24.133  -23.822  -23.607  -23.724  -24.345  -25.508  -27.119  -28.966  -30.810  -32.456  -33.782  -34.737  -35.336  -35.662  -35.821  -35.928  -36.064  -36.268  -36.564  -36.952  -37.439  -38.030  -38.728  -39.515  -40.343  -41.158  -41.890  -42.484  -42.935  -43.247  -43.454  -43.587  -43.697  -43.863  -44.280  -45.295  -47.466  -51.444  -57.697  -65.998  -75.263  -84.116  -91.634  -97.552 -101.876 -104.342 -103.902
 -80.159  -78.450  -74.973  -69.991  -63.897  -57.125  -50.076  -43.149  -36.732  -31.176  -26.731  -23.470  -21.254  -19.803  -18.777  -17.900  -16.996  -15.980  -14.883  -13.749  -12.684  -11.792  -11.169  -10.836  -10.798  -10.995  -11.375  -11.926  -12.625  -13.389  -14.061  -14.423  -14.339  -13.920  -13.450  -13.235  -13.429  -13.963  -14.709  -15.525  -16.336  -17.083  -17.689  -18.109  -18.383  -18.601  -18.859  -19.207  -19.645  -20.111  -20.510  -20.756  -20.764  -20.538  -20.185  -19.882  -19.860  -20.296  -21.227  -22.571  -24.147  -25.751  -27.201  -28.378  -29.217  -29.742  -30.038  -30.214  -30.376  -30.602  -30.940  -31.408  -32.018  -32.791  -33.737  -34.863  -36.123  -37.465  -38.791  -39.985  -40.961  -41.692  -42.194  -42.502  -42.685  -42.796  -42.911  -43.177  -43.864  -45.384  -48.275  -53.004  -59.579  -67.341  -75.258  -82.528  -88.806  -93.868  -97.151  -97.463
 -76.207  -74.550  -71.333  -66.853  -61.541  -55.791  -49.910  -44.164  -38.795  -34.035  -30.047  -26.878  -24.441  -22.555  -21.007  -19.620  -18.264  -16.869  -15.412  -13.921  -12.480  -11.224  -10.270   -9.658   -9.393   -9.426   -9.714  -10.272  -11.084  -12.055  -12.929  -13.407  -13.308  -12.727  -12.012  -11.529  -11.470  -11.791  -12.346  -12.983  -13.604  -14.151  -14.575  -14.841  -14.988  -15.091  -15.231  -15.452  -15.765  -16.126  -16.455  -16.670  -16.672  -16.447  -16.081  -15.745  -15.629  -15.899  -16.587  -17.620  -18.845  -20.107  -21.245  -22.157  -22.796  -23.183  -23.419  -23.593  -23.801  -24.112  -24.568  -25.192  -26.021  -27.078  -28.378  -29.930  -31.684  -33.557  -35.418  -37.099  -38.479  -39.491  -40.163  -40.560  -40.773  -40.866  -40.912  -41.016  -41.356  -42.215  -43.968  -46.998  -51.459  -57.080  -63.279  -69.524  -75.491  -80.763  -84.532  -85.584
 -72.634  -71.034  -68.016  -63.943  -59.274  -54.395  -49.546  -44.878  -40.515  -36.563  -33.102  -30.140  -27.616  -25.436  -23.469  -21.632  -19.865  -18.119  -16.354  -14.571  -12.844  -11.295  -10.063   -9.236   -8.793   -8.678   -8.875   -9.405  -10.263  -11.338  -12.343  -12.934  -12.905  -12.343  -11.577  -10.970  -10.729  -10.834  -11.142  -11.518  -11.865  -12.127  -12.278  -12.321  -12.301  -12.277  -12.276  -12.347  -12.482  -12.674  -12.863  -12.978  -12.929  -12.693  -12.328  -11.954  -11.747  -11.836  -12.261  -12.967  -13.840  -14.741  -15.543  -16.161  -16.570  -16.811  -16.958  -17.111  -17.333  -17.684  -18.201  -18.917  -19.880  -21.129  -22.670  -24.504  -26.594  -28.853  -31.113  -33.162  -34.830  -36.035  -36.811  -37.254  -37.465  -37.520  -37.485  -37.436  -37.500  -37.842  -38.703  -40.329  -42.893  -46.349  -50.489  -55.094  -59.987  -64.721  -68.403  -69.958
 -69.050  -67.512  -64.677  -60.947  -56.810  -52.637  -48.614  -44.814  -41.268  -38.000  -35.012  -32.282  -29.762  -27.389  -25.119  -22.923  -20.819  -18.805  -16.867  -14.994  -13.221  -11.663  -10.434   -9.589   -9.110   -8.946   -9.087   -9.542  -10.318  -11.315  -12.269  -12.884  -12.968  -12.554  -11.922  -11.377  -11.093  -11.068  -11.196  -11.343  -11.433  -11.427  -11.310  -11.143  -10.959  -10.816  -10.707  -10.633  -10.606  -10.614  -10.634  -10.623  -10.507  -10.247   -9.864   -9.452   -9.130   -9.019   -9.195   -9.626  -10.213  -10.847  -11.396  -11.786  -12.008  -12.110  -12.164  -12.250  -12.423  -12.723  -13.196  -13.887  -14.848  -16.098  -17.643  -19.478  -21.582  -23.878  -26.193  -28.304  -30.005  -31.209  -31.963  -32.385  -32.564  -32.564  -32.444  -32.268  -32.145  -32.171  -32.480  -33.187  -34.406  -36.184  -38.507  -41.385  -44.789  -48.377  -51.379  -53.026
 -64.802  -63.322  -60.701  -57.320  -53.669  -50.081  -46.712  -43.581  -40.660  -37.922  -35.328  -32.831  -30.390  -27.960  -25.531  -23.158  -20.895  -18.813  -16.942  -15.269  -13.803  -12.596  -11.691  -11.118  -10.845  -10.816  -11.005  -11.404  -12.011  -12.747  -13.451  -13.902  -13.964  -13.659  -13.180  -12.749  -12.490  -12.427  -12.452  -12.466  -12.392  -12.200  -11.899  -11.551  -11.241  -10.986  -10.776  -10.585  -10.416  -10.276  -10.175  -10.083   -9.933   -9.681   -9.318   -8.878   -8.455   -8.189   -8.176   -8.452   -8.921   -9.452   -9.887  -10.157  -10.263  -10.253  -10.206  -10.183  -10.223  -10.372  -10.688  -11.239  -12.048  -13.107  -14.378  -15.866  -17.567  -19.429  -21.316  -23.010  -24.346  -25.268  -25.837  -26.146  -26.255  -26.206  -26.025  -25.780  -25.563  -25.442  -25.483  -25.713  -26.171  -26.907  -28.011  -29.594  -31.697  -34.095  -36.218  -37.682
 -59.407  -57.974  -55.633  -52.680  -49.545  -46.510  -43.704  -41.118  -38.690  -36.375  -34.131  -31.908  -29.662  -27.388  -25.094  -22.863  -20.797  -19.021  -17.587  -16.497  -15.718  -15.221  -14.987  -15.003  -15.227  -15.591  -16.043  -16.535  -17.010  -17.428  -17.686  -17.706  -17.435  -16.938  -16.344  -15.822  -15.481  -15.317  -15.250  -15.170  -15.004  -14.692  -14.242  -13.723  -13.214  -12.758  -12.351  -11.976  -11.630  -11.342  -11.136  -11.014  -10.903  -10.738  -10.461  -10.070   -9.629   -9.302   -9.242   -9.509  -10.023  -10.599  -11.058  -11.306  -11.358  -11.281  -11.138  -10.984  -10.872  -10.840  -10.960  -11.314  -11.899  -12.654  -13.508  -14.427  -15.407  -16.423  -17.387  -18.180  -18.716  -19.030  -19.200  -19.290  -19.306  -19.215  -19.016  -18.768  -18.549  -18.429  -18.412  -18.483  -18.624  -18.899  -19.424  -20.356  -21.747  -23.416  -24.946  -26.205
 -53.036  -51.664  -49.711  -47.291  -44.744  -42.294  -40.030  -37.937  -35.969  -34.072  -32.232  -30.417  -28.622  -26.850  -25.138  -23.575  -22.281  -21.355  -20.872  -20.794  -21.061  -21.597  -22.345  -23.267  -24.305  -25.402  -26.435  -27.283  -27.821  -27.974  -27.691  -26.988  -25.948  -24.705  -23.461  -22.386  -21.587  -21.071  -20.754  -20.502  -20.194  -19.729  -19.052  -18.220  -17.308  -16.387  -15.492  -14.662  -13.916  -13.326  -12.916  -12.685  -12.571  -12.483  -12.313  -12.023  -11.662  -11.389  -11.392  -11.748  -12.368  -13.041  -13.551  -13.819  -13.865  -13.760  -13.566  -13.336  -13.117  -12.966  -12.977  -13.208  -13.628  -14.144  -14.631  -15.010  -15.257  -15.328  -15.180  -14.791  -14.248  -13.706  -13.305  -13.078  -12.940  -12.798  -12.617  -12.420  -12.277  -12.257  -12.339  -12.461  -12.609  -12.826  -13.263  -14.108  -15.381  -16.896  -18.252  -19.421
 -46.713  -45.459  -43.977  -42.183  -40.296  -38.486  -36.818  -35.281  -33.861  -32.529  -31.297  -30.184  -29.225  -28.461  -27.933  -27.711  -27.850  -28.401  -29.359  -30.681  -32.273  -34.063  -36.000  -38.060  -40.196  -42.318  -44.239  -45.736  -46.582  -46.632  -45.831  -44.235  -42.035  -39.506  -36.967  -34.710  -32.914  -31.622  -30.743  -30.092  -29.468  -28.672  -27.583  -26.195  -24.583  -22.833  -21.047  -19.327  -17.783  -16.510  -15.549  -14.909  -14.525  -14.283  -14.063  -13.771  -13.448  -13.210  -13.252  -13.637  -14.265  -14.930  -15.429  -15.673  -15.704  -15.587  -15.390  -15.164  -14.949  -14.813  -14.855  -15.108  -15.520  -15.961  -16.288  -16.398  -16.221  -15.668  -14.683  -13.317  -11.780  -10.398   -9.386   -8.766   -8.413   -8.179   -7.974   -7.822   -7.785   -7.903   -8.183   -8.528   -8.886   -9.287   -9.887  -10.898  -12.344  -13.992  -15.426  -16.566
 -41.805  -40.751  -39.774  -38.640  -37.466  -36.375  -35.431  -34.644  -34.008  -33.532  -33.263  -33.268  -33.638  -34.437  -35.708  -37.413  -39.500  -41.893  -44.525  -47.333  -50.261  -53.287  -56.411  -59.654  -62.973  -66.229  -69.164  -71.450  -72.780  -72.931  -71.805  -69.456  -66.097  -62.109  -57.958  -54.095  -50.855  -48.369  -46.563  -45.201  -43.989  -42.635  -40.942  -38.827  -36.320  -33.519  -30.564  -27.638  -24.894  -22.470  -20.454  -18.867  -17.659  -16.746  -16.004  -15.332  -14.713  -14.260  -14.092  -14.247  -14.639  -15.082  -15.395  -15.528  -15.497  -15.355  -15.176  -14.999  -14.857  -14.828  -14.982  -15.349  -15.856  -16.373  -16.771  -16.945  -16.797  -16.175  -14.981  -13.251  -11.250   -9.375   -7.925   -6.968   -6.360   -5.955   -5.665   -5.484   -5.507   -5.788   -6.326   -7.007   -7.685   -8.346   -9.117  -10.220  -11.723  -13.395  -14.824  -15.888
 -39.153  -38.339  -37.856  -37.391  -36.993  -36.749  -36.729  -36.943  -37.394  -38.097  -39.125  -40.592  -42.636  -45.338  -48.659  -52.454  -56.496  -60.588  -64.620  -68.568  -72.471  -76.403  -80.451  -84.665  -88.993  -93.229  -97.041 -100.039 -101.883 -102.327 -101.244  -98.652  -94.730  -89.842  -84.504  -79.285  -74.667  -70.908  -68.003  -65.718  -63.716  -61.650  -59.264  -56.423  -53.101  -49.377  -45.389  -41.300  -37.281  -33.471  -29.990  -26.908  -24.229  -21.929  -19.928  -18.159  -16.609  -15.360  -14.478  -13.969  -13.748  -13.668  -13.593  -13.469  -13.293  -13.098  -12.900  -12.736  -12.647  -12.702  -12.954  -13.407  -13.990  -14.598  -15.158  -15.595  -15.800  -15.608  -14.836  -13.461  -11.683   -9.883   -8.367   -7.251   -6.448   -5.839   -5.385   -5.120   -5.161   -5.601   -6.426   -7.470   -8.480   -9.330  -10.108  -11.037  -12.242  -13.588  -14.752  -15.621
 -38.984  -38.412  -38.404  -38.602  -39.034  -39.756  -40.803  -42.174  -43.844  -45.821  -48.194  -51.121  -54.759  -59.163  -64.218  -69.631  -75.054  -80.226  -85.049  -89.585  -93.988  -98.432 -103.068 -107.960 -113.017 -117.969 -122.428 -125.988 -128.313 -129.174 -128.456 -126.171 -122.464 -117.635 -112.126 -106.484 -101.221  -96.689  -92.967  -89.883  -87.128  -84.378  -81.375  -77.975  -74.131  -69.876  -65.293  -60.480  -55.538  -50.554  -45.620  -40.826  -36.257  -31.967  -27.985  -24.325  -21.053  -18.253  -15.980  -14.226  -12.932  -11.986  -11.284  -10.754  -10.329   -9.996   -9.717   -9.497   -9.382   -9.416   -9.629  -10.025  -10.560  -11.168  -11.822  -12.493  -13.108  -13.517  -13.492  -12.922  -11.875  -10.632   -9.445   -8.430   -7.560   -6.814   -6.223   -5.884   -5.943   -6.512   -7.558   -8.865  -10.091  -10.981  -11.563  -12.056  -12.664  -13.385  -14.038  -14.651
 -41.808  -41.464  -41.873  -42.673  -43.876  -45.497  -47.527  -49.916  -52.604  -55.581  -58.952  -62.888  -67.557  -72.983  -78.986  -85.202  -91.235  -96.826 -101.920 -106.650 -111.249 -115.963 -120.982 -126.370 -132.009 -137.589 -142.691 -146.880 -149.793 -151.188 -150.963 -149.169 -146.005 -141.768 -136.850 -131.681 -126.683 -122.165 -118.229 -114.775 -111.570 -108.362 -104.950 -101.217  -97.130  -92.696  -87.940  -82.877  -77.503  -71.811  -65.823  -59.598  -53.237  -46.871  -40.637  -34.672  -29.138  -24.179  -19.913  -16.379  -13.564  -11.401   -9.823   -8.713   -7.938   -7.398   -6.985   -6.660   -6.441   -6.346   -6.403   -6.633   -6.995   -7.475   -8.060   -8.784   -9.610  -10.444  -11.067  -11.303  -11.111  -10.618   -9.960   -9.244   -8.496   -7.769   -7.156   -6.813   -6.900   -7.517   -8.634  -10.003  -11.203  -11.950  -12.212  -12.196  -12.164  -12.218  -12.348  -12.706
 -48.723  -48.628  -49.329  -50.522  -52.215  -54.396  -57.007  -59.941  -63.123  -66.534  -70.274  -74.522  -79.431  -85.027  -91.116  -97.342 -103.333 -108.851 -113.871 -118.549 -123.151 -127.950 -133.161 -138.860 -144.939 -151.099 -156.918 -161.930 -165.694 -167.894 -168.405 -167.294 -164.813 -161.331 -157.243 -152.922 -148.673 -144.699 -141.055 -137.660 -134.352 -130.958 -127.347 -123.450 -119.253 -114.764 -109.977 -104.850  -99.307  -93.264  -86.663  -79.507  -71.869  -63.894  -55.781  -47.744  -40.033  -32.867  -26.434  -20.861  -16.230  -12.575   -9.882   -8.019   -6.783   -5.958   -5.368   -4.917   -4.578   -4.358   -4.270   -4.314   -4.492   -4.769   -5.184   -5.775   -6.558   -7.472   -8.374   -9.083   -9.501   -9.613   -9.476   -9.134   -8.627   -8.053   -7.550   -7.281   -7.391   -7.958   -8.938  -10.079  -11.023  -11.481  -11.420  -11.043  -10.606  -10.253  -10.077  -10.305
 -60.025  -60.297  -61.121  -62.402  -64.176  -66.424  -69.051  -71.947  -75.020  -78.255  -81.737  -85.628  -90.070  -95.095 -100.553 -106.151 -111.578 -116.631 -121.286 -125.685 -130.069 -134.699 -139.777 -145.382 -151.432 -157.670 -163.737 -169.215 -173.698 -176.889 -178.611 -178.862 -177.808 -175.707 -172.909 -169.753 -166.510 -163.322 -160.221 -157.123 -153.922 -150.499 -146.789 -142.771 -138.455 -133.859 -128.967 -123.717 -118.004 -111.707 -104.729  -97.029  -88.654  -79.732  -70.465  -61.093  -51.865  -43.020  -34.770  -27.318  -20.859  -15.593  -11.594   -8.775   -6.896   -5.664   -4.833   -4.244   -3.827   -3.558   -3.418   -3.382   -3.445   -3.570   -3.815   -4.206   -4.787   -5.554   -6.403   -7.200   -7.841   -8.262   -8.450   -8.405   -8.165   -7.803   -7.475   -7.297   -7.381   -7.777   -8.425   -9.139   -9.657   -9.774   -9.494   -9.015   -8.522   -8.165   -7.988   -8.238
 -73.700  -74.486  -75.362  -76.544  -78.121  -80.080  -82.342  -84.800  -87.375  -90.050  -92.894  -96.036  -99.601 -103.631 -108.036 -112.617 -117.146 -121.465 -125.544 -129.481 -133.445 -137.630 -142.192 -147.193 -152.564 -158.102 -163.541 -168.608 -173.102 -176.896 -179.905 -182.038 -183.233 -183.477 -182.854 -181.545 -179.762 -177.654 -175.287 -172.635 -169.636 -166.250 -162.458 -158.282 -153.768 -148.950 -143.823 -138.330 -132.367 -125.811 -118.561 -110.571 -101.874  -92.592  -82.913  -73.047  -63.195  -53.521  -44.181  -35.377  -27.396  -20.560  -15.120  -11.105   -8.307   -6.441   -5.232   -4.466   -4.000   -3.772   -3.684   -3.680   -3.700   -3.724   -3.800   -3.998   -4.392   -4.958   -5.660   -6.366   -7.000   -7.491   -7.789   -7.900   -7.824   -7.648   -7.451   -7.326   -7.330   -7.475   -7.704   -7.914   -7.962   -7.760   -7.385   -7.008   -6.776   -6.712   -6.776   -7.160
 -86.261  -87.620  -88.595  -89.698  -91.066  -92.700  -94.539  -96.499  -98.514 -100.571 -102.726 -105.078 -107.727 -110.725 -114.035 -117.546 -121.116 -124.636 -128.070 -131.454 -134.870 -138.415 -142.173 -146.179 -150.385 -154.672 -158.892 -162.955 -166.861 -170.674 -174.432 -178.080 -181.444 -184.275 -186.316 -187.449 -187.661 -187.035 -185.665 -183.618 -180.932 -177.628 -173.760 -169.389 -164.609 -159.483 -154.034 -148.238 -142.017 -135.270 -127.907 -119.894 -111.266 -102.142  -92.686  -83.065  -73.395  -63.733  -54.123  -44.681  -35.695  -27.578  -20.718  -15.302  -11.291   -8.494   -6.658   -5.576   -5.050   -4.890   -4.935   -5.007   -5.004   -4.885   -4.735   -4.705   -4.899   -5.340   -5.951   -6.604   -7.206   -7.685   -7.997   -8.127   -8.106   -8.011   -7.869   -7.734   -7.620   -7.500   -7.341   -7.096   -6.742   -6.314   -5.939   -5.798   -5.961   -6.337   -6.758   -7.319
 -94.935  -96.755  -97.900  -99.044 -100.346 -101.811 -103.387 -105.008 -106.626 -108.231 -109.871 -111.624 -113.576 -115.782 -118.247 -120.922 -123.726 -126.589 -129.464 -132.332 -135.197 -138.064 -140.937 -143.806 -146.643 -149.421 -152.157 -154.948 -157.978 -161.436 -165.428 -169.907 -174.687 -179.438 -183.765 -187.267 -189.652 -190.796 -190.703 -189.489 -187.267 -184.157 -180.272 -175.738 -170.688 -165.239 -159.481 -153.436 -147.064 -140.297 -133.067 -125.344 -117.167 -108.635  -99.881  -91.012  -82.065  -72.996  -63.740  -54.322  -44.955  -36.043  -28.043  -21.280  -15.917  -11.952   -9.278   -7.720   -7.023   -6.905   -7.058   -7.184   -7.076   -6.692   -6.193   -5.801   -5.744   -6.048   -6.607   -7.267   -7.902   -8.383   -8.672   -8.766   -8.722   -8.610   -8.464   -8.286   -8.055   -7.720   -7.285   -6.755   -6.175   -5.681   -5.446   -5.644   -6.265   -7.129   -7.944   -8.694
 -98.455 -100.495 -101.820 -103.110 -104.498 -105.972 -107.483 -108.979 -110.421 -111.808 -113.179 -114.604 -116.166 -117.929 -119.922 -122.129 -124.506 -126.993 -129.528 -132.052 -134.512 -136.849 -138.997 -140.893 -142.493 -143.816 -145.001 -146.328 -148.177 -150.908 -154.711 -159.521 -165.059 -170.935 -176.709 -181.910 -186.091 -188.912 -190.219 -190.032 -188.502 -185.777 -182.027 -177.437 -172.200 -166.526 -160.563 -154.403 -148.057 -141.487 -134.641 -127.486 -120.047 -112.387 -104.586  -96.688  -88.664  -80.414  -71.818  -62.841  -53.620  -44.497  -35.888  -28.182  -21.686  -16.604  -13.020  -10.840   -9.823   -9.601   -9.730   -9.800   -9.495   -8.757   -7.779   -6.921   -6.480   -6.533   -6.973   -7.606   -8.235   -8.716   -8.964   -8.994   -8.888   -8.720   -8.542   -8.324   -8.021   -7.587   -7.047   -6.452   -5.918   -5.608   -5.727   -6.398   -7.553   -8.912  -10.109  -11.010
 -96.962  -98.949 -100.409 -101.878 -103.427 -105.021 -106.605 -108.136 -109.582 -110.945 -112.261 -113.603 -115.060 -116.708 -118.590 -120.708 -123.022 -125.462 -127.947 -130.386 -132.691 -134.766 -136.503 -137.790 -138.544 -138.776 -138.662 -138.579 -139.062 -140.663 -143.740 -148.316 -154.075 -160.515 -167.089 -173.283 -178.619 -182.672 -185.159 -185.993 -185.248 -183.062 -179.617 -175.134 -169.881 -164.131 -158.123 -152.012 -145.867 -139.680 -133.403 -126.989 -120.424 -113.721 -106.897  -99.940  -92.784  -85.318  -77.421  -69.042  -60.286  -51.418  -42.786  -34.733  -27.620  -21.771  -17.416  -14.576  -13.061  -12.485  -12.380  -12.236  -11.668  -10.557   -9.130   -7.795   -6.917   -6.609   -6.780   -7.221   -7.726   -8.123   -8.303   -8.266   -8.101   -7.891   -7.683   -7.453   -7.152   -6.748   -6.300   -5.891   -5.664   -5.801   -6.469   -7.732   -9.429  -11.237  -12.743  -13.747
 -91.981  -93.715  -95.221  -96.821  -98.511 -100.233 -101.930 -103.560 -105.097 -106.541 -107.931 -109.347 -110.893 -112.661 -114.703 -117.017 -119.552 -122.218 -124.905 -127.501 -129.893 -131.971 -133.603 -134.652 -134.997 -134.620 -133.678 -132.559 -131.850 -132.207 -134.154 -137.894 -143.244 -149.714 -156.661 -163.435 -169.466 -174.288 -177.569 -179.162 -179.082 -177.421 -174.351 -170.104 -164.977 -159.309 -153.399 -147.478 -141.662 -135.969 -130.344 -124.711 -119.003 -113.176 -107.194 -101.005  -94.540  -87.708  -80.414  -72.631  -64.452  -56.099  -47.838  -39.953  -32.752  -26.569  -21.705  -18.268  -16.142  -15.027  -14.490  -14.002  -13.150  -11.758  -10.010   -8.322   -7.066   -6.370   -6.167   -6.280   -6.531   -6.751   -6.825   -6.736   -6.541   -6.322   -6.114   -5.912   -5.691   -5.447   -5.242   -5.195   -5.449   -6.161   -7.438   -9.243  -11.370  -13.472  -15.122  -16.164
 -86.007  -87.451  -88.917  -90.547  -92.286  -94.064  -95.826  -97.528  -99.146 -100.680 -102.172 -103.710 -105.414 -107.390 -109.695 -112.316 -115.176 -118.166 -121.151 -123.999 -126.585 -128.795 -130.495 -131.530 -131.768 -131.159 -129.836 -128.153 -126.678 -126.073 -126.931 -129.602 -134.093 -140.066 -146.909 -153.882 -160.285 -165.557 -169.320 -171.402 -171.775 -170.523 -167.792 -163.813 -158.905 -153.429 -147.740 -142.112 -136.701 -131.534 -126.544 -121.614 -116.631 -111.505 -106.164 -100.543  -94.585  -88.226  -81.412  -74.138  -66.501  -58.694  -50.929  -43.424  -36.426  -30.228  -25.113  -21.227  -18.534  -16.848  -15.819  -14.997  -13.914  -12.354  -10.448   -8.576   -7.073   -6.077   -5.523   -5.304   -5.266   -5.278   -5.246   -5.126   -4.939   -4.735   -4.559   -4.416   -4.321   -4.272   -4.352   -4.682   -5.406   -6.611   -8.346  -10.518  -12.881  -15.078  -16.756  -17.796
 -81.299  -82.620  -84.011  -85.576  -87.257  -88.989  -90.718  -92.408  -94.031  -95.588  -97.125  -98.729 -100.530 -102.637 -105.100 -107.900 -110.947 -114.118 -117.266 -120.253 -122.953 -125.250 -127.011 -128.085 -128.335 -127.703 -126.301 -124.450 -122.667 -121.571 -121.740 -123.576 -127.207 -132.439 -138.776 -145.515 -151.922 -157.364 -161.400 -163.783 -164.453 -163.471 -160.983 -157.233 -152.557 -147.341 -141.951 -136.683 -131.694 -127.009 -122.545 -118.164 -113.724 -109.113 -104.246  -99.057  -93.500  -87.537  -81.132  -74.297  -67.124  -59.783  -52.453  -45.311  -38.557  -32.451  -27.264  -23.146  -20.124  -18.076  -16.732  -15.672  -14.449  -12.821  -10.886   -8.961   -7.355   -6.195   -5.453   -5.020   -4.808   -4.690   -4.586   -4.450   -4.274   -4.090   -3.938   -3.844   -3.823   -3.910   -4.162   -4.721   -5.681   -7.140   -9.084  -11.399  -13.813  -15.998  -17.665  -18.808
